;FLAVOR:Marlin
;TIME:2761
;Filament used: 0.485162m
;Layer height: 0.12
;MINX:134.973
;MINY:135.501
;MINZ:0.12
;MAXX:165.027
;MAXY:164.499
;MAXZ:30
;Generated with Cura_SteamEngine master
M140 S55
M105
M190 S55
M104 S210
M105
M109 S210
M82 ;absolute extrusion mode
M201 X500.00 Y500.00 Z100.00 E5000.00 ;Setup machine max acceleration
M203 X500.00 Y500.00 Z10.00 E50.00 ;Setup machine max feedrate
M204 P500.00 R1000.00 T500.00 ;Setup Print/Retract/Travel acceleration
M205 X8.00 Y8.00 Z0.40 E5.00 ;Setup Jerk
M220 S100 ;Reset Feedrate
M221 S100 ;Reset Flowrate

G28 ;safe homing
G90 ;absolute positioning
G0 X0 Y0 F5000.0 ; move to bottom-left corner for nozzle wipe
M220 S100 ;Reset Feedrate

G92 E0 ;Reset Extruder
G1 Z2.0 F3000 ;Move Z Axis up
G1 X10.1 Y20 Z0.28 F5000.0 ;Move to start position
G1 X10.1 Y200.0 Z0.28 F1500.0 E15 ;Draw the first line
G1 X10.4 Y200.0 Z0.28 F5000.0 ;Move to side a little
G1 X10.4 Y20 Z0.28 F1500.0 E30 ;Draw the second line
G92 E0 ;Reset Extruder
G1 Z2.0 F3000 ;Move Z Axis up
G92 E0
G92 E0
G1 F2700 E-5
;LAYER_COUNT:250
;LAYER:0
M107
G0 F6000 X140.261 Y138.679 Z0.12
;TYPE:SKIRT
G1 F2700 E0
G1 F1200 X140.956 Y138.049 E0.01872
G1 X141.703 Y137.481 E0.03745
G1 X142.495 Y136.979 E0.05616
G1 X143.327 Y136.546 E0.07488
G1 X144.192 Y136.185 E0.09358
G1 X145.086 Y135.9 E0.11231
G1 X146 Y135.692 E0.13101
G1 X146.929 Y135.562 E0.14973
G1 X147.825 Y135.512 E0.16764
G1 X148.673 Y135.501 E0.18457
G1 X151.313 Y135.501 E0.23725
G1 X152.17 Y135.512 E0.25435
G1 X153.106 Y135.565 E0.27306
G1 X154.035 Y135.698 E0.29179
G1 X154.949 Y135.91 E0.31051
G1 X155.841 Y136.199 E0.32923
G1 X156.705 Y136.562 E0.34793
G1 X157.536 Y136.998 E0.36666
G1 X158.326 Y137.503 E0.38537
G1 X159.071 Y138.074 E0.4041
G1 X159.764 Y138.705 E0.4228
G1 X160.4 Y139.394 E0.44151
G1 X160.976 Y140.134 E0.46023
G1 X161.461 Y140.878 E0.47795
G1 X161.923 Y141.656 E0.49601
G1 X163.278 Y144.006 E0.55014
G1 X163.631 Y144.638 E0.56459
G1 X164.053 Y145.476 E0.58331
G1 X164.402 Y146.346 E0.60202
G1 X164.675 Y147.243 E0.62073
G1 X164.872 Y148.16 E0.63945
G1 X164.989 Y149.091 E0.65817
G1 X165.027 Y150.028 E0.67689
G1 X164.985 Y150.965 E0.69561
G1 X164.863 Y151.895 E0.71432
G1 X164.662 Y152.811 E0.73304
G1 X164.384 Y153.707 E0.75176
G1 X164.031 Y154.575 E0.77046
G1 X163.635 Y155.357 E0.78795
G1 X163.208 Y156.122 E0.80544
G1 X161.941 Y158.316 E0.856
G1 X161.467 Y159.113 E0.8745
G1 X160.954 Y159.898 E0.89321
G1 X160.375 Y160.636 E0.91193
G1 X159.736 Y161.323 E0.93066
G1 X159.041 Y161.952 E0.94936
G1 X158.294 Y162.52 E0.96809
G1 X157.502 Y163.022 E0.9868
G1 X156.67 Y163.455 E1.00552
G1 X155.804 Y163.815 E1.02424
G1 X154.911 Y164.101 E1.04295
G1 X153.997 Y164.309 E1.06166
G1 X153.068 Y164.438 E1.08037
G1 X152.174 Y164.488 E1.09824
G1 X151.327 Y164.499 E1.11515
G1 X148.53 Y164.498 E1.17096
G1 X147.83 Y164.488 E1.18493
G1 X146.894 Y164.435 E1.20364
G1 X145.965 Y164.302 E1.22237
G1 X145.051 Y164.09 E1.24109
G1 X144.159 Y163.801 E1.25981
G1 X143.295 Y163.438 E1.27851
G1 X142.464 Y163.002 E1.29724
G1 X141.674 Y162.497 E1.31595
G1 X140.929 Y161.926 E1.33468
G1 X140.236 Y161.295 E1.35338
G1 X139.6 Y160.606 E1.37209
G1 X139.024 Y159.866 E1.39081
G1 X138.54 Y159.123 E1.4085
G1 X138.06 Y158.318 E1.42721
G1 X136.722 Y155.994 E1.48072
G1 X136.369 Y155.362 E1.49517
G1 X135.947 Y154.524 E1.51389
G1 X135.598 Y153.654 E1.5326
G1 X135.325 Y152.757 E1.55131
G1 X135.128 Y151.84 E1.57003
G1 X135.011 Y150.909 E1.58875
G1 X134.973 Y149.972 E1.60747
G1 X135.015 Y149.035 E1.62619
G1 X135.137 Y148.105 E1.6449
G1 X135.338 Y147.189 E1.66362
G1 X135.616 Y146.293 E1.68234
G1 X135.969 Y145.425 E1.70104
G1 X136.365 Y144.643 E1.71853
G1 X136.792 Y143.879 E1.736
G1 X138.15 Y141.528 E1.79018
G1 X138.53 Y140.889 E1.80502
G1 X139.044 Y140.104 E1.82374
G1 X139.622 Y139.365 E1.84246
G1 X140.261 Y138.679 E1.86117
G0 F6000 X140.578 Y138.928
G1 F1200 X141.264 Y138.314 E1.87954
G1 X142.001 Y137.762 E1.89792
G1 X142.782 Y137.276 E1.91628
G1 X143.603 Y136.859 E1.93465
G1 X144.458 Y136.515 E1.95304
G1 X145.338 Y136.247 E1.9714
G1 X146.239 Y136.056 E1.98978
G1 X147.153 Y135.944 E2.00816
G1 X147.831 Y135.912 E2.0217
G1 X148.673 Y135.901 E2.03851
G1 X151.313 Y135.901 E2.09119
G1 X152.164 Y135.912 E2.10818
G1 X153.084 Y135.965 E2.12657
G1 X153.995 Y136.098 E2.14494
G1 X154.891 Y136.309 E2.16331
G1 X155.765 Y136.597 E2.18167
G1 X156.611 Y136.96 E2.20004
G1 X157.423 Y137.395 E2.21843
G1 X158.193 Y137.899 E2.23679
G1 X158.917 Y138.468 E2.25517
G1 X159.589 Y139.097 E2.27354
G1 X160.204 Y139.783 E2.29192
G1 X160.757 Y140.519 E2.3103
G1 X161.117 Y141.083 E2.32365
G1 X161.577 Y141.855 E2.34158
G1 X162.928 Y144.201 E2.39561
G1 X163.281 Y144.833 E2.41005
G1 X163.695 Y145.656 E2.42844
G1 X164.036 Y146.511 E2.44681
G1 X164.301 Y147.393 E2.46519
G1 X164.488 Y148.294 E2.48355
G1 X164.597 Y149.208 E2.50192
G1 X164.626 Y150.128 E2.52029
G1 X164.575 Y151.047 E2.53865
G1 X164.445 Y151.959 E2.55704
G1 X164.236 Y152.855 E2.5754
G1 X163.95 Y153.73 E2.59377
G1 X163.589 Y154.577 E2.61214
G1 X163.286 Y155.163 E2.62531
G1 X162.861 Y155.922 E2.64267
G1 X161.525 Y158.235 E2.69597
G1 X161.124 Y158.909 E2.71162
G1 X160.619 Y159.679 E2.73
G1 X160.049 Y160.402 E2.74837
G1 X159.419 Y161.073 E2.76674
G1 X158.733 Y161.687 E2.78511
G1 X157.996 Y162.239 E2.80349
G1 X157.215 Y162.726 E2.82186
G1 X156.394 Y163.142 E2.84022
G1 X155.539 Y163.486 E2.85862
G1 X154.659 Y163.754 E2.87697
G1 X153.758 Y163.945 E2.89535
G1 X152.844 Y164.056 E2.91373
G1 X152.168 Y164.088 E2.92723
G1 X151.327 Y164.099 E2.94402
G1 X148.536 Y164.098 E2.99971
G1 X147.836 Y164.088 E3.01369
G1 X146.916 Y164.035 E3.03208
G1 X146.005 Y163.902 E3.05045
G1 X145.109 Y163.691 E3.06882
G1 X144.235 Y163.403 E3.08718
G1 X143.389 Y163.04 E3.10555
G1 X142.577 Y162.605 E3.12394
G1 X141.807 Y162.101 E3.1423
G1 X141.083 Y161.532 E3.16068
G1 X140.411 Y160.903 E3.17905
G1 X139.796 Y160.217 E3.19743
G1 X139.243 Y159.481 E3.2158
G1 X138.883 Y158.918 E3.22914
G1 X138.407 Y158.118 E3.24772
G1 X137.072 Y155.799 E3.30112
G1 X136.719 Y155.167 E3.31556
G1 X136.305 Y154.344 E3.33395
G1 X135.964 Y153.489 E3.35232
G1 X135.699 Y152.607 E3.37069
G1 X135.512 Y151.706 E3.38906
G1 X135.403 Y150.792 E3.40743
G1 X135.374 Y149.872 E3.4258
G1 X135.425 Y148.953 E3.44416
G1 X135.555 Y148.041 E3.46255
G1 X135.764 Y147.145 E3.48091
G1 X136.05 Y146.27 E3.49928
G1 X136.411 Y145.423 E3.51765
G1 X136.714 Y144.837 E3.53082
G1 X137.138 Y144.079 E3.54815
G1 X138.494 Y141.732 E3.60224
G1 X138.874 Y141.093 E3.61708
G1 X139.379 Y140.323 E3.63546
G1 X139.948 Y139.599 E3.65383
G1 X140.578 Y138.928 E3.6722
G0 F6000 X140.895 Y139.178
G1 F1200 X141.571 Y138.58 E3.69021
G1 X142.298 Y138.044 E3.70824
G1 X143.069 Y137.574 E3.72625
G1 X143.879 Y137.174 E3.74428
G1 X144.721 Y136.847 E3.76231
G1 X145.588 Y136.597 E3.78032
G1 X146.475 Y136.423 E3.79835
G1 X147.373 Y136.329 E3.81637
G1 X147.837 Y136.312 E3.82564
G1 X148.673 Y136.301 E3.84232
G1 X151.313 Y136.301 E3.89501
G1 X152.159 Y136.312 E3.91189
G1 X153.06 Y136.365 E3.9299
G1 X153.954 Y136.497 E3.94794
G1 X154.832 Y136.708 E3.96596
G1 X155.688 Y136.996 E3.98398
G1 X156.515 Y137.358 E4.002
G1 X157.307 Y137.792 E4.02002
G1 X158.057 Y138.295 E4.03804
G1 X158.76 Y138.862 E4.05606
G1 X159.411 Y139.488 E4.07409
G1 X160.003 Y140.17 E4.09211
G1 X160.532 Y140.902 E4.11013
G1 X160.774 Y141.287 E4.11921
G1 X161.23 Y142.055 E4.13703
G1 X162.579 Y144.396 E4.19095
G1 X162.932 Y145.028 E4.2054
G1 X163.337 Y145.835 E4.22342
G1 X163.669 Y146.675 E4.24144
G1 X163.926 Y147.541 E4.25947
G1 X164.105 Y148.426 E4.27749
G1 X164.204 Y149.324 E4.29551
G1 X164.225 Y150.227 E4.31354
G1 X164.165 Y151.128 E4.33156
G1 X164.025 Y152.02 E4.34958
G1 X163.808 Y152.897 E4.36761
G1 X163.513 Y153.75 E4.38562
G1 X162.937 Y154.968 E4.41251
G1 X162.515 Y155.722 E4.42975
G1 X161.181 Y158.03 E4.48295
G1 X160.78 Y158.704 E4.4986
G1 X160.284 Y159.459 E4.51663
G1 X159.724 Y160.167 E4.53464
G1 X159.103 Y160.823 E4.55267
G1 X158.426 Y161.421 E4.57069
G1 X157.699 Y161.957 E4.58872
G1 X156.928 Y162.427 E4.60674
G1 X156.118 Y162.827 E4.62477
G1 X155.276 Y163.153 E4.64279
G1 X154.409 Y163.404 E4.6608
G1 X153.522 Y163.577 E4.67883
G1 X152.624 Y163.671 E4.69685
G1 X152.162 Y163.688 E4.70608
G1 X151.327 Y163.699 E4.72274
G1 X148.541 Y163.698 E4.77834
G1 X147.841 Y163.688 E4.79231
G1 X146.94 Y163.635 E4.81032
G1 X146.046 Y163.503 E4.82836
G1 X145.168 Y163.292 E4.84638
G1 X144.312 Y163.004 E4.8644
G1 X143.485 Y162.642 E4.88242
G1 X142.693 Y162.208 E4.90044
G1 X141.943 Y161.705 E4.91846
G1 X141.24 Y161.138 E4.93648
G1 X140.589 Y160.512 E4.95451
G1 X139.997 Y159.83 E4.97253
G1 X139.468 Y159.098 E4.99055
G1 X139.227 Y158.714 E4.9996
G1 X138.754 Y157.918 E5.01808
G1 X137.421 Y155.604 E5.07137
G1 X137.068 Y154.972 E5.08582
G1 X136.663 Y154.165 E5.10383
G1 X136.331 Y153.325 E5.12186
G1 X136.074 Y152.459 E5.13989
G1 X135.895 Y151.574 E5.1579
G1 X135.796 Y150.676 E5.17593
G1 X135.775 Y149.773 E5.19396
G1 X135.835 Y148.872 E5.21198
G1 X135.975 Y147.98 E5.23
G1 X136.192 Y147.103 E5.24803
G1 X136.487 Y146.25 E5.26604
G1 X137.063 Y145.032 E5.29293
G1 X137.408 Y144.413 E5.30707
G1 X138.838 Y141.936 E5.36415
G1 X139.218 Y141.297 E5.37898
G1 X139.714 Y140.542 E5.39701
G1 X140.274 Y139.834 E5.41502
G1 X140.895 Y139.178 E5.43305
G0 F6000 X149.88 Y149.785
G1 F1200 X150.016 Y149.754 E5.43583
G1 X150.169 Y149.822 E5.43918
G1 X150.245 Y149.968 E5.44246
G1 X150.201 Y150.142 E5.44604
G1 X150.065 Y150.238 E5.44936
G1 X149.889 Y150.22 E5.45289
G1 X149.772 Y150.093 E5.45634
G1 X149.766 Y149.928 E5.45964
G1 X149.88 Y149.785 E5.46328
G0 F6000 X149.68 Y149.438
G1 F1200 X149.93 Y149.357 E5.46853
G1 X150.034 Y149.352 E5.47061
G1 X150.32 Y149.438 E5.47657
G1 X150.542 Y149.646 E5.48264
G1 X150.638 Y149.892 E5.48791
G1 X150.616 Y150.194 E5.49395
G1 X150.467 Y150.447 E5.49981
G1 X150.237 Y150.603 E5.50536
G1 X149.978 Y150.647 E5.5106
G1 X149.711 Y150.58 E5.51609
G1 X149.482 Y150.388 E5.52206
G1 X149.372 Y150.156 E5.52718
G1 X149.363 Y149.889 E5.53251
G1 X149.475 Y149.622 E5.53829
G1 X149.68 Y149.438 E5.54379
G1 F2700 E0.54379
;MESH:spin_to_win_wheel_peg.stl
G0 F6000 X149.366 Y151.95
G0 X149.921 Y152.25
;TYPE:WALL-INNER
G1 F2700 E5.54379
G1 F1200 X150.235 Y152.239 E5.55006
G1 X150.545 Y152.184 E5.55634
G1 X150.843 Y152.088 E5.56259
G1 X151.126 Y151.949 E5.56888
G1 X151.387 Y151.773 E5.57516
G1 X151.62 Y151.563 E5.58142
G1 X151.821 Y151.323 E5.58767
G1 X151.99 Y151.054 E5.59401
G1 X152.139 Y150.7 E5.60167
G1 X152.218 Y150.388 E5.6081
G1 X152.252 Y149.932 E5.61722
G1 X152.218 Y149.609 E5.6237
G1 X152.141 Y149.304 E5.62998
G1 X152.023 Y149.015 E5.63621
G1 X151.865 Y148.738 E5.64257
G1 X151.622 Y148.439 E5.65026
G1 X151.387 Y148.227 E5.65658
G1 X151.126 Y148.051 E5.66286
G1 X150.843 Y147.912 E5.66915
G1 X150.545 Y147.816 E5.6754
G1 X150.242 Y147.762 E5.68154
G1 X150.072 Y147.751 E5.68494
G1 X149.765 Y147.761 E5.69107
G1 X149.455 Y147.816 E5.69735
G1 X149.157 Y147.912 E5.7036
G1 X148.874 Y148.051 E5.70989
G1 X148.613 Y148.227 E5.71618
G1 X148.38 Y148.437 E5.72244
G1 X148.179 Y148.677 E5.72868
G1 X148.01 Y148.946 E5.73502
G1 X147.861 Y149.301 E5.74271
G1 X147.783 Y149.608 E5.74903
G1 X147.75 Y149.92 E5.75529
G1 X147.76 Y150.233 E5.76154
G1 X147.815 Y150.544 E5.76784
G1 X147.912 Y150.843 E5.77411
G1 X148.049 Y151.124 E5.78035
G1 X148.227 Y151.388 E5.78671
G1 X148.491 Y151.671 E5.79443
G1 X148.741 Y151.866 E5.80076
G1 X149.014 Y152.024 E5.80705
G1 X149.304 Y152.14 E5.81328
G1 X149.608 Y152.217 E5.81954
G1 X149.921 Y152.25 E5.82582
G0 F6000 X149.935 Y151.849
;TYPE:WALL-OUTER
G1 F1200 X150.193 Y151.84 E5.83098
G1 X150.448 Y151.795 E5.83614
G1 X150.693 Y151.716 E5.84128
G1 X150.925 Y151.602 E5.84644
G1 X151.14 Y151.457 E5.85161
G1 X151.331 Y151.285 E5.85674
G1 X151.497 Y151.087 E5.8619
G1 X151.634 Y150.869 E5.86704
G1 X151.759 Y150.572 E5.87347
G1 X151.822 Y150.324 E5.87857
G1 X151.85 Y149.938 E5.8863
G1 X151.823 Y149.679 E5.89149
G1 X151.76 Y149.429 E5.89664
G1 X151.663 Y149.19 E5.90179
G1 X151.534 Y148.965 E5.90696
G1 X151.331 Y148.715 E5.91339
G1 X151.14 Y148.543 E5.91852
G1 X150.925 Y148.398 E5.92369
G1 X150.693 Y148.284 E5.92885
G1 X150.448 Y148.205 E5.93399
G1 X150.193 Y148.16 E5.93916
G1 X150.065 Y148.151 E5.94172
G1 X149.807 Y148.16 E5.94687
G1 X149.552 Y148.205 E5.95204
G1 X149.307 Y148.284 E5.95717
G1 X149.075 Y148.398 E5.96233
G1 X148.86 Y148.543 E5.96751
G1 X148.669 Y148.715 E5.97264
G1 X148.503 Y148.913 E5.97779
G1 X148.366 Y149.131 E5.98293
G1 X148.241 Y149.428 E5.98936
G1 X148.178 Y149.678 E5.99451
G1 X148.151 Y149.935 E5.99966
G1 X148.159 Y150.192 E6.00479
G1 X148.204 Y150.447 E6.00996
G1 X148.284 Y150.693 E6.01512
G1 X148.396 Y150.924 E6.02025
G1 X148.541 Y151.138 E6.02541
G1 X148.762 Y151.375 E6.03187
G1 X148.965 Y151.534 E6.03702
G1 X149.189 Y151.663 E6.04218
G1 X149.428 Y151.759 E6.04732
G1 X149.678 Y151.822 E6.05246
G1 X149.935 Y151.849 E6.05762
G0 F6000 X149.92 Y152.288
G0 X148.94 Y151.789
G0 X147.399 Y150.487
;TYPE:WALL-INNER
G1 F1200 X147.116 Y149.996 E6.06893
G1 X147.394 Y149.515 E6.08001
G1 X147.388 Y149.537 E6.08047
G1 X147.349 Y149.905 E6.08168
G1 X147.361 Y150.274 E6.08361
G1 X147.399 Y150.487 E6.08379
G0 F6000 X148.27 Y147.998
G1 F1200 X148.557 Y147.501 E6.09524
G1 X149.128 Y147.501 E6.10663
G1 X149.007 Y147.54 E6.10917
G1 X148.673 Y147.704 E6.11018
G1 X148.366 Y147.911 E6.11114
G1 X148.27 Y147.998 E6.11373
G0 F6000 X150.872 Y147.501
G1 F1200 X151.441 Y147.501 E6.12508
G1 X151.725 Y147.993 E6.13642
G1 X151.634 Y147.911 E6.13886
G1 X151.327 Y147.704 E6.1408
G1 X150.993 Y147.54 E6.14182
G1 X150.872 Y147.501 E6.14435
G0 F6000 X151.686 Y148.783
G0 X152.605 Y150.487
G1 F1200 X152.614 Y150.452 E6.14507
G1 X152.654 Y149.926 E6.1556
G1 X152.613 Y149.539 E6.16337
G1 X152.61 Y149.529 E6.16358
G1 X152.884 Y150.004 E6.16808
G1 X152.605 Y150.487 E6.17223
G0 F6000 X150.872 Y152.499
G1 F1200 X150.993 Y152.46 E6.17477
G1 X151.327 Y152.296 E6.1822
G1 X151.634 Y152.089 E6.18958
G1 X151.73 Y152.002 E6.19217
G1 X151.443 Y152.499 E6.19756
G1 X150.872 Y152.499 E6.20392
G0 F6000 X148.559 Y152.499
G1 F1200 X148.278 Y152.012 E6.21514
G1 X148.517 Y152.198 E6.21591
G1 X148.839 Y152.385 E6.2222
G1 X149.125 Y152.499 E6.22834
G1 X148.559 Y152.499 E6.23431
G0 F6000 X148.327 Y152.899
G1 F1200 X146.654 Y149.997 E6.30116
G1 X148.326 Y147.101 E6.36789
G1 X151.673 Y147.101 E6.43469
G1 X153.346 Y150.003 E6.50153
G1 X151.674 Y152.899 E6.56827
G1 X148.327 Y152.899 E6.63506
G0 F6000 X148.095 Y153.299
;TYPE:WALL-OUTER
G1 F1200 X146.192 Y149.998 E6.7111
G1 X148.095 Y146.701 E6.78707
G1 X151.905 Y146.701 E6.8631
G1 X153.808 Y150.002 E6.93914
G1 X151.905 Y153.299 E7.0151
G1 X148.095 Y153.299 E7.09114
G0 F6000 X148.367 Y152.89
G0 X149.293 Y152.687
;TYPE:SKIN
G1 F1200 X149.457 Y152.569 E7.09435
G1 X150.574 Y152.554 E7.1121
G1 X150.665 Y152.362 E7.11548
G0 F6000 X150.692 Y152.389
G0 X151.714 Y151.714
G0 X151.854 Y151.854
G1 F1200 X151.971 Y151.688 E7.11911
G1 X152.474 Y150.777 E7.13774
G1 X152.69 Y150.711 E7.14178
G0 F6000 X152.662 Y150.683
G0 X152.508 Y149.397
G0 X152.388 Y149.277
G1 F1200 X152.11 Y148.433 E7.15151
G1 X152.306 Y148.912 E7.15718
G0 F6000 X152.706 Y149.311
G0 X150.695 Y147.584
G0 X150.541 Y147.43
G1 F1200 X150.702 Y147.308 E7.16013
G1 X150.276 Y147.448 E7.16668
G1 X149.424 Y147.444 E7.17911
G1 X149.333 Y147.635 E7.1822
G0 F6000 X149.307 Y147.609
G0 X148.285 Y148.285
G0 X148.145 Y148.145
G1 F1200 X148.027 Y148.309 E7.18582
G1 X147.524 Y149.221 E7.20447
G1 X147.308 Y149.288 E7.20852
G0 F6000 X147.336 Y149.316
G0 X147.506 Y150.617
G0 X147.615 Y150.727
G1 F1200 X147.889 Y151.566 E7.21788
G1 X147.681 Y151.075 E7.22354
G0 F6000 X147.299 Y150.693
G1 F2700 E2.22354
;MESH:NONMESH
G0 F300 X147.299 Y150.693 Z0.24
G0 F6000 X148.051 Y149.364
G0 X149.475 Y149.622
;TIME_ELAPSED:26.714387
;LAYER:1
M106 S85
;TYPE:SUPPORT
G1 F2700 E7.22354
G1 F607.2 X149.68 Y149.438 E7.22904
G1 X149.93 Y149.357 E7.23428
G1 X150.034 Y149.352 E7.23636
G1 X150.32 Y149.438 E7.24232
G1 X150.542 Y149.646 E7.24839
G1 X150.638 Y149.889 E7.25361
G1 X150.616 Y150.194 E7.25971
G1 X150.467 Y150.447 E7.26557
G1 X150.237 Y150.603 E7.27111
G1 X149.978 Y150.647 E7.27636
G1 X149.711 Y150.58 E7.28185
