;FLAVOR:Marlin
;TIME:3968
;Filament used: 2.71558m
;Layer height: 0.2
;MINX:116.8
;MINY:123.15
;MINZ:0.2
;MAXX:183.2
;MAXY:176.85
;MAXZ:5.6
;Generated with Cura_SteamEngine 5.3.0
M140 S60
M105
M190 S60
M104 S210
M105
M109 S210
M82 ;absolute extrusion mode
M220 S100 ;Reset Feedrate
M221 S100 ;Reset Flowrate

M280 P0 S160 ;reset bltouch
G28 ;Home
G29 A ; enable UBL
G92 E0 ;Reset Extruder
G1 Z2.0 F3000 ;Move Z Axis up
G1 X10.1 Y20 Z0.28 F5000.0 ;Move to start position
G1 X10.1 Y200.0 Z0.28 F1500.0 E15 ;Draw the first line
G1 X10.4 Y200.0 Z0.28 F5000.0 ;Move to side a little
G1 X10.4 Y20 Z0.28 F1500.0 E30 ;Draw the second line
G92 E0 ;Reset Extruder
G1 Z2.0 F3000 ;Move Z Axis up
G92 E0
G92 E0
G1 F2100 E-1.5
;LAYER_COUNT:28
;LAYER:0
M107
G0 F6000 X118.319 Y126.174 Z0.2
;TYPE:SKIRT
G1 F2100 E0
G1 F1200 X119.894 Y124.7 E0.07175
G1 X121.766 Y123.588 E0.14417
G1 X123.953 Y123.15 E0.21835
G1 X176.253 Y123.15 E1.95786
G1 X178.149 Y123.616 E2.02279
G1 X180.176 Y124.669 E2.09877
G1 X181.65 Y126.244 E2.17051
G1 X182.762 Y128.116 E2.24293
G1 X183.2 Y130.303 E2.31712
G1 X183.2 Y169.903 E3.63422
G1 X182.734 Y171.799 E3.69916
G1 X181.681 Y173.826 E3.77513
G1 X180.106 Y175.3 E3.84688
G1 X178.234 Y176.412 E3.9193
G1 X176.047 Y176.85 E3.99348
G1 X123.747 Y176.85 E5.73299
G1 X121.851 Y176.384 E5.79792
G1 X119.824 Y175.331 E5.8739
G1 X118.35 Y173.756 E5.94564
G1 X117.238 Y171.884 E6.01806
G1 X116.8 Y169.697 E6.09225
G1 X116.8 Y130.097 E7.40935
G1 X117.266 Y128.201 E7.47429
G1 X118.319 Y126.174 E7.55026
G0 F6000 X118.642 Y126.419
G1 F1200 X120.135 Y125.022 E7.61827
G1 X121.912 Y123.966 E7.68702
G1 X123.991 Y123.55 E7.75754
G1 X176.207 Y123.55 E9.49425
G1 X178.006 Y123.992 E9.55586
G1 X179.931 Y124.992 E9.62801
G1 X181.328 Y126.485 E9.69602
G1 X182.384 Y128.262 E9.76477
G1 X182.8 Y130.341 E9.83529
G1 X182.8 Y169.857 E11.14959
G1 X182.358 Y171.656 E11.21121
G1 X181.358 Y173.581 E11.28336
G1 X179.865 Y174.978 E11.35136
G1 X178.088 Y176.034 E11.42012
G1 X176.009 Y176.45 E11.49063
G1 X123.793 Y176.45 E13.22735
G1 X121.994 Y176.008 E13.28896
G1 X120.069 Y175.008 E13.36111
G1 X118.672 Y173.515 E13.42911
G1 X117.616 Y171.738 E13.49787
G1 X117.2 Y169.659 E13.56839
G1 X117.2 Y130.143 E14.88269
G1 X117.642 Y128.344 E14.94431
G1 X118.642 Y126.419 E15.01646
G0 F6000 X118.965 Y126.664
G1 F1200 X120.376 Y125.344 E15.08072
G1 X122.058 Y124.345 E15.14579
G1 X124.03 Y123.95 E15.21268
G1 X176.16 Y123.95 E16.94653
G1 X177.864 Y124.369 E17.00489
G1 X179.686 Y125.315 E17.07318
G1 X181.006 Y126.726 E17.13744
G1 X182.005 Y128.408 E17.20251
G1 X182.4 Y130.38 E17.2694
G1 X182.4 Y169.81 E18.58085
G1 X181.981 Y171.514 E18.63921
G1 X181.035 Y173.336 E18.70749
G1 X179.624 Y174.656 E18.77176
G1 X177.942 Y175.655 E18.83682
G1 X175.97 Y176.05 E18.90371
G1 X123.84 Y176.05 E20.63757
G1 X122.136 Y175.631 E20.69593
G1 X120.314 Y174.685 E20.76421
G1 X118.994 Y173.274 E20.82847
G1 X117.995 Y171.592 E20.89354
G1 X117.6 Y169.62 E20.96043
G1 X117.6 Y130.19 E22.27188
G1 X118.019 Y128.486 E22.33024
G1 X118.965 Y126.664 E22.39853
G0 F6000 X119.288 Y126.909
G1 F1200 X120.617 Y125.666 E22.45905
G1 X122.204 Y124.723 E22.52045
G1 X124.068 Y124.35 E22.58367
G1 X176.114 Y124.35 E24.31473
G1 X177.721 Y124.745 E24.36977
G1 X179.441 Y125.638 E24.43423
G1 X180.684 Y126.967 E24.49475
G1 X181.627 Y128.554 E24.55615
G1 X182 Y130.418 E24.61938
G1 X182 Y169.764 E25.92803
G1 X181.605 Y171.371 E25.98307
G1 X180.712 Y173.091 E26.04753
G1 X179.383 Y174.334 E26.10805
G1 X177.796 Y175.277 E26.16945
G1 X175.932 Y175.65 E26.23268
G1 X123.886 Y175.65 E27.96373
G1 X122.279 Y175.255 E28.01877
G1 X120.559 Y174.362 E28.08323
G1 X119.316 Y173.033 E28.14376
G1 X118.373 Y171.446 E28.20515
G1 X118 Y169.582 E28.26838
G1 X118 Y130.236 E29.57703
G1 X118.395 Y128.629 E29.63207
G1 X119.288 Y126.909 E29.69653
G0 F6000 X119.611 Y127.154
G1 F1200 X120.858 Y125.988 E29.75331
G1 X122.35 Y125.101 E29.81105
G1 X124.106 Y124.75 E29.87061
G1 X176.068 Y124.75 E31.59887
G1 X177.578 Y125.121 E31.65059
G1 X179.196 Y125.961 E31.71122
G1 X180.362 Y127.208 E31.768
G1 X181.249 Y128.7 E31.82573
G1 X181.6 Y130.456 E31.88529
G1 X181.6 Y169.718 E33.19115
G1 X181.229 Y171.228 E33.24287
G1 X180.389 Y172.846 E33.3035
G1 X179.142 Y174.012 E33.36029
G1 X177.65 Y174.899 E33.41802
G1 X175.894 Y175.25 E33.47758
G1 X123.932 Y175.25 E35.20584
G1 X122.422 Y174.879 E35.25756
G1 X120.804 Y174.039 E35.31819
G1 X119.638 Y172.792 E35.37497
G1 X118.751 Y171.3 E35.43271
G1 X118.4 Y169.544 E35.49227
G1 X118.4 Y130.282 E36.79813
G1 X118.771 Y128.772 E36.84984
G1 X119.611 Y127.154 E36.91048
G0 F6000 X119.934 Y127.399
G1 F1200 X121.099 Y126.31 E36.96352
G1 X122.496 Y125.479 E37.01758
G1 X124.144 Y125.15 E37.07348
G1 X176.021 Y125.15 E38.79891
G1 X177.436 Y125.498 E38.84738
G1 X178.951 Y126.284 E38.90414
G1 X180.04 Y127.449 E38.95718
G1 X180.871 Y128.846 E39.01125
G1 X181.2 Y130.494 E39.06714
G1 X181.2 Y169.671 E40.37018
G1 X180.852 Y171.086 E40.41864
G1 X180.066 Y172.601 E40.47541
G1 X178.901 Y173.69 E40.52845
G1 X177.504 Y174.521 E40.58251
G1 X175.856 Y174.85 E40.63841
G1 X123.979 Y174.85 E42.36384
G1 X122.564 Y174.502 E42.41231
G1 X121.049 Y173.716 E42.46907
G1 X119.96 Y172.551 E42.52212
G1 X119.129 Y171.154 E42.57618
G1 X118.8 Y169.506 E42.63207
G1 X118.8 Y130.329 E43.93511
G1 X119.148 Y128.914 E43.98357
G1 X119.934 Y127.399 E44.04034
G0 F6000 X120.257 Y127.644
G1 F1200 X121.338 Y126.634 E44.08954
G1 X122.644 Y125.857 E44.14009
G1 X124.182 Y125.55 E44.19225
G1 X175.975 Y125.55 E45.91489
G1 X177.293 Y125.874 E45.96003
G1 X178.706 Y126.607 E46.01298
G1 X179.716 Y127.688 E46.06218
G1 X180.493 Y128.994 E46.11273
G1 X180.8 Y130.532 E46.16489
G1 X180.8 Y169.625 E47.46513
G1 X180.476 Y170.943 E47.51027
G1 X179.743 Y172.356 E47.56322
G1 X178.662 Y173.366 E47.61242
G1 X177.356 Y174.143 E47.66297
G1 X175.818 Y174.45 E47.71513
G1 X124.025 Y174.45 E49.43777
G1 X122.707 Y174.126 E49.48291
G1 X121.294 Y173.393 E49.53586
G1 X120.284 Y172.312 E49.58506
G1 X119.507 Y171.006 E49.63561
G1 X119.2 Y169.468 E49.68777
G1 X119.2 Y130.375 E50.98801
G1 X119.524 Y129.057 E51.03315
G1 X120.257 Y127.644 E51.08609
G0 F6000 X120.58 Y127.889
G1 F1200 X121.577 Y126.958 E51.13146
G1 X122.792 Y126.235 E51.17849
G1 X124.22 Y125.95 E51.22692
G1 X175.929 Y125.95 E52.94677
G1 X177.15 Y126.25 E52.98859
G1 X178.461 Y126.93 E53.03771
G1 X179.392 Y127.927 E53.08308
G1 X180.115 Y129.142 E53.1301
G1 X180.4 Y130.57 E53.17853
G1 X180.4 Y169.579 E54.47598
G1 X180.1 Y170.8 E54.5178
G1 X179.42 Y172.111 E54.56692
G1 X178.423 Y173.042 E54.61229
G1 X177.208 Y173.765 E54.65931
G1 X175.78 Y174.05 E54.70775
G1 X124.071 Y174.05 E56.42759
G1 X122.85 Y173.75 E56.46941
G1 X121.539 Y173.07 E56.51853
G1 X120.608 Y172.073 E56.5639
G1 X119.885 Y170.858 E56.61093
G1 X119.6 Y169.43 E56.65936
G1 X119.6 Y130.421 E57.9568
G1 X119.9 Y129.2 E57.99862
G1 X120.58 Y127.889 E58.04774
G0 F6000 X120.903 Y128.134
G1 F1200 X121.816 Y127.282 E58.08928
G1 X122.94 Y126.613 E58.13278
G1 X124.258 Y126.35 E58.17748
G1 X175.883 Y126.35 E59.89454
G1 X177.007 Y126.626 E59.93303
G1 X178.216 Y127.253 E59.97833
G1 X179.068 Y128.166 E60.01987
G1 X179.737 Y129.29 E60.06337
G1 X180 Y130.608 E60.10807
G1 X180 Y169.533 E61.40272
G1 X179.724 Y170.657 E61.44122
G1 X179.097 Y171.866 E61.48652
G1 X178.184 Y172.718 E61.52805
G1 X177.06 Y173.387 E61.57156
G1 X175.742 Y173.65 E61.61626
G1 X124.117 Y173.65 E63.33331
G1 X122.993 Y173.374 E63.37181
G1 X121.784 Y172.747 E63.4171
G1 X120.932 Y171.834 E63.45864
G1 X120.263 Y170.71 E63.50214
G1 X120 Y169.392 E63.54684
G1 X120 Y130.467 E64.8415
G1 X120.276 Y129.343 E64.87999
G1 X120.903 Y128.134 E64.92529
G0 F6000 X121.225 Y128.381
G1 F1200 X122.058 Y127.604 E64.96318
G1 X123.088 Y126.991 E65.00304
G1 X124.296 Y126.75 E65.04401
G1 X175.836 Y126.75 E66.75824
G1 X176.865 Y127.003 E66.79348
G1 X177.969 Y127.575 E66.83484
G1 X178.746 Y128.408 E66.87273
G1 X179.359 Y129.438 E66.91259
G1 X179.6 Y130.646 E66.95356
G1 X179.6 Y169.486 E68.24539
G1 X179.347 Y170.515 E68.28063
G1 X178.775 Y171.619 E68.32198
G1 X177.942 Y172.396 E68.35987
G1 X176.912 Y173.009 E68.39974
G1 X175.704 Y173.25 E68.44071
G1 X124.164 Y173.25 E70.15494
G1 X123.135 Y172.997 E70.19018
G1 X122.031 Y172.425 E70.23153
G1 X121.254 Y171.592 E70.26942
G1 X120.641 Y170.562 E70.30929
G1 X120.4 Y169.354 E70.35026
G1 X120.4 Y130.514 E71.64208
G1 X120.653 Y129.485 E71.67733
G1 X121.225 Y128.381 E71.71868
G0 F6000 X121.547 Y128.628
G1 F1200 X122.3 Y127.926 E71.75292
G1 X123.236 Y127.369 E71.78915
G1 X124.334 Y127.15 E71.82639
G1 X175.79 Y127.15 E73.53782
G1 X176.722 Y127.379 E73.56974
G1 X177.722 Y127.897 E73.6072
G1 X178.424 Y128.65 E73.64144
G1 X178.981 Y129.586 E73.67767
G1 X179.2 Y130.684 E73.7149
G1 X179.2 Y169.44 E75.00393
G1 X178.971 Y170.372 E75.03585
G1 X178.453 Y171.372 E75.07331
G1 X177.7 Y172.074 E75.10755
G1 X176.764 Y172.631 E75.14378
G1 X175.666 Y172.85 E75.18102
G1 X124.21 Y172.85 E76.89245
G1 X123.278 Y172.621 E76.92437
G1 X122.278 Y172.103 E76.96183
G1 X121.576 Y171.35 E76.99607
G1 X121.019 Y170.414 E77.0323
G1 X120.8 Y169.316 E77.06954
G1 X120.8 Y130.56 E78.35857
G1 X121.029 Y129.628 E78.39049
G1 X121.547 Y128.628 E78.42794
G0 F6000 X121.869 Y128.875
G1 F1200 X122.542 Y128.248 E78.45854
G1 X123.384 Y127.747 E78.49112
G1 X124.372 Y127.55 E78.52463
G1 X175.744 Y127.55 E80.23327
G1 X176.579 Y127.755 E80.26187
G1 X177.475 Y128.219 E80.29543
G1 X178.102 Y128.892 E80.32602
G1 X178.603 Y129.734 E80.35861
G1 X178.8 Y130.722 E80.39212
G1 X178.8 Y169.394 E81.67835
G1 X178.595 Y170.229 E81.70695
G1 X178.131 Y171.125 E81.74051
G1 X177.458 Y171.752 E81.7711
G1 X176.616 Y172.253 E81.80369
G1 X175.628 Y172.45 E81.8372
G1 X124.256 Y172.45 E83.54584
G1 X123.421 Y172.245 E83.57444
G1 X122.525 Y171.781 E83.608
G1 X121.898 Y171.108 E83.63859
G1 X121.397 Y170.266 E83.67118
G1 X121.2 Y169.278 E83.70468
G1 X121.2 Y130.606 E84.99092
G1 X121.405 Y129.771 E85.01952
G1 X121.869 Y128.875 E85.05308
G0 F6000 X122.191 Y129.122
G1 F1200 X122.784 Y128.57 E85.08002
G1 X123.532 Y128.125 E85.10897
G1 X124.41 Y127.95 E85.13875
G1 X175.698 Y127.95 E86.84459
G1 X176.436 Y128.131 E86.86987
G1 X177.228 Y128.541 E86.89953
G1 X177.78 Y129.134 E86.92648
G1 X178.225 Y129.882 E86.95542
G1 X178.4 Y130.76 E86.9852
G1 X178.4 Y169.348 E88.26864
G1 X178.219 Y170.086 E88.29392
G1 X177.809 Y170.878 E88.32358
G1 X177.216 Y171.43 E88.35052
G1 X176.468 Y171.875 E88.37947
G1 X175.59 Y172.05 E88.40925
G1 X124.302 Y172.05 E90.1151
G1 X123.564 Y171.869 E90.14037
G1 X122.772 Y171.459 E90.17003
G1 X122.22 Y170.866 E90.19698
G1 X121.775 Y170.118 E90.22593
G1 X121.6 Y169.24 E90.2557
G1 X121.6 Y130.652 E91.53914
G1 X121.781 Y129.914 E91.56442
G1 X122.191 Y129.122 E91.59408
G0 F6000 X122.514 Y129.367
G1 F1200 X123.023 Y128.894 E91.61719
G1 X123.68 Y128.503 E91.64262
G1 X124.448 Y128.35 E91.66867
G1 X175.648 Y128.35 E93.37158
G1 X176.297 Y128.509 E93.39381
G1 X176.983 Y128.864 E93.4195
G1 X177.456 Y129.373 E93.44261
G1 X177.847 Y130.03 E93.46804
G1 X178 Y130.798 E93.49408
G1 X178 Y169.298 E94.7746
G1 X177.841 Y169.947 E94.79682
G1 X177.486 Y170.633 E94.82251
G1 X176.977 Y171.106 E94.84563
G1 X176.32 Y171.497 E94.87105
G1 X175.552 Y171.65 E94.8971
G1 X124.352 Y171.65 E96.60002
G1 X123.703 Y171.491 E96.62224
G1 X123.017 Y171.136 E96.64793
G1 X122.544 Y170.627 E96.67104
G1 X122.153 Y169.97 E96.69647
G1 X122 Y169.202 E96.72252
G1 X122 Y130.702 E98.00303
G1 X122.159 Y130.053 E98.02526
G1 X122.514 Y129.367 E98.05095
G0 F6000 X122.837 Y129.612
G1 F1200 X123.262 Y129.218 E98.07022
G1 X123.828 Y128.881 E98.09213
G1 X124.486 Y128.75 E98.11445
G1 X175.598 Y128.75 E99.81444
G1 X176.158 Y128.887 E99.83362
G1 X176.738 Y129.187 E99.85533
G1 X177.132 Y129.612 E99.87461
G1 X177.469 Y130.178 E99.89652
G1 X177.6 Y130.836 E99.91883
G1 X177.6 Y169.248 E101.19642
G1 X177.463 Y169.808 E101.2156
G1 X177.163 Y170.388 E101.23732
G1 X176.738 Y170.782 E101.25659
G1 X176.172 Y171.119 E101.2785
G1 X175.514 Y171.25 E101.30081
G1 X124.402 Y171.25 E103.00081
G1 X123.842 Y171.113 E103.01998
G1 X123.262 Y170.813 E103.0417
G1 X122.868 Y170.388 E103.06098
G1 X122.531 Y169.822 E103.08289
G1 X122.4 Y169.164 E103.1052
G1 X122.4 Y130.752 E104.38279
G1 X122.537 Y130.192 E104.40196
G1 X122.837 Y129.612 E104.42368
G0 F6000 X123.16 Y129.858
G1 F1200 X123.501 Y129.542 E104.43914
G1 X123.976 Y129.259 E104.45753
G1 X124.524 Y129.15 E104.47612
G1 X175.548 Y129.15 E106.17318
G1 X176.019 Y129.265 E106.18931
G1 X176.492 Y129.51 E106.20703
G1 X176.808 Y129.851 E106.22249
G1 X177.091 Y130.326 E106.24088
G1 X177.2 Y130.874 E106.25946
G1 X177.2 Y169.198 E107.53412
G1 X177.085 Y169.669 E107.55025
G1 X176.84 Y170.142 E107.56797
G1 X176.499 Y170.458 E107.58343
G1 X176.024 Y170.741 E107.60182
G1 X175.476 Y170.85 E107.6204
G1 X124.452 Y170.85 E109.31747
G1 X123.981 Y170.735 E109.33359
G1 X123.508 Y170.49 E109.35131
G1 X123.192 Y170.149 E109.36677
G1 X122.909 Y169.674 E109.38516
G1 X122.8 Y169.126 E109.40375
G1 X122.8 Y130.802 E110.67841
G1 X122.915 Y130.331 E110.69454
G1 X123.16 Y129.858 E110.71225
G0 F6000 X123.483 Y130.104
G1 F1200 X123.74 Y129.866 E110.7239
G1 X124.124 Y129.637 E110.73877
G1 X124.562 Y129.55 E110.75363
G1 X175.498 Y129.55 E112.44776
G1 X175.88 Y129.643 E112.46084
G1 X176.246 Y129.833 E112.47456
G1 X176.484 Y130.09 E112.48621
G1 X176.713 Y130.474 E112.50108
G1 X176.8 Y130.912 E112.51593
G1 X176.8 Y169.148 E113.78766
G1 X176.707 Y169.53 E113.80074
G1 X176.517 Y169.896 E113.81446
G1 X176.26 Y170.134 E113.82611
G1 X175.876 Y170.363 E113.84098
G1 X175.438 Y170.45 E113.85583
G1 X124.502 Y170.45 E115.54997
G1 X124.12 Y170.357 E115.56304
G1 X123.754 Y170.167 E115.57676
G1 X123.516 Y169.91 E115.58841
G1 X123.287 Y169.526 E115.60328
G1 X123.2 Y169.088 E115.61813
G1 X123.2 Y130.852 E116.88987
G1 X123.293 Y130.47 E116.90294
G1 X123.483 Y130.104 E116.91666
G0 F6000 X123.945 Y130.21
G1 F1200 X124.272 Y130.015 E116.92932
G1 X124.6 Y129.95 E116.94044
G1 X175.449 Y129.95 E118.63169
G1 X175.738 Y130.02 E118.64158
G1 X176.001 Y130.157 E118.65144
G1 X176.14 Y130.295 E118.65796
G1 X176.335 Y130.622 E118.67062
G1 X176.4 Y130.95 E118.68174
G1 X176.4 Y169.099 E119.95058
G1 X176.33 Y169.388 E119.96047
G1 X176.193 Y169.651 E119.97034
G1 X176.055 Y169.79 E119.97685
G1 X175.728 Y169.985 E119.98951
G1 X175.4 Y170.05 E120.00063
G1 X124.551 Y170.05 E121.69188
G1 X124.262 Y169.98 E121.70177
G1 X123.999 Y169.843 E121.71163
G1 X123.86 Y169.705 E121.71815
G1 X123.665 Y169.378 E121.73081
G1 X123.6 Y169.05 E121.74193
G1 X123.6 Y130.901 E123.01077
G1 X123.67 Y130.612 E123.02066
G1 X123.807 Y130.349 E123.03053
G1 X123.945 Y130.21 E123.03704
G0 F6000 X124.15 Y130.554
G1 F1200 X124.42 Y130.393 E123.0475
G1 X124.6 Y130.35 E123.05365
G1 X175.4 Y130.35 E124.74327
G1 X175.644 Y130.409 E124.75162
G1 X175.796 Y130.5 E124.75751
G1 X175.957 Y130.77 E124.76796
G1 X176 Y130.95 E124.77412
G1 X176 Y169.05 E126.04133
G1 X175.941 Y169.294 E126.04968
G1 X175.85 Y169.446 E126.05557
G1 X175.58 Y169.607 E126.06603
G1 X175.4 Y169.65 E126.07218
G1 X124.6 Y169.65 E127.7618
G1 X124.356 Y169.591 E127.77015
G1 X124.204 Y169.5 E127.77604
G1 X124.043 Y169.23 E127.78649
G1 X124 Y169.05 E127.79265
G1 X124 Y130.95 E129.05986
G1 X124.059 Y130.706 E129.06821
G1 X124.15 Y130.554 E129.0741
G0 F6000 X124.439 Y130.831
G1 F1200 X124.6 Y130.75 E129.0801
G1 X175.4 Y130.75 E130.76971
G1 X175.519 Y130.789 E130.77388
G1 X175.6 Y130.95 E130.77987
G1 X175.6 Y169.05 E132.04708
G1 X175.561 Y169.169 E132.05125
G1 X175.4 Y169.25 E132.05724
G1 X124.6 Y169.25 E133.74686
G1 X124.481 Y169.211 E133.75102
G1 X124.4 Y169.05 E133.75702
G1 X124.4 Y130.95 E135.02423
G1 X124.439 Y130.831 E135.02839
G1 F2100 E133.52839
;MESH:main.stl
G0 F6000 X126.652 Y140.626
G0 X130.148 Y163.672
;TYPE:WALL-INNER
G1 F2100 E135.02839
G1 F1200 X129.637 Y163.697 E135.04541
G1 X129.006 Y163.637 E135.06649
G1 X128.33 Y163.377 E135.09058
G1 X127.915 Y163.086 E135.10744
G1 X127.53 Y162.74 E135.12466
G1 X127.21 Y162.274 E135.14346
G1 X127.014 Y161.864 E135.15857
G1 X126.835 Y161.208 E135.18119
G1 X126.832 Y140.646 E135.86508
G1 X126.885 Y140.106 E135.88313
G1 X127.146 Y139.404 E135.90804
G1 X127.436 Y138.988 E135.92491
G1 X127.673 Y138.724 E135.93671
