;FLAVOR:Marlin
;TIME:6575
;Filament used: 4.52279m
;Layer height: 0.2
;MINX:116.8
;MINY:110.45
;MINZ:0.2
;MAXX:183.2
;MAXY:189.55
;MAXZ:6.4
;Generated with Cura_SteamEngine 5.3.0
M140 S60
M105
M190 S60
M104 S210
M105
M109 S210
M82 ;absolute extrusion mode
M220 S100 ;Reset Feedrate
M221 S100 ;Reset Flowrate

M280 P0 S160 ;reset bltouch
G28 ;Home
G29 A ; enable UBL
G92 E0 ;Reset Extruder
G1 Z2.0 F3000 ;Move Z Axis up
G1 X10.1 Y20 Z0.28 F5000.0 ;Move to start position
G1 X10.1 Y200.0 Z0.28 F1500.0 E15 ;Draw the first line
G1 X10.4 Y200.0 Z0.28 F5000.0 ;Move to side a little
G1 X10.4 Y20 Z0.28 F1500.0 E30 ;Draw the second line
G92 E0 ;Reset Extruder
G1 Z2.0 F3000 ;Move Z Axis up
G92 E0
G92 E0
G1 F2100 E-1.5
;LAYER_COUNT:32
;LAYER:0
M107
G0 F6000 X118.319 Y113.474 Z0.2
;TYPE:SKIRT
G1 F2100 E0
G1 F1200 X119.894 Y112 E0.07175
G1 X121.766 Y110.888 E0.14417
G1 X123.953 Y110.45 E0.21835
G1 X176.253 Y110.45 E1.95786
G1 X178.149 Y110.916 E2.02279
G1 X180.176 Y111.969 E2.09877
G1 X181.65 Y113.544 E2.17051
G1 X182.762 Y115.416 E2.24293
G1 X183.2 Y117.603 E2.31712
G1 X183.2 Y182.603 E4.47903
G1 X182.734 Y184.499 E4.54396
G1 X181.681 Y186.526 E4.61994
G1 X180.106 Y188 E4.69168
G1 X178.234 Y189.112 E4.7641
G1 X176.047 Y189.55 E4.83829
G1 X123.747 Y189.55 E6.57779
G1 X121.851 Y189.084 E6.64273
G1 X119.824 Y188.031 E6.7187
G1 X118.35 Y186.456 E6.79045
G1 X117.238 Y184.584 E6.86287
G1 X116.8 Y182.397 E6.93705
G1 X116.8 Y117.397 E9.09896
G1 X117.266 Y115.501 E9.1639
G1 X118.319 Y113.474 E9.23987
G0 F6000 X118.642 Y113.719
G1 F1200 X120.135 Y112.322 E9.30788
G1 X121.912 Y111.266 E9.37663
G1 X123.991 Y110.85 E9.44715
G1 X176.207 Y110.85 E11.18386
G1 X178.006 Y111.292 E11.24548
G1 X179.931 Y112.292 E11.31763
G1 X181.328 Y113.785 E11.38563
G1 X182.384 Y115.562 E11.45438
G1 X182.8 Y117.641 E11.5249
G1 X182.8 Y182.557 E13.68402
G1 X182.358 Y184.356 E13.74563
G1 X181.358 Y186.281 E13.81778
G1 X179.865 Y187.678 E13.88579
G1 X178.088 Y188.734 E13.95454
G1 X176.009 Y189.15 E14.02506
G1 X123.793 Y189.15 E15.76177
G1 X121.994 Y188.708 E15.82338
G1 X120.069 Y187.708 E15.89553
G1 X118.672 Y186.215 E15.96354
G1 X117.616 Y184.438 E16.03229
G1 X117.2 Y182.359 E16.10281
G1 X117.2 Y117.443 E18.26192
G1 X117.642 Y115.644 E18.32354
G1 X118.642 Y113.719 E18.39569
G0 F6000 X118.965 Y113.964
G1 F1200 X120.376 Y112.644 E18.45995
G1 X122.058 Y111.645 E18.52502
G1 X124.03 Y111.25 E18.59191
G1 X176.16 Y111.25 E20.32576
G1 X177.864 Y111.669 E20.38412
G1 X179.686 Y112.615 E20.45241
G1 X181.006 Y114.026 E20.51667
G1 X182.005 Y115.708 E20.58174
G1 X182.4 Y117.68 E20.64863
G1 X182.4 Y182.51 E22.80488
G1 X181.981 Y184.214 E22.86325
G1 X181.035 Y186.036 E22.93153
G1 X179.624 Y187.356 E22.99579
G1 X177.942 Y188.355 E23.06086
G1 X175.97 Y188.75 E23.12775
G1 X123.84 Y188.75 E24.8616
G1 X122.136 Y188.331 E24.91997
G1 X120.314 Y187.385 E24.98825
G1 X118.994 Y185.974 E25.05251
G1 X117.995 Y184.292 E25.11758
G1 X117.6 Y182.32 E25.18447
G1 X117.6 Y117.49 E27.34072
G1 X118.019 Y115.786 E27.39909
G1 X118.965 Y113.964 E27.46737
G0 F6000 X119.288 Y114.209
G1 F1200 X120.617 Y112.966 E27.52789
G1 X122.204 Y112.023 E27.58929
G1 X124.068 Y111.65 E27.65252
G1 X176.114 Y111.65 E29.38358
G1 X177.721 Y112.045 E29.43862
G1 X179.441 Y112.938 E29.50307
G1 X180.684 Y114.267 E29.5636
G1 X181.627 Y115.854 E29.625
G1 X182 Y117.718 E29.68822
G1 X182 Y182.464 E31.84168
G1 X181.605 Y184.071 E31.89672
G1 X180.712 Y185.791 E31.96118
G1 X179.383 Y187.034 E32.0217
G1 X177.796 Y187.977 E32.0831
G1 X175.932 Y188.35 E32.14633
G1 X123.886 Y188.35 E33.87739
G1 X122.279 Y187.955 E33.93243
G1 X120.559 Y187.062 E33.99688
G1 X119.316 Y185.733 E34.05741
G1 X118.373 Y184.146 E34.11881
G1 X118 Y182.282 E34.18203
G1 X118 Y117.536 E36.33549
G1 X118.395 Y115.929 E36.39053
G1 X119.288 Y114.209 E36.45499
G0 F6000 X119.611 Y114.454
G1 F1200 X120.858 Y113.288 E36.51177
G1 X122.35 Y112.401 E36.5695
G1 X124.106 Y112.05 E36.62907
G1 X176.068 Y112.05 E38.35733
G1 X177.578 Y112.421 E38.40904
G1 X179.196 Y113.261 E38.46968
G1 X180.362 Y114.508 E38.52646
G1 X181.249 Y116 E38.58419
G1 X181.6 Y117.756 E38.64375
G1 X181.6 Y182.418 E40.79442
G1 X181.229 Y183.928 E40.84614
G1 X180.389 Y185.546 E40.90677
G1 X179.142 Y186.712 E40.96355
G1 X177.65 Y187.599 E41.02128
G1 X175.894 Y187.95 E41.08084
G1 X123.932 Y187.95 E42.80911
G1 X122.422 Y187.579 E42.86082
G1 X120.804 Y186.739 E42.92146
G1 X119.638 Y185.492 E42.97824
G1 X118.751 Y184 E43.03597
G1 X118.4 Y182.244 E43.09553
G1 X118.4 Y117.582 E45.2462
G1 X118.771 Y116.072 E45.29792
G1 X119.611 Y114.454 E45.35855
G0 F6000 X119.934 Y114.699
G1 F1200 X121.099 Y113.61 E45.41159
G1 X122.496 Y112.779 E45.46566
G1 X124.144 Y112.45 E45.52155
G1 X176.021 Y112.45 E47.24699
G1 X177.436 Y112.798 E47.29545
G1 X178.951 Y113.584 E47.35222
G1 X180.04 Y114.749 E47.40526
G1 X180.871 Y116.146 E47.45932
G1 X181.2 Y117.794 E47.51522
G1 X181.2 Y182.371 E49.66306
G1 X180.852 Y183.786 E49.71152
G1 X180.066 Y185.301 E49.76829
G1 X178.901 Y186.39 E49.82133
G1 X177.504 Y187.221 E49.87539
G1 X175.856 Y187.55 E49.93129
G1 X123.979 Y187.55 E51.65672
G1 X122.564 Y187.202 E51.70519
G1 X121.049 Y186.416 E51.76196
G1 X119.96 Y185.251 E51.815
G1 X119.129 Y183.854 E51.86906
G1 X118.8 Y182.206 E51.92495
G1 X118.8 Y117.629 E54.07279
G1 X119.148 Y116.214 E54.12126
G1 X119.934 Y114.699 E54.17803
G0 F6000 X120.257 Y114.944
G1 F1200 X121.338 Y113.934 E54.22723
G1 X122.644 Y113.157 E54.27778
G1 X124.182 Y112.85 E54.32994
G1 X175.975 Y112.85 E56.05258
G1 X177.293 Y113.174 E56.09772
G1 X178.706 Y113.907 E56.15067
G1 X179.716 Y114.988 E56.19987
G1 X180.493 Y116.294 E56.25042
G1 X180.8 Y117.832 E56.30258
G1 X180.8 Y182.325 E58.44763
G1 X180.476 Y183.643 E58.49277
G1 X179.743 Y185.056 E58.54571
G1 X178.662 Y186.066 E58.59492
G1 X177.356 Y186.843 E58.64546
G1 X175.818 Y187.15 E58.69763
G1 X124.025 Y187.15 E60.42027
G1 X122.707 Y186.826 E60.46541
G1 X121.294 Y186.093 E60.51835
G1 X120.284 Y185.012 E60.56756
G1 X119.507 Y183.706 E60.6181
G1 X119.2 Y182.168 E60.67027
G1 X119.2 Y117.675 E62.81531
G1 X119.524 Y116.357 E62.86045
G1 X120.257 Y114.944 E62.9134
G0 F6000 X120.58 Y115.189
G1 F1200 X121.577 Y114.258 E62.95877
G1 X122.792 Y113.535 E63.00579
G1 X124.22 Y113.25 E63.05422
G1 X175.929 Y113.25 E64.77407
G1 X177.15 Y113.55 E64.81589
G1 X178.461 Y114.23 E64.86501
G1 X179.392 Y115.227 E64.91038
G1 X180.115 Y116.442 E64.95741
G1 X180.4 Y117.87 E65.00584
G1 X180.4 Y182.279 E67.14809
G1 X180.1 Y183.5 E67.18991
G1 X179.42 Y184.811 E67.23903
G1 X178.423 Y185.742 E67.2844
G1 X177.208 Y186.465 E67.33142
G1 X175.78 Y186.75 E67.37986
G1 X124.071 Y186.75 E69.09971
G1 X122.85 Y186.45 E69.14152
G1 X121.539 Y185.77 E69.19064
G1 X120.608 Y184.773 E69.23601
G1 X119.885 Y183.558 E69.28304
G1 X119.6 Y182.13 E69.33147
G1 X119.6 Y117.721 E71.47372
G1 X119.9 Y116.5 E71.51554
G1 X120.58 Y115.189 E71.56466
G0 F6000 X120.903 Y115.434
G1 F1200 X121.816 Y114.582 E71.6062
G1 X122.94 Y113.913 E71.6497
G1 X124.258 Y113.65 E71.6944
G1 X175.883 Y113.65 E73.41146
G1 X177.007 Y113.926 E73.44995
G1 X178.216 Y114.553 E73.49525
G1 X179.068 Y115.466 E73.53679
G1 X179.737 Y116.59 E73.58029
G1 X180 Y117.908 E73.62499
G1 X180 Y182.233 E75.76445
G1 X179.724 Y183.357 E75.80294
G1 X179.097 Y184.566 E75.84824
G1 X178.184 Y185.418 E75.88978
G1 X177.06 Y186.087 E75.93328
G1 X175.742 Y186.35 E75.97798
G1 X124.117 Y186.35 E77.69504
G1 X122.993 Y186.074 E77.73353
G1 X121.784 Y185.447 E77.77883
G1 X120.932 Y184.534 E77.82037
G1 X120.263 Y183.41 E77.86387
G1 X120 Y182.092 E77.90857
G1 X120 Y117.767 E80.04803
G1 X120.276 Y116.643 E80.08652
G1 X120.903 Y115.434 E80.13182
G0 F6000 X121.225 Y115.681
G1 F1200 X122.058 Y114.904 E80.16971
G1 X123.088 Y114.291 E80.20958
G1 X124.296 Y114.05 E80.25055
G1 X175.836 Y114.05 E81.96477
G1 X176.865 Y114.303 E82.00002
G1 X177.969 Y114.875 E82.04137
G1 X178.746 Y115.708 E82.07926
G1 X179.359 Y116.738 E82.11913
G1 X179.6 Y117.946 E82.1601
G1 X179.6 Y182.186 E84.29673
G1 X179.347 Y183.215 E84.33197
G1 X178.775 Y184.319 E84.37333
G1 X177.942 Y185.096 E84.41121
G1 X176.912 Y185.709 E84.45108
G1 X175.704 Y185.95 E84.49205
G1 X124.164 Y185.95 E86.20628
G1 X123.135 Y185.697 E86.24152
G1 X122.031 Y185.125 E86.28288
G1 X121.254 Y184.292 E86.32076
G1 X120.641 Y183.262 E86.36063
G1 X120.4 Y182.054 E86.4016
G1 X120.4 Y117.814 E88.53823
G1 X120.653 Y116.785 E88.57347
G1 X121.225 Y115.681 E88.61483
G0 F6000 X121.547 Y115.928
G1 F1200 X122.3 Y115.226 E88.64907
G1 X123.236 Y114.669 E88.6853
G1 X124.334 Y114.45 E88.72254
G1 X175.79 Y114.45 E90.43397
G1 X176.722 Y114.679 E90.46589
G1 X177.722 Y115.197 E90.50335
G1 X178.424 Y115.95 E90.53759
G1 X178.981 Y116.886 E90.57381
G1 X179.2 Y117.984 E90.61105
G1 X179.2 Y182.14 E92.74489
G1 X178.971 Y183.072 E92.77681
G1 X178.453 Y184.072 E92.81427
G1 X177.7 Y184.774 E92.84851
G1 X176.764 Y185.331 E92.88474
G1 X175.666 Y185.55 E92.92197
G1 X124.21 Y185.55 E94.63341
G1 X123.278 Y185.321 E94.66533
G1 X122.278 Y184.803 E94.70279
G1 X121.576 Y184.05 E94.73703
G1 X121.019 Y183.114 E94.77325
G1 X120.8 Y182.016 E94.81049
G1 X120.8 Y117.86 E96.94433
G1 X121.029 Y116.928 E96.97625
G1 X121.547 Y115.928 E97.01371
G0 F6000 X121.869 Y116.175
G1 F1200 X122.542 Y115.548 E97.0443
G1 X123.384 Y115.047 E97.07689
G1 X124.372 Y114.85 E97.1104
G1 X175.744 Y114.85 E98.81904
G1 X176.579 Y115.055 E98.84763
G1 X177.475 Y115.519 E98.88119
G1 X178.102 Y116.192 E98.91179
G1 X178.603 Y117.034 E98.94437
G1 X178.8 Y118.022 E98.97788
G1 X178.8 Y182.094 E101.10892
G1 X178.595 Y182.929 E101.13752
G1 X178.131 Y183.825 E101.17108
G1 X177.458 Y184.452 E101.20167
G1 X176.616 Y184.953 E101.23426
G1 X175.628 Y185.15 E101.26777
G1 X124.256 Y185.15 E102.97641
G1 X123.421 Y184.945 E103.00501
G1 X122.525 Y184.481 E103.03857
G1 X121.898 Y183.808 E103.06916
G1 X121.397 Y182.966 E103.10175
G1 X121.2 Y181.978 E103.13526
G1 X121.2 Y117.906 E105.2663
G1 X121.405 Y117.071 E105.2949
G1 X121.869 Y116.175 E105.32846
G0 F6000 X122.191 Y116.422
G1 F1200 X122.784 Y115.87 E105.3554
G1 X123.532 Y115.425 E105.38435
G1 X124.41 Y115.25 E105.41413
G1 X175.698 Y115.25 E107.11997
G1 X176.436 Y115.431 E107.14525
G1 X177.228 Y115.841 E107.17491
G1 X177.78 Y116.434 E107.20185
G1 X178.225 Y117.182 E107.2308
G1 X178.4 Y118.06 E107.26058
G1 X178.4 Y182.048 E109.38883
G1 X178.219 Y182.786 E109.4141
G1 X177.809 Y183.578 E109.44376
G1 X177.216 Y184.13 E109.47071
G1 X176.468 Y184.575 E109.49966
G1 X175.59 Y184.75 E109.52944
G1 X124.302 Y184.75 E111.23528
G1 X123.564 Y184.569 E111.26055
G1 X122.772 Y184.159 E111.29022
G1 X122.22 Y183.566 E111.31716
G1 X121.775 Y182.818 E111.34611
G1 X121.6 Y181.94 E111.37589
G1 X121.6 Y117.952 E113.50414
G1 X121.781 Y117.214 E113.52941
G1 X122.191 Y116.422 E113.55907
G0 F6000 X122.514 Y116.667
G1 F1200 X123.023 Y116.194 E113.58218
G1 X123.68 Y115.803 E113.60761
G1 X124.448 Y115.65 E113.63366
G1 X175.648 Y115.65 E115.33658
G1 X176.297 Y115.809 E115.3588
G1 X176.983 Y116.164 E115.38449
G1 X177.456 Y116.673 E115.4076
G1 X177.847 Y117.33 E115.43303
G1 X178 Y118.098 E115.45908
G1 X178 Y181.998 E117.5844
G1 X177.841 Y182.647 E117.60662
G1 X177.486 Y183.333 E117.63232
G1 X176.977 Y183.806 E117.65543
G1 X176.32 Y184.197 E117.68085
G1 X175.552 Y184.35 E117.7069
G1 X124.352 Y184.35 E119.40982
G1 X123.703 Y184.191 E119.43204
G1 X123.017 Y183.836 E119.45773
G1 X122.544 Y183.327 E119.48084
G1 X122.153 Y182.67 E119.50627
G1 X122 Y181.902 E119.53232
G1 X122 Y118.002 E121.65764
G1 X122.159 Y117.353 E121.67987
G1 X122.514 Y116.667 E121.70556
G0 F6000 X122.837 Y116.912
G1 F1200 X123.262 Y116.518 E121.72483
G1 X123.828 Y116.181 E121.74674
G1 X124.486 Y116.05 E121.76906
G1 X175.598 Y116.05 E123.46905
G1 X176.158 Y116.187 E123.48822
G1 X176.738 Y116.487 E123.50994
G1 X177.132 Y116.912 E123.52922
G1 X177.469 Y117.478 E123.55113
G1 X177.6 Y118.136 E123.57344
G1 X177.6 Y181.948 E125.69584
G1 X177.463 Y182.508 E125.71501
G1 X177.163 Y183.088 E125.73673
G1 X176.738 Y183.482 E125.75601
G1 X176.172 Y183.819 E125.77792
G1 X175.514 Y183.95 E125.80023
G1 X124.402 Y183.95 E127.50022
G1 X123.842 Y183.813 E127.5194
G1 X123.262 Y183.513 E127.54112
G1 X122.868 Y183.088 E127.56039
G1 X122.531 Y182.522 E127.5823
G1 X122.4 Y181.864 E127.60462
G1 X122.4 Y118.052 E129.72701
G1 X122.537 Y117.492 E129.74619
G1 X122.837 Y116.912 E129.7679
G0 F6000 X123.16 Y117.158
G1 F1200 X123.501 Y116.842 E129.78337
G1 X123.976 Y116.559 E129.80176
G1 X124.524 Y116.45 E129.82034
G1 X175.548 Y116.45 E131.51741
G1 X176.019 Y116.565 E131.53353
G1 X176.492 Y116.81 E131.55125
G1 X176.808 Y117.151 E131.56671
G1 X177.091 Y117.626 E131.5851
G1 X177.2 Y118.174 E131.60369
G1 X177.2 Y181.898 E133.72315
G1 X177.085 Y182.369 E133.73928
G1 X176.84 Y182.842 E133.757
G1 X176.499 Y183.158 E133.77246
G1 X176.024 Y183.441 E133.79085
G1 X175.476 Y183.55 E133.80943
G1 X124.452 Y183.55 E135.5065
G1 X123.981 Y183.435 E135.52262
G1 X123.508 Y183.19 E135.54034
G1 X123.192 Y182.849 E135.5558
G1 X122.909 Y182.374 E135.57419
G1 X122.8 Y181.826 E135.59278
G1 X122.8 Y118.102 E137.71225
G1 X122.915 Y117.631 E137.72837
G1 X123.16 Y117.158 E137.74609
G0 F6000 X123.483 Y117.404
G1 F1200 X123.74 Y117.166 E137.75774
G1 X124.124 Y116.937 E137.77261
G1 X124.562 Y116.85 E137.78746
G1 X175.498 Y116.85 E139.4816
G1 X175.88 Y116.943 E139.49468
G1 X176.246 Y117.133 E139.50839
G1 X176.484 Y117.39 E139.52004
G1 X176.713 Y117.774 E139.53491
G1 X176.8 Y118.212 E139.54977
G1 X176.8 Y181.848 E141.66631
G1 X176.707 Y182.23 E141.67939
G1 X176.517 Y182.596 E141.6931
G1 X176.26 Y182.834 E141.70475
G1 X175.876 Y183.063 E141.71962
G1 X175.438 Y183.15 E141.73447
G1 X124.502 Y183.15 E143.42861
G1 X124.12 Y183.057 E143.44169
G1 X123.754 Y182.867 E143.45541
G1 X123.516 Y182.61 E143.46706
G1 X123.287 Y182.226 E143.48193
G1 X123.2 Y181.788 E143.49678
G1 X123.2 Y118.152 E145.61332
G1 X123.293 Y117.77 E145.6264
G1 X123.483 Y117.404 E145.64011
G0 F6000 X123.807 Y117.649
G1 F1200 X123.945 Y117.51 E145.64663
G1 X124.272 Y117.315 E145.65929
G1 X124.6 Y117.25 E145.67041
G1 X175.449 Y117.25 E147.36166
G1 X175.738 Y117.32 E147.37155
G1 X176.001 Y117.457 E147.38141
G1 X176.14 Y117.595 E147.38792
G1 X176.335 Y117.922 E147.40059
G1 X176.4 Y118.25 E147.41171
G1 X176.4 Y181.799 E149.52536
G1 X176.33 Y182.088 E149.53525
G1 X176.193 Y182.351 E149.54511
G1 X176.055 Y182.49 E149.55163
G1 X175.728 Y182.685 E149.56429
G1 X175.4 Y182.75 E149.57541
G1 X124.551 Y182.75 E151.26665
G1 X124.262 Y182.68 E151.27654
G1 X123.999 Y182.543 E151.28641
G1 X123.86 Y182.405 E151.29292
G1 X123.665 Y182.078 E151.30559
G1 X123.6 Y181.75 E151.31671
G1 X123.6 Y118.201 E153.43036
G1 X123.67 Y117.912 E153.44025
G1 X123.807 Y117.649 E153.45011
G0 F6000 X124.15 Y117.854
G1 F1200 X124.42 Y117.693 E153.46056
G1 X124.6 Y117.65 E153.46672
G1 X175.4 Y117.65 E155.15633
G1 X175.644 Y117.709 E155.16468
G1 X175.796 Y117.8 E155.17058
G1 X175.957 Y118.07 E155.18103
G1 X176 Y118.25 E155.18719
G1 X176 Y181.75 E157.29921
G1 X175.941 Y181.994 E157.30755
G1 X175.85 Y182.146 E157.31345
G1 X175.58 Y182.307 E157.3239
G1 X175.4 Y182.35 E157.33006
G1 X124.6 Y182.35 E159.01967
G1 X124.356 Y182.291 E159.02802
G1 X124.204 Y182.2 E159.03391
G1 X124.043 Y181.93 E159.04437
G1 X124 Y181.75 E159.05052
G1 X124 Y118.25 E161.16254
G1 X124.059 Y118.006 E161.17089
G1 X124.15 Y117.854 E161.17679
G0 F6000 X124.439 Y118.131
G1 F1200 X124.6 Y118.05 E161.18278
G1 X175.4 Y118.05 E162.87239
G1 X175.519 Y118.089 E162.87656
G1 X175.6 Y118.25 E162.88255
G1 X175.6 Y181.75 E164.99457
G1 X175.561 Y181.869 E164.99874
G1 X175.4 Y181.95 E165.00473
G1 X124.6 Y181.95 E166.69435
G1 X124.481 Y181.911 E166.69851
G1 X124.4 Y181.75 E166.70451
G1 X124.4 Y118.25 E168.81652
G1 X124.439 Y118.131 E168.82069
G1 F2100 E167.32069
;MESH:main.stl
G0 F6000 X126.652 Y127.128
G0 X130.148 Y175.574
;TYPE:WALL-INNER
G1 F2100 E168.82069
G1 F1200 X129.663 Y175.599 E168.83684
G1 X129.009 Y175.54 E168.85868
G1 X128.33 Y175.279 E168.88288
G1 X127.915 Y174.988 E168.89974
G1 X127.53 Y174.642 E168.91695
G1 X127.21 Y174.176 E168.93575
G1 X127.014 Y173.766 E168.95087
G1 X126.835 Y173.11 E168.97349
G1 X126.832 Y127.148 E170.50219
G1 X126.885 Y126.608 E170.52023
G1 X127.146 Y125.906 E170.54514
