;FLAVOR:Marlin
;TIME:10567
;Filament used: 6.844m
;Layer height: 0.2
;MINX:107.25
;MINY:89.787
;MINZ:0.2
;MAXX:192.75
;MAXY:210.213
;MAXZ:6
;Generated with Cura_SteamEngine master
M140 S50
M105
M190 S50
M104 S200
M105
M109 S200
M82 ;absolute extrusion mode
M201 X500.00 Y500.00 Z100.00 E5000.00 ;Setup machine max acceleration
M203 X500.00 Y500.00 Z10.00 E50.00 ;Setup machine max feedrate
M204 P500.00 R1000.00 T500.00 ;Setup Print/Retract/Travel acceleration
M205 X8.00 Y8.00 Z0.40 E5.00 ;Setup Jerk
M220 S100 ;Reset Feedrate
M221 S100 ;Reset Flowrate

G28 ;Home

G92 E0 ;Reset Extruder
G1 Z2.0 F3000 ;Move Z Axis up
G1 X10.1 Y20 Z0.28 F5000.0 ;Move to start position
G1 X10.1 Y200.0 Z0.28 F1500.0 E15 ;Draw the first line
G1 X10.4 Y200.0 Z0.28 F5000.0 ;Move to side a little
G1 X10.4 Y20 Z0.28 F1500.0 E30 ;Draw the second line
G92 E0 ;Reset Extruder
G1 Z2.0 F3000 ;Move Z Axis up

G92 E0
G92 E0
G1 F2700 E-5
;LAYER_COUNT:30
;LAYER:0
M107
G0 F6000 X110.69 Y94.618 Z0.2
;TYPE:SKIRT
G1 F2700 E0
G1 F1200 X110.898 Y94.383 E0.01044
G1 X111.721 Y93.548 E0.04943
G1 X111.835 Y93.444 E0.05457
G1 X112.256 Y93.079 E0.0731
G1 X112.511 Y92.869 E0.08408
G1 X113.478 Y92.158 E0.12401
G1 X113.591 Y92.084 E0.1285
G1 X114.013 Y91.821 E0.14504
G1 X114.29 Y91.657 E0.15574
G1 X115.368 Y91.096 E0.19616
G1 X115.512 Y91.031 E0.20142
G1 X116.014 Y90.82 E0.21953
G1 X116.304 Y90.706 E0.22989
G1 X117.428 Y90.332 E0.26929
G1 X117.578 Y90.291 E0.27446
G1 X118.088 Y90.165 E0.29194
G1 X118.389 Y90.098 E0.30219
G1 X119.647 Y89.893 E0.34459
G1 X119.821 Y89.875 E0.3504
G1 X120.238 Y89.84 E0.36432
G1 X120.545 Y89.82 E0.37455
G1 X120.837 Y89.805 E0.38428
G1 X120.967 Y89.8 E0.38861
G1 X121.269 Y89.793 E0.39865
G1 X121.846 Y89.787 E0.41785
G1 X178.043 Y89.787 E2.28697
G1 X178.905 Y89.798 E2.31564
G1 X179.26 Y89.809 E2.32745
G1 X179.389 Y89.815 E2.33175
G1 X179.862 Y89.847 E2.34751
G1 X180.107 Y89.869 E2.3557
G1 X181.473 Y90.079 E2.40166
G1 X181.88 Y90.168 E2.41552
G1 X182.578 Y90.345 E2.43947
G1 X182.793 Y90.407 E2.44691
G1 X183.763 Y90.736 E2.48098
G1 X184 Y90.829 E2.48945
G1 X184.886 Y91.222 E2.52169
G1 X185.137 Y91.347 E2.53101
G1 X186.134 Y91.911 E2.56911
G1 X186.403 Y92.082 E2.57971
G1 X187.374 Y92.775 E2.61939
G1 X187.519 Y92.891 E2.62557
G1 X187.939 Y93.245 E2.64383
G1 X188.157 Y93.438 E2.65352
G1 X189.004 Y94.275 E2.69312
G1 X189.104 Y94.385 E2.69807
G1 X189.451 Y94.784 E2.71566
G1 X189.663 Y95.041 E2.72674
G1 X190.391 Y96.032 E2.76764
G1 X190.451 Y96.124 E2.77129
G1 X190.7 Y96.524 E2.78696
G1 X190.879 Y96.826 E2.79864
G1 X191.465 Y97.961 E2.84112
G1 X191.53 Y98.107 E2.84644
G1 X191.697 Y98.502 E2.8607
G1 X191.808 Y98.78 E2.87066
G1 X192.207 Y99.976 E2.91259
G1 X192.251 Y100.138 E2.91817
G1 X192.366 Y100.599 E2.93398
G1 X192.431 Y100.887 E2.9438
G1 X192.64 Y102.154 E2.98651
G1 X192.659 Y102.334 E2.99253
G1 X192.697 Y102.776 E3.00728
G1 X192.717 Y103.084 E3.01755
G1 X192.732 Y103.371 E3.02711
G1 X192.737 Y103.5 E3.0314
G1 X192.744 Y103.806 E3.04158
G1 X192.75 Y104.383 E3.06077
G1 X192.75 Y195.506 E6.09154
G1 X192.739 Y196.367 E6.12018
G1 X192.726 Y196.773 E6.13369
G1 X192.688 Y197.349 E6.15289
G1 X192.665 Y197.598 E6.1612
G1 X192.458 Y198.936 E6.20623
G1 X192.369 Y199.343 E6.22009
G1 X192.194 Y200.035 E6.24383
G1 X192.133 Y200.247 E6.25117
G1 X191.799 Y201.23 E6.2857
G1 X191.707 Y201.464 E6.29406
G1 X191.333 Y202.31 E6.32483
G1 X191.212 Y202.555 E6.33392
G1 X190.661 Y203.54 E6.37145
G1 X190.478 Y203.831 E6.38289
G1 X189.763 Y204.837 E6.42394
G1 X189.672 Y204.951 E6.42879
G1 X189.312 Y205.38 E6.44742
G1 X189.104 Y205.615 E6.45785
G1 X188.284 Y206.447 E6.49671
G1 X188.169 Y206.552 E6.50189
G1 X187.786 Y206.886 E6.51879
G1 X187.572 Y207.064 E6.52805
G1 X186.787 Y207.66 E6.56083
G1 X186.632 Y207.767 E6.56709
G1 X185.968 Y208.191 E6.5933
G1 X185.688 Y208.356 E6.60411
G1 X184.649 Y208.895 E6.64304
G1 X184.508 Y208.959 E6.64819
G1 X183.986 Y209.18 E6.66704
G1 X183.696 Y209.294 E6.6774
G1 X182.572 Y209.668 E6.7168
G1 X182.422 Y209.709 E6.72198
G1 X181.912 Y209.835 E6.73945
G1 X181.611 Y209.902 E6.7497
G1 X180.353 Y210.107 E6.7921
G1 X180.179 Y210.125 E6.79792
G1 X179.762 Y210.16 E6.81183
G1 X179.455 Y210.18 E6.82207
G1 X179.163 Y210.195 E6.83179
G1 X179.033 Y210.2 E6.83612
G1 X178.731 Y210.207 E6.84617
G1 X178.154 Y210.213 E6.86536
G1 X121.957 Y210.213 E8.73448
G1 X121.096 Y210.202 E8.76312
G1 X120.749 Y210.191 E8.77466
G1 X120.618 Y210.185 E8.77903
G1 X120.133 Y210.153 E8.79519
G1 X119.889 Y210.131 E8.80334
G1 X118.527 Y209.921 E8.84918
G1 X118.12 Y209.832 E8.86303
G1 X117.422 Y209.655 E8.88698
G1 X117.207 Y209.593 E8.89443
G1 X116.237 Y209.264 E8.92849
G1 X116 Y209.171 E8.93696
G1 X115.114 Y208.778 E8.9692
G1 X114.863 Y208.653 E8.97852
G1 X113.875 Y208.095 E9.01626
G1 X113.607 Y207.925 E9.02682
G1 X112.642 Y207.237 E9.06624
G1 X112.494 Y207.119 E9.07253
G1 X112.043 Y206.74 E9.09213
G1 X111.827 Y206.548 E9.10174
G1 X110.986 Y205.715 E9.14111
G1 X110.879 Y205.597 E9.14641
G1 X110.562 Y205.231 E9.16251
G1 X110.382 Y205.014 E9.17189
G1 X109.771 Y204.205 E9.20561
G1 X109.682 Y204.075 E9.21085
G1 X109.298 Y203.473 E9.2346
G1 X109.123 Y203.178 E9.24601
G1 X108.524 Y202.014 E9.28955
G1 X108.459 Y201.867 E9.29489
G1 X108.301 Y201.492 E9.30843
G1 X108.187 Y201.206 E9.31867
G1 X107.778 Y199.971 E9.36194
G1 X107.735 Y199.81 E9.36748
G1 X107.615 Y199.32 E9.38426
G1 X107.57 Y199.114 E9.39127
G1 X107.422 Y198.283 E9.41935
G1 X107.383 Y198.003 E9.42875
G1 X107.3 Y197.187 E9.45603
G1 X107.282 Y196.905 E9.46543
G1 X107.268 Y196.627 E9.47469
G1 X107.263 Y196.497 E9.47901
G1 X107.256 Y196.184 E9.48943
G1 X107.25 Y195.576 E9.50965
G1 X107.25 Y104.494 E12.53905
G1 X107.261 Y103.632 E12.56772
G1 X107.27 Y103.314 E12.5783
G1 X107.276 Y103.175 E12.58293
G1 X107.314 Y102.624 E12.6013
G1 X107.336 Y102.389 E12.60915
G1 X107.542 Y101.064 E12.65375
G1 X107.631 Y100.657 E12.66761
G1 X107.806 Y99.965 E12.69135
G1 X107.867 Y99.753 E12.69868
G1 X108.201 Y98.77 E12.73321
G1 X108.293 Y98.536 E12.74158
G1 X108.667 Y97.69 E12.77234
G1 X108.788 Y97.445 E12.78143
G1 X109.345 Y96.452 E12.8193
G1 X109.529 Y96.16 E12.83078
G1 X110.245 Y95.152 E12.8719
G1 X110.337 Y95.037 E12.8768
G1 X110.69 Y94.618 E12.89502
G0 F6000 X110.99 Y94.884
G1 F1200 X111.198 Y94.649 E12.90546
G1 X111.991 Y93.843 E12.94307
G1 X112.105 Y93.739 E12.9482
G1 X112.511 Y93.388 E12.96605
G1 X112.766 Y93.178 E12.97704
G1 X113.697 Y92.492 E13.0155
G1 X113.81 Y92.418 E13.01999
G1 X114.217 Y92.165 E13.03593
G1 X114.494 Y92.001 E13.04664
G1 X115.533 Y91.461 E13.08558
G1 X115.677 Y91.396 E13.09084
G1 X116.16 Y91.192 E13.10828
G1 X116.45 Y91.078 E13.11864
G1 X117.533 Y90.718 E13.1566
G1 X117.683 Y90.677 E13.16177
G1 X118.175 Y90.555 E13.17863
G1 X118.476 Y90.488 E13.18889
G1 X119.688 Y90.291 E13.22973
G1 X119.862 Y90.273 E13.23555
G1 X120.264 Y90.239 E13.24897
G1 X120.571 Y90.219 E13.2592
G1 X120.983 Y90.2 E13.27292
G1 X121.274 Y90.193 E13.2826
G1 X121.846 Y90.187 E13.30162
G1 X178.043 Y90.187 E15.17074
G1 X178.899 Y90.198 E15.19922
G1 X179.241 Y90.208 E15.2106
G1 X179.37 Y90.214 E15.21489
G1 X179.826 Y90.245 E15.23009
G1 X180.071 Y90.267 E15.23827
G1 X181.387 Y90.47 E15.28256
G1 X181.794 Y90.559 E15.29642
G1 X182.467 Y90.729 E15.31951
G1 X182.682 Y90.791 E15.32695
G1 X183.617 Y91.109 E15.3598
G1 X183.854 Y91.202 E15.36826
G1 X184.707 Y91.581 E15.39931
G1 X184.958 Y91.706 E15.40864
G1 X185.92 Y92.248 E15.44536
G1 X186.189 Y92.419 E15.45596
G1 X187.124 Y93.088 E15.4942
G1 X187.269 Y93.204 E15.50038
G1 X187.673 Y93.544 E15.51794
G1 X187.891 Y93.737 E15.52762
G1 X188.708 Y94.544 E15.56582
G1 X188.808 Y94.654 E15.57076
G1 X189.142 Y95.039 E15.58771
G1 X189.354 Y95.296 E15.5988
G1 X190.056 Y96.251 E15.63822
G1 X190.116 Y96.343 E15.64187
G1 X190.356 Y96.728 E15.65696
G1 X190.535 Y97.03 E15.66864
G1 X191.1 Y98.124 E15.70959
G1 X191.165 Y98.27 E15.7149
G1 X191.325 Y98.65 E15.72862
G1 X191.436 Y98.928 E15.73857
G1 X191.821 Y100.081 E15.779
G1 X191.865 Y100.243 E15.78459
G1 X191.976 Y100.687 E15.79981
G1 X192.041 Y100.975 E15.80963
G1 X192.242 Y102.196 E15.85079
G1 X192.261 Y102.376 E15.85681
G1 X192.298 Y102.802 E15.87103
G1 X192.318 Y103.11 E15.88129
G1 X192.332 Y103.386 E15.89049
G1 X192.337 Y103.515 E15.89478
G1 X192.344 Y103.81 E15.90459
G1 X192.35 Y104.383 E15.92365
G1 X192.35 Y195.506 E18.95442
G1 X192.339 Y196.361 E18.98286
G1 X192.332 Y196.631 E18.99184
G1 X192.327 Y196.757 E18.99603
G1 X192.29 Y197.312 E19.01453
G1 X192.267 Y197.561 E19.02285
G1 X192.067 Y198.85 E19.06624
G1 X191.978 Y199.257 E19.08009
G1 X191.81 Y199.924 E19.10297
G1 X191.749 Y200.136 E19.11031
G1 X191.427 Y201.084 E19.14361
G1 X191.335 Y201.318 E19.15197
G1 X190.974 Y202.133 E19.18162
G1 X190.853 Y202.378 E19.19071
G1 X190.322 Y203.327 E19.22688
G1 X190.139 Y203.618 E19.23831
G1 X189.45 Y204.588 E19.27788
G1 X189.359 Y204.702 E19.28273
G1 X189.012 Y205.114 E19.30065
G1 X188.804 Y205.349 E19.31109
G1 X188.014 Y206.152 E19.34855
G1 X187.899 Y206.257 E19.35373
G1 X187.53 Y206.578 E19.37
G1 X187.316 Y206.756 E19.37926
G1 X186.56 Y207.33 E19.41083
G1 X186.405 Y207.437 E19.41709
G1 X185.765 Y207.846 E19.44235
G1 X185.485 Y208.011 E19.45316
G1 X184.484 Y208.531 E19.49068
G1 X184.343 Y208.595 E19.49583
G1 X183.84 Y208.808 E19.514
G1 X183.55 Y208.922 E19.52436
G1 X182.467 Y209.282 E19.56232
G1 X182.317 Y209.323 E19.5675
G1 X181.825 Y209.445 E19.58435
G1 X181.524 Y209.512 E19.59461
G1 X180.312 Y209.709 E19.63545
G1 X180.138 Y209.727 E19.64127
G1 X179.736 Y209.761 E19.65469
G1 X179.429 Y209.781 E19.66492
G1 X179.017 Y209.8 E19.67864
G1 X178.726 Y209.807 E19.68832
G1 X178.154 Y209.813 E19.70735
G1 X121.957 Y209.813 E21.57647
G1 X121.102 Y209.802 E21.6049
G1 X120.767 Y209.792 E21.61605
G1 X120.636 Y209.786 E21.62041
G1 X120.169 Y209.754 E21.63598
G1 X119.925 Y209.732 E21.64413
G1 X118.613 Y209.53 E21.68828
G1 X118.206 Y209.441 E21.70214
G1 X117.533 Y209.271 E21.72523
G1 X117.318 Y209.209 E21.73267
G1 X116.383 Y208.891 E21.76552
G1 X116.146 Y208.798 E21.77398
G1 X115.293 Y208.419 E21.80503
G1 X115.042 Y208.294 E21.81436
G1 X114.089 Y207.757 E21.85074
G1 X113.821 Y207.587 E21.86129
G1 X112.891 Y206.924 E21.89928
G1 X112.743 Y206.806 E21.90558
G1 X112.309 Y206.441 E21.92444
G1 X112.093 Y206.249 E21.93405
G1 X111.283 Y205.446 E21.97199
G1 X111.176 Y205.328 E21.97728
G1 X110.869 Y204.975 E21.99284
G1 X110.689 Y204.758 E22.00222
G1 X110.101 Y203.979 E22.03468
G1 X110.012 Y203.849 E22.03992
G1 X109.642 Y203.269 E22.06281
G1 X109.467 Y202.974 E22.07421
G1 X108.889 Y201.853 E22.11616
G1 X108.824 Y201.706 E22.12151
G1 X108.672 Y201.344 E22.13457
G1 X108.558 Y201.058 E22.14481
G1 X108.164 Y199.868 E22.1865
G1 X108.121 Y199.707 E22.19204
G1 X108.006 Y199.234 E22.20823
G1 X107.961 Y199.028 E22.21525
G1 X107.818 Y198.228 E22.24228
G1 X107.779 Y197.948 E22.25168
G1 X107.7 Y197.161 E22.27799
G1 X107.682 Y196.879 E22.28738
G1 X107.668 Y196.611 E22.29631
G1 X107.663 Y196.481 E22.30064
G1 X107.656 Y196.18 E22.31065
G1 X107.65 Y195.576 E22.33074
G1 X107.65 Y104.494 E25.36014
G1 X107.661 Y103.638 E25.38861
G1 X107.67 Y103.331 E25.39883
G1 X107.676 Y103.192 E25.40346
G1 X107.712 Y102.661 E25.42116
G1 X107.734 Y102.426 E25.42901
G1 X107.933 Y101.15 E25.47196
G1 X108.022 Y100.743 E25.48582
G1 X108.19 Y100.076 E25.5087
G1 X108.251 Y99.864 E25.51603
G1 X108.573 Y98.916 E25.54933
G1 X108.665 Y98.682 E25.5577
G1 X109.026 Y97.867 E25.58734
G1 X109.147 Y97.622 E25.59643
G1 X109.683 Y96.665 E25.63291
G1 X109.867 Y96.373 E25.64439
G1 X110.558 Y95.402 E25.68403
G1 X110.65 Y95.287 E25.68893
G1 X110.99 Y94.884 E25.70647
G0 F6000 X111.289 Y95.149
G1 F1200 X111.497 Y94.914 E25.7169
G1 X112.261 Y94.139 E25.7531
G1 X112.375 Y94.035 E25.75823
G1 X112.765 Y93.696 E25.77542
G1 X113.02 Y93.486 E25.78641
G1 X113.916 Y92.827 E25.8234
G1 X114.029 Y92.753 E25.82789
G1 X114.42 Y92.509 E25.84322
G1 X114.697 Y92.345 E25.85393
G1 X115.698 Y91.825 E25.89145
G1 X115.842 Y91.76 E25.8967
G1 X116.306 Y91.564 E25.91345
G1 X116.596 Y91.45 E25.92382
G1 X117.639 Y91.104 E25.96037
G1 X117.789 Y91.063 E25.96554
G1 X118.262 Y90.946 E25.98175
G1 X118.563 Y90.879 E25.992
G1 X119.729 Y90.689 E26.03129
G1 X119.903 Y90.671 E26.03711
G1 X120.29 Y90.639 E26.05003
G1 X120.597 Y90.619 E26.06026
G1 X120.868 Y90.605 E26.06929
G1 X120.998 Y90.6 E26.07361
G1 X121.278 Y90.593 E26.08293
G1 X121.846 Y90.587 E26.10182
G1 X178.043 Y90.587 E27.97094
G1 X178.893 Y90.598 E27.99922
G1 X179.223 Y90.608 E28.0102
G1 X179.352 Y90.614 E28.01449
G1 X179.79 Y90.644 E28.02909
G1 X180.035 Y90.666 E28.03728
G1 X181.302 Y90.86 E28.07991
G1 X181.709 Y90.949 E28.09376
G1 X182.356 Y91.113 E28.11596
G1 X182.571 Y91.175 E28.12341
G1 X183.471 Y91.481 E28.15502
G1 X183.708 Y91.574 E28.16349
G1 X184.529 Y91.939 E28.19337
G1 X184.78 Y92.064 E28.2027
G1 X185.705 Y92.586 E28.23803
G1 X185.974 Y92.757 E28.24863
G1 X186.874 Y93.4 E28.28542
G1 X187.019 Y93.516 E28.29159
G1 X187.408 Y93.844 E28.30852
G1 X187.626 Y94.037 E28.3182
G1 X188.412 Y94.813 E28.35494
G1 X188.512 Y94.923 E28.35988
G1 X188.833 Y95.293 E28.37617
G1 X189.045 Y95.55 E28.38726
G1 X189.721 Y96.469 E28.4252
G1 X189.781 Y96.561 E28.42885
G1 X190.012 Y96.932 E28.44339
G1 X190.191 Y97.234 E28.45507
G1 X190.734 Y98.286 E28.49444
G1 X190.799 Y98.432 E28.49976
G1 X190.954 Y98.799 E28.51301
G1 X191.065 Y99.077 E28.52296
G1 X191.435 Y100.185 E28.56182
G1 X191.479 Y100.347 E28.5674
G1 X191.586 Y100.775 E28.58207
G1 X191.651 Y101.063 E28.59189
G1 X191.845 Y102.238 E28.6315
G1 X191.864 Y102.418 E28.63752
G1 X191.899 Y102.828 E28.65121
G1 X191.919 Y103.136 E28.66147
G1 X191.937 Y103.531 E28.67463
G1 X191.944 Y103.814 E28.68404
G1 X191.95 Y104.383 E28.70297
G1 X191.95 Y195.506 E31.73373
G1 X191.939 Y196.356 E31.762
G1 X191.932 Y196.615 E31.77062
G1 X191.927 Y196.741 E31.77482
G1 X191.892 Y197.275 E31.79261
G1 X191.869 Y197.524 E31.80093
G1 X191.677 Y198.765 E31.8427
G1 X191.588 Y199.172 E31.85656
G1 X191.425 Y199.813 E31.87855
G1 X191.364 Y200.025 E31.88589
G1 X191.055 Y200.937 E31.91792
G1 X190.963 Y201.171 E31.92628
G1 X190.615 Y201.956 E31.95484
G1 X190.494 Y202.201 E31.96393
G1 X189.984 Y203.114 E31.99871
G1 X189.801 Y203.405 E32.01015
G1 X189.138 Y204.338 E32.04821
G1 X189.047 Y204.452 E32.05307
G1 X188.713 Y204.849 E32.07032
G1 X188.505 Y205.084 E32.08076
G1 X187.745 Y205.857 E32.11681
G1 X187.63 Y205.962 E32.12199
G1 X187.275 Y206.271 E32.13765
G1 X187.061 Y206.449 E32.14691
G1 X186.333 Y207.001 E32.17729
G1 X186.178 Y207.108 E32.18356
G1 X185.561 Y207.502 E32.20791
G1 X185.281 Y207.667 E32.21872
G1 X184.319 Y208.167 E32.25477
G1 X184.178 Y208.231 E32.25993
G1 X183.694 Y208.436 E32.27741
G1 X183.404 Y208.55 E32.28777
G1 X182.361 Y208.896 E32.32432
G1 X182.211 Y208.937 E32.32949
G1 X181.738 Y209.054 E32.3457
G1 X181.437 Y209.121 E32.35596
G1 X180.271 Y209.311 E32.39525
G1 X180.097 Y209.329 E32.40107
G1 X179.71 Y209.361 E32.41398
G1 X179.403 Y209.381 E32.42421
G1 X179.132 Y209.395 E32.43324
G1 X179.002 Y209.4 E32.43757
G1 X178.722 Y209.407 E32.44688
G1 X178.154 Y209.413 E32.46578
G1 X121.957 Y209.413 E34.3349
G1 X121.107 Y209.402 E34.36317
G1 X120.785 Y209.392 E34.37388
G1 X120.654 Y209.386 E34.37825
G1 X120.205 Y209.356 E34.39321
G1 X119.961 Y209.334 E34.40136
G1 X118.698 Y209.14 E34.44386
G1 X118.291 Y209.051 E34.45772
G1 X117.644 Y208.887 E34.47992
G1 X117.429 Y208.825 E34.48736
G1 X116.529 Y208.519 E34.51898
G1 X116.292 Y208.426 E34.52744
G1 X115.471 Y208.061 E34.55733
G1 X115.22 Y207.936 E34.56665
G1 X114.303 Y207.419 E34.60167
G1 X114.035 Y207.249 E34.61222
G1 X113.14 Y206.611 E34.64878
G1 X112.992 Y206.493 E34.65508
G1 X112.574 Y206.142 E34.67323
G1 X112.358 Y205.95 E34.68284
G1 X111.579 Y205.178 E34.71932
G1 X111.472 Y205.06 E34.72462
G1 X111.177 Y204.72 E34.73959
G1 X110.997 Y204.503 E34.74897
G1 X110.431 Y203.753 E34.78022
G1 X110.342 Y203.623 E34.78546
G1 X109.986 Y203.065 E34.80747
G1 X109.811 Y202.77 E34.81888
G1 X109.255 Y201.691 E34.85925
G1 X109.19 Y201.544 E34.8646
G1 X109.044 Y201.196 E34.87715
G1 X108.93 Y200.91 E34.88739
G1 X108.55 Y199.765 E34.92752
G1 X108.507 Y199.604 E34.93306
G1 X108.397 Y199.149 E34.94863
G1 X108.352 Y198.943 E34.95564
G1 X108.215 Y198.173 E34.98165
