;FLAVOR:Marlin
;TIME:3851
;Filament used: 2.93015m
;Layer height: 0.2
;MINX:128.45
;MINY:129.114
;MINZ:0.2
;MAXX:174.749
;MAXY:170.3
;MAXZ:20
;Generated with Cura_SteamEngine 5.3.0
M140 S60
M105
M190 S60
M104 S210
M105
M109 S210
M82 ;absolute extrusion mode
M220 S100 ;Reset Feedrate
M221 S100 ;Reset Flowrate

M280 P0 S160 ;reset bltouch
G28 ;Home
G29 A ; enable UBL
G92 E0 ;Reset Extruder
G1 Z2.0 F3000 ;Move Z Axis up
G1 X10.1 Y20 Z0.28 F5000.0 ;Move to start position
G1 X10.1 Y200.0 Z0.28 F1500.0 E15 ;Draw the first line
G1 X10.4 Y200.0 Z0.28 F5000.0 ;Move to side a little
G1 X10.4 Y20 Z0.28 F1500.0 E30 ;Draw the second line
G92 E0 ;Reset Extruder
G1 Z2.0 F3000 ;Move Z Axis up
G92 E0
G92 E0
G1 F2100 E-1.5
;LAYER_COUNT:100
;LAYER:0
M107
G0 F6000 X129.969 Y132.724 Z0.2
;TYPE:SKIRT
G1 F2100 E0
G1 F1200 X131.544 Y131.25 E0.07175
G1 X133.416 Y130.138 E0.14417
G1 X135.603 Y129.7 E0.21835
G1 X147.103 Y129.7 E0.60084
G1 X148.999 Y130.166 E0.66578
G1 X150.965 Y131.187 E0.73946
G1 X151.229 Y131.435 E0.75151
G1 X151.722 Y131.029 E0.77275
G1 X154.428 Y129.637 E0.87396
G1 X156.627 Y129.114 E0.94914
G1 X159.227 Y129.319 E1.03589
G1 X160.066 Y129.7 E1.06653
G1 X163.206 Y129.7 E1.17097
G1 X164.729 Y129.42 E1.22248
G1 X166.961 Y129.595 E1.29694
G1 X169.739 Y130.577 E1.39494
G1 X171.94 Y132.419 E1.4904
G1 X173.173 Y133.942 E1.55557
G1 X174.287 Y136.223 E1.64
G1 X174.749 Y138.463 E1.71608
G1 X174.739 Y141.333 E1.81153
G1 X174.178 Y143.662 E1.89121
G1 X173.257 Y145.515 E1.96003
G1 X171.847 Y147.241 E2.03416
G1 X171.55 Y147.494 E2.04714
G1 X171.55 Y163.353 E2.57461
G1 X171.084 Y165.249 E2.63955
G1 X170.031 Y167.276 E2.71552
G1 X168.456 Y168.75 E2.78727
G1 X166.584 Y169.862 E2.85969
G1 X164.397 Y170.3 E2.93387
G1 X135.397 Y170.3 E3.89842
G1 X133.501 Y169.834 E3.96335
G1 X131.474 Y168.781 E4.03933
G1 X130 Y167.206 E4.11107
G1 X128.888 Y165.334 E4.18349
G1 X128.45 Y163.147 E4.25768
G1 X128.45 Y136.647 E5.13907
G1 X128.916 Y134.751 E5.20401
G1 X129.969 Y132.724 E5.27998
G0 F6000 X130.292 Y132.969
G1 F1200 X129.292 Y134.894 E5.35213
G1 X128.85 Y136.693 E5.41375
G1 X128.85 Y163.109 E6.29235
G1 X129.266 Y165.188 E6.36286
G1 X130.322 Y166.965 E6.43162
G1 X131.719 Y168.458 E6.49962
G1 X133.644 Y169.458 E6.57177
G1 X135.443 Y169.9 E6.63339
G1 X164.359 Y169.9 E7.59514
G1 X166.438 Y169.484 E7.66565
G1 X168.215 Y168.428 E7.73441
G1 X169.708 Y167.031 E7.80241
G1 X170.708 Y165.106 E7.87456
G1 X171.15 Y163.307 E7.93618
G1 X171.15 Y147.309 E8.46827
G1 X171.56 Y146.96 E8.48618
G1 X172.92 Y145.296 E8.55766
G1 X173.799 Y143.526 E8.62339
G1 X174.339 Y141.284 E8.70009
G1 X174.349 Y138.504 E8.79255
G1 X173.905 Y136.351 E8.86567
G1 X172.835 Y134.16 E8.94677
G1 X171.654 Y132.701 E9.0092
G1 X169.536 Y130.929 E9.10105
G1 X166.879 Y129.99 E9.19478
G1 X164.747 Y129.823 E9.2659
G1 X163.24 Y130.1 E9.31687
G1 X159.979 Y130.1 E9.42533
G1 X159.126 Y129.712 E9.4565
G1 X156.657 Y129.518 E9.53887
G1 X154.57 Y130.014 E9.61022
G1 X151.942 Y131.366 E9.70851
G1 X151.193 Y131.983 E9.74079
G1 X150.781 Y131.542 E9.76086
G1 X148.856 Y130.542 E9.83301
G1 X147.057 Y130.1 E9.89463
G1 X135.641 Y130.1 E10.27432
G1 X133.562 Y130.516 E10.34484
G1 X131.785 Y131.572 E10.41359
G1 X130.292 Y132.969 E10.4816
G0 F6000 X130.615 Y133.214
G1 F1200 X132.026 Y131.894 E10.54586
G1 X133.708 Y130.895 E10.61093
G1 X135.68 Y130.5 E10.67782
G1 X147.01 Y130.5 E11.05466
G1 X148.714 Y130.919 E11.11302
G1 X150.536 Y131.865 E11.1813
G1 X151.158 Y132.53 E11.21159
G1 X152.162 Y131.703 E11.25485
G1 X154.711 Y130.392 E11.35019
G1 X156.688 Y129.922 E11.41778
G1 X159.026 Y130.106 E11.49578
G1 X159.893 Y130.5 E11.52745
G1 X163.274 Y130.5 E11.63991
G1 X164.765 Y130.226 E11.69033
G1 X166.797 Y130.385 E11.75812
G1 X169.333 Y131.281 E11.84758
G1 X171.368 Y132.983 E11.93581
G1 X172.497 Y134.378 E11.9955
G1 X173.523 Y136.479 E12.07327
G1 X173.949 Y138.545 E12.14343
G1 X173.939 Y141.235 E12.2329
G1 X173.42 Y143.39 E12.30663
G1 X172.583 Y145.077 E12.36926
G1 X171.27 Y146.682 E12.43823
G1 X170.75 Y147.125 E12.46095
G1 X170.75 Y163.26 E12.9976
G1 X170.331 Y164.964 E13.05597
G1 X169.385 Y166.786 E13.12425
G1 X167.974 Y168.106 E13.18851
G1 X166.292 Y169.105 E13.25358
G1 X164.32 Y169.5 E13.32047
G1 X135.49 Y169.5 E14.27936
G1 X133.786 Y169.081 E14.33773
G1 X131.964 Y168.135 E14.40601
G1 X130.644 Y166.724 E14.47027
G1 X129.645 Y165.042 E14.53534
G1 X129.25 Y163.07 E14.60223
G1 X129.25 Y136.74 E15.47797
G1 X129.669 Y135.036 E15.53633
G1 X130.615 Y133.214 E15.60462
G0 F6000 X130.938 Y133.459
G1 F1200 X132.267 Y132.216 E15.66514
G1 X133.854 Y131.273 E15.72654
G1 X135.718 Y130.9 E15.78976
G1 X146.964 Y130.9 E16.16381
G1 X148.571 Y131.295 E16.21885
G1 X150.291 Y132.188 E16.28331
G1 X151.122 Y133.077 E16.32378
G1 X152.382 Y132.04 E16.37806
G1 X154.852 Y130.77 E16.47043
G1 X156.719 Y130.326 E16.53426
G1 X158.926 Y130.5 E16.60789
G1 X159.807 Y130.9 E16.64007
G1 X163.308 Y130.9 E16.75652
G1 X164.783 Y130.629 E16.8064
G1 X166.715 Y130.78 E16.87085
G1 X169.13 Y131.633 E16.95604
G1 X171.082 Y133.265 E17.04066
G1 X172.159 Y134.596 E17.09761
G1 X173.141 Y136.607 E17.17205
G1 X173.549 Y138.586 E17.23925
G1 X173.539 Y141.186 E17.32573
G1 X173.041 Y143.254 E17.39648
G1 X172.246 Y144.858 E17.45602
G1 X170.983 Y146.401 E17.52234
G1 X170.35 Y146.94 E17.54999
G1 X170.35 Y163.214 E18.09127
G1 X169.955 Y164.821 E18.14631
G1 X169.062 Y166.541 E18.21077
G1 X167.733 Y167.784 E18.27129
G1 X166.146 Y168.727 E18.33269
G1 X164.282 Y169.1 E18.39591
G1 X135.536 Y169.1 E19.35201
G1 X133.929 Y168.705 E19.40705
G1 X132.209 Y167.812 E19.47151
G1 X130.966 Y166.483 E19.53203
G1 X130.023 Y164.896 E19.59343
G1 X129.65 Y163.032 E19.65666
G1 X129.65 Y136.786 E20.5296
G1 X130.045 Y135.179 E20.58464
G1 X130.938 Y133.459 E20.6491
G0 F6000 X131.261 Y133.704
G1 F1200 X132.508 Y132.538 E20.70588
G1 X134 Y131.651 E20.76361
G1 X135.756 Y131.3 E20.82317
G1 X146.918 Y131.3 E21.19442
G1 X148.428 Y131.671 E21.24614
G1 X150.046 Y132.511 E21.30677
G1 X151.119 Y133.659 E21.35904
G1 X151.294 Y133.453 E21.36803
G1 X152.602 Y132.377 E21.42436
G1 X154.993 Y131.148 E21.51378
G1 X156.75 Y130.73 E21.57385
G1 X158.825 Y130.893 E21.64307
G1 X159.72 Y131.3 E21.67578
G1 X163.36 Y131.3 E21.79684
G1 X163.462 Y131.274 E21.80034
G1 X164.804 Y131.032 E21.8457
G1 X166.633 Y131.175 E21.90672
G1 X168.927 Y131.985 E21.98763
G1 X170.796 Y133.547 E22.06865
G1 X171.821 Y134.814 E22.12285
G1 X172.759 Y136.735 E22.19395
G1 X173.149 Y138.627 E22.2582
G1 X173.139 Y141.137 E22.34169
G1 X172.662 Y143.118 E22.40946
G1 X171.907 Y144.642 E22.46603
G1 X170.699 Y146.117 E22.52944
G1 X169.95 Y146.755 E22.56216
G1 X169.95 Y163.168 E23.10806
G1 X169.579 Y164.678 E23.15978
G1 X168.739 Y166.296 E23.22041
G1 X167.492 Y167.462 E23.27719
G1 X166 Y168.349 E23.33493
G1 X164.244 Y168.7 E23.39449
G1 X135.582 Y168.7 E24.34779
G1 X134.072 Y168.329 E24.3995
G1 X132.454 Y167.489 E24.46014
G1 X131.288 Y166.242 E24.51692
G1 X130.401 Y164.75 E24.57465
G1 X130.05 Y162.994 E24.63421
G1 X130.05 Y136.832 E25.50436
G1 X130.421 Y135.322 E25.55608
G1 X131.261 Y133.704 E25.61672
G0 F6000 X131.584 Y133.949
G1 F1200 X130.798 Y135.464 E25.67348
G1 X130.45 Y136.879 E25.72195
G1 X130.45 Y162.956 E26.58927
G1 X130.779 Y164.604 E26.64517
G1 X131.61 Y166.001 E26.69923
G1 X132.699 Y167.166 E26.75227
G1 X134.214 Y167.952 E26.80904
G1 X135.629 Y168.3 E26.8575
G1 X164.206 Y168.3 E27.80798
G1 X165.854 Y167.971 E27.86387
G1 X167.251 Y167.14 E27.91794
G1 X168.416 Y166.051 E27.97098
G1 X169.202 Y164.536 E28.02774
G1 X169.55 Y163.121 E28.07621
G1 X169.55 Y146.57 E28.6267
G1 X170.413 Y145.835 E28.6644
G1 X171.571 Y144.422 E28.72516
G1 X172.283 Y142.984 E28.77853
G1 X172.739 Y141.088 E28.84339
G1 X172.749 Y138.668 E28.92388
G1 X172.377 Y136.863 E28.98518
G1 X171.483 Y135.032 E29.05295
G1 X170.508 Y133.827 E29.10451
G1 X168.726 Y132.338 E29.18174
G1 X166.551 Y131.57 E29.25846
G1 X164.825 Y131.435 E29.31604
G1 X163.533 Y131.668 E29.35971
G1 X163.411 Y131.7 E29.3639
G1 X159.634 Y131.7 E29.48953
G1 X158.725 Y131.287 E29.52273
G1 X156.78 Y131.134 E29.58763
G1 X155.135 Y131.525 E29.64386
G1 X152.822 Y132.714 E29.73036
G1 X151.548 Y133.762 E29.78523
G1 X151.092 Y134.339 E29.80969
G1 X150.89 Y133.999 E29.82284
G1 X149.801 Y132.834 E29.87589
G1 X148.286 Y132.048 E29.93265
G1 X146.871 Y131.7 E29.98112
G1 X135.794 Y131.7 E30.34954
G1 X134.146 Y132.029 E30.40543
G1 X132.749 Y132.86 E30.4595
G1 X131.584 Y133.949 E30.51254
G0 F6000 X131.907 Y134.194
G1 F1200 X132.988 Y133.184 E30.56174
G1 X134.294 Y132.407 E30.61229
G1 X135.832 Y132.1 E30.66445
G1 X146.825 Y132.1 E31.03008
G1 X148.143 Y132.424 E31.07522
G1 X149.556 Y133.157 E31.12817
G1 X150.566 Y134.238 E31.17737
G1 X151.045 Y135.043 E31.20853
G1 X151.836 Y134.043 E31.25093
G1 X153.042 Y133.051 E31.30287
G1 X155.277 Y131.902 E31.38646
G1 X156.81 Y131.538 E31.43886
G1 X158.625 Y131.681 E31.49942
G1 X159.548 Y132.1 E31.53313
G1 X163.464 Y132.1 E31.66338
G1 X163.604 Y132.062 E31.6682
G1 X164.846 Y131.838 E31.71018
G1 X166.469 Y131.965 E31.76432
G1 X168.525 Y132.691 E31.83685
G1 X170.22 Y134.107 E31.91031
G1 X171.146 Y135.252 E31.95928
G1 X171.994 Y136.99 E32.0236
G1 X172.349 Y138.709 E32.08198
G1 X172.339 Y141.039 E32.15948
G1 X171.904 Y142.846 E32.2213
G1 X171.231 Y144.207 E32.2718
G1 X170.13 Y145.551 E32.32958
G1 X169.15 Y146.385 E32.37238
G1 X169.15 Y163.075 E32.9275
G1 X168.826 Y164.393 E32.97264
G1 X168.093 Y165.806 E33.02558
G1 X167.012 Y166.816 E33.07479
G1 X165.706 Y167.593 E33.12533
G1 X164.168 Y167.9 E33.17749
G1 X135.675 Y167.9 E34.12518
G1 X134.357 Y167.576 E34.17032
G1 X132.944 Y166.843 E34.22326
G1 X131.934 Y165.762 E34.27247
G1 X131.157 Y164.456 E34.32301
G1 X130.85 Y162.918 E34.37517
G1 X130.85 Y136.925 E35.2397
G1 X131.174 Y135.607 E35.28485
G1 X131.907 Y134.194 E35.33779
G0 F6000 X132.23 Y134.439
G1 F1200 X133.227 Y133.508 E35.38316
G1 X134.442 Y132.785 E35.43019
G1 X135.87 Y132.5 E35.47862
G1 X146.779 Y132.5 E35.84145
G1 X148 Y132.8 E35.88327
G1 X149.311 Y133.48 E35.93239
G1 X150.242 Y134.477 E35.97776
G1 X150.931 Y135.635 E36.02258
G1 X150.977 Y135.773 E36.02742
G1 X152.124 Y134.324 E36.08888
G1 X153.262 Y133.388 E36.13789
G1 X155.418 Y132.28 E36.21851
G1 X156.84 Y131.942 E36.26713
G1 X158.525 Y132.075 E36.32335
G1 X159.462 Y132.5 E36.35757
G1 X163.518 Y132.5 E36.49247
G1 X163.675 Y132.456 E36.49789
G1 X164.867 Y132.241 E36.53818
G1 X166.387 Y132.36 E36.58889
G1 X168.324 Y133.044 E36.65721
G1 X169.934 Y134.389 E36.72699
G1 X170.807 Y135.469 E36.77318
G1 X171.611 Y137.117 E36.83417
G1 X171.949 Y138.75 E36.88963
G1 X171.939 Y140.99 E36.96413
G1 X171.525 Y142.712 E37.02304
G1 X170.894 Y143.987 E37.07036
G1 X169.841 Y145.272 E37.12561
G1 X168.896 Y146.077 E37.1669
G1 X168.75 Y146.168 E37.17262
G1 X168.75 Y163.029 E37.73342
G1 X168.45 Y164.25 E37.77524
G1 X167.77 Y165.561 E37.82436
G1 X166.773 Y166.492 E37.86973
G1 X165.558 Y167.215 E37.91676
G1 X164.13 Y167.5 E37.96519
G1 X135.721 Y167.5 E38.91007
G1 X134.5 Y167.2 E38.95189
G1 X133.189 Y166.52 E39.00101
G1 X132.258 Y165.523 E39.04638
G1 X131.535 Y164.308 E39.09341
G1 X131.25 Y162.88 E39.14184
G1 X131.25 Y136.971 E40.00358
G1 X131.55 Y135.75 E40.0454
G1 X132.23 Y134.439 E40.09452
G0 F6000 X132.553 Y134.684
G1 F1200 X133.466 Y133.832 E40.13605
G1 X134.59 Y133.163 E40.17956
G1 X135.908 Y132.9 E40.22426
G1 X146.733 Y132.9 E40.5843
G1 X147.857 Y133.176 E40.62279
G1 X149.066 Y133.803 E40.66809
G1 X149.918 Y134.716 E40.70963
G1 X150.587 Y135.84 E40.75313
G1 X150.828 Y137.048 E40.7941
G1 X151.371 Y135.92 E40.83574
G1 X152.412 Y134.605 E40.89152
G1 X153.482 Y133.725 E40.9376
G1 X155.56 Y132.657 E41.01531
G1 X156.869 Y132.346 E41.06006
G1 X158.425 Y132.469 E41.11197
G1 X159.377 Y132.9 E41.14673
G1 X163.577 Y132.9 E41.28642
G1 X163.746 Y132.85 E41.29228
G1 X164.888 Y132.644 E41.33088
G1 X166.305 Y132.755 E41.37815
G1 X168.123 Y133.397 E41.44228
G1 X169.648 Y134.671 E41.50837
G1 X170.466 Y135.683 E41.55165
G1 X171.229 Y137.247 E41.60953
G1 X171.549 Y138.791 E41.66198
G1 X171.539 Y140.942 E41.73352
G1 X171.146 Y142.577 E41.78945
G1 X170.556 Y143.769 E41.83369
G1 X169.555 Y144.991 E41.88623
G1 X168.637 Y145.773 E41.92634
G1 X168.35 Y145.933 E41.93726
G1 X168.35 Y162.983 E42.50435
G1 X168.074 Y164.107 E42.54284
G1 X167.447 Y165.316 E42.58814
G1 X166.534 Y166.168 E42.62968
G1 X165.41 Y166.837 E42.67318
G1 X164.092 Y167.1 E42.71788
G1 X135.767 Y167.1 E43.65998
G1 X134.643 Y166.824 E43.69847
G1 X133.434 Y166.197 E43.74377
G1 X132.582 Y165.284 E43.7853
G1 X131.913 Y164.16 E43.82881
G1 X131.65 Y162.842 E43.87351
G1 X131.65 Y137.017 E44.73245
G1 X131.926 Y135.893 E44.77095
G1 X132.553 Y134.684 E44.81625
G0 F6000 X132.875 Y134.931
G1 F1200 X133.708 Y134.154 E44.85413
G1 X134.738 Y133.541 E44.894
G1 X135.946 Y133.3 E44.93497
G1 X146.686 Y133.3 E45.29218
G1 X147.715 Y133.553 E45.32743
G1 X148.819 Y134.125 E45.36878
G1 X149.596 Y134.958 E45.40667
G1 X150.209 Y135.988 E45.44654
G1 X150.45 Y137.196 E45.48751
G1 X150.45 Y148.91 E45.87711
G1 X154.05 Y148.91 E45.99685
G1 X154.05 Y145.799 E46.10032
G1 X152.708 Y144.683 E46.15838
G1 X151.989 Y143.888 E46.19403
G1 X151.181 Y142.233 E46.25528
G1 X150.85 Y140.819 E46.30358
G1 X150.861 Y138.679 E46.37476
G1 X151.229 Y137.136 E46.42752
G1 X151.71 Y136.136 E46.46443
G1 X152.7 Y134.886 E46.51746
G1 X153.702 Y134.062 E46.56061
G1 X155.702 Y133.034 E46.63541
G1 X156.898 Y132.75 E46.67629
G1 X158.324 Y132.863 E46.72387
G1 X159.175 Y133.245 E46.75489
G1 X159.271 Y133.3 E46.75857
G1 X163.637 Y133.3 E46.90379
G1 X163.86 Y133.234 E46.91152
G1 X164.908 Y133.047 E46.94693
G1 X166.223 Y133.15 E46.9908
G1 X167.922 Y133.75 E47.05073
G1 X169.362 Y134.953 E47.11314
G1 X170.125 Y135.897 E47.15351
G1 X170.847 Y137.377 E47.20828
G1 X171.149 Y138.832 E47.2577
G1 X171.139 Y140.894 E47.32629
G1 X170.767 Y142.442 E47.37924
G1 X170.218 Y143.551 E47.4204
G1 X169.269 Y144.71 E47.47022
G1 X168.378 Y145.469 E47.50915
G1 X167.95 Y145.689 E47.52516
G1 X167.95 Y162.936 E48.09879
G1 X167.697 Y163.965 E48.13404
G1 X167.125 Y165.069 E48.17539
G1 X166.292 Y165.846 E48.21328
G1 X165.262 Y166.459 E48.25315
G1 X164.054 Y166.7 E48.29412
G1 X135.814 Y166.7 E49.23338
G1 X134.785 Y166.447 E49.26863
G1 X133.681 Y165.875 E49.30998
G1 X132.904 Y165.042 E49.34787
G1 X132.291 Y164.012 E49.38773
G1 X132.05 Y162.804 E49.4287
G1 X132.05 Y137.064 E50.28482
G1 X132.303 Y136.035 E50.32006
G1 X132.875 Y134.931 E50.36142
G0 F6000 X133.197 Y135.178
G1 F1200 X133.95 Y134.476 E50.39566
G1 X134.886 Y133.919 E50.43189
G1 X135.984 Y133.7 E50.46913
G1 X146.64 Y133.7 E50.82355
G1 X147.572 Y133.929 E50.85547
G1 X148.572 Y134.447 E50.89292
G1 X149.274 Y135.2 E50.92716
G1 X149.831 Y136.136 E50.96339
G1 X150.05 Y137.234 E51.00063
G1 X150.05 Y149.31 E51.40228
G1 X154.45 Y149.31 E51.54862
G1 X154.45 Y145.54 E51.67401
G1 X154.248 Y145.443 E51.68147
G1 X152.964 Y144.375 E51.73702
G1 X152.323 Y143.662 E51.7689
G1 X151.56 Y142.099 E51.82675
G1 X151.25 Y140.776 E51.87195
G1 X151.261 Y138.727 E51.9401
G1 X151.608 Y137.272 E51.98985
G1 X152.053 Y136.346 E52.02402
G1 X152.985 Y135.17 E52.07393
G1 X153.922 Y134.399 E52.11429
G1 X155.843 Y133.412 E52.18612
G1 X156.928 Y133.154 E52.22321
G1 X158.224 Y133.257 E52.26645
G1 X159.011 Y133.61 E52.29514
G1 X159.16 Y133.7 E52.30093
G1 X163.698 Y133.7 E52.45187
G1 X163.93 Y133.628 E52.45995
G1 X164.928 Y133.45 E52.49366
G1 X166.141 Y133.545 E52.53413
G1 X167.721 Y134.103 E52.58986
G1 X169.076 Y135.235 E52.64859
G1 X169.784 Y136.111 E52.68605
G1 X170.465 Y137.507 E52.73771
G1 X170.749 Y138.873 E52.78412
G1 X170.739 Y140.845 E52.84971
G1 X170.388 Y142.304 E52.89962
G1 X169.879 Y143.333 E52.9378
G1 X168.982 Y144.429 E52.98491
G1 X168.154 Y145.134 E53.02108
G1 X167.55 Y145.445 E53.04367
G1 X167.55 Y162.89 E53.6239
G1 X167.321 Y163.822 E53.65582
G1 X166.803 Y164.822 E53.69327
G1 X166.05 Y165.524 E53.72751
G1 X165.114 Y166.081 E53.76374
G1 X164.016 Y166.3 E53.80098
G1 X135.86 Y166.3 E54.73745
G1 X134.928 Y166.071 E54.76937
G1 X133.928 Y165.553 E54.80683
G1 X133.226 Y164.8 E54.84107
G1 X132.669 Y163.864 E54.8773
G1 X132.45 Y162.766 E54.91454
G1 X132.45 Y137.11 E55.76786
G1 X132.679 Y136.178 E55.79978
G1 X133.197 Y135.178 E55.83724
G0 F6000 X133.519 Y135.425
