;FLAVOR:Marlin
;TIME:5178
;Filament used: 3.60935m
;Layer height: 0.2
;MINX:128.45
;MINY:126.701
;MINZ:0.2
;MAXX:174.744
;MAXY:170.3
;MAXZ:20
;Generated with Cura_SteamEngine 5.4.0
M140 S60
M105
M190 S60
M104 S210
M105
M109 S210
M82 ;absolute extrusion mode
M220 S100 ;Reset Feedrate
M221 S100 ;Reset Flowrate

M280 P0 S160 ;reset bltouch
G28 ;Home
G29 A ; enable UBL
G92 E0 ;Reset Extruder
G1 Z2.0 F3000 ;Move Z Axis up
G1 X10.1 Y20 Z0.28 F5000.0 ;Move to start position
G1 X10.1 Y200.0 Z0.28 F1500.0 E15 ;Draw the first line
G1 X10.4 Y200.0 Z0.28 F5000.0 ;Move to side a little
G1 X10.4 Y20 Z0.28 F1500.0 E30 ;Draw the second line
G92 E0 ;Reset Extruder
G1 Z2.0 F3000 ;Move Z Axis up
G92 E0
G92 E0
G1 F2100 E-1.5
;LAYER_COUNT:100
;LAYER:0
M107
G0 F6000 X129.969 Y132.723 Z0.2
;TYPE:SKIRT
G1 F2100 E0
G1 F1200 X131.53 Y131.264 E0.07107
G1 X133.421 Y130.136 E0.1443
G1 X133.768 Y130.032 E0.15635
G1 X134.681 Y129.111 E0.19948
G1 X136.13 Y128.019 E0.25983
G1 X137.557 Y127.22 E0.31423
G1 X139.981 Y126.704 E0.39665
G1 X143.859 Y126.701 E0.52564
G1 X146.635 Y127.493 E0.62165
G1 X148.53 Y128.882 E0.6998
G1 X149.904 Y130.165 E0.76232
G1 X150.426 Y130.747 E0.78833
G1 X150.611 Y130.998 E0.7987
G1 X150.969 Y131.185 E0.81213
G1 X151.214 Y131.415 E0.82331
G1 X151.549 Y131.137 E0.83779
G1 X154.396 Y129.633 E0.94488
G1 X156.263 Y129.211 E1.00854
G1 X157.469 Y129.089 E1.04886
G1 X159.718 Y129.557 E1.12526
G1 X160.119 Y129.7 E1.13942
G1 X163.105 Y129.7 E1.23874
G1 X163.207 Y129.679 E1.2422
G1 X164.449 Y129.515 E1.28387
G1 X166.741 Y129.496 E1.3601
G1 X169.565 Y130.494 E1.45972
G1 X169.827 Y130.636 E1.46964
G1 X172.052 Y132.573 E1.56775
G1 X173.103 Y133.742 E1.62004
G1 X174.451 Y136.618 E1.72568
G1 X174.744 Y139.38 E1.81806
G1 X174.679 Y141.52 E1.88927
G1 X174.489 Y142.688 E1.92863
G1 X173.403 Y145.356 E2.02444
G1 X171.942 Y147.107 E2.10028
G1 X171.55 Y147.484 E2.11837
G1 X171.55 Y163.353 E2.64618
G1 X171.084 Y165.249 E2.71112
G1 X170.031 Y167.277 E2.78712
G1 X168.47 Y168.736 E2.85818
G1 X166.447 Y169.943 E2.93654
G1 X164.729 Y170.225 E2.99444
G1 X135.397 Y170.3 E3.97003
G1 X133.501 Y169.834 E4.03497
G1 X131.473 Y168.781 E4.11097
G1 X130.014 Y167.22 E4.18204
G1 X128.807 Y165.197 E4.26039
G1 X128.525 Y163.479 E4.31829
G1 X128.45 Y136.647 E5.21073
G1 X128.916 Y134.751 E5.27567
G1 X129.969 Y132.723 E5.35167
G0 F6000 X130.292 Y132.968
G1 F1200 X131.769 Y131.588 E5.4189
G1 X133.626 Y130.48 E5.49083
G1 X133.974 Y130.393 E5.50276
G1 X134.965 Y129.393 E5.54958
G1 X136.325 Y128.368 E5.60623
G1 X137.7 Y127.598 E5.65864
G1 X140.022 Y127.104 E5.7376
G1 X143.802 Y127.101 E5.86332
G1 X146.456 Y127.858 E5.95512
G1 X148.293 Y129.205 E6.03088
G1 X149.606 Y130.432 E6.09065
G1 X150.128 Y131.014 E6.11665
G1 X150.344 Y131.311 E6.12887
G1 X150.784 Y131.54 E6.14537
G1 X151.18 Y131.964 E6.16466
G1 X151.77 Y131.473 E6.19019
G1 X154.537 Y130.011 E6.29428
G1 X156.303 Y129.609 E6.35452
G1 X157.447 Y129.493 E6.39277
G1 X159.584 Y129.934 E6.46534
G1 X160.05 Y130.1 E6.48179
G1 X163.148 Y130.1 E6.58483
G1 X163.259 Y130.076 E6.58861
G1 X164.501 Y129.912 E6.63028
G1 X166.675 Y129.897 E6.70259
G1 X169.375 Y130.846 E6.79777
G1 X169.599 Y130.967 E6.80624
G1 X171.754 Y132.84 E6.90121
G1 X172.766 Y133.966 E6.95156
G1 X174.06 Y136.726 E7.05295
G1 X174.344 Y139.369 E7.14136
G1 X174.284 Y141.456 E7.2108
G1 X174.101 Y142.581 E7.24871
G1 X173.056 Y145.147 E7.34086
G1 X171.665 Y146.819 E7.4132
G1 X171.15 Y147.314 E7.43696
G1 X171.15 Y163.307 E7.96889
G1 X170.708 Y165.106 E8.0305
G1 X169.708 Y167.032 E8.10268
G1 X168.231 Y168.412 E8.16991
G1 X166.307 Y169.56 E8.24443
G1 X164.664 Y169.83 E8.29981
G1 X135.443 Y169.9 E9.27171
G1 X133.644 Y169.458 E9.33332
G1 X131.718 Y168.458 E9.4055
G1 X130.338 Y166.981 E9.47273
G1 X129.19 Y165.057 E9.54725
G1 X128.92 Y163.414 E9.60263
G1 X128.85 Y136.693 E10.49138
G1 X129.292 Y134.894 E10.55299
G1 X130.292 Y132.968 E10.62517
G0 F6000 X130.615 Y133.213
G1 F1200 X132.011 Y131.909 E10.68871
G1 X133.831 Y130.823 E10.7592
G1 X134.167 Y130.767 E10.77053
G1 X135.249 Y129.675 E10.82166
G1 X136.52 Y128.717 E10.8746
G1 X137.843 Y127.976 E10.92503
G1 X140.063 Y127.504 E11.00052
G1 X143.745 Y127.501 E11.12298
G1 X146.278 Y128.224 E11.2106
G1 X148.057 Y129.528 E11.28396
G1 X149.308 Y130.699 E11.34095
G1 X149.83 Y131.281 E11.36695
G1 X150.075 Y131.622 E11.38092
G1 X150.537 Y131.862 E11.39824
G1 X151.145 Y132.514 E11.42789
G1 X151.995 Y131.807 E11.46466
G1 X154.678 Y130.389 E11.56559
G1 X156.392 Y129.999 E11.62406
G1 X157.426 Y129.897 E11.65862
G1 X159.45 Y130.311 E11.72733
G1 X159.98 Y130.5 E11.74604
G1 X163.19 Y130.5 E11.85281
G1 X163.311 Y130.473 E11.85693
G1 X164.553 Y130.309 E11.8986
G1 X166.609 Y130.297 E11.96698
G1 X169.242 Y131.223 E12.05981
G1 X169.371 Y131.298 E12.06478
G1 X171.456 Y133.107 E12.15659
G1 X172.429 Y134.19 E12.20501
G1 X173.669 Y136.834 E12.30214
G1 X173.944 Y139.358 E12.38659
G1 X173.889 Y141.392 E12.45426
G1 X173.713 Y142.474 E12.49072
G1 X172.71 Y144.936 E12.57914
G1 X171.357 Y146.563 E12.64953
G1 X170.75 Y147.143 E12.67745
G1 X170.75 Y163.26 E13.2135
G1 X170.331 Y164.964 E13.27187
G1 X169.385 Y166.787 E13.34018
G1 X167.989 Y168.091 E13.40371
G1 X166.169 Y169.177 E13.4742
G1 X164.599 Y169.435 E13.52712
G1 X135.49 Y169.5 E14.4953
G1 X133.786 Y169.081 E14.55366
G1 X131.963 Y168.135 E14.62197
G1 X130.659 Y166.739 E14.68551
G1 X129.573 Y164.919 E14.756
G1 X129.315 Y163.349 E14.80892
G1 X129.25 Y136.74 E15.69394
G1 X129.669 Y135.036 E15.7523
G1 X130.615 Y133.213 E15.82061
G0 F6000 X130.938 Y133.458
G1 F1200 X132.253 Y132.23 E15.88045
G1 X133.969 Y131.206 E15.94692
G1 X134.36 Y131.141 E15.9601
G1 X135.533 Y129.957 E16.01554
G1 X136.715 Y129.066 E16.06477
G1 X137.986 Y128.354 E16.11322
G1 X140.104 Y127.904 E16.18524
G1 X143.688 Y127.901 E16.30444
G1 X146.099 Y128.589 E16.38784
G1 X147.82 Y129.851 E16.45882
G1 X149.034 Y130.991 E16.51421
G1 X149.505 Y131.514 E16.53762
G1 X149.806 Y131.933 E16.55477
G1 X150.29 Y132.184 E16.57291
G1 X151.109 Y133.064 E16.61289
G1 X152.216 Y132.143 E16.66079
G1 X154.819 Y130.767 E16.75872
G1 X156.481 Y130.389 E16.81541
G1 X157.405 Y130.301 E16.84628
G1 X159.316 Y130.688 E16.91113
G1 X159.91 Y130.9 E16.9321
G1 X163.237 Y130.9 E17.04276
G1 X163.363 Y130.87 E17.04707
G1 X164.605 Y130.706 E17.08874
G1 X166.543 Y130.697 E17.1532
G1 X169.109 Y131.6 E17.24367
G1 X171.158 Y133.374 E17.33382
G1 X172.092 Y134.414 E17.38031
G1 X173.278 Y136.942 E17.47318
G1 X173.544 Y139.348 E17.55369
G1 X173.494 Y141.328 E17.61957
G1 X173.325 Y142.367 E17.65458
G1 X172.364 Y144.727 E17.73933
G1 X171.081 Y146.274 E17.80618
G1 X170.35 Y146.973 E17.83982
G1 X170.35 Y163.214 E18.38
G1 X169.955 Y164.821 E18.43504
G1 X169.062 Y166.542 E18.49953
G1 X167.747 Y167.77 E18.55937
G1 X166.031 Y168.794 E18.62583
G1 X164.534 Y169.04 E18.67629
G1 X135.536 Y169.1 E19.64077
G1 X133.929 Y168.705 E19.69581
G1 X132.208 Y167.812 E19.7603
G1 X130.98 Y166.497 E19.82014
G1 X129.956 Y164.781 E19.8866
G1 X129.71 Y163.284 E19.93706
G1 X129.65 Y136.786 E20.81839
G1 X130.045 Y135.179 E20.87343
G1 X130.938 Y133.458 E20.93792
G0 F6000 X131.261 Y133.703
G1 F1200 X132.495 Y132.551 E20.99407
G1 X134.107 Y131.589 E21.0565
G1 X134.585 Y131.51 E21.07262
G1 X134.732 Y131.335 E21.08022
G1 X135.775 Y130.276 E21.12966
G1 X136.911 Y129.415 E21.17707
G1 X138.13 Y128.732 E21.22354
G1 X140.145 Y128.304 E21.29205
G1 X143.631 Y128.301 E21.408
G1 X145.921 Y128.955 E21.48721
G1 X147.546 Y130.143 E21.55416
G1 X148.76 Y131.283 E21.60955
G1 X149.18 Y131.747 E21.63037
G1 X149.537 Y132.244 E21.65072
G1 X150.045 Y132.507 E21.66975
G1 X151.124 Y133.667 E21.72244
G1 X151.358 Y133.377 E21.73483
G1 X152.437 Y132.479 E21.78152
G1 X154.96 Y131.145 E21.87645
G1 X156.57 Y130.779 E21.93136
G1 X157.383 Y130.705 E21.95851
G1 X159.184 Y131.066 E22.01961
G1 X159.718 Y131.252 E22.03841
G1 X159.823 Y131.3 E22.04225
G1 X163.293 Y131.3 E22.15767
G1 X163.416 Y131.266 E22.16191
G1 X164.607 Y131.106 E22.20188
G1 X166.476 Y131.097 E22.26404
G1 X168.904 Y131.952 E22.34966
G1 X170.86 Y133.641 E22.43561
G1 X171.755 Y134.638 E22.48018
G1 X172.887 Y137.05 E22.5688
G1 X173.144 Y139.339 E22.64541
G1 X173.099 Y141.264 E22.70945
G1 X172.937 Y142.26 E22.74301
G1 X172.017 Y144.519 E22.82414
G1 X170.804 Y145.985 E22.88742
G1 X169.95 Y146.802 E22.92673
G1 X169.95 Y163.168 E23.47107
G1 X169.579 Y164.678 E23.52279
G1 X168.739 Y166.297 E23.58345
G1 X167.505 Y167.449 E23.6396
G1 X165.893 Y168.411 E23.70204
G1 X164.469 Y168.645 E23.75003
G1 X135.582 Y168.7 E24.71082
G1 X134.072 Y168.329 E24.76254
G1 X132.453 Y167.489 E24.8232
G1 X131.301 Y166.255 E24.87935
G1 X130.339 Y164.643 E24.94179
G1 X130.105 Y163.219 E24.98978
G1 X130.05 Y136.832 E25.86742
G1 X130.421 Y135.322 E25.91914
G1 X131.261 Y133.703 E25.9798
G0 F6000 X131.584 Y133.948
G1 F1200 X132.737 Y132.872 E26.03226
G1 X134.245 Y131.972 E26.09067
G1 X134.796 Y131.881 E26.10924
G1 X135.018 Y131.615 E26.12076
G1 X136.017 Y130.595 E26.16825
G1 X137.153 Y129.734 E26.21566
G1 X138.273 Y129.11 E26.2583
G1 X140.186 Y128.704 E26.32335
G1 X143.574 Y128.701 E26.43603
G1 X145.743 Y129.321 E26.51106
G1 X147.272 Y130.435 E26.57398
G1 X148.486 Y131.575 E26.62937
G1 X148.855 Y131.981 E26.64762
G1 X149.267 Y132.554 E26.67109
G1 X149.8 Y132.83 E26.69106
G1 X150.892 Y134.005 E26.74441
G1 X151.092 Y134.342 E26.75744
G1 X151.644 Y133.659 E26.78665
G1 X152.658 Y132.815 E26.83053
G1 X155.101 Y131.523 E26.92245
G1 X156.659 Y131.169 E26.97559
G1 X157.361 Y131.108 E26.99903
G1 X159.052 Y131.444 E27.05637
G1 X159.586 Y131.63 E27.07518
G1 X159.73 Y131.7 E27.0805
G1 X163.348 Y131.7 E27.20084
G1 X163.522 Y131.652 E27.20684
G1 X164.609 Y131.506 E27.24332
G1 X166.409 Y131.497 E27.30319
G1 X168.7 Y132.304 E27.38398
G1 X170.562 Y133.908 E27.46572
G1 X171.418 Y134.862 E27.50835
G1 X172.497 Y137.161 E27.59281
G1 X172.744 Y139.33 E27.66542
G1 X172.704 Y141.2 E27.72763
G1 X172.549 Y142.153 E27.75975
G1 X171.67 Y144.31 E27.83722
G1 X170.527 Y145.696 E27.89697
G1 X169.55 Y146.631 E27.94195
G1 X169.55 Y163.121 E28.49041
G1 X169.202 Y164.536 E28.53887
G1 X168.416 Y166.052 E28.59567
G1 X167.263 Y167.128 E28.64812
G1 X165.755 Y168.028 E28.70653
G1 X164.404 Y168.25 E28.75207
G1 X135.629 Y168.3 E29.70913
G1 X134.214 Y167.952 E29.7576
G1 X132.698 Y167.166 E29.81439
G1 X131.622 Y166.013 E29.86685
G1 X130.722 Y164.505 E29.92526
G1 X130.5 Y163.154 E29.97079
G1 X130.45 Y136.879 E30.84471
G1 X130.798 Y135.464 E30.89317
G1 X131.584 Y133.948 E30.94997
G0 F6000 X131.907 Y134.193
G1 F1200 X132.979 Y133.193 E30.99873
G1 X134.383 Y132.355 E31.05311
G1 X135.008 Y132.252 E31.07418
G1 X135.305 Y131.894 E31.08965
G1 X136.259 Y130.914 E31.13514
G1 X137.395 Y130.053 E31.18255
G1 X138.416 Y129.488 E31.22136
G1 X140.227 Y129.104 E31.28293
G1 X143.517 Y129.101 E31.39236
G1 X145.565 Y129.687 E31.46321
G1 X146.998 Y130.727 E31.5221
G1 X148.191 Y131.846 E31.5765
G1 X148.53 Y132.215 E31.59317
G1 X148.997 Y132.864 E31.61976
G1 X149.555 Y133.153 E31.64066
G1 X150.568 Y134.244 E31.69018
G1 X151.042 Y135.04 E31.72099
G1 X151.93 Y133.941 E31.76799
G1 X152.879 Y133.151 E31.80906
G1 X155.242 Y131.901 E31.89797
G1 X156.693 Y131.568 E31.94748
G1 X157.342 Y131.512 E31.96915
G1 X158.92 Y131.822 E32.02264
G1 X159.454 Y132.008 E32.04144
G1 X159.634 Y132.1 E32.04817
G1 X163.403 Y132.1 E32.17353
G1 X163.628 Y132.038 E32.18129
G1 X164.611 Y131.906 E32.21428
G1 X166.342 Y131.897 E32.27185
G1 X168.496 Y132.656 E32.34781
G1 X170.264 Y134.175 E32.42534
G1 X171.081 Y135.086 E32.46604
G1 X172.107 Y137.272 E32.54635
G1 X172.344 Y139.322 E32.61499
G1 X172.309 Y141.136 E32.67534
G1 X172.161 Y142.046 E32.706
G1 X171.324 Y144.1 E32.77977
G1 X170.218 Y145.441 E32.83759
G1 X169.327 Y146.29 E32.87852
G1 X169.15 Y146.4 E32.88545
G1 X169.15 Y163.075 E33.44006
G1 X168.826 Y164.393 E33.48521
G1 X168.093 Y165.807 E33.53818
G1 X167.021 Y166.807 E33.58694
G1 X165.617 Y167.645 E33.64132
G1 X164.339 Y167.855 E33.6844
G1 X135.675 Y167.9 E34.63777
G1 X134.357 Y167.576 E34.68291
G1 X132.943 Y166.843 E34.73588
G1 X131.943 Y165.771 E34.78464
G1 X131.105 Y164.367 E34.83902
G1 X130.895 Y163.089 E34.8821
G1 X130.85 Y136.925 E35.75232
G1 X131.174 Y135.607 E35.79746
G1 X131.907 Y134.193 E35.85044
G0 F6000 X132.229 Y134.44
G1 F1200 X133.224 Y133.512 E35.89569
G1 X134.521 Y132.738 E35.94593
G1 X135.22 Y132.623 E35.96949
G1 X135.593 Y132.172 E35.98895
G1 X136.501 Y131.233 E36.0324
G1 X137.637 Y130.372 E36.07981
G1 X138.559 Y129.866 E36.11479
G1 X140.268 Y129.504 E36.17289
G1 X143.46 Y129.501 E36.27906
G1 X145.387 Y130.053 E36.34573
G1 X146.763 Y131.051 E36.40226
G1 X147.896 Y132.117 E36.454
G1 X148.235 Y132.486 E36.47067
G1 X148.728 Y133.175 E36.49885
G1 X149.31 Y133.476 E36.52064
G1 X150.244 Y134.483 E36.56632
G1 X150.992 Y135.738 E36.61492
G1 X152.216 Y134.223 E36.6797
G1 X153.1 Y133.487 E36.71795
G1 X155.383 Y132.279 E36.80386
G1 X156.727 Y131.967 E36.84975
G1 X157.321 Y131.916 E36.86958
G1 X158.788 Y132.2 E36.91928
G1 X159.322 Y132.386 E36.93809
G1 X159.534 Y132.5 E36.94609
G1 X163.458 Y132.5 E37.07661
G1 X163.734 Y132.424 E37.08613
G1 X164.613 Y132.306 E37.11563
G1 X166.275 Y132.297 E37.1709
G1 X168.292 Y133.008 E37.24204
G1 X169.966 Y134.442 E37.31535
G1 X170.744 Y135.31 E37.35412
G1 X171.717 Y137.383 E37.43028
G1 X171.944 Y139.315 E37.49498
G1 X171.914 Y141.072 E37.55343
G1 X171.773 Y141.939 E37.58265
G1 X170.978 Y143.89 E37.65272
G1 X169.909 Y145.186 E37.70859
G1 X169.052 Y146 E37.74791
G1 X168.75 Y146.159 E37.75926
G1 X168.75 Y163.029 E38.32036
G1 X168.45 Y164.25 E38.36218
G1 X167.771 Y165.56 E38.41125
G1 X166.776 Y166.488 E38.4565
G1 X165.479 Y167.262 E38.50674
G1 X164.274 Y167.46 E38.54736
G1 X135.721 Y167.5 E39.49703
G1 X134.5 Y167.2 E39.53885
G1 X133.19 Y166.521 E39.58793
G1 X132.262 Y165.526 E39.63318
G1 X131.488 Y164.229 E39.68342
G1 X131.29 Y163.024 E39.72403
G1 X131.25 Y136.971 E40.59056
G1 X131.55 Y135.75 E40.63238
G1 X132.229 Y134.44 E40.68145
G0 F6000 X132.551 Y134.687
G1 F1200 X133.466 Y133.834 E40.72306
G1 X134.661 Y133.121 E40.76934
G1 X135.433 Y132.994 E40.79537
G1 X135.881 Y132.45 E40.81881
G1 X136.789 Y131.511 E40.86225
G1 X137.83 Y130.723 E40.90567
G1 X138.702 Y130.244 E40.93877
G1 X140.309 Y129.904 E40.9934
G1 X143.403 Y129.901 E41.0963
G1 X145.211 Y130.419 E41.15886
G1 X146.489 Y131.342 E41.21129
G1 X147.601 Y132.388 E41.26207
G1 X147.94 Y132.757 E41.27873
G1 X148.458 Y133.485 E41.30845
G1 X149.064 Y133.799 E41.33115
G1 X149.92 Y134.722 E41.37302
G1 X150.629 Y135.911 E41.41906
G1 X150.836 Y137.17 E41.4615
G1 X151.346 Y135.936 E41.50591
G1 X152.502 Y134.505 E41.5671
G1 X153.321 Y133.823 E41.60254
G1 X155.525 Y132.657 E41.68548
G1 X156.817 Y132.357 E41.72959
G1 X157.3 Y132.319 E41.74571
G1 X158.656 Y132.578 E41.79162
G1 X159.19 Y132.764 E41.81043
G1 X159.427 Y132.9 E41.81952
G1 X163.517 Y132.9 E41.95555
G1 X163.789 Y132.82 E41.96498
G1 X164.615 Y132.706 E41.99271
G1 X166.208 Y132.697 E42.0457
G1 X168.088 Y133.36 E42.112
G1 X169.668 Y134.709 E42.1811
G1 X170.407 Y135.534 E42.21794
G1 X171.328 Y137.495 E42.29
G1 X171.544 Y139.309 E42.35076
G1 X171.519 Y141.008 E42.40727
G1 X171.385 Y141.832 E42.43504
G1 X170.632 Y143.68 E42.50141
G1 X169.6 Y144.931 E42.55535
G1 X168.815 Y145.673 E42.59128
G1 X168.35 Y145.917 E42.60874
G1 X168.35 Y162.983 E43.17636
G1 X168.074 Y164.107 E43.21486
G1 X167.449 Y165.313 E43.26003
G1 X166.534 Y166.166 E43.30164
G1 X165.339 Y166.879 E43.34792
G1 X164.209 Y167.065 E43.38601
G1 X135.767 Y167.1 E44.332
G1 X134.643 Y166.824 E44.37049
G1 X133.437 Y166.199 E44.41567
G1 X132.584 Y165.284 E44.45728
G1 X131.871 Y164.089 E44.50356
G1 X131.685 Y162.959 E44.54165
G1 X131.65 Y137.017 E45.40449
G1 X131.926 Y135.893 E45.44298
G1 X132.551 Y134.687 E45.48816
G0 F6000 X132.873 Y134.934
G1 F1200 X133.708 Y134.156 E45.52612
G1 X134.801 Y133.504 E45.56845
G1 X135.646 Y133.365 E45.59693
G1 X136.169 Y132.728 E45.62434
G1 X137.077 Y131.789 E45.66779
G1 X138.022 Y131.074 E45.7072
G1 X138.844 Y130.623 E45.73839
G1 X140.35 Y130.304 E45.78959
G1 X143.346 Y130.301 E45.88923
G1 X145.035 Y130.785 E45.94767
G1 X146.215 Y131.633 E45.996
G1 X147.306 Y132.659 E46.04581
G1 X147.645 Y133.028 E46.06248
G1 X148.187 Y133.795 E46.09372
G1 X148.818 Y134.122 E46.11736
