;FLAVOR:Marlin
;TIME:429
;Filament used: 0.313981m
;Layer height: 0.2
;MINX:126.252
;MINY:126.252
;MINZ:0.2
;MAXX:173.748
;MAXY:173.748
;MAXZ:4
;Generated with Cura_SteamEngine 5.3.0
M140 S60
M105
M190 S60
M104 S210
M105
M109 S210
M82 ;absolute extrusion mode
M220 S100 ;Reset Feedrate
M221 S100 ;Reset Flowrate

M280 P0 S160 ;reset bltouch
G28 ;Home
G29 A ; enable UBL
G92 E0 ;Reset Extruder
G1 Z2.0 F3000 ;Move Z Axis up
G1 X10.1 Y20 Z0.28 F5000.0 ;Move to start position
G1 X10.1 Y200.0 Z0.28 F1500.0 E15 ;Draw the first line
G1 X10.4 Y200.0 Z0.28 F5000.0 ;Move to side a little
G1 X10.4 Y20 Z0.28 F1500.0 E30 ;Draw the second line
G92 E0 ;Reset Extruder
G1 Z2.0 F3000 ;Move Z Axis up
G92 E0
G92 E0
G1 F2100 E-1.5
;LAYER_COUNT:20
;LAYER:0
M107
G0 F6000 X133.664 Y132.753 Z0.2
;TYPE:SKIRT
G1 F2100 E0
G1 F1200 X134.39 Y132.091 E0.03268
G1 X135.453 Y131.228 E0.07822
G1 X136.2 Y130.673 E0.10917
G1 X136.901 Y130.192 E0.13745
G1 X137.856 Y129.591 E0.17498
G1 X138.607 Y129.163 E0.20373
G1 X139.356 Y128.765 E0.23194
G1 X140.099 Y128.405 E0.2594
G1 X141.051 Y127.996 E0.29386
G1 X142.406 Y127.497 E0.34189
G1 X143.223 Y127.235 E0.37042
G1 X144.012 Y127.019 E0.39763
G1 X144.795 Y126.829 E0.42443
G1 X145.619 Y126.658 E0.45242
G1 X146.437 Y126.522 E0.48
G1 X147.322 Y126.407 E0.50968
G1 X148.544 Y126.289 E0.55052
G1 X149.378 Y126.252 E0.57828
G1 X150.635 Y126.252 E0.62009
G1 X151.48 Y126.29 E0.64822
G1 X152.649 Y126.396 E0.68726
G1 X153.431 Y126.496 E0.71348
G1 X154.344 Y126.649 E0.74427
G1 X155.302 Y126.847 E0.77681
G1 X156.317 Y127.107 E0.81166
G1 X157.054 Y127.326 E0.83723
G1 X157.928 Y127.609 E0.86779
G1 X158.762 Y127.921 E0.8974
G1 X160.162 Y128.538 E0.94829
G1 X160.953 Y128.927 E0.97761
G1 X161.639 Y129.299 E1.00356
G1 X162.34 Y129.704 E1.03049
G1 X163.129 Y130.21 E1.06166
G1 X164.062 Y130.864 E1.09956
G1 X164.801 Y131.423 E1.13038
G1 X165.64 Y132.121 E1.16668
G1 X166.599 Y133.015 E1.21029
G1 X167.229 Y133.658 E1.24023
G1 X168.054 Y134.571 E1.28115
G1 X168.79 Y135.474 E1.3199
G1 X169.314 Y136.182 E1.3492
G1 X170.001 Y137.197 E1.38996
G1 X170.434 Y137.901 E1.41745
G1 X170.836 Y138.609 E1.44453
G1 X171.239 Y139.371 E1.4732
G1 X171.595 Y140.124 E1.5009
G1 X171.896 Y140.824 E1.52625
G1 X172.233 Y141.652 E1.55598
G1 X172.511 Y142.44 E1.58377
G1 X172.752 Y143.197 E1.6102
G1 X172.98 Y144.009 E1.63825
G1 X173.166 Y144.793 E1.66505
G1 X173.34 Y145.61 E1.69283
G1 X173.495 Y146.491 E1.72258
G1 X173.605 Y147.327 E1.75063
G1 X173.711 Y148.536 E1.79099
G1 X173.748 Y149.37 E1.81876
G1 X173.748 Y150.629 E1.86063
G1 X173.71 Y151.473 E1.88873
G1 X173.555 Y153.035 E1.94094
G1 X173.433 Y153.889 E1.96963
G1 X173.299 Y154.624 E1.99448
G1 X173.088 Y155.568 E2.02666
G1 X172.798 Y156.655 E2.06407
G1 X172.533 Y157.499 E2.0935
G1 X172.136 Y158.601 E2.13245
G1 X171.929 Y159.117 E2.15095
G1 X171.455 Y160.181 E2.18969
G1 X171.077 Y160.94 E2.21789
G1 X170.701 Y161.633 E2.24411
G1 X170.286 Y162.352 E2.27172
G1 X169.84 Y163.06 E2.29956
G1 X169.168 Y164.029 E2.33878
G1 X168.578 Y164.799 E2.37104
G1 X167.907 Y165.606 E2.40595
G1 X167.221 Y166.351 E2.43963
G1 X166.336 Y167.247 E2.48152
G1 X165.61 Y167.909 E2.5142
G1 X164.547 Y168.772 E2.55974
G1 X163.8 Y169.327 E2.59069
G1 X163.099 Y169.808 E2.61897
G1 X162.144 Y170.409 E2.6565
G1 X161.393 Y170.837 E2.68525
G1 X160.644 Y171.235 E2.71346
G1 X159.901 Y171.595 E2.74092
G1 X158.949 Y172.004 E2.77538
G1 X157.594 Y172.503 E2.8234
G1 X156.777 Y172.765 E2.85194
G1 X155.988 Y172.981 E2.87915
G1 X155.205 Y173.171 E2.90595
G1 X154.381 Y173.342 E2.93394
G1 X153.563 Y173.478 E2.96152
G1 X152.678 Y173.593 E2.9912
G1 X151.456 Y173.711 E3.03203
G1 X150.622 Y173.748 E3.0598
G1 X149.365 Y173.748 E3.10161
G1 X148.52 Y173.71 E3.12974
G1 X147.351 Y173.604 E3.16878
G1 X146.569 Y173.504 E3.195
G1 X145.656 Y173.351 E3.22579
G1 X144.698 Y173.153 E3.25833
G1 X143.683 Y172.893 E3.29318
G1 X142.946 Y172.674 E3.31875
G1 X142.072 Y172.391 E3.34931
G1 X141.238 Y172.079 E3.37892
G1 X139.813 Y171.451 E3.43072
G1 X139.066 Y171.076 E3.45852
G1 X138.337 Y170.684 E3.48605
G1 X137.614 Y170.261 E3.51391
G1 X136.869 Y169.785 E3.54331
G1 X135.909 Y169.118 E3.58219
G1 X135.196 Y168.57 E3.6121
G1 X134.292 Y167.818 E3.65121
G1 X133.412 Y166.997 E3.69124
G1 X132.77 Y166.345 E3.72167
G1 X132.026 Y165.529 E3.7584
G1 X131.201 Y164.515 E3.80188
G1 X130.661 Y163.781 E3.83219
G1 X130.006 Y162.813 E3.87106
G1 X129.548 Y162.071 E3.90006
G1 X129.166 Y161.391 E3.92601
G1 X128.755 Y160.616 E3.95518
G1 X128.4 Y159.871 E3.98263
G1 X128.094 Y159.164 E4.00825
G1 X127.767 Y158.352 E4.03737
G1 X127.479 Y157.542 E4.06596
G1 X127.249 Y156.804 E4.09167
G1 X127.021 Y155.994 E4.11966
G1 X126.834 Y155.207 E4.14656
G1 X126.66 Y154.39 E4.17435
G1 X126.505 Y153.509 E4.2041
G1 X126.395 Y152.672 E4.23218
G1 X126.289 Y151.464 E4.27251
G1 X126.252 Y150.63 E4.30028
G1 X126.252 Y149.371 E4.34215
G1 X126.29 Y148.527 E4.37025
G1 X126.445 Y146.962 E4.42256
G1 X126.571 Y146.111 E4.45117
G1 X126.722 Y145.291 E4.4789
G1 X126.913 Y144.435 E4.50807
G1 X127.24 Y143.227 E4.5497
G1 X127.616 Y142.067 E4.59026
G1 X128.053 Y140.923 E4.63099
G1 X128.545 Y139.819 E4.67119
G1 X128.923 Y139.06 E4.69939
G1 X129.299 Y138.367 E4.72561
G1 X129.714 Y137.648 E4.75322
G1 X130.16 Y136.94 E4.78105
G1 X130.832 Y135.971 E4.82028
G1 X131.422 Y135.201 E4.85254
G1 X132.093 Y134.394 E4.88745
G1 X132.779 Y133.649 E4.92113
G1 X133.664 Y132.753 E4.96302
G0 F6000 X133.934 Y133.049
G1 F1200 X134.66 Y132.387 E4.9957
G1 X135.705 Y131.539 E5.04046
G1 X136.427 Y131.003 E5.07036
G1 X137.114 Y130.531 E5.09809
G1 X138.069 Y129.93 E5.13562
G1 X138.795 Y129.516 E5.16341
G1 X139.531 Y129.125 E5.19113
G1 X140.257 Y128.773 E5.21797
G1 X141.209 Y128.364 E5.25243
G1 X142.528 Y127.878 E5.29918
G1 X143.329 Y127.621 E5.32716
G1 X144.106 Y127.408 E5.35396
G1 X144.876 Y127.221 E5.38031
G1 X145.685 Y127.053 E5.4078
G1 X146.489 Y126.919 E5.43491
G1 X147.36 Y126.805 E5.46412
G1 X148.562 Y126.689 E5.50429
G1 X149.396 Y126.652 E5.53205
G1 X150.617 Y126.652 E5.57266
G1 X151.462 Y126.69 E5.6008
G1 X152.598 Y126.793 E5.63874
G1 X153.38 Y126.893 E5.66496
G1 X154.263 Y127.041 E5.69474
G1 X155.221 Y127.239 E5.72727
G1 X156.204 Y127.491 E5.76102
G1 X156.931 Y127.706 E5.78624
G1 X157.788 Y127.984 E5.81621
G1 X158.622 Y128.296 E5.84582
G1 X159.986 Y128.897 E5.8954
G1 X160.762 Y129.278 E5.92415
G1 X161.439 Y129.646 E5.94978
G1 X162.124 Y130.041 E5.97608
G1 X162.899 Y130.538 E6.0067
G1 X163.832 Y131.192 E6.0446
G1 X164.545 Y131.73 E6.0743
G1 X165.367 Y132.414 E6.10987
G1 X166.313 Y133.295 E6.15287
G1 X166.932 Y133.926 E6.18227
G1 X167.744 Y134.824 E6.22253
G1 X168.468 Y135.712 E6.26064
G1 X168.992 Y136.42 E6.28994
G1 X169.66 Y137.407 E6.32958
G1 X170.086 Y138.099 E6.35661
G1 X170.482 Y138.796 E6.38327
G1 X170.877 Y139.542 E6.41134
G1 X171.233 Y140.295 E6.43905
G1 X171.526 Y140.975 E6.46367
G1 X171.856 Y141.785 E6.49276
G1 X172.13 Y142.561 E6.52014
G1 X172.367 Y143.305 E6.54611
G1 X172.591 Y144.102 E6.57364
G1 X172.775 Y144.876 E6.6001
G1 X172.946 Y145.679 E6.62741
G1 X173.098 Y146.543 E6.65659
G1 X173.208 Y147.379 E6.68463
G1 X173.311 Y148.554 E6.72386
G1 X173.348 Y149.388 E6.75163
G1 X173.348 Y150.611 E6.79231
G1 X173.31 Y151.455 E6.82041
G1 X173.159 Y152.978 E6.87131
G1 X173.039 Y153.817 E6.8995
G1 X172.905 Y154.552 E6.92435
G1 X172.701 Y155.465 E6.95546
G1 X172.416 Y156.535 E6.99229
G1 X172.151 Y157.379 E7.02172
G1 X171.765 Y158.452 E7.05964
G1 X171.564 Y158.954 E7.07763
G1 X171.097 Y160.003 E7.11582
G1 X170.726 Y160.749 E7.14353
G1 X170.354 Y161.433 E7.16943
G1 X169.947 Y162.139 E7.19653
G1 X169.511 Y162.832 E7.22376
G1 X168.85 Y163.786 E7.26236
G1 X168.27 Y164.543 E7.29408
G1 X167.599 Y165.35 E7.32899
G1 X166.936 Y166.07 E7.36154
G1 X166.066 Y166.951 E7.40273
G1 X165.34 Y167.613 E7.4354
G1 X164.295 Y168.461 E7.48017
G1 X163.573 Y168.997 E7.51007
G1 X162.886 Y169.469 E7.5378
G1 X161.931 Y170.07 E7.57533
G1 X161.205 Y170.484 E7.60312
G1 X160.469 Y170.875 E7.63084
G1 X159.743 Y171.227 E7.65768
G1 X158.791 Y171.636 E7.69214
G1 X157.472 Y172.122 E7.73889
G1 X156.671 Y172.379 E7.76687
G1 X155.894 Y172.592 E7.79367
G1 X155.124 Y172.779 E7.82002
G1 X154.315 Y172.947 E7.8475
G1 X153.511 Y173.081 E7.87461
G1 X152.64 Y173.195 E7.90383
G1 X151.438 Y173.311 E7.944
G1 X150.604 Y173.348 E7.97176
G1 X149.383 Y173.348 E8.01237
G1 X148.538 Y173.31 E8.04051
G1 X147.402 Y173.207 E8.07844
G1 X146.62 Y173.107 E8.10467
G1 X145.737 Y172.959 E8.13444
G1 X144.779 Y172.761 E8.16698
G1 X143.796 Y172.509 E8.20073
G1 X143.069 Y172.294 E8.22595
G1 X142.212 Y172.016 E8.25591
G1 X141.378 Y171.704 E8.28553
G1 X139.992 Y171.094 E8.3359
G1 X139.255 Y170.724 E8.36332
G1 X138.539 Y170.339 E8.39036
G1 X137.829 Y169.924 E8.41772
G1 X137.097 Y169.457 E8.4466
G1 X136.153 Y168.801 E8.48483
G1 X135.452 Y168.262 E8.51424
G1 X134.548 Y167.51 E8.55335
G1 X133.697 Y166.716 E8.59206
G1 X133.066 Y166.075 E8.62198
G1 X132.322 Y165.259 E8.65871
G1 X131.523 Y164.278 E8.70079
G1 X130.992 Y163.557 E8.73057
G1 X130.346 Y162.603 E8.76889
G1 X129.897 Y161.875 E8.79734
G1 X129.519 Y161.204 E8.82295
G1 X129.116 Y160.444 E8.85157
G1 X128.767 Y159.712 E8.87854
G1 X128.465 Y159.015 E8.9038
G1 X128.144 Y158.218 E8.93238
G1 X127.861 Y157.423 E8.96045
G1 X127.634 Y156.696 E8.98578
G1 X127.41 Y155.901 E9.01325
G1 X127.225 Y155.124 E9.03982
G1 X127.054 Y154.321 E9.06712
G1 X126.902 Y153.457 E9.0963
G1 X126.792 Y152.62 E9.12438
G1 X126.689 Y151.446 E9.16358
G1 X126.652 Y150.612 E9.19134
G1 X126.652 Y149.389 E9.23202
G1 X126.69 Y148.545 E9.26012
G1 X126.841 Y147.02 E9.31109
G1 X126.964 Y146.183 E9.33923
G1 X127.112 Y145.378 E9.36645
G1 X127.299 Y144.539 E9.39504
G1 X127.62 Y143.35 E9.436
G1 X127.99 Y142.21 E9.47587
G1 X128.427 Y141.066 E9.5166
G1 X128.903 Y139.997 E9.55552
G1 X129.274 Y139.251 E9.58323
G1 X129.646 Y138.567 E9.60912
G1 X130.053 Y137.861 E9.63623
G1 X130.489 Y137.168 E9.66346
G1 X131.15 Y136.214 E9.70206
G1 X131.73 Y135.457 E9.73378
G1 X132.401 Y134.65 E9.76869
G1 X133.064 Y133.93 E9.80124
G1 X133.934 Y133.049 E9.84242
G0 F6000 X134.204 Y133.345
G1 F1200 X134.93 Y132.683 E9.8751
G1 X135.943 Y131.86 E9.91851
G1 X136.653 Y131.333 E9.94792
G1 X137.327 Y130.87 E9.97512
G1 X138.282 Y130.269 E10.01265
G1 X138.983 Y129.869 E10.03949
G1 X139.705 Y129.485 E10.06669
G1 X140.415 Y129.141 E10.09293
G1 X141.367 Y128.732 E10.12739
G1 X142.65 Y128.259 E10.17287
G1 X143.435 Y128.007 E10.2003
G1 X144.2 Y127.797 E10.22668
G1 X144.957 Y127.613 E10.25259
G1 X145.751 Y127.448 E10.27956
G1 X146.541 Y127.316 E10.3062
G1 X147.398 Y127.203 E10.33496
G1 X148.58 Y127.089 E10.37445
G1 X149.414 Y127.052 E10.40222
G1 X150.599 Y127.052 E10.44163
G1 X151.444 Y127.09 E10.46976
G1 X152.547 Y127.19 E10.5066
G1 X153.329 Y127.29 E10.53282
G1 X154.182 Y127.433 E10.56159
G1 X155.122 Y127.627 E10.59351
G1 X156.091 Y127.875 E10.62678
G1 X156.807 Y128.086 E10.65161
G1 X157.648 Y128.359 E10.68102
G1 X158.482 Y128.671 E10.71063
G1 X159.81 Y129.256 E10.7589
G1 X160.571 Y129.63 E10.7871
G1 X161.239 Y129.992 E10.81237
G1 X161.908 Y130.378 E10.83806
G1 X162.67 Y130.866 E10.86815
G1 X163.591 Y131.511 E10.90555
G1 X164.289 Y132.037 E10.93462
G1 X165.094 Y132.707 E10.96946
G1 X166.04 Y133.588 E11.01245
G1 X166.635 Y134.194 E11.0407
G1 X167.434 Y135.077 E11.08031
G1 X168.146 Y135.95 E11.11777
G1 X168.67 Y136.658 E11.14707
G1 X169.319 Y137.617 E11.18559
G1 X169.738 Y138.297 E11.21215
G1 X170.128 Y138.983 E11.2384
G1 X170.523 Y139.729 E11.26647
G1 X170.866 Y140.453 E11.29312
G1 X171.156 Y141.126 E11.31749
G1 X171.479 Y141.918 E11.34594
G1 X171.749 Y142.682 E11.37289
G1 X171.982 Y143.413 E11.39841
G1 X172.202 Y144.195 E11.42543
G1 X172.384 Y144.959 E11.45155
G1 X172.552 Y145.748 E11.47838
G1 X172.701 Y146.595 E11.50699
G1 X172.811 Y147.431 E11.53503
G1 X172.911 Y148.572 E11.57313
G1 X172.948 Y149.406 E11.60089
G1 X172.948 Y150.593 E11.64037
G1 X172.91 Y151.437 E11.66847
G1 X172.763 Y152.921 E11.71807
G1 X172.645 Y153.745 E11.74576
G1 X172.511 Y154.48 E11.77061
G1 X172.314 Y155.362 E11.80066
G1 X172.034 Y156.415 E11.8369
G1 X171.769 Y157.259 E11.86633
G1 X171.393 Y158.304 E11.90327
G1 X171.199 Y158.791 E11.9207
G1 X170.739 Y159.825 E11.95834
G1 X170.374 Y160.558 E11.98558
G1 X170.008 Y161.233 E12.01112
G1 X169.608 Y161.926 E12.03773
G1 X169.182 Y162.604 E12.06436
G1 X168.532 Y163.543 E12.10234
G1 X167.962 Y164.287 E12.13352
G1 X167.291 Y165.094 E12.16842
G1 X166.652 Y165.789 E12.19983
G1 X165.796 Y166.655 E12.24033
G1 X165.07 Y167.317 E12.273
G1 X164.057 Y168.14 E12.31641
G1 X163.347 Y168.667 E12.34582
G1 X162.673 Y169.13 E12.37302
G1 X161.718 Y169.731 E12.41055
G1 X161.017 Y170.131 E12.43739
G1 X160.295 Y170.515 E12.46459
G1 X159.585 Y170.859 E12.49083
G1 X158.633 Y171.268 E12.5253
G1 X157.35 Y171.741 E12.57078
G1 X156.565 Y171.993 E12.5982
G1 X155.8 Y172.203 E12.62458
G1 X155.043 Y172.387 E12.65049
G1 X154.249 Y172.552 E12.67747
G1 X153.459 Y172.684 E12.70411
G1 X152.602 Y172.797 E12.73286
G1 X151.42 Y172.911 E12.77235
G1 X150.586 Y172.948 E12.80012
G1 X149.401 Y172.948 E12.83953
G1 X148.556 Y172.91 E12.86767
G1 X147.453 Y172.81 E12.9045
G1 X146.671 Y172.71 E12.93072
G1 X145.818 Y172.567 E12.95949
G1 X144.878 Y172.373 E12.99141
G1 X143.909 Y172.125 E13.02468
G1 X143.193 Y171.914 E13.04951
G1 X142.352 Y171.641 E13.07892
G1 X141.518 Y171.329 E13.10853
G1 X140.171 Y170.737 E13.15747
G1 X139.444 Y170.372 E13.18453
G1 X138.741 Y169.994 E13.21107
G1 X138.044 Y169.587 E13.23792
G1 X137.325 Y169.129 E13.26627
G1 X136.397 Y168.484 E13.30386
G1 X135.708 Y167.955 E13.33275
G1 X134.821 Y167.217 E13.37113
G1 X133.982 Y166.435 E13.40928
G1 X133.362 Y165.805 E13.43868
G1 X132.618 Y164.989 E13.47541
G1 X131.845 Y164.041 E13.51609
G1 X131.323 Y163.333 E13.54535
G1 X130.686 Y162.393 E13.58311
G1 X130.245 Y161.679 E13.61103
G1 X129.872 Y161.017 E13.6363
G1 X129.477 Y160.272 E13.66434
G1 X129.134 Y159.553 E13.69084
G1 X128.836 Y158.866 E13.71575
G1 X128.521 Y158.084 E13.74379
G1 X128.243 Y157.304 E13.77133
G1 X128.019 Y156.587 E13.79631
G1 X127.799 Y155.808 E13.82324
G1 X127.616 Y155.041 E13.84946
G1 X127.448 Y154.252 E13.87629
G1 X127.299 Y153.405 E13.9049
G1 X127.189 Y152.568 E13.93298
G1 X127.089 Y151.428 E13.97104
G1 X127.052 Y150.594 E13.9988
G1 X127.052 Y149.407 E14.03828
G1 X127.09 Y148.563 E14.06638
G1 X127.237 Y147.078 E14.11602
G1 X127.357 Y146.255 E14.14368
G1 X127.502 Y145.465 E14.17039
G1 X127.685 Y144.643 E14.1984
G1 X128 Y143.474 E14.23867
G1 X128.364 Y142.353 E14.27787
G1 X128.801 Y141.209 E14.3186
G1 X129.261 Y140.175 E14.35624
G1 X129.626 Y139.442 E14.38348
G1 X129.992 Y138.767 E14.40902
G1 X130.392 Y138.074 E14.43563
G1 X130.818 Y137.396 E14.46226
G1 X131.468 Y136.457 E14.50025
G1 X132.038 Y135.713 E14.53142
G1 X132.709 Y134.906 E14.56633
G1 X133.348 Y134.211 E14.59773
G1 X134.204 Y133.345 E14.63823
G0 F6000 X134.474 Y133.641
G1 F1200 X135.2 Y132.979 E14.67091
G1 X136.182 Y132.181 E14.71299
G1 X136.879 Y131.663 E14.74187
G1 X137.54 Y131.209 E14.76855
G1 X138.495 Y130.608 E14.80608
G1 X139.171 Y130.222 E14.83197
G1 X139.88 Y129.845 E14.85867
G1 X140.573 Y129.509 E14.88429
G1 X141.525 Y129.1 E14.91875
G1 X142.772 Y128.64 E14.96296
G1 X143.541 Y128.393 E14.98982
G1 X144.294 Y128.186 E15.0158
G1 X145.039 Y128.005 E15.0413
G1 X145.817 Y127.843 E15.06773
G1 X146.594 Y127.713 E15.09393
G1 X147.436 Y127.601 E15.12218
G1 X148.598 Y127.489 E15.16101
G1 X149.432 Y127.452 E15.18878
G1 X150.581 Y127.452 E15.22699
G1 X151.426 Y127.49 E15.25513
G1 X152.496 Y127.587 E15.29086
G1 X153.278 Y127.687 E15.31708
G1 X154.101 Y127.825 E15.34484
G1 X155.041 Y128.019 E15.37676
G1 X155.978 Y128.259 E15.40893
G1 X156.683 Y128.466 E15.43337
G1 X157.508 Y128.734 E15.46222
G1 X158.342 Y129.046 E15.49184
G1 X159.634 Y129.615 E15.53879
G1 X160.38 Y129.981 E15.56643
G1 X161.039 Y130.339 E15.59137
G1 X161.692 Y130.715 E15.61643
G1 X162.441 Y131.194 E15.646
G1 X163.35 Y131.83 E15.6829
G1 X164.033 Y132.345 E15.71135
G1 X164.821 Y133 E15.74544
G1 X165.767 Y133.881 E15.78843
G1 X166.338 Y134.462 E15.81553
G1 X167.124 Y135.33 E15.85447
G1 X167.825 Y136.188 E15.89132
G1 X168.339 Y136.882 E15.92005
G1 X168.978 Y137.827 E15.95799
G1 X169.397 Y138.507 E15.98455
