;FLAVOR:Marlin
;TIME:2095
;Filament used: 1.42189m
;Layer height: 0.2
;MINX:102.2
;MINY:132.2
;MINZ:0.2
;MAXX:197.8
;MAXY:167.8
;MAXZ:2.4
;Generated with Cura_SteamEngine 5.3.0
M140 S60
M105
M190 S60
M104 S210
M105
M109 S210
M82 ;absolute extrusion mode
M220 S100 ;Reset Feedrate
M221 S100 ;Reset Flowrate

M280 P0 S160 ;reset bltouch
G28 ;Home
G29 A ; enable UBL
G92 E0 ;Reset Extruder
G1 Z2.0 F3000 ;Move Z Axis up
G1 X10.1 Y20 Z0.28 F5000.0 ;Move to start position
G1 X10.1 Y200.0 Z0.28 F1500.0 E15 ;Draw the first line
G1 X10.4 Y200.0 Z0.28 F5000.0 ;Move to side a little
G1 X10.4 Y20 Z0.28 F1500.0 E30 ;Draw the second line
G92 E0 ;Reset Extruder
G1 Z2.0 F3000 ;Move Z Axis up
G92 E0
G92 E0
G1 F2100 E-1.5
;LAYER_COUNT:13
;LAYER:0
M107
G0 F6000 X105.294 Y133.75 Z0.2
;TYPE:SKIRT
G1 F2100 E0
G1 F1200 X107.166 Y132.638 E0.07242
G1 X109.353 Y132.2 E0.1466
G1 X190.853 Y132.2 E2.8573
G1 X192.749 Y132.666 E2.92224
G1 X194.776 Y133.719 E2.99822
G1 X196.25 Y135.294 E3.06996
G1 X197.362 Y137.166 E3.14238
G1 X197.8 Y139.353 E3.21657
G1 X197.8 Y160.853 E3.93166
G1 X197.334 Y162.749 E3.9966
G1 X196.281 Y164.776 E4.07257
G1 X194.706 Y166.25 E4.14432
G1 X192.834 Y167.362 E4.21674
G1 X190.647 Y167.8 E4.29092
G1 X109.147 Y167.8 E7.00162
G1 X107.251 Y167.334 E7.06656
G1 X105.224 Y166.281 E7.14253
G1 X103.75 Y164.706 E7.21428
G1 X102.638 Y162.834 E7.2867
G1 X102.2 Y160.647 E7.36088
G1 X102.2 Y139.147 E8.07598
G1 X102.666 Y137.251 E8.14091
G1 X103.719 Y135.224 E8.21689
G1 X105.294 Y133.75 E8.28863
G0 F6000 X105.535 Y134.072
G1 F1200 X107.312 Y133.016 E8.35739
G1 X109.391 Y132.6 E8.4279
G1 X190.807 Y132.6 E11.13581
G1 X192.606 Y133.042 E11.19743
G1 X194.531 Y134.042 E11.26958
G1 X195.928 Y135.535 E11.33758
G1 X196.984 Y137.312 E11.40633
G1 X197.4 Y139.391 E11.47685
G1 X197.4 Y160.807 E12.18915
G1 X196.958 Y162.606 E12.25077
G1 X195.958 Y164.531 E12.32291
G1 X194.465 Y165.928 E12.39092
G1 X192.688 Y166.984 E12.45967
G1 X190.609 Y167.4 E12.53019
G1 X109.193 Y167.4 E15.2381
G1 X107.394 Y166.958 E15.29971
G1 X105.469 Y165.958 E15.37186
G1 X104.072 Y164.465 E15.43987
G1 X103.016 Y162.688 E15.50862
G1 X102.6 Y160.609 E15.57914
G1 X102.6 Y139.193 E16.29144
G1 X103.042 Y137.394 E16.35305
G1 X104.042 Y135.469 E16.4252
G1 X105.535 Y134.072 E16.49321
G0 F6000 X105.776 Y134.394
G1 F1200 X107.458 Y133.395 E16.55827
G1 X109.43 Y133 E16.62517
G1 X190.76 Y133 E19.33021
G1 X192.464 Y133.419 E19.38858
G1 X194.286 Y134.365 E19.45686
G1 X195.606 Y135.776 E19.52112
G1 X196.605 Y137.458 E19.58619
G1 X197 Y139.43 E19.65308
G1 X197 Y160.76 E20.36252
G1 X196.581 Y162.464 E20.42088
G1 X195.635 Y164.286 E20.48916
G1 X194.224 Y165.606 E20.55343
G1 X192.542 Y166.605 E20.6185
G1 X190.57 Y167 E20.68539
G1 X109.24 Y167 E23.39043
G1 X107.536 Y166.581 E23.4488
G1 X105.714 Y165.635 E23.51708
G1 X104.394 Y164.224 E23.58134
G1 X103.395 Y162.542 E23.64641
G1 X103 Y160.57 E23.7133
G1 X103 Y139.24 E24.42274
G1 X103.419 Y137.536 E24.4811
G1 X104.365 Y135.714 E24.54939
G1 X105.776 Y134.394 E24.61365
G0 F6000 X106.017 Y134.716
G1 F1200 X107.604 Y133.773 E24.67505
G1 X109.468 Y133.4 E24.73828
G1 X190.714 Y133.4 E27.44053
G1 X192.321 Y133.795 E27.49557
G1 X194.041 Y134.688 E27.56003
G1 X195.284 Y136.017 E27.62055
G1 X196.227 Y137.604 E27.68195
G1 X196.6 Y139.468 E27.74517
G1 X196.6 Y160.714 E28.45182
G1 X196.205 Y162.321 E28.50686
G1 X195.312 Y164.041 E28.57132
G1 X193.983 Y165.284 E28.63184
G1 X192.396 Y166.227 E28.69324
G1 X190.532 Y166.6 E28.75647
G1 X109.286 Y166.6 E31.45872
G1 X107.679 Y166.205 E31.51376
G1 X105.959 Y165.312 E31.57822
G1 X104.716 Y163.983 E31.63874
G1 X103.773 Y162.396 E31.70014
G1 X103.4 Y160.532 E31.76337
G1 X103.4 Y139.286 E32.47001
G1 X103.795 Y137.679 E32.52505
G1 X104.688 Y135.959 E32.58951
G1 X106.017 Y134.716 E32.65003
G0 F6000 X106.258 Y135.038
G1 F1200 X107.75 Y134.151 E32.70776
G1 X109.506 Y133.8 E32.76732
G1 X190.668 Y133.8 E35.46678
G1 X192.178 Y134.171 E35.5185
G1 X193.796 Y135.011 E35.57913
G1 X194.962 Y136.258 E35.63592
G1 X195.849 Y137.75 E35.69365
G1 X196.2 Y139.506 E35.75321
G1 X196.2 Y160.668 E36.45706
G1 X195.829 Y162.178 E36.50878
G1 X194.989 Y163.796 E36.56941
G1 X193.742 Y164.962 E36.62619
G1 X192.25 Y165.849 E36.68392
G1 X190.494 Y166.2 E36.74348
G1 X109.332 Y166.2 E39.44294
G1 X107.822 Y165.829 E39.49466
G1 X106.204 Y164.989 E39.55529
G1 X105.038 Y163.742 E39.61208
G1 X104.151 Y162.25 E39.66981
G1 X103.8 Y160.494 E39.72937
G1 X103.8 Y139.332 E40.43322
G1 X104.171 Y137.822 E40.48494
G1 X105.011 Y136.204 E40.54557
G1 X106.258 Y135.038 E40.60235
G0 F6000 X106.499 Y135.36
G1 F1200 X107.896 Y134.529 E40.65642
G1 X109.544 Y134.2 E40.71231
G1 X190.621 Y134.2 E43.40894
G1 X192.036 Y134.548 E43.45741
G1 X193.551 Y135.334 E43.51417
G1 X194.64 Y136.499 E43.56722
G1 X195.471 Y137.896 E43.62128
G1 X195.8 Y139.544 E43.67717
G1 X195.8 Y160.621 E44.3782
G1 X195.452 Y162.036 E44.42666
G1 X194.666 Y163.551 E44.48343
G1 X193.501 Y164.64 E44.53647
G1 X192.104 Y165.471 E44.59053
G1 X190.456 Y165.8 E44.64643
G1 X109.379 Y165.8 E47.34306
G1 X107.964 Y165.452 E47.39153
G1 X106.449 Y164.666 E47.44829
G1 X105.36 Y163.501 E47.50133
G1 X104.529 Y162.104 E47.5554
G1 X104.2 Y160.456 E47.61129
G1 X104.2 Y139.379 E48.31231
G1 X104.548 Y137.964 E48.36078
G1 X105.334 Y136.449 E48.41755
G1 X106.499 Y135.36 E48.47059
G0 F6000 X106.738 Y135.684
G1 F1200 X108.044 Y134.907 E48.52113
G1 X109.582 Y134.6 E48.5733
G1 X190.575 Y134.6 E51.26713
G1 X191.893 Y134.924 E51.31228
G1 X193.306 Y135.657 E51.36522
G1 X194.316 Y136.738 E51.41442
G1 X195.093 Y138.044 E51.46497
G1 X195.4 Y139.582 E51.51713
G1 X195.4 Y160.575 E52.21536
G1 X195.076 Y161.893 E52.2605
G1 X194.343 Y163.306 E52.31345
G1 X193.262 Y164.316 E52.36265
G1 X191.956 Y165.093 E52.4132
G1 X190.418 Y165.4 E52.46536
G1 X109.425 Y165.4 E55.1592
G1 X108.107 Y165.076 E55.20434
G1 X106.694 Y164.343 E55.25728
G1 X105.684 Y163.262 E55.30649
G1 X104.907 Y161.956 E55.35703
G1 X104.6 Y160.418 E55.4092
G1 X104.6 Y139.425 E56.10743
G1 X104.924 Y138.107 E56.15257
G1 X105.657 Y136.694 E56.20551
G1 X106.738 Y135.684 E56.25472
G0 F6000 X106.977 Y136.008
G1 F1200 X108.192 Y135.285 E56.30174
G1 X109.62 Y135 E56.35018
G1 X190.529 Y135 E59.04122
G1 X191.75 Y135.3 E59.08304
G1 X193.061 Y135.98 E59.13216
G1 X193.992 Y136.977 E59.17753
G1 X194.715 Y138.192 E59.22455
G1 X195 Y139.62 E59.27299
G1 X195 Y160.529 E59.96842
G1 X194.7 Y161.75 E60.01024
G1 X194.02 Y163.061 E60.05936
G1 X193.023 Y163.992 E60.10473
G1 X191.808 Y164.715 E60.15176
G1 X190.38 Y165 E60.20019
G1 X109.471 Y165 E62.89123
G1 X108.25 Y164.7 E62.93305
G1 X106.939 Y164.02 E62.98217
G1 X106.008 Y163.023 E63.02754
G1 X105.285 Y161.808 E63.07457
G1 X105 Y160.38 E63.123
G1 X105 Y139.471 E63.81843
G1 X105.3 Y138.25 E63.86025
G1 X105.98 Y136.939 E63.90937
G1 X106.977 Y136.008 E63.95474
G0 F6000 X107.216 Y136.332
G1 F1200 X108.34 Y135.663 E63.99825
G1 X109.658 Y135.4 E64.04295
G1 X190.483 Y135.4 E66.7312
G1 X191.607 Y135.676 E66.7697
G1 X192.816 Y136.303 E66.81499
G1 X193.668 Y137.216 E66.85653
G1 X194.337 Y138.34 E66.90003
G1 X194.6 Y139.658 E66.94473
G1 X194.6 Y160.483 E67.63738
G1 X194.324 Y161.607 E67.67587
G1 X193.697 Y162.816 E67.72117
G1 X192.784 Y163.668 E67.7627
G1 X191.66 Y164.337 E67.80621
G1 X190.342 Y164.6 E67.85091
G1 X109.517 Y164.6 E70.53916
G1 X108.393 Y164.324 E70.57765
G1 X107.184 Y163.697 E70.62295
G1 X106.332 Y162.784 E70.66449
G1 X105.663 Y161.66 E70.70799
G1 X105.4 Y160.342 E70.75269
G1 X105.4 Y139.517 E71.44534
G1 X105.676 Y138.393 E71.48383
G1 X106.303 Y137.184 E71.52913
G1 X107.216 Y136.332 E71.57066
G0 F6000 X107.458 Y136.654
G1 F1200 X108.488 Y136.041 E71.61053
G1 X109.696 Y135.8 E71.6515
G1 X190.436 Y135.8 E74.33692
G1 X191.465 Y136.053 E74.37217
G1 X192.569 Y136.625 E74.41352
G1 X193.346 Y137.458 E74.45141
G1 X193.959 Y138.488 E74.49128
G1 X194.2 Y139.696 E74.53225
G1 X194.2 Y160.436 E75.22206
G1 X193.947 Y161.465 E75.2573
G1 X193.375 Y162.569 E75.29866
G1 X192.542 Y163.346 E75.33655
G1 X191.512 Y163.959 E75.37641
G1 X190.304 Y164.2 E75.41738
G1 X109.564 Y164.2 E78.10281
G1 X108.535 Y163.947 E78.13805
G1 X107.431 Y163.375 E78.17941
G1 X106.654 Y162.542 E78.21729
G1 X106.041 Y161.512 E78.25716
G1 X105.8 Y160.304 E78.29813
G1 X105.8 Y139.564 E78.98794
G1 X106.053 Y138.535 E79.02319
G1 X106.625 Y137.431 E79.06454
G1 X107.458 Y136.654 E79.10243
G0 F6000 X107.7 Y136.976
G1 F1200 X108.636 Y136.419 E79.13866
G1 X109.734 Y136.2 E79.1759
G1 X190.39 Y136.2 E81.85853
G1 X191.322 Y136.429 E81.89045
G1 X192.322 Y136.947 E81.9279
G1 X193.024 Y137.7 E81.96214
G1 X193.581 Y138.636 E81.99837
G1 X193.8 Y139.734 E82.03561
G1 X193.8 Y160.39 E82.72263
G1 X193.571 Y161.322 E82.75455
G1 X193.053 Y162.322 E82.79201
G1 X192.3 Y163.024 E82.82625
G1 X191.364 Y163.581 E82.86248
G1 X190.266 Y163.8 E82.89972
G1 X109.61 Y163.8 E85.58234
G1 X108.678 Y163.571 E85.61427
G1 X107.678 Y163.053 E85.65172
G1 X106.976 Y162.3 E85.68596
G1 X106.419 Y161.364 E85.72219
G1 X106.2 Y160.266 E85.75943
G1 X106.2 Y139.61 E86.44645
G1 X106.429 Y138.678 E86.47837
G1 X106.947 Y137.678 E86.51583
G1 X107.7 Y136.976 E86.55007
G0 F6000 X107.942 Y137.298
G1 F1200 X108.784 Y136.797 E86.58266
G1 X109.772 Y136.6 E86.61616
G1 X190.344 Y136.6 E89.296
G1 X191.179 Y136.805 E89.3246
G1 X192.075 Y137.269 E89.35816
G1 X192.702 Y137.942 E89.38875
G1 X193.203 Y138.784 E89.42134
G1 X193.4 Y139.772 E89.45485
G1 X193.4 Y160.344 E90.13907
G1 X193.195 Y161.179 E90.16767
G1 X192.731 Y162.075 E90.20123
G1 X192.058 Y162.702 E90.23182
G1 X191.216 Y163.203 E90.26441
G1 X190.228 Y163.4 E90.29792
G1 X109.656 Y163.4 E92.97775
G1 X108.821 Y163.195 E93.00635
G1 X107.925 Y162.731 E93.03991
G1 X107.298 Y162.058 E93.0705
G1 X106.797 Y161.216 E93.10309
G1 X106.6 Y160.228 E93.1366
G1 X106.6 Y139.656 E93.82083
G1 X106.805 Y138.821 E93.84942
G1 X107.269 Y137.925 E93.88298
G1 X107.942 Y137.298 E93.91358
G0 F6000 X108.184 Y137.62
G1 F1200 X108.932 Y137.175 E93.94253
G1 X109.81 Y137 E93.9723
G1 X190.298 Y137 E96.64934
G1 X191.036 Y137.181 E96.67462
G1 X191.828 Y137.591 E96.70428
G1 X192.38 Y138.184 E96.73123
G1 X192.825 Y138.932 E96.76017
G1 X193 Y139.81 E96.78995
G1 X193 Y160.298 E97.47138
G1 X192.819 Y161.036 E97.49666
G1 X192.409 Y161.828 E97.52632
G1 X191.816 Y162.38 E97.55327
G1 X191.068 Y162.825 E97.58221
G1 X190.19 Y163 E97.61199
G1 X109.702 Y163 E100.28903
G1 X108.964 Y162.819 E100.31431
G1 X108.172 Y162.409 E100.34397
G1 X107.62 Y161.816 E100.37091
G1 X107.175 Y161.068 E100.39986
G1 X107 Y160.19 E100.42964
G1 X107 Y139.702 E101.11107
G1 X107.181 Y138.964 E101.13635
G1 X107.591 Y138.172 E101.16601
G1 X108.184 Y137.62 E101.19296
G0 F6000 X108.423 Y137.944
G1 F1200 X109.08 Y137.553 E101.21838
G1 X109.848 Y137.4 E101.24443
G1 X190.248 Y137.4 E103.91854
G1 X190.897 Y137.559 E103.94077
G1 X191.583 Y137.914 E103.96646
G1 X192.056 Y138.423 E103.98957
G1 X192.447 Y139.08 E104.015
G1 X192.6 Y139.848 E104.04105
G1 X192.6 Y160.248 E104.71955
G1 X192.441 Y160.897 E104.74178
G1 X192.086 Y161.583 E104.76747
G1 X191.577 Y162.056 E104.79058
G1 X190.92 Y162.447 E104.81601
G1 X190.152 Y162.6 E104.84205
G1 X109.752 Y162.6 E107.51617
G1 X109.103 Y162.441 E107.53839
G1 X108.417 Y162.086 E107.56408
G1 X107.944 Y161.577 E107.58719
G1 X107.553 Y160.92 E107.61262
G1 X107.4 Y160.152 E107.63867
G1 X107.4 Y139.752 E108.31717
G1 X107.559 Y139.103 E108.3394
G1 X107.914 Y138.417 E108.36509
G1 X108.423 Y137.944 E108.3882
G0 F6000 X108.662 Y138.268
G1 F1200 X109.228 Y137.931 E108.41011
G1 X109.886 Y137.8 E108.43242
G1 X190.198 Y137.8 E111.10361
G1 X190.758 Y137.937 E111.12279
G1 X191.338 Y138.237 E111.1445
G1 X191.732 Y138.662 E111.16378
G1 X192.069 Y139.228 E111.18569
G1 X192.2 Y139.886 E111.208
G1 X192.2 Y160.198 E111.88358
G1 X192.063 Y160.758 E111.90276
G1 X191.763 Y161.338 E111.92448
G1 X191.338 Y161.732 E111.94375
G1 X190.772 Y162.069 E111.96566
G1 X190.114 Y162.2 E111.98798
G1 X109.802 Y162.2 E114.65916
G1 X109.242 Y162.063 E114.67834
G1 X108.662 Y161.763 E114.70006
G1 X108.268 Y161.338 E114.71933
G1 X107.931 Y160.772 E114.74124
G1 X107.8 Y160.114 E114.76356
G1 X107.8 Y139.802 E115.43914
G1 X107.937 Y139.242 E115.45831
G1 X108.237 Y138.662 E115.48003
G1 X108.662 Y138.268 E115.49931
G0 F6000 X108.901 Y138.592
G1 F1200 X109.376 Y138.309 E115.5177
G1 X109.924 Y138.2 E115.53628
G1 X190.148 Y138.2 E118.20454
G1 X190.619 Y138.315 E118.22067
G1 X191.092 Y138.56 E118.23838
G1 X191.408 Y138.901 E118.25385
G1 X191.691 Y139.376 E118.27224
G1 X191.8 Y139.924 E118.29082
G1 X191.8 Y160.148 E118.96347
G1 X191.685 Y160.619 E118.9796
G1 X191.44 Y161.092 E118.99732
G1 X191.099 Y161.408 E119.01278
G1 X190.624 Y161.691 E119.03117
G1 X190.076 Y161.8 E119.04975
G1 X109.852 Y161.8 E121.71801
G1 X109.381 Y161.685 E121.73414
G1 X108.908 Y161.44 E121.75186
G1 X108.592 Y161.099 E121.76732
G1 X108.309 Y160.624 E121.78571
G1 X108.2 Y160.076 E121.80429
G1 X108.2 Y139.852 E122.47695
G1 X108.315 Y139.381 E122.49307
G1 X108.56 Y138.908 E122.51079
G1 X108.901 Y138.592 E122.52625
G0 F6000 X109.14 Y138.916
G1 F1200 X109.524 Y138.687 E122.54112
G1 X109.962 Y138.6 E122.55598
G1 X190.098 Y138.6 E125.22131
G1 X190.48 Y138.693 E125.23439
G1 X190.846 Y138.883 E125.2481
G1 X191.084 Y139.14 E125.25975
G1 X191.313 Y139.524 E125.27462
G1 X191.4 Y139.962 E125.28948
G1 X191.4 Y160.098 E125.9592
G1 X191.307 Y160.48 E125.97228
G1 X191.117 Y160.846 E125.98599
G1 X190.86 Y161.084 E125.99764
G1 X190.476 Y161.313 E126.01251
G1 X190.038 Y161.4 E126.02737
G1 X109.902 Y161.4 E128.6927
G1 X109.52 Y161.307 E128.70578
G1 X109.154 Y161.117 E128.71949
G1 X108.916 Y160.86 E128.73114
G1 X108.687 Y160.476 E128.74601
G1 X108.6 Y160.038 E128.76087
G1 X108.6 Y139.902 E129.43059
G1 X108.693 Y139.52 E129.44367
G1 X108.883 Y139.154 E129.45738
G1 X109.14 Y138.916 E129.46904
G0 F6000 X109.345 Y139.26
G1 F1200 X109.672 Y139.065 E129.4817
G1 X110 Y139 E129.49282
G1 X190.049 Y139 E132.15526
G1 X190.338 Y139.07 E132.16515
G1 X190.601 Y139.207 E132.17501
G1 X190.74 Y139.345 E132.18153
G1 X190.935 Y139.672 E132.19419
G1 X191 Y140 E132.20531
G1 X191 Y160.049 E132.87215
G1 X190.93 Y160.338 E132.88204
G1 X190.793 Y160.601 E132.8919
G1 X190.655 Y160.74 E132.89841
G1 X190.328 Y160.935 E132.91108
G1 X190 Y161 E132.9222
G1 X109.951 Y161 E135.58464
G1 X109.662 Y160.93 E135.59453
G1 X109.399 Y160.793 E135.60439
G1 X109.26 Y160.655 E135.61091
G1 X109.065 Y160.328 E135.62357
G1 X109 Y160 E135.63469
G1 X109 Y139.951 E136.30152
G1 X109.07 Y139.662 E136.31141
G1 X109.207 Y139.399 E136.32128
G1 X109.345 Y139.26 E136.32779
G0 F6000 X109.55 Y139.604
G1 F1200 X109.82 Y139.443 E136.33825
G1 X110 Y139.4 E136.3444
G1 X190 Y139.4 E139.00521
G1 X190.244 Y139.459 E139.01356
G1 X190.396 Y139.55 E139.01945
G1 X190.557 Y139.82 E139.02991
G1 X190.6 Y140 E139.03606
G1 X190.6 Y160 E139.70127
G1 X190.541 Y160.244 E139.70962
G1 X190.45 Y160.396 E139.71551
G1 X190.18 Y160.557 E139.72596
G1 X190 Y160.6 E139.73212
G1 X110 Y160.6 E142.39293
G1 X109.756 Y160.541 E142.40128
G1 X109.604 Y160.45 E142.40717
G1 X109.443 Y160.18 E142.41763
G1 X109.4 Y160 E142.42378
G1 X109.4 Y140 E143.08899
G1 X109.459 Y139.756 E143.09734
G1 X109.55 Y139.604 E143.10323
G0 F6000 X109.839 Y139.881
G1 F1200 X110 Y139.8 E143.10922
G1 X190 Y139.8 E145.77003
G1 X190.119 Y139.839 E145.7742
G1 X190.2 Y140 E145.78019
G1 X190.2 Y160 E146.4454
G1 X190.161 Y160.119 E146.44956
G1 X190 Y160.2 E146.45555
G1 X110 Y160.2 E149.11637
G1 X109.881 Y160.161 E149.12053
G1 X109.8 Y160 E149.12653
G1 X109.8 Y140 E149.79173
G1 X109.839 Y139.881 E149.79589
G1 F2100 E148.29589
;MESH:adafruit-2868-mounting-bar.stl
G0 F6000 X113.742 Y147.971
G0 X115.535 Y152.83
;TYPE:WALL-INNER
G1 F2100 E149.79589
G1 F1200 X114.938 Y152.647 E149.81666
G1 X114.53 Y152.444 E149.83182
G1 X114.243 Y152.244 E149.84345
G1 X113.85 Y151.893 E149.86098
G1 X113.529 Y151.426 E149.87983
G1 X113.333 Y151.014 E149.895
G1 X113.193 Y150.494 E149.91291
G1 X113.148 Y149.91 E149.93239
G1 X113.224 Y149.29 E149.95317
G1 X113.477 Y148.635 E149.97652
G1 X113.881 Y148.088 E149.99914
G1 X114.207 Y147.781 E150.01403
G1 X114.568 Y147.533 E150.0286
G1 X114.979 Y147.337 E150.04375
G1 X115.422 Y147.208 E150.05909
G1 X115.895 Y147.15 E150.07494
