;FLAVOR:Marlin
;TIME:6836
;Filament used: 4.48715m
;Layer height: 0.2
;MINX:88.998
;MINY:122.2
;MINZ:0.2
;MAXX:207.8
;MAXY:177.8
;MAXZ:30.4
;Generated with Cura_SteamEngine 5.3.0
M140 S60
M105
M190 S60
M104 S210
M105
M109 S210
M82 ;absolute extrusion mode
M220 S100 ;Reset Feedrate
M221 S100 ;Reset Flowrate

M280 P0 S160 ;reset bltouch
G28 ;Home
G29 A ; enable UBL
G92 E0 ;Reset Extruder
G1 Z2.0 F3000 ;Move Z Axis up
G1 X10.1 Y20 Z0.28 F5000.0 ;Move to start position
G1 X10.1 Y200.0 Z0.28 F1500.0 E15 ;Draw the first line
G1 X10.4 Y200.0 Z0.28 F5000.0 ;Move to side a little
G1 X10.4 Y20 Z0.28 F1500.0 E30 ;Draw the second line
G92 E0 ;Reset Extruder
G1 Z2.0 F3000 ;Move Z Axis up
G92 E0
G92 E0
G1 F2100 E-1.5
;LAYER_COUNT:153
;LAYER:0
M107
G0 F6000 X95.294 Y123.75 Z0.2
;TYPE:SKIRT
G1 F2100 E0
G1 F1200 X97.166 Y122.638 E0.07242
G1 X99.353 Y122.2 E0.1466
G1 X200.853 Y122.2 E3.52251
G1 X202.749 Y122.666 E3.58745
G1 X204.776 Y123.719 E3.66342
G1 X206.25 Y125.294 E3.73517
G1 X207.362 Y127.166 E3.80758
G1 X207.8 Y129.353 E3.88177
G1 X207.8 Y170.853 E5.26206
G1 X207.334 Y172.749 E5.327
G1 X206.281 Y174.776 E5.40298
G1 X204.706 Y176.25 E5.47472
G1 X202.834 Y177.362 E5.54714
G1 X200.647 Y177.8 E5.62133
G1 X99.147 Y177.8 E8.99723
G1 X97.251 Y177.334 E9.06217
G1 X95.224 Y176.281 E9.13814
G1 X93.75 Y174.706 E9.20989
G1 X92.638 Y172.834 E9.28231
G1 X92.2 Y170.647 E9.35649
G1 X92.2 Y157.785 E9.78428
G1 X91.466 Y157.09 E9.8179
G1 X89.814 Y154.826 E9.91112
G1 X88.998 Y151.959 E10.01026
G1 X89.004 Y147.969 E10.14297
G1 X89.632 Y146.01 E10.21139
G1 X90.237 Y144.6 E10.26243
G1 X91.493 Y142.942 E10.33161
G1 X92.2 Y142.171 E10.3664
G1 X92.2 Y129.147 E10.79958
G1 X92.666 Y127.251 E10.86452
G1 X93.719 Y125.224 E10.94049
G1 X95.294 Y123.75 E11.01224
G0 F6000 X95.535 Y124.072
G1 F1200 X97.312 Y123.016 E11.08099
G1 X99.391 Y122.6 E11.15151
G1 X200.807 Y122.6 E14.52462
G1 X202.606 Y123.042 E14.58623
G1 X204.531 Y124.042 E14.65838
G1 X205.928 Y125.535 E14.72639
G1 X206.984 Y127.312 E14.79514
G1 X207.4 Y129.391 E14.86566
G1 X207.4 Y170.807 E16.24316
G1 X206.958 Y172.606 E16.30478
G1 X205.958 Y174.531 E16.37692
G1 X204.465 Y175.928 E16.44493
G1 X202.688 Y176.984 E16.51368
G1 X200.609 Y177.4 E16.5842
G1 X99.193 Y177.4 E19.95731
G1 X97.394 Y176.958 E20.01893
G1 X95.469 Y175.958 E20.09107
G1 X94.072 Y174.465 E20.15908
G1 X93.016 Y172.688 E20.22783
G1 X92.6 Y170.609 E20.29835
G1 X92.6 Y157.613 E20.7306
G1 X91.769 Y156.826 E20.76867
G1 X90.18 Y154.649 E20.85831
G1 X89.398 Y151.902 E20.95331
G1 X89.404 Y148.032 E21.08202
G1 X90 Y146.168 E21.14711
G1 X90.587 Y144.8 E21.19662
G1 X91.788 Y143.212 E21.26284
G1 X92.6 Y142.327 E21.30279
G1 X92.6 Y129.193 E21.73963
G1 X93.042 Y127.394 E21.80125
G1 X94.042 Y125.469 E21.87339
G1 X95.535 Y124.072 E21.9414
G0 F6000 X95.776 Y124.394
G1 F1200 X97.458 Y123.395 E22.00647
G1 X99.43 Y123 E22.07336
G1 X200.76 Y123 E25.44361
G1 X202.464 Y123.419 E25.50197
G1 X204.286 Y124.365 E25.57025
G1 X205.606 Y125.776 E25.63452
G1 X206.605 Y127.458 E25.69959
G1 X207 Y129.43 E25.76648
G1 X207 Y170.76 E27.14112
G1 X206.581 Y172.464 E27.19948
G1 X205.635 Y174.286 E27.26776
G1 X204.224 Y175.606 E27.33203
G1 X202.542 Y176.605 E27.39709
G1 X200.57 Y177 E27.46399
G1 X99.24 Y177 E30.83424
G1 X97.536 Y176.581 E30.8926
G1 X95.714 Y175.635 E30.96088
G1 X94.394 Y174.224 E31.02515
G1 X93.395 Y172.542 E31.09021
G1 X93 Y170.57 E31.1571
G1 X93 Y157.441 E31.59378
G1 X92.072 Y156.562 E31.63629
G1 X90.545 Y154.471 E31.72241
G1 X89.798 Y151.846 E31.81318
G1 X89.804 Y148.095 E31.93794
G1 X90.368 Y146.326 E31.9997
G1 X90.937 Y145 E32.04769
G1 X92.083 Y143.482 E32.11095
G1 X93 Y142.483 E32.15605
G1 X93 Y129.24 E32.59652
G1 X93.419 Y127.536 E32.65488
G1 X94.365 Y125.714 E32.72316
G1 X95.776 Y124.394 E32.78742
G0 F6000 X96.017 Y124.716
G1 F1200 X97.604 Y123.773 E32.84882
G1 X99.468 Y123.4 E32.91205
G1 X200.714 Y123.4 E36.27951
G1 X202.321 Y123.795 E36.33455
G1 X204.041 Y124.688 E36.399
G1 X205.284 Y126.017 E36.45953
G1 X206.227 Y127.604 E36.52093
G1 X206.6 Y129.468 E36.58415
G1 X206.6 Y170.714 E37.956
G1 X206.205 Y172.321 E38.01104
G1 X205.312 Y174.041 E38.0755
G1 X203.983 Y175.284 E38.13602
G1 X202.396 Y176.227 E38.19742
G1 X200.532 Y176.6 E38.26065
G1 X99.286 Y176.6 E41.6281
G1 X97.679 Y176.205 E41.68314
G1 X95.959 Y175.312 E41.7476
G1 X94.716 Y173.983 E41.80812
G1 X93.773 Y172.396 E41.86952
G1 X93.4 Y170.532 E41.93275
G1 X93.4 Y157.268 E42.37391
G1 X92.372 Y156.295 E42.42099
G1 X90.911 Y154.294 E42.50339
G1 X90.198 Y151.789 E42.59002
G1 X90.204 Y148.157 E42.71082
G1 X90.736 Y146.484 E42.76921
G1 X91.286 Y145.203 E42.81558
G1 X92.378 Y143.753 E42.87595
G1 X93.4 Y142.64 E42.92621
G1 X93.4 Y129.286 E43.37037
G1 X93.795 Y127.679 E43.42541
G1 X94.688 Y125.959 E43.48986
G1 X96.017 Y124.716 E43.55039
G0 F6000 X96.258 Y125.038
G1 F1200 X97.75 Y124.151 E43.60812
G1 X99.506 Y123.8 E43.66768
G1 X200.668 Y123.8 E47.03234
G1 X202.178 Y124.171 E47.08406
G1 X203.796 Y125.011 E47.14469
G1 X204.962 Y126.258 E47.20147
G1 X205.849 Y127.75 E47.25921
G1 X206.2 Y129.506 E47.31877
G1 X206.2 Y170.668 E48.68782
G1 X205.829 Y172.178 E48.73954
G1 X204.989 Y173.796 E48.80017
G1 X203.742 Y174.962 E48.85695
G1 X202.25 Y175.849 E48.91468
G1 X200.494 Y176.2 E48.97424
G1 X99.332 Y176.2 E52.33891
G1 X97.822 Y175.829 E52.39062
G1 X96.204 Y174.989 E52.45126
G1 X95.038 Y173.742 E52.50804
G1 X94.151 Y172.25 E52.56577
G1 X93.8 Y170.494 E52.62533
G1 X93.8 Y157.096 E53.07095
G1 X92.675 Y156.031 E53.12247
G1 X91.277 Y154.117 E53.20131
G1 X90.598 Y151.732 E53.28379
G1 X90.604 Y148.219 E53.40063
G1 X91.104 Y146.642 E53.45565
G1 X91.636 Y145.403 E53.5005
G1 X92.673 Y144.024 E53.55789
G1 X93.8 Y142.797 E53.6133
G1 X93.8 Y129.332 E54.06115
G1 X94.171 Y127.822 E54.11286
G1 X95.011 Y126.204 E54.1735
G1 X96.258 Y125.038 E54.23028
G0 F6000 X96.499 Y125.36
G1 F1200 X97.896 Y124.529 E54.28434
G1 X99.544 Y124.2 E54.34024
G1 X200.621 Y124.2 E57.70207
G1 X202.036 Y124.548 E57.75054
G1 X203.551 Y125.334 E57.80731
G1 X204.64 Y126.499 E57.86035
G1 X205.471 Y127.896 E57.91441
G1 X205.8 Y129.544 E57.9703
G1 X205.8 Y170.621 E59.33653
G1 X205.452 Y172.036 E59.385
G1 X204.666 Y173.551 E59.44176
G1 X203.501 Y174.64 E59.4948
G1 X202.104 Y175.471 E59.54887
G1 X200.456 Y175.8 E59.60476
G1 X99.379 Y175.8 E62.9666
G1 X97.964 Y175.452 E63.01506
G1 X96.449 Y174.666 E63.07183
G1 X95.36 Y173.501 E63.12487
G1 X94.529 Y172.104 E63.17893
G1 X94.2 Y170.456 E63.23483
G1 X94.2 Y156.924 E63.6849
G1 X92.978 Y155.767 E63.74088
G1 X91.643 Y153.94 E63.81614
G1 X90.998 Y151.675 E63.89446
G1 X91.004 Y148.28 E64.00738
G1 X91.472 Y146.8 E64.05901
G1 X91.986 Y145.603 E64.10234
G1 X92.968 Y144.295 E64.15674
G1 X94.029 Y143.14 E64.2089
G1 X94.2 Y143.017 E64.21591
G1 X94.2 Y129.379 E64.66951
G1 X94.548 Y127.964 E64.71798
G1 X95.334 Y126.449 E64.77474
G1 X96.499 Y125.36 E64.82778
G0 F6000 X96.738 Y125.684
G1 F1200 X98.044 Y124.907 E64.87833
G1 X99.582 Y124.6 E64.93049
G1 X200.575 Y124.6 E68.28953
G1 X201.893 Y124.924 E68.33467
G1 X203.306 Y125.657 E68.38762
G1 X204.316 Y126.738 E68.43682
G1 X205.093 Y128.044 E68.48737
G1 X205.4 Y129.582 E68.53953
G1 X205.4 Y170.575 E69.90296
G1 X205.076 Y171.893 E69.9481
G1 X204.343 Y173.306 E70.00105
G1 X203.262 Y174.316 E70.05025
G1 X201.956 Y175.093 E70.1008
G1 X200.418 Y175.4 E70.15296
G1 X99.425 Y175.4 E73.512
G1 X98.107 Y175.076 E73.55714
G1 X96.694 Y174.343 E73.61009
G1 X95.684 Y173.262 E73.65929
G1 X94.907 Y171.956 E73.70984
G1 X94.6 Y170.418 E73.762
G1 X94.6 Y156.722 E74.21753
G1 X94.485 Y156.642 E74.22219
G1 X93.278 Y155.5 E74.27746
G1 X92.009 Y153.763 E74.349
G1 X91.398 Y151.618 E74.42319
G1 X91.404 Y148.343 E74.53211
G1 X91.84 Y146.958 E74.58041
G1 X92.336 Y145.803 E74.62221
G1 X93.263 Y144.566 E74.67363
G1 X94.324 Y143.411 E74.72579
G1 X94.6 Y143.24 E74.73659
G1 X94.6 Y129.425 E75.19608
G1 X94.924 Y128.107 E75.24122
G1 X95.657 Y126.694 E75.29417
G1 X96.738 Y125.684 E75.34337
G0 F6000 X96.977 Y126.008
G1 F1200 X98.192 Y125.285 E75.3904
G1 X99.62 Y125 E75.43883
G1 X200.529 Y125 E78.79507
G1 X201.75 Y125.3 E78.83689
G1 X203.061 Y125.98 E78.88601
G1 X203.992 Y126.977 E78.93138
G1 X204.715 Y128.192 E78.97841
G1 X205 Y129.62 E79.02684
G1 X205 Y170.529 E80.38748
G1 X204.7 Y171.75 E80.4293
G1 X204.02 Y173.061 E80.47842
G1 X203.023 Y173.992 E80.52379
G1 X201.808 Y174.715 E80.57081
G1 X200.38 Y175 E80.61925
G1 X99.471 Y175 E83.97549
G1 X98.25 Y174.7 E84.01731
G1 X96.939 Y174.02 E84.06643
G1 X96.008 Y173.023 E84.1118
G1 X95.285 Y171.808 E84.15883
G1 X95 Y170.38 E84.20726
G1 X95 Y156.497 E84.66901
G1 X94.76 Y156.351 E84.67835
G1 X93.578 Y155.233 E84.73247
G1 X92.375 Y153.586 E84.8003
G1 X91.798 Y151.561 E84.87033
G1 X91.804 Y148.406 E84.97527
G1 X92.208 Y147.116 E85.02023
G1 X92.686 Y146.003 E85.06052
G1 X93.558 Y144.837 E85.10895
G1 X94.619 Y143.682 E85.16111
G1 X95 Y143.483 E85.17541
G1 X95 Y129.471 E85.64145
G1 X95.3 Y128.25 E85.68327
G1 X95.98 Y126.939 E85.73239
G1 X96.977 Y126.008 E85.77776
G0 F6000 X97.216 Y126.332
G1 F1200 X98.34 Y125.663 E85.82126
G1 X99.658 Y125.4 E85.86596
G1 X200.483 Y125.4 E89.21942
G1 X201.607 Y125.676 E89.25791
G1 X202.816 Y126.303 E89.30321
G1 X203.668 Y127.216 E89.34474
G1 X204.337 Y128.34 E89.38825
G1 X204.6 Y129.658 E89.43295
G1 X204.6 Y170.483 E90.79079
G1 X204.324 Y171.607 E90.82929
G1 X203.697 Y172.816 E90.87459
G1 X202.784 Y173.668 E90.91612
G1 X201.66 Y174.337 E90.95963
G1 X200.342 Y174.6 E91.00433
G1 X99.517 Y174.6 E94.35778
G1 X98.393 Y174.324 E94.39628
G1 X97.184 Y173.697 E94.44157
G1 X96.332 Y172.784 E94.48311
G1 X95.663 Y171.66 E94.52661
G1 X95.4 Y170.342 E94.57131
G1 X95.4 Y156.258 E95.03975
G1 X95.035 Y156.06 E95.05356
G1 X93.878 Y154.966 E95.10652
G1 X92.741 Y153.409 E95.17065
G1 X92.198 Y151.504 E95.23653
G1 X92.204 Y148.469 E95.33748
G1 X92.59 Y147.236 E95.38045
G1 X93.033 Y146.207 E95.41771
G1 X93.853 Y145.108 E95.46332
G1 X94.867 Y144.004 E95.51317
G1 X95.4 Y143.726 E95.53317
G1 X95.4 Y129.517 E96.00576
G1 X95.676 Y128.393 E96.04426
G1 X96.303 Y127.184 E96.08955
G1 X97.216 Y126.332 E96.13109
G0 F6000 X97.458 Y126.654
G1 F1200 X98.488 Y126.041 E96.17095
G1 X99.696 Y125.8 E96.21192
G1 X200.436 Y125.8 E99.56255
G1 X201.465 Y126.053 E99.59779
G1 X202.569 Y126.625 E99.63915
G1 X203.346 Y127.458 E99.67704
G1 X203.959 Y128.488 E99.7169
G1 X204.2 Y129.696 E99.75787
G1 X204.2 Y170.436 E101.11289
G1 X203.947 Y171.465 E101.14813
G1 X203.375 Y172.569 E101.18949
G1 X202.542 Y173.346 E101.22738
G1 X201.512 Y173.959 E101.26724
G1 X200.304 Y174.2 E101.30821
G1 X99.564 Y174.2 E104.65884
G1 X98.535 Y173.947 E104.69408
G1 X97.431 Y173.375 E104.73544
G1 X96.654 Y172.542 E104.77333
G1 X96.041 Y171.512 E104.81319
G1 X95.8 Y170.304 E104.85416
G1 X95.8 Y156.021 E105.32922
G1 X95.274 Y155.735 E105.34913
G1 X94.178 Y154.699 E105.39929
G1 X93.107 Y153.232 E105.4597
G1 X92.598 Y151.447 E105.52144
G1 X92.604 Y148.531 E105.61843
G1 X92.972 Y147.355 E105.65941
G1 X93.381 Y146.409 E105.69369
G1 X94.148 Y145.379 E105.7364
G1 X95.115 Y144.326 E105.78395
G1 X95.8 Y143.969 E105.80964
G1 X95.8 Y129.564 E106.28876
G1 X96.053 Y128.535 E106.324
G1 X96.625 Y127.431 E106.36536
G1 X97.458 Y126.654 E106.40324
G0 F6000 X97.7 Y126.976
G1 F1200 X98.636 Y126.419 E106.43947
G1 X99.734 Y126.2 E106.47671
G1 X200.39 Y126.2 E109.82454
G1 X201.322 Y126.429 E109.85646
G1 X202.322 Y126.947 E109.89392
G1 X203.024 Y127.7 E109.92816
G1 X203.581 Y128.636 E109.96439
G1 X203.8 Y129.734 E110.00162
G1 X203.8 Y170.39 E111.35385
G1 X203.571 Y171.322 E111.38577
G1 X203.053 Y172.322 E111.42323
G1 X202.3 Y173.024 E111.45747
G1 X201.364 Y173.581 E111.49369
G1 X200.266 Y173.8 E111.53093
G1 X99.61 Y173.8 E114.87876
G1 X98.678 Y173.571 E114.91069
G1 X97.678 Y173.053 E114.94814
G1 X96.976 Y172.3 E114.98238
G1 X96.419 Y171.364 E115.01861
G1 X96.2 Y170.266 E115.05585
G1 X96.2 Y155.782 E115.53759
G1 X95.511 Y155.408 E115.56366
G1 X94.478 Y154.432 E115.61093
G1 X93.473 Y153.055 E115.66763
G1 X92.998 Y151.39 E115.72522
G1 X93.004 Y148.593 E115.81825
G1 X93.354 Y147.474 E115.85724
G1 X93.729 Y146.611 E115.88854
G1 X94.443 Y145.65 E115.92836
G1 X95.363 Y144.648 E115.9736
G1 X96.2 Y144.212 E116.00499
G1 X96.2 Y129.61 E116.49066
G1 X96.429 Y128.678 E116.52258
G1 X96.947 Y127.678 E116.56003
G1 X97.7 Y126.976 E116.59428
G0 F6000 X97.942 Y127.298
G1 F1200 X98.784 Y126.797 E116.62686
G1 X99.772 Y126.6 E116.66037
G1 X200.344 Y126.6 E120.00541
G1 X201.179 Y126.805 E120.03401
G1 X202.075 Y127.269 E120.06757
G1 X202.702 Y127.942 E120.09816
G1 X203.203 Y128.784 E120.13075
G1 X203.4 Y129.772 E120.16425
G1 X203.4 Y170.344 E121.51368
G1 X203.195 Y171.179 E121.54228
G1 X202.731 Y172.075 E121.57584
G1 X202.058 Y172.702 E121.60643
G1 X201.216 Y173.203 E121.63902
G1 X200.228 Y173.4 E121.67253
G1 X99.656 Y173.4 E125.01757
G1 X98.821 Y173.195 E125.04617
G1 X97.925 Y172.731 E125.07973
G1 X97.298 Y172.058 E125.11032
G1 X96.797 Y171.216 E125.14291
G1 X96.6 Y170.228 E125.17641
G1 X96.6 Y155.543 E125.66484
G1 X95.748 Y155.081 E125.69707
G1 X94.778 Y154.165 E125.74145
G1 X93.839 Y152.878 E125.79444
G1 X93.398 Y151.333 E125.84788
G1 X93.404 Y148.655 E125.93695
G1 X93.721 Y147.634 E125.9725
G1 X94.078 Y146.813 E126.00228
G1 X94.738 Y145.921 E126.03919
G1 X95.611 Y144.97 E126.08212
G1 X96.6 Y144.455 E126.11921
G1 X96.6 Y129.656 E126.61143
G1 X96.805 Y128.821 E126.64002
G1 X97.269 Y127.925 E126.67358
G1 X97.942 Y127.298 E126.70418
G0 F6000 X98.184 Y127.62
G1 F1200 X98.932 Y127.175 E126.73313
G1 X99.81 Y127 E126.7629
G1 X200.298 Y127 E130.10515
G1 X201.036 Y127.181 E130.13042
G1 X201.828 Y127.591 E130.16008
G1 X202.38 Y128.184 E130.18703
G1 X202.825 Y128.932 E130.21598
G1 X203 Y129.81 E130.24575
G1 X203 Y170.298 E131.59239
G1 X202.819 Y171.036 E131.61766
G1 X202.409 Y171.828 E131.64733
G1 X201.816 Y172.38 E131.67427
G1 X201.068 Y172.825 E131.70322
G1 X200.19 Y173 E131.733
G1 X99.702 Y173 E135.07524
G1 X98.964 Y172.819 E135.10052
G1 X98.172 Y172.409 E135.13018
G1 X97.62 Y171.816 E135.15712
G1 X97.175 Y171.068 E135.18607
G1 X97 Y170.19 E135.21585
G1 X97 Y155.304 E135.71096
G1 X95.985 Y154.754 E135.74936
G1 X95.078 Y153.898 E135.79084
G1 X94.205 Y152.701 E135.84011
G1 X93.798 Y151.276 E135.8894
G1 X93.804 Y148.715 E135.97458
G1 X94.088 Y147.794 E136.00664
G1 X94.427 Y147.015 E136.0349
G1 X95.06 Y146.159 E136.0703
G1 X95.857 Y145.293 E136.10945
G1 X97 Y144.698 E136.15231
G1 X97 Y129.702 E136.65108
G1 X97.181 Y128.964 E136.67635
G1 X97.591 Y128.172 E136.70601
G1 X98.184 Y127.62 E136.73296
G0 F6000 X98.423 Y127.944
G1 F1200 X99.08 Y127.553 E136.75839
G1 X99.848 Y127.4 E136.78443
G1 X200.248 Y127.4 E140.12375
G1 X200.897 Y127.559 E140.14598
G1 X201.583 Y127.914 E140.17167
G1 X202.056 Y128.423 E140.19478
G1 X202.447 Y129.08 E140.22021
G1 X202.6 Y129.848 E140.24625
G1 X202.6 Y170.248 E141.58996
G1 X202.441 Y170.897 E141.61219
G1 X202.086 Y171.583 E141.63788
G1 X201.577 Y172.056 E141.66099
G1 X200.92 Y172.447 E141.68642
G1 X200.152 Y172.6 E141.71246
G1 X99.752 Y172.6 E145.05178
G1 X99.103 Y172.441 E145.074
G1 X98.417 Y172.086 E145.09969
G1 X97.944 Y171.577 E145.1228
G1 X97.553 Y170.92 E145.14823
G1 X97.4 Y170.152 E145.17428
G1 X97.4 Y155.027 E145.67734
G1 X97.122 Y154.915 E145.68731
G1 X96.221 Y154.427 E145.72139
G1 X95.378 Y153.631 E145.75995
G1 X94.571 Y152.524 E145.80551
G1 X94.198 Y151.219 E145.85066
G1 X94.204 Y148.774 E145.93198
G1 X94.455 Y147.954 E145.9605
G1 X94.776 Y147.217 E145.98724
G1 X95.382 Y146.397 E146.02115
G1 X96.103 Y145.616 E146.0565
G1 X97.4 Y144.941 E146.10513
G1 X97.4 Y129.752 E146.61032
G1 X97.559 Y129.103 E146.63255
G1 X97.914 Y128.417 E146.65824
G1 X98.423 Y127.944 E146.68135
G0 F6000 X98.662 Y128.268
G1 F1200 X99.228 Y127.931 E146.70326
G1 X99.886 Y127.8 E146.72557
G1 X200.198 Y127.8 E150.06196
G1 X200.758 Y127.937 E150.08114
G1 X201.338 Y128.237 E150.10286
G1 X201.732 Y128.662 E150.12213
G1 X202.069 Y129.228 E150.14404
G1 X202.2 Y129.886 E150.16636
G1 X202.2 Y170.198 E151.50714
G1 X202.063 Y170.758 E151.52631
G1 X201.763 Y171.338 E151.54803
G1 X201.338 Y171.732 E151.56731
G1 X200.772 Y172.069 E151.58922
G1 X200.114 Y172.2 E151.61153
G1 X99.802 Y172.2 E154.94792
G1 X99.242 Y172.063 E154.9671
G1 X98.662 Y171.763 E154.98882
