;FLAVOR:Marlin
;TIME:12609
;Filament used: 3.2678m
;Layer height: 0.2
;MINX:35.695
;MINY:56.567
;MINZ:0.2
;MAXX:258.279
;MAXY:245.531
;MAXZ:17
;Generated with Cura_SteamEngine master
M104 S240
M105
M109 S240
M82 ;absolute extrusion mode
M201 X500.00 Y500.00 Z100.00 E5000.00 ;Setup machine max acceleration
M203 X500.00 Y500.00 Z10.00 E50.00 ;Setup machine max feedrate
M204 P500.00 R1000.00 T500.00 ;Setup Print/Retract/Travel acceleration
M205 X8.00 Y8.00 Z0.40 E5.00 ;Setup Jerk
M220 S100 ;Reset Feedrate
M221 S100 ;Reset Flowrate

G28 ;Home

G92 E0 ;Reset Extruder
G1 Z2.0 F3000 ;Move Z Axis up
G1 X10.1 Y20 Z0.28 F5000.0 ;Move to start position
G1 X10.1 Y200.0 Z0.28 F1500.0 E15 ;Draw the first line
G1 X10.4 Y200.0 Z0.28 F5000.0 ;Move to side a little
G1 X10.4 Y20 Z0.28 F1500.0 E30 ;Draw the second line
G92 E0 ;Reset Extruder
G1 Z2.0 F3000 ;Move Z Axis up

G92 E0
G92 E0
;LAYER_COUNT:60
;LAYER:0
M107
G0 F6000 X50.963 Y97.318 Z0.2
;TYPE:SKIRT
G1 F1200 X51.375 Y97.105 E0.01543
G1 X52.004 Y96.81 E0.03853
G1 X52.463 Y96.612 E0.05516
G1 X52.768 Y96.486 E0.06614
G1 X52.927 Y96.423 E0.07182
G1 X53.543 Y96.199 E0.09362
G1 X53.835 Y96.103 E0.10385
G1 X54.106 Y96.018 E0.11329
G1 X54.359 Y95.942 E0.12208
G1 X54.98 Y95.775 E0.14347
G1 X55.426 Y95.669 E0.15872
G1 X55.76 Y95.595 E0.17009
G1 X55.955 Y95.555 E0.17672
G1 X56.583 Y95.445 E0.19792
G1 X56.872 Y95.403 E0.20763
G1 X57.159 Y95.365 E0.21726
G1 X57.429 Y95.333 E0.22631
G1 X58.078 Y95.276 E0.24797
G1 X58.52 Y95.25 E0.2627
G1 X58.834 Y95.236 E0.27316
G1 X59.033 Y95.23 E0.27978
G1 X59.695 Y95.23 E0.3018
G1 X60.028 Y95.24 E0.31288
G1 X60.509 Y95.263 E0.32889
G1 X61.198 Y95.321 E0.35189
G1 X61.678 Y95.377 E0.36796
G1 X62.051 Y95.427 E0.38048
G1 X62.249 Y95.457 E0.38714
G1 X62.516 Y95.501 E0.39614
G1 X63.547 Y95.684 E0.43097
G1 X64.43 Y95.854 E0.46088
G1 X66.858 Y96.248 E0.54269
G1 X69.37 Y96.584 E0.62698
G1 X71.89 Y96.85 E0.71126
G1 X74.403 Y97.042 E0.79509
G1 X76.893 Y97.162 E0.878
G1 X80.003 Y97.215 E0.98146
G1 X97.867 Y97.215 E1.57562
G1 X100.475 Y97.178 E1.66237
G1 X102.997 Y97.071 E1.74632
G1 X105.492 Y96.894 E1.82952
G1 X107.99 Y96.646 E1.91301
G1 X110.479 Y96.328 E1.99647
G1 X112.988 Y95.934 E2.08094
G1 X115.454 Y95.475 E2.16437
G1 X117.905 Y94.948 E2.24775
G1 X120.365 Y94.345 E2.33199
G1 X122.778 Y93.681 E2.41523
G1 X126.07 Y92.656 E2.52991
G1 X126.438 Y92.533 E2.54282
G1 X126.78 Y92.426 E2.55473
G1 X127.18 Y92.307 E2.56861
G1 X127.751 Y92.153 E2.58828
G1 X128.268 Y92.029 E2.60597
G1 X128.61 Y91.953 E2.61762
G1 X129.012 Y91.87 E2.63127
G1 X129.641 Y91.759 E2.65252
G1 X130.18 Y91.68 E2.67064
G1 X130.495 Y91.639 E2.6812
G1 X130.879 Y91.594 E2.69406
G1 X131.518 Y91.538 E2.71539
G1 X132.032 Y91.508 E2.73252
G1 X132.331 Y91.494 E2.74248
G1 X132.749 Y91.481 E2.75638
G1 X133.412 Y91.481 E2.77844
G1 X133.96 Y91.497 E2.79667
G1 X134.287 Y91.511 E2.80756
G1 X134.694 Y91.535 E2.82112
G1 X135.301 Y91.588 E2.84138
G1 X135.832 Y91.649 E2.85916
G1 X136.157 Y91.691 E2.87006
G1 X136.536 Y91.746 E2.8828
G1 X137.172 Y91.858 E2.90428
G1 X137.697 Y91.966 E2.9221
G1 X138.04 Y92.042 E2.93379
G1 X138.433 Y92.136 E2.94723
G1 X139.001 Y92.288 E2.96678
G1 X139.517 Y92.441 E2.98469
G1 X139.86 Y92.549 E2.99665
G1 X140.251 Y92.679 E3.01035
G1 X140.827 Y92.888 E3.03073
G1 X141.315 Y93.081 E3.04818
G1 X141.64 Y93.216 E3.05989
G1 X141.998 Y93.371 E3.07286
G1 X142.546 Y93.626 E3.09297
G1 X143.026 Y93.866 E3.11082
G1 X143.321 Y94.019 E3.12187
G1 X143.687 Y94.216 E3.13569
G1 X144.249 Y94.54 E3.15727
G1 X144.698 Y94.817 E3.17482
G1 X144.95 Y94.978 E3.18476
G1 X145.295 Y95.204 E3.19848
G1 X145.833 Y95.58 E3.22031
G1 X146.255 Y95.894 E3.23781
G1 X146.492 Y96.075 E3.24773
G1 X146.816 Y96.33 E3.26144
G1 X147.332 Y96.762 E3.28382
G1 X147.718 Y97.106 E3.30102
G1 X147.939 Y97.309 E3.311
G1 X148.229 Y97.582 E3.32425
G1 X148.684 Y98.036 E3.34563
G1 X149.061 Y98.435 E3.36388
G1 X149.283 Y98.677 E3.37481
G1 X149.542 Y98.968 E3.38776
G1 X149.939 Y99.44 E3.40828
G1 X150.29 Y99.882 E3.42705
G1 X150.509 Y100.168 E3.43903
G1 X150.745 Y100.486 E3.4522
G1 X151.097 Y100.988 E3.47259
G1 X151.383 Y101.422 E3.48988
G1 X151.57 Y101.716 E3.50147
G1 X151.782 Y102.061 E3.51494
G1 X152.078 Y102.573 E3.53461
G1 X152.326 Y103.03 E3.5519
G1 X152.481 Y103.327 E3.56304
G1 X152.674 Y103.71 E3.57731
G1 X152.955 Y104.311 E3.59937
G1 X153.159 Y104.785 E3.61654
G1 X153.27 Y105.053 E3.62619
G1 X153.421 Y105.431 E3.63972
G1 X153.644 Y106.04 E3.6613
G1 X153.811 Y106.542 E3.67889
G1 X153.911 Y106.861 E3.69001
G1 X154.028 Y107.252 E3.70358
G1 X154.19 Y107.854 E3.72432
G1 X154.313 Y108.37 E3.74196
G1 X154.384 Y108.689 E3.75283
G1 X154.47 Y109.104 E3.76693
G1 X154.58 Y109.726 E3.78794
G1 X154.654 Y110.226 E3.80475
G1 X154.696 Y110.54 E3.81529
G1 X154.743 Y110.936 E3.82855
G1 X154.801 Y111.587 E3.85029
G1 X154.834 Y112.149 E3.86901
G1 X154.848 Y112.462 E3.87943
G1 X154.86 Y112.86 E3.89268
G1 X154.86 Y113.511 E3.91433
G1 X154.845 Y114.028 E3.93153
G1 X154.833 Y114.328 E3.94152
G1 X154.81 Y114.736 E3.95511
G1 X154.753 Y115.393 E3.97704
G1 X154.689 Y115.941 E3.99539
G1 X154.645 Y116.269 E4.0064
G1 X154.589 Y116.649 E4.01918
G1 X154.482 Y117.26 E4.03981
G1 X154.371 Y117.8 E4.05814
G1 X154.297 Y118.133 E4.06949
G1 X154.207 Y118.511 E4.08241
G1 X154.049 Y119.101 E4.10273
G1 X153.896 Y119.615 E4.12056
G1 X153.796 Y119.932 E4.13162
G1 X153.666 Y120.325 E4.14539
G1 X153.452 Y120.915 E4.16626
G1 X153.261 Y121.398 E4.18354
G1 X153.135 Y121.703 E4.19451
G1 X152.98 Y122.063 E4.20755
G1 X152.716 Y122.632 E4.22841
G1 X152.475 Y123.114 E4.24634
G1 X152.317 Y123.418 E4.25773
G1 X152.119 Y123.785 E4.2716
G1 X151.8 Y124.338 E4.29283
G1 X151.523 Y124.787 E4.31038
G1 X151.361 Y125.041 E4.3204
G1 X151.129 Y125.395 E4.33448
G1 X150.761 Y125.922 E4.35586
G1 X150.47 Y126.314 E4.3721
G1 X150.296 Y126.542 E4.38163
G1 X150.046 Y126.861 E4.39511
G1 X149.6 Y127.395 E4.41826
G1 X149.215 Y127.827 E4.4375
G1 X148.996 Y128.065 E4.44826
G1 X148.719 Y128.358 E4.46167
G1 X148.293 Y128.785 E4.48173
G1 X147.948 Y129.112 E4.49754
G1 X147.689 Y129.35 E4.50924
G1 X147.356 Y129.646 E4.52406
G1 X146.895 Y130.034 E4.5441
G1 X146.475 Y130.368 E4.56195
G1 X146.196 Y130.582 E4.57364
G1 X145.887 Y130.812 E4.58645
G1 X145.372 Y131.173 E4.60737
G1 X144.897 Y131.486 E4.62629
G1 X144.603 Y131.673 E4.63788
G1 X144.271 Y131.877 E4.65084
G1 X143.743 Y132.182 E4.67112
G1 X143.299 Y132.422 E4.68791
G1 X143.042 Y132.556 E4.69755
G1 X142.685 Y132.737 E4.71086
G1 X142.066 Y133.027 E4.7336
G1 X141.514 Y133.265 E4.75359
G1 X141.218 Y133.388 E4.76425
G1 X140.878 Y133.523 E4.77642
G1 X140.285 Y133.739 E4.79741
G1 X139.803 Y133.899 E4.8143
G1 X139.476 Y134.002 E4.8257
G1 X139.073 Y134.122 E4.83969
G1 X138.5 Y134.276 E4.85942
G1 X137.983 Y134.4 E4.87711
G1 X137.634 Y134.477 E4.88899
G1 X137.221 Y134.562 E4.90302
G1 X136.614 Y134.669 E4.92352
G1 X136.114 Y134.743 E4.94033
G1 X135.783 Y134.787 E4.95144
G1 X135.39 Y134.833 E4.9646
G1 X134.771 Y134.888 E4.98527
G1 X134.189 Y134.923 E5.00466
G1 X133.862 Y134.938 E5.01555
G1 X133.499 Y134.949 E5.02763
G1 X132.835 Y134.949 E5.04971
G1 X132.27 Y134.932 E5.06851
G1 X131.989 Y134.92 E5.07786
G1 X131.612 Y134.899 E5.09042
G1 X130.958 Y134.843 E5.11226
G1 X130.397 Y134.778 E5.13104
G1 X130.04 Y134.731 E5.14302
G1 X129.658 Y134.674 E5.15586
G1 X129.074 Y134.57 E5.17559
G1 X128.576 Y134.468 E5.1925
G1 X128.227 Y134.391 E5.20439
G1 X127.821 Y134.294 E5.21827
G1 X127.238 Y134.138 E5.23834
G1 X126.704 Y133.979 E5.25687
G1 X126.392 Y133.881 E5.26775
G1 X125.941 Y133.732 E5.28355
G1 X123.553 Y132.978 E5.36684
G1 X121.094 Y132.278 E5.45187
G1 X118.703 Y131.67 E5.53393
G1 X116.187 Y131.105 E5.6197
G1 X113.748 Y130.629 E5.70235
G1 X111.267 Y130.218 E5.78599
G1 X108.759 Y129.874 E5.87019
G1 X106.261 Y129.604 E5.95376
G1 X103.789 Y129.408 E6.03623
G1 X101.247 Y129.277 E6.12089
G1 X97.857 Y129.215 E6.23366
G1 X80.002 Y129.215 E6.82752
G1 X77.394 Y129.252 E6.91427
G1 X74.872 Y129.359 E6.99823
G1 X72.377 Y129.536 E7.08142
G1 X69.879 Y129.784 E7.16492
G1 X67.39 Y130.102 E7.24837
G1 X64.896 Y130.494 E7.33234
G1 X63.505 Y130.754 E7.37941
G1 X62.497 Y130.931 E7.41345
G1 X62.161 Y130.985 E7.42477
G1 X61.862 Y131.028 E7.43481
G1 X61.59 Y131.064 E7.44394
G1 X61.303 Y131.098 E7.45355
G1 X60.681 Y131.153 E7.47432
G1 X60.305 Y131.176 E7.48685
G1 X59.93 Y131.193 E7.49934
G1 X59.708 Y131.199 E7.50672
G1 X59.12 Y131.199 E7.52628
G1 X58.704 Y131.188 E7.54012
G1 X58.335 Y131.172 E7.5524
G1 X58.152 Y131.161 E7.5585
G1 X57.544 Y131.108 E7.5788
G1 X57.113 Y131.058 E7.59323
G1 X56.745 Y131.009 E7.60558
G1 X56.519 Y130.975 E7.61318
G1 X55.935 Y130.871 E7.63291
G1 X55.639 Y130.81 E7.64296
G1 X55.284 Y130.73 E7.65507
G1 X55.039 Y130.671 E7.66345
G1 X54.479 Y130.521 E7.68273
G1 X54.062 Y130.397 E7.6972
G1 X53.768 Y130.305 E7.70745
G1 X53.576 Y130.242 E7.71417
G1 X52.93 Y130.007 E7.73703
G1 X52.589 Y129.871 E7.74924
G1 X52.288 Y129.746 E7.76008
G1 X52.062 Y129.648 E7.76827
G1 X51.519 Y129.395 E7.7882
G1 X51.191 Y129.231 E7.8004
G1 X50.869 Y129.063 E7.81248
G1 X50.666 Y128.953 E7.82016
G1 X50.125 Y128.64 E7.84094
G1 X49.777 Y128.425 E7.85455
G1 X49.468 Y128.227 E7.86676
G1 X49.271 Y128.096 E7.87462
G1 X48.811 Y127.773 E7.89332
G1 X48.552 Y127.581 E7.90404
G1 X48.258 Y127.355 E7.91638
G1 X48.063 Y127.2 E7.92466
G1 X47.59 Y126.802 E7.94522
G1 X47.287 Y126.532 E7.95872
G1 X47.036 Y126.301 E7.97006
G1 X46.862 Y126.136 E7.97804
G1 X46.438 Y125.712 E7.99798
G1 X46.212 Y125.473 E8.00892
G1 X45.963 Y125.2 E8.02121
G1 X45.803 Y125.019 E8.02925
G1 X45.439 Y124.586 E8.04806
G1 X45.189 Y124.272 E8.06141
G1 X44.975 Y123.994 E8.07308
G1 X44.855 Y123.833 E8.07976
G1 X44.502 Y123.33 E8.1002
G1 X44.275 Y122.987 E8.11388
G1 X44.058 Y122.646 E8.12732
G1 X43.95 Y122.469 E8.13422
G1 X43.656 Y121.956 E8.15388
G1 X43.461 Y121.594 E8.16756
G1 X43.246 Y121.178 E8.18314
G1 X42.94 Y120.524 E8.20715
G1 X42.788 Y120.169 E8.22
G1 X42.599 Y119.704 E8.23669
G1 X42.369 Y119.076 E8.25893
G1 X42.271 Y118.78 E8.2693
G1 X42.166 Y118.443 E8.28104
G1 X42.082 Y118.159 E8.29089
G1 X41.932 Y117.6 E8.31015
G1 X41.847 Y117.245 E8.32229
G1 X41.773 Y116.913 E8.3336
G1 X41.725 Y116.681 E8.34148
G1 X41.616 Y116.067 E8.36222
G1 X41.563 Y115.71 E8.37422
G1 X41.519 Y115.38 E8.3853
G1 X41.493 Y115.159 E8.3927
G1 X41.437 Y114.52 E8.41403
G1 X41.411 Y114.078 E8.42876
G1 X41.397 Y113.751 E8.43965
G1 X41.391 Y113.544 E8.44653
G1 X41.39 Y112.919 E8.46732
G1 X41.399 Y112.596 E8.47807
G1 X41.415 Y112.243 E8.48982
G1 X41.43 Y111.993 E8.49815
G1 X41.483 Y111.391 E8.51825
G1 X41.534 Y110.949 E8.53305
G1 X41.579 Y110.6 E8.54475
G1 X41.604 Y110.431 E8.55044
G1 X41.706 Y109.853 E8.56996
G1 X41.787 Y109.454 E8.5835
G1 X41.882 Y109.029 E8.59798
G1 X41.927 Y108.845 E8.60428
G1 X42.068 Y108.323 E8.62227
G1 X42.192 Y107.906 E8.63674
G1 X42.286 Y107.605 E8.64722
G1 X42.359 Y107.383 E8.655
G1 X42.586 Y106.759 E8.67708
G1 X42.696 Y106.482 E8.687
G1 X42.815 Y106.193 E8.69739
G1 X42.914 Y105.963 E8.70572
G1 X43.184 Y105.383 E8.727
G1 X43.381 Y104.99 E8.74162
G1 X43.52 Y104.723 E8.75163
G1 X43.617 Y104.542 E8.75846
G1 X43.944 Y103.973 E8.78029
G1 X44.136 Y103.661 E8.79247
G1 X44.313 Y103.382 E8.80346
G1 X44.434 Y103.198 E8.81079
G1 X44.803 Y102.672 E8.83216
G1 X45.048 Y102.343 E8.8458
G1 X45.327 Y101.981 E8.861
G1 X45.788 Y101.429 E8.88492
G1 X46.089 Y101.092 E8.89995
G1 X46.351 Y100.809 E8.91278
G1 X46.512 Y100.641 E8.92052
G1 X46.887 Y100.269 E8.93809
G1 X47.079 Y100.087 E8.94689
G1 X47.349 Y99.839 E8.95908
G1 X47.534 Y99.675 E8.9673
G1 X47.999 Y99.285 E8.98749
G1 X48.37 Y98.991 E9.00323
G1 X48.673 Y98.759 E9.01592
G1 X48.852 Y98.627 E9.02332
G1 X49.332 Y98.292 E9.04279
G1 X49.572 Y98.134 E9.05235
G1 X49.86 Y97.951 E9.0637
G1 X50.104 Y97.801 E9.07322
G1 X50.644 Y97.49 E9.09395
G1 X50.963 Y97.318 E9.106
G0 F6000 X51.153 Y97.67
G1 F1200 X51.557 Y97.461 E9.12113
G1 X52.162 Y97.177 E9.14336
G1 X52.621 Y96.979 E9.15999
G1 X52.915 Y96.857 E9.17057
G1 X53.074 Y96.794 E9.17626
G1 X53.668 Y96.579 E9.19727
G1 X53.96 Y96.483 E9.2075
G1 X54.221 Y96.401 E9.2166
G1 X54.474 Y96.325 E9.22538
G1 X55.073 Y96.164 E9.24601
G1 X55.519 Y96.058 E9.26126
G1 X55.84 Y95.987 E9.27219
G1 X56.035 Y95.947 E9.27881
G1 X56.641 Y95.841 E9.29928
G1 X56.93 Y95.799 E9.30899
G1 X57.206 Y95.763 E9.31825
G1 X57.476 Y95.731 E9.32729
G1 X58.102 Y95.675 E9.34819
G1 X58.544 Y95.649 E9.36292
G1 X58.847 Y95.636 E9.37301
G1 X59.046 Y95.63 E9.37963
G1 X59.683 Y95.63 E9.40082
G1 X60.016 Y95.64 E9.4119
G1 X60.488 Y95.662 E9.42761
G1 X61.151 Y95.718 E9.44974
G1 X61.631 Y95.774 E9.46581
G1 X61.991 Y95.823 E9.4779
G1 X62.447 Y95.895 E9.49325
G1 X63.471 Y96.077 E9.52785
G1 X64.322 Y96.24 E9.55666
G1 X66.847 Y96.651 E9.64175
G1 X69.312 Y96.981 E9.72447
G1 X71.851 Y97.248 E9.80938
G1 X74.355 Y97.44 E9.89291
G1 X76.899 Y97.562 E9.97762
G1 X79.997 Y97.615 E10.08068
G1 X97.873 Y97.615 E10.67523
G1 X100.498 Y97.578 E10.76255
G1 X103.006 Y97.471 E10.84604
G1 X105.523 Y97.293 E10.92997
G1 X108.047 Y97.043 E11.01433
G1 X110.555 Y96.722 E11.09842
G1 X113.017 Y96.335 E11.18132
G1 X115.539 Y95.866 E11.26664
G1 X118.013 Y95.334 E11.3508
G1 X120.461 Y94.734 E11.43463
G1 X122.877 Y94.069 E11.51798
G1 X126.234 Y93.023 E11.63493
G1 X126.565 Y92.913 E11.64653
G1 X126.894 Y92.809 E11.658
G1 X127.294 Y92.69 E11.67189
G1 X127.845 Y92.542 E11.69086
G1 X128.362 Y92.418 E11.70854
G1 X128.691 Y92.345 E11.71975
G1 X129.093 Y92.262 E11.73341
G1 X129.699 Y92.155 E11.75387
G1 X130.238 Y92.076 E11.77199
G1 X130.541 Y92.036 E11.78216
G1 X130.925 Y91.991 E11.79502
G1 X131.541 Y91.937 E11.81558
G1 X132.055 Y91.907 E11.83271
G1 X132.343 Y91.894 E11.8423
G1 X132.761 Y91.881 E11.85621
G1 X133.4 Y91.881 E11.87746
G1 X133.948 Y91.897 E11.89569
G1 X134.263 Y91.91 E11.90618
G1 X134.67 Y91.934 E11.91974
G1 X135.256 Y91.985 E11.9393
G1 X135.787 Y92.046 E11.95708
G1 X136.099 Y92.087 E11.96755
G1 X136.478 Y92.142 E11.98029
G1 X137.092 Y92.249 E12.00101
G1 X137.617 Y92.357 E12.01884
G1 X137.947 Y92.431 E12.03009
G1 X138.34 Y92.525 E12.04353
G1 X138.887 Y92.671 E12.06236
G1 X139.403 Y92.824 E12.08026
G1 X139.734 Y92.928 E12.0918
G1 X140.125 Y93.058 E12.10551
G1 X140.679 Y93.26 E12.12512
G1 X141.167 Y93.453 E12.14257
G1 X141.481 Y93.583 E12.15388
G1 X141.839 Y93.738 E12.16685
G1 X142.367 Y93.984 E12.18623
G1 X142.847 Y94.224 E12.20407
G1 X143.131 Y94.371 E12.21471
G1 X143.497 Y94.568 E12.22854
G1 X144.039 Y94.881 E12.24935
G1 X144.488 Y95.158 E12.2669
G1 X144.73 Y95.312 E12.27644
G1 X145.075 Y95.538 E12.29016
G1 X145.595 Y95.901 E12.31125
G1 X146.017 Y96.215 E12.32874
G1 X146.245 Y96.389 E12.33828
G1 X146.569 Y96.644 E12.352
G1 X147.065 Y97.061 E12.37355
G1 X147.451 Y97.405 E12.39075
G1 X147.665 Y97.6 E12.40038
G1 X147.955 Y97.873 E12.41362
G1 X148.394 Y98.311 E12.43425
G1 X148.771 Y98.71 E12.45251
G1 X148.984 Y98.943 E12.46301
G1 X149.243 Y99.234 E12.47596
G1 X149.626 Y99.689 E12.49574
G1 X149.977 Y100.131 E12.51452
G1 X150.188 Y100.406 E12.52605
G1 X150.424 Y100.724 E12.53922
G1 X150.763 Y101.208 E12.55887
G1 X151.049 Y101.642 E12.57616
G1 X151.229 Y101.925 E12.58731
G1 X151.441 Y102.27 E12.60078
G1 X151.727 Y102.764 E12.61977
G1 X151.975 Y103.221 E12.63706
G1 X152.124 Y103.507 E12.64779
G1 X152.317 Y103.89 E12.66205
G1 X152.588 Y104.47 E12.68334
G1 X152.792 Y104.944 E12.70051
G1 X152.899 Y105.202 E12.7098
G1 X153.05 Y105.58 E12.72334
G1 X153.264 Y106.166 E12.74409
G1 X153.431 Y106.668 E12.76168
G1 X153.528 Y106.975 E12.77239
G1 X153.645 Y107.366 E12.78596
G1 X153.801 Y107.947 E12.80597
G1 X153.924 Y108.463 E12.82362
G1 X153.992 Y108.77 E12.83407
G1 X154.078 Y109.185 E12.84817
G1 X154.185 Y109.784 E12.86841
G1 X154.259 Y110.284 E12.88522
G1 X154.299 Y110.587 E12.89539
G1 X154.346 Y110.983 E12.90865
G1 X154.402 Y111.611 E12.92962
G1 X154.435 Y112.173 E12.94834
G1 X154.448 Y112.475 E12.9584
G1 X154.46 Y112.873 E12.97164
G1 X154.461 Y113.499 E12.99246
G1 X154.446 Y114.016 E13.00966
G1 X154.433 Y114.306 E13.01932
G1 X154.41 Y114.714 E13.03291
G1 X154.355 Y115.347 E13.05404
G1 X154.291 Y115.895 E13.07239
G1 X154.25 Y116.21 E13.08296
G1 X154.194 Y116.59 E13.09574
G1 X154.09 Y117.179 E13.11563
G1 X153.979 Y117.719 E13.13396
G1 X153.908 Y118.04 E13.1449
