;FLAVOR:Marlin
;TIME:4127
;Filament used: 1.08951m
;Layer height: 0.2
;MINX:93.266
;MINY:128.266
;MINZ:0.2
;MAXX:206.734
;MAXY:171.734
;MAXZ:12
;Generated with Cura_SteamEngine master
M104 S240
M105
M109 S240
M82 ;absolute extrusion mode
M201 X500.00 Y500.00 Z100.00 E5000.00 ;Setup machine max acceleration
M203 X500.00 Y500.00 Z10.00 E50.00 ;Setup machine max feedrate
M204 P500.00 R1000.00 T500.00 ;Setup Print/Retract/Travel acceleration
M205 X8.00 Y8.00 Z0.40 E5.00 ;Setup Jerk
M220 S100 ;Reset Feedrate
M221 S100 ;Reset Flowrate

G28 ;Home

G92 E0 ;Reset Extruder
G1 Z2.0 F3000 ;Move Z Axis up
G1 X10.1 Y20 Z0.28 F5000.0 ;Move to start position
G1 X10.1 Y200.0 Z0.28 F1500.0 E15 ;Draw the first line
G1 X10.4 Y200.0 Z0.28 F5000.0 ;Move to side a little
G1 X10.4 Y20 Z0.28 F1500.0 E30 ;Draw the second line
G92 E0 ;Reset Extruder
G1 Z2.0 F3000 ;Move Z Axis up

G92 E0
G92 E0
;LAYER_COUNT:60
;LAYER:0
M107
G0 F6000 X100.506 Y135.576 Z0.2
;TYPE:SKIRT
G1 F1200 X100.68 Y135.447 E0.0072
G1 X101.179 Y135.097 E0.02748
G1 X101.478 Y134.9 E0.03939
G1 X101.781 Y134.708 E0.05132
G1 X101.98 Y134.586 E0.05908
G1 X102.474 Y134.301 E0.07805
G1 X102.816 Y134.115 E0.091
G1 X103.13 Y133.95 E0.1028
G1 X103.311 Y133.859 E0.10953
G1 X103.904 Y133.583 E0.13129
G1 X104.327 Y133.401 E0.1466
G1 X104.622 Y133.279 E0.15722
G1 X104.786 Y133.214 E0.16309
G1 X105.379 Y132.998 E0.18408
G1 X105.711 Y132.888 E0.19571
G1 X106.039 Y132.785 E0.20715
G1 X106.305 Y132.706 E0.21638
G1 X106.883 Y132.552 E0.23627
G1 X107.214 Y132.473 E0.24759
G1 X107.541 Y132.4 E0.25873
G1 X107.778 Y132.351 E0.26678
G1 X108.426 Y132.237 E0.28867
G1 X108.812 Y132.181 E0.30164
G1 X109.118 Y132.141 E0.3119
G1 X109.367 Y132.112 E0.32024
G1 X109.973 Y132.058 E0.34048
G1 X110.286 Y132.039 E0.35091
G1 X110.657 Y132.023 E0.36326
G1 X110.917 Y132.016 E0.37191
G1 X111.513 Y132.016 E0.39173
G1 X111.916 Y132.027 E0.40514
G1 X112.253 Y132.041 E0.41636
G1 X112.477 Y132.054 E0.42382
G1 X113.112 Y132.11 E0.44502
G1 X113.507 Y132.156 E0.45825
G1 X113.818 Y132.197 E0.46868
G1 X114.038 Y132.229 E0.47608
G1 X114.366 Y132.281 E0.48712
G1 X115.018 Y132.396 E0.50914
G1 X116.267 Y132.635 E0.55144
G1 X118.73 Y133.035 E0.63443
G1 X121.255 Y133.373 E0.71916
G1 X123.745 Y133.634 E0.80243
G1 X126.275 Y133.828 E0.88683
G1 X128.765 Y133.948 E0.96974
G1 X131.858 Y134 E1.07263
G1 X149.743 Y134 E1.66749
G1 X152.351 Y133.963 E1.75424
G1 X154.873 Y133.856 E1.8382
G1 X157.368 Y133.679 E1.92139
G1 X159.866 Y133.431 E2.00488
G1 X162.355 Y133.113 E2.08834
G1 X164.864 Y132.719 E2.17281
G1 X167.33 Y132.26 E2.25624
G1 X169.781 Y131.733 E2.33962
G1 X172.241 Y131.13 E2.42387
G1 X174.645 Y130.468 E2.5068
G1 X177.982 Y129.429 E2.62304
G1 X178.348 Y129.307 E2.63588
G1 X178.698 Y129.197 E2.64808
G1 X179.062 Y129.089 E2.66071
G1 X179.646 Y128.933 E2.68081
G1 X180.18 Y128.806 E2.69907
G1 X180.479 Y128.74 E2.70925
G1 X180.853 Y128.662 E2.72196
G1 X181.488 Y128.549 E2.74341
G1 X182.042 Y128.467 E2.76204
G1 X182.388 Y128.421 E2.77365
G1 X182.768 Y128.377 E2.78637
G1 X183.392 Y128.323 E2.8072
G1 X183.906 Y128.293 E2.82433
G1 X184.215 Y128.279 E2.83462
G1 X184.646 Y128.266 E2.84896
G1 X185.298 Y128.266 E2.87064
G1 X185.814 Y128.281 E2.88781
G1 X186.122 Y128.294 E2.89807
G1 X186.542 Y128.318 E2.91206
G1 X187.173 Y128.372 E2.93312
G1 X187.711 Y128.434 E2.95113
G1 X188.052 Y128.479 E2.96257
G1 X188.426 Y128.534 E2.97515
G1 X189.033 Y128.641 E2.99565
G1 X189.575 Y128.752 E3.01405
G1 X189.913 Y128.827 E3.02556
G1 X190.304 Y128.92 E3.03893
G1 X190.883 Y129.074 E3.05886
G1 X191.386 Y129.223 E3.07631
G1 X191.724 Y129.329 E3.08809
G1 X192.095 Y129.452 E3.10109
G1 X192.701 Y129.673 E3.12254
G1 X193.201 Y129.872 E3.14044
G1 X193.491 Y129.992 E3.15088
G1 X193.878 Y130.159 E3.1649
G1 X194.439 Y130.42 E3.18548
G1 X194.887 Y130.644 E3.20214
G1 X195.182 Y130.797 E3.21319
G1 X195.561 Y131.001 E3.22751
G1 X196.123 Y131.325 E3.24908
G1 X196.572 Y131.602 E3.26663
G1 X196.824 Y131.763 E3.27658
G1 X197.169 Y131.989 E3.29029
G1 X197.707 Y132.365 E3.31212
G1 X198.129 Y132.679 E3.32962
G1 X198.353 Y132.85 E3.33899
G1 X198.664 Y133.094 E3.35214
G1 X199.198 Y133.541 E3.3753
G1 X199.607 Y133.906 E3.39353
G1 X199.847 Y134.126 E3.40436
G1 X200.149 Y134.412 E3.4182
G1 X200.568 Y134.831 E3.43791
G1 X200.896 Y135.177 E3.45376
G1 X201.135 Y135.437 E3.46551
G1 X201.431 Y135.77 E3.48033
G1 X201.819 Y136.231 E3.50037
G1 X202.153 Y136.651 E3.51822
G1 X202.366 Y136.928 E3.52984
G1 X202.608 Y137.253 E3.54332
G1 X202.973 Y137.775 E3.5645
G1 X203.26 Y138.211 E3.58186
G1 X203.439 Y138.492 E3.59294
G1 X203.652 Y138.838 E3.60646
G1 X203.952 Y139.356 E3.62637
G1 X204.192 Y139.798 E3.64309
G1 X204.344 Y140.088 E3.65398
G1 X204.545 Y140.486 E3.66881
G1 X204.83 Y141.096 E3.69121
G1 X205.034 Y141.57 E3.70837
G1 X205.143 Y141.834 E3.71787
G1 X205.293 Y142.209 E3.7313
G1 X205.52 Y142.828 E3.75323
G1 X205.69 Y143.34 E3.77118
G1 X205.788 Y143.65 E3.78199
G1 X205.903 Y144.034 E3.79532
G1 X206.068 Y144.649 E3.8165
G1 X206.195 Y145.184 E3.83479
G1 X206.26 Y145.479 E3.84484
G1 X206.338 Y145.853 E3.85754
G1 X206.451 Y146.488 E3.879
G1 X206.533 Y147.042 E3.89762
G1 X206.578 Y147.381 E3.909
G1 X206.622 Y147.759 E3.92165
G1 X206.677 Y148.381 E3.94242
G1 X206.707 Y148.888 E3.95931
G1 X206.721 Y149.212 E3.9701
G1 X206.734 Y149.651 E3.98471
G1 X206.734 Y150.296 E4.00616
G1 X206.719 Y150.813 E4.02336
G1 X206.706 Y151.122 E4.03365
G1 X206.682 Y151.542 E4.04764
G1 X206.628 Y152.173 E4.06871
G1 X206.566 Y152.711 E4.08672
G1 X206.521 Y153.052 E4.09816
G1 X206.466 Y153.426 E4.11073
G1 X206.359 Y154.033 E4.13123
G1 X206.248 Y154.575 E4.14963
G1 X206.173 Y154.913 E4.16115
G1 X206.08 Y155.304 E4.17452
G1 X205.926 Y155.883 E4.19444
G1 X205.777 Y156.386 E4.21189
G1 X205.671 Y156.724 E4.22367
G1 X205.548 Y157.095 E4.23667
G1 X205.333 Y157.686 E4.25759
G1 X205.14 Y158.173 E4.27501
G1 X205.01 Y158.487 E4.28632
G1 X204.837 Y158.887 E4.30081
G1 X204.584 Y159.43 E4.32074
G1 X204.362 Y159.875 E4.33728
G1 X204.2 Y160.188 E4.349
G1 X203.995 Y160.568 E4.36336
G1 X203.678 Y161.117 E4.38445
G1 X203.4 Y161.568 E4.40207
G1 X203.242 Y161.817 E4.41187
G1 X203.017 Y162.161 E4.42555
G1 X202.631 Y162.713 E4.44795
G1 X202.315 Y163.137 E4.46554
G1 X202.152 Y163.35 E4.47446
G1 X201.909 Y163.66 E4.48756
G1 X201.459 Y164.198 E4.51089
G1 X201.094 Y164.607 E4.52912
G1 X200.873 Y164.847 E4.53997
G1 X200.586 Y165.15 E4.55385
G1 X200.165 Y165.571 E4.57365
G1 X199.823 Y165.895 E4.58932
G1 X199.571 Y166.127 E4.60072
G1 X199.235 Y166.426 E4.61568
G1 X198.769 Y166.819 E4.63595
G1 X198.349 Y167.153 E4.6538
G1 X198.072 Y167.366 E4.66542
G1 X197.747 Y167.608 E4.6789
G1 X197.225 Y167.973 E4.70008
G1 X196.789 Y168.26 E4.71744
G1 X196.508 Y168.439 E4.72853
G1 X196.162 Y168.652 E4.74204
G1 X195.642 Y168.953 E4.76202
G1 X195.185 Y169.201 E4.77932
G1 X194.888 Y169.356 E4.79046
G1 X194.505 Y169.549 E4.80472
G1 X193.904 Y169.83 E4.82679
G1 X193.43 Y170.034 E4.84395
G1 X193.166 Y170.143 E4.85345
G1 X192.791 Y170.293 E4.86689
G1 X192.173 Y170.519 E4.88877
G1 X191.643 Y170.695 E4.90735
G1 X191.308 Y170.801 E4.91903
G1 X190.941 Y170.91 E4.93177
G1 X190.354 Y171.067 E4.95198
G1 X189.82 Y171.194 E4.97023
G1 X189.521 Y171.26 E4.98042
G1 X189.147 Y171.338 E4.99312
G1 X188.512 Y171.451 E5.01458
G1 X187.958 Y171.533 E5.0332
G1 X187.612 Y171.579 E5.04481
G1 X187.232 Y171.623 E5.05754
G1 X186.608 Y171.677 E5.07837
G1 X186.094 Y171.707 E5.09549
G1 X185.785 Y171.721 E5.10578
G1 X185.354 Y171.734 E5.12012
G1 X184.702 Y171.734 E5.14181
G1 X184.186 Y171.719 E5.15898
G1 X183.878 Y171.706 E5.16923
G1 X183.458 Y171.682 E5.18322
G1 X182.827 Y171.628 E5.20429
G1 X182.289 Y171.566 E5.2223
G1 X181.948 Y171.521 E5.23374
G1 X181.574 Y171.466 E5.24631
G1 X180.967 Y171.359 E5.26681
G1 X180.425 Y171.248 E5.28521
G1 X180.087 Y171.173 E5.29673
G1 X179.696 Y171.08 E5.3101
G1 X179.106 Y170.923 E5.3304
G1 X178.615 Y170.777 E5.34744
G1 X178.295 Y170.676 E5.3586
G1 X177.883 Y170.54 E5.37303
G1 X175.366 Y169.747 E5.4608
G1 X172.964 Y169.063 E5.54387
G1 X170.509 Y168.441 E5.6281
G1 X168.047 Y167.888 E5.71203
G1 X165.564 Y167.405 E5.79616
G1 X163.097 Y166.996 E5.87934
G1 X160.625 Y166.66 E5.96231
G1 X158.102 Y166.388 E6.04671
G1 X155.595 Y166.189 E6.13036
G1 X153.088 Y166.061 E6.21385
G1 X149.728 Y166 E6.32562
G1 X131.888 Y166 E6.91898
G1 X129.28 Y166.037 E7.00573
G1 X126.758 Y166.144 E7.08969
G1 X124.263 Y166.321 E7.17289
G1 X121.765 Y166.569 E7.25638
G1 X119.276 Y166.887 E7.33983
G1 X116.771 Y167.281 E7.42418
G1 X115.769 Y167.469 E7.45808
G1 X114.465 Y167.7 E7.50213
G1 X114.136 Y167.753 E7.51321
G1 X113.698 Y167.817 E7.52794
G1 X113.391 Y167.858 E7.53824
G1 X113.144 Y167.887 E7.54651
G1 X112.525 Y167.942 E7.56718
G1 X112.211 Y167.961 E7.57764
G1 X111.843 Y167.977 E7.58989
G1 X111.583 Y167.984 E7.59854
G1 X110.987 Y167.984 E7.61837
G1 X110.584 Y167.973 E7.63178
G1 X110.247 Y167.959 E7.64299
G1 X110.023 Y167.946 E7.65046
G1 X109.388 Y167.89 E7.67166
G1 X108.993 Y167.844 E7.68489
G1 X108.646 Y167.798 E7.69653
G1 X108.478 Y167.773 E7.70218
G1 X107.877 Y167.667 E7.72247
G1 X107.445 Y167.578 E7.73714
G1 X107.069 Y167.493 E7.74997
G1 X106.859 Y167.442 E7.75715
G1 X106.314 Y167.295 E7.77593
G1 X105.975 Y167.194 E7.78769
G1 X105.65 Y167.092 E7.79902
G1 X105.403 Y167.01 E7.80768
G1 X104.805 Y166.792 E7.82885
G1 X104.473 Y166.66 E7.84073
G1 X104.182 Y166.539 E7.85121
G1 X103.957 Y166.442 E7.85936
G1 X103.38 Y166.174 E7.88052
G1 X103.059 Y166.013 E7.89247
G1 X102.799 Y165.878 E7.90221
G1 X102.601 Y165.772 E7.90968
G1 X102.025 Y165.441 E7.93178
G1 X101.645 Y165.207 E7.94662
G1 X101.276 Y164.969 E7.96122
G1 X101.096 Y164.848 E7.96844
G1 X100.677 Y164.552 E7.9855
G1 X100.421 Y164.362 E7.9961
G1 X100.141 Y164.147 E8.00785
G1 X99.933 Y163.982 E8.01668
G1 X99.461 Y163.586 E8.03717
G1 X99.191 Y163.346 E8.04918
G1 X98.921 Y163.098 E8.06138
G1 X98.76 Y162.945 E8.06876
G1 X98.36 Y162.544 E8.0876
G1 X98.08 Y162.249 E8.10113
G1 X97.814 Y161.959 E8.11422
G1 X97.67 Y161.796 E8.12145
G1 X97.294 Y161.347 E8.14093
G1 X97.053 Y161.043 E8.15383
G1 X96.855 Y160.786 E8.16463
G1 X96.72 Y160.605 E8.17214
G1 X96.342 Y160.064 E8.19409
G1 X96.13 Y159.741 E8.20694
G1 X95.949 Y159.456 E8.21817
G1 X95.838 Y159.275 E8.22523
G1 X95.546 Y158.77 E8.24463
G1 X95.361 Y158.429 E8.25753
G1 X95.21 Y158.14 E8.26838
G1 X95.104 Y157.93 E8.2762
G1 X94.82 Y157.321 E8.29855
G1 X94.675 Y156.984 E8.31075
G1 X94.566 Y156.721 E8.32022
G1 X94.488 Y156.526 E8.32721
G1 X94.258 Y155.897 E8.34948
G1 X94.121 Y155.483 E8.36399
G1 X94.024 Y155.175 E8.37473
G1 X93.955 Y154.944 E8.38275
G1 X93.79 Y154.326 E8.40402
G1 X93.725 Y154.051 E8.41342
G1 X93.668 Y153.796 E8.42211
G1 X93.616 Y153.55 E8.43047
G1 X93.492 Y152.853 E8.45402
G1 X93.424 Y152.384 E8.46978
G1 X93.382 Y152.065 E8.48048
G1 X93.36 Y151.874 E8.48688
G1 X93.308 Y151.282 E8.50664
G1 X93.289 Y150.969 E8.51707
G1 X93.273 Y150.599 E8.52939
G1 X93.266 Y150.34 E8.53801
G1 X93.266 Y149.744 E8.55783
G1 X93.277 Y149.34 E8.57127
G1 X93.293 Y148.975 E8.58343
G1 X93.308 Y148.727 E8.59169
G1 X93.361 Y148.124 E8.61182
G1 X93.401 Y147.779 E8.62337
G1 X93.437 Y147.499 E8.63276
G1 X93.463 Y147.316 E8.63891
G1 X93.582 Y146.633 E8.66197
G1 X93.676 Y146.179 E8.67739
G1 X93.749 Y145.855 E8.68844
G1 X93.802 Y145.633 E8.69603
G1 X93.959 Y145.046 E8.71624
G1 X94.046 Y144.754 E8.72637
G1 X94.14 Y144.453 E8.73686
G1 X94.225 Y144.195 E8.74589
G1 X94.448 Y143.58 E8.76765
G1 X94.596 Y143.207 E8.781
G1 X94.729 Y142.887 E8.79253
G1 X94.814 Y142.691 E8.79963
G1 X95.073 Y142.137 E8.81997
G1 X95.238 Y141.808 E8.83221
G1 X95.383 Y141.53 E8.84264
G1 X95.49 Y141.331 E8.85016
G1 X95.806 Y140.781 E8.87125
G1 X96.026 Y140.423 E8.88523
G1 X96.209 Y140.135 E8.89658
G1 X96.311 Y139.98 E8.90275
G1 X96.671 Y139.466 E8.92362
G1 X96.914 Y139.139 E8.93717
G1 X97.088 Y138.911 E8.94671
G1 X97.219 Y138.744 E8.95377
G1 X97.669 Y138.206 E8.9771
G1 X97.936 Y137.907 E8.99043
G1 X98.17 Y137.654 E9.00189
G1 X98.325 Y137.491 E9.00938
G1 X98.722 Y137.094 E9.02805
G1 X98.979 Y136.85 E9.03984
G1 X99.286 Y136.569 E9.05368
G1 X99.461 Y136.415 E9.06143
G1 X99.892 Y136.055 E9.08011
G1 X100.221 Y135.794 E9.09408
G1 X100.506 Y135.576 E9.10601
G0 F6000 X100.744 Y135.897
G1 F1200 X100.918 Y135.768 E9.11322
G1 X101.399 Y135.432 E9.13273
G1 X101.698 Y135.235 E9.14464
G1 X101.99 Y135.049 E9.15615
G1 X102.189 Y134.927 E9.16392
G1 X102.665 Y134.652 E9.1822
G1 X103.007 Y134.466 E9.19515
G1 X103.31 Y134.308 E9.20652
G1 X103.491 Y134.217 E9.21325
G1 X104.063 Y133.95 E9.23425
G1 X104.486 Y133.768 E9.24957
G1 X104.769 Y133.651 E9.25975
G1 X104.933 Y133.586 E9.26562
G1 X105.505 Y133.378 E9.28586
G1 X105.837 Y133.268 E9.29749
G1 X106.153 Y133.169 E9.30851
G1 X106.419 Y133.09 E9.31774
G1 X106.976 Y132.941 E9.33692
G1 X107.307 Y132.862 E9.34823
G1 X107.622 Y132.792 E9.35897
G1 X107.859 Y132.743 E9.36702
G1 X108.483 Y132.633 E9.38809
G1 X108.869 Y132.577 E9.40106
G1 X109.165 Y132.538 E9.41099
G1 X109.414 Y132.509 E9.41933
G1 X109.998 Y132.457 E9.43883
G1 X110.311 Y132.438 E9.44926
G1 X110.668 Y132.423 E9.46115
G1 X110.928 Y132.416 E9.4698
G1 X111.502 Y132.416 E9.48889
G1 X111.905 Y132.427 E9.5023
G1 X112.23 Y132.441 E9.51312
G1 X112.454 Y132.454 E9.52058
G1 X113.066 Y132.507 E9.54101
G1 X113.461 Y132.553 E9.55424
G1 X113.761 Y132.592 E9.5643
G1 X113.981 Y132.624 E9.57169
G1 X114.296 Y132.675 E9.58231
G1 X115.102 Y132.818 E9.60953
G1 X116.199 Y133.028 E9.64668
G1 X118.719 Y133.438 E9.7316
G1 X121.193 Y133.769 E9.81462
G1 X123.71 Y134.033 E9.89879
G1 X126.227 Y134.226 E9.98275
G1 X128.739 Y134.347 E10.0664
G1 X131.911 Y134.4 E10.17192
G1 X149.749 Y134.4 E10.76521
G1 X152.374 Y134.363 E10.85253
G1 X154.882 Y134.256 E10.93602
G1 X157.399 Y134.078 E11.01994
G1 X159.923 Y133.828 E11.1043
G1 X162.431 Y133.507 E11.1884
G1 X164.893 Y133.12 E11.27129
G1 X167.415 Y132.651 E11.35661
G1 X169.889 Y132.119 E11.44078
G1 X172.337 Y131.519 E11.52461
G1 X174.753 Y130.854 E11.60795
G1 X178.132 Y129.801 E11.72567
G1 X178.475 Y129.687 E11.73769
G1 X178.812 Y129.581 E11.74944
G1 X179.176 Y129.473 E11.76207
G1 X179.738 Y129.323 E11.78142
G1 X180.272 Y129.196 E11.79967
G1 X180.561 Y129.131 E11.80953
G1 X180.935 Y129.053 E11.82223
G1 X181.547 Y128.944 E11.84291
G1 X182.101 Y128.862 E11.86154
G1 X182.434 Y128.818 E11.87271
G1 X182.814 Y128.774 E11.88543
G1 X183.415 Y128.722 E11.9055
G1 X183.929 Y128.692 E11.92262
G1 X184.227 Y128.679 E11.93254
G1 X184.658 Y128.666 E11.94688
G1 X185.286 Y128.665 E11.96777
G1 X185.802 Y128.68 E11.98494
G1 X186.099 Y128.693 E11.99483
G1 X186.519 Y128.717 E12.00882
G1 X187.128 Y128.77 E12.02915
G1 X187.666 Y128.832 E12.04716
G1 X187.994 Y128.875 E12.05817
G1 X188.368 Y128.93 E12.07074
G1 X188.953 Y129.033 E12.0905
G1 X189.495 Y129.144 E12.1089
G1 X189.821 Y129.216 E12.12
G1 X190.212 Y129.309 E12.13337
G1 X190.77 Y129.458 E12.15258
G1 X191.273 Y129.607 E12.17003
G1 X191.598 Y129.709 E12.18136
G1 X191.969 Y129.832 E12.19436
G1 X192.553 Y130.044 E12.21502
G1 X193.053 Y130.243 E12.23292
G1 X193.333 Y130.359 E12.243
G1 X193.72 Y130.526 E12.25702
G1 X194.26 Y130.778 E12.27684
G1 X194.708 Y131.002 E12.2935
G1 X194.992 Y131.149 E12.30413
G1 X195.371 Y131.353 E12.31845
G1 X195.913 Y131.666 E12.33927
G1 X196.362 Y131.943 E12.35681
G1 X196.604 Y132.097 E12.36635
G1 X196.949 Y132.323 E12.38007
G1 X197.469 Y132.686 E12.40116
G1 X197.891 Y133 E12.41866
G1 X198.106 Y133.164 E12.42765
G1 X198.417 Y133.408 E12.4408
G1 X198.932 Y133.839 E12.46314
G1 X199.341 Y134.204 E12.48137
G1 X199.572 Y134.417 E12.49182
G1 X199.874 Y134.703 E12.50565
G1 X200.278 Y135.106 E12.52463
G1 X200.606 Y135.452 E12.54049
G1 X200.836 Y135.703 E12.55181
G1 X201.132 Y136.036 E12.56663
G1 X201.505 Y136.48 E12.58592
G1 X201.839 Y136.9 E12.60377
G1 X202.045 Y137.167 E12.61498
G1 X202.287 Y137.492 E12.62846
G1 X202.639 Y137.995 E12.64888
G1 X202.926 Y138.431 E12.66624
G1 X203.099 Y138.702 E12.67693
G1 X203.312 Y139.048 E12.69045
G1 X203.6 Y139.547 E12.70961
G1 X203.84 Y139.989 E12.72634
G1 X203.987 Y140.269 E12.73686
G1 X204.188 Y140.667 E12.75169
G1 X204.463 Y141.255 E12.77328
G1 X204.667 Y141.729 E12.79044
G1 X204.772 Y141.982 E12.79955
G1 X204.922 Y142.357 E12.81299
G1 X205.14 Y142.954 E12.83412
