;FLAVOR:Marlin
;TIME:16414
;Filament used: 11.3169m
;Layer height: 0.2
;MINX:113.6
;MINY:123.697
;MINZ:0.2
;MAXX:186.4
;MAXY:175.726
;MAXZ:76.2
;Generated with Cura_SteamEngine master
M140 S55
M105
M190 S55
M104 S210
M105
M109 S210
M82 ;absolute extrusion mode
M201 X500.00 Y500.00 Z100.00 E5000.00 ;Setup machine max acceleration
M203 X500.00 Y500.00 Z10.00 E50.00 ;Setup machine max feedrate
M204 P500.00 R1000.00 T500.00 ;Setup Print/Retract/Travel acceleration
M205 X8.00 Y8.00 Z0.40 E5.00 ;Setup Jerk
M220 S100 ;Reset Feedrate
M221 S100 ;Reset Flowrate

G28 ;Home

G92 E0 ;Reset Extruder
G1 Z2.0 F3000 ;Move Z Axis up
G1 X10.1 Y20 Z0.28 F5000.0 ;Move to start position
G1 X10.1 Y200.0 Z0.28 F1500.0 E15 ;Draw the first line
G1 X10.4 Y200.0 Z0.28 F5000.0 ;Move to side a little
G1 X10.4 Y20 Z0.28 F1500.0 E30 ;Draw the second line
G92 E0 ;Reset Extruder
G1 Z2.0 F3000 ;Move Z Axis up

G92 E0
G92 E0
G1 F2700 E-5
;LAYER_COUNT:381
;LAYER:0
M107
G0 F6000 X126.926 Y126.929 Z0.2
;TYPE:SKIRT
G1 F2700 E0
G1 F1200 X127.617 Y126.295 E0.03119
G1 X128.359 Y125.721 E0.06239
G1 X129.148 Y125.214 E0.09359
G1 X129.976 Y124.775 E0.12476
G1 X130.84 Y124.408 E0.15598
G1 X131.731 Y124.116 E0.18716
G1 X132.644 Y123.902 E0.21835
G1 X133.572 Y123.765 E0.24955
G1 X134.333 Y123.713 E0.27492
G1 X134.718 Y123.703 E0.28773
G1 X135.261 Y123.697 E0.30579
G1 X162.694 Y123.697 E1.21822
G1 X163.553 Y123.708 E1.24679
G1 X164.489 Y123.761 E1.27797
G1 X165.417 Y123.894 E1.30915
G1 X166.331 Y124.106 E1.34036
G1 X167.224 Y124.394 E1.37157
G1 X168.088 Y124.758 E1.40275
G1 X168.919 Y125.194 E1.43396
G1 X169.709 Y125.699 E1.46515
G1 X170.453 Y126.269 E1.49632
G1 X171.146 Y126.901 E1.52752
G1 X171.81 Y127.622 E1.56012
G1 X171.986 Y127.831 E1.56921
G1 X172.559 Y128.573 E1.60039
G1 X172.895 Y129.078 E1.62056
G1 X174.15 Y131.082 E1.69921
G1 X175.547 Y133.181 E1.78307
G1 X176.985 Y135.213 E1.86586
G1 X178.529 Y137.271 E1.95144
G1 X180.067 Y139.204 E2.0336
G1 X181.7 Y141.141 E2.11786
G1 X183.053 Y142.667 E2.18569
G1 X183.543 Y143.208 E2.20997
G1 X184.142 Y143.929 E2.24115
G1 X184.678 Y144.699 E2.27235
G1 X185.146 Y145.511 E2.30352
G1 X185.544 Y146.361 E2.33474
G1 X185.867 Y147.241 E2.36592
G1 X186.115 Y148.146 E2.39713
G1 X186.284 Y149.068 E2.4283
G1 X186.385 Y150.254 E2.46789
G1 X186.395 Y150.579 E2.47871
G1 X186.4 Y150.917 E2.48995
G1 X186.399 Y154.028 E2.59342
G1 X186.388 Y154.751 E2.61747
G1 X186.333 Y155.688 E2.64869
G1 X186.2 Y156.616 E2.67987
G1 X185.987 Y157.529 E2.71105
G1 X185.698 Y158.422 E2.74227
G1 X185.334 Y159.286 E2.77345
G1 X184.897 Y160.116 E2.80465
G1 X184.391 Y160.906 E2.83586
G1 X183.82 Y161.649 E2.86702
G1 X183.441 Y162.079 E2.88609
G1 X182.94 Y162.617 E2.91054
G1 X181.162 Y164.58 E2.99863
G1 X179.544 Y166.476 E3.08153
G1 X177.957 Y168.442 E3.16557
G1 X176.07 Y170.937 E3.26961
G1 X175.473 Y171.66 E3.3008
G1 X174.817 Y172.33 E3.33198
G1 X174.22 Y172.851 E3.35834
G1 X174.12 Y172.932 E3.36262
G1 X173.366 Y173.49 E3.39382
G1 X172.568 Y173.983 E3.42502
G1 X171.731 Y174.406 E3.45621
G1 X170.861 Y174.756 E3.4874
G1 X170.212 Y174.963 E3.51005
G1 X169.542 Y175.154 E3.53323
G1 X169.215 Y175.241 E3.54448
G1 X168.616 Y175.392 E3.56503
G1 X167.697 Y175.583 E3.59625
G1 X166.766 Y175.694 E3.62743
G1 X165.829 Y175.726 E3.65861
G1 X164.892 Y175.677 E3.68982
G1 X163.867 Y175.531 E3.72426
G1 X163.547 Y175.47 E3.73509
G1 X162.634 Y175.256 E3.76628
G1 X162.172 Y175.115 E3.78235
G1 X160.066 Y174.423 E3.85608
G1 X157.639 Y173.7 E3.94031
G1 X155.239 Y173.059 E4.02293
G1 X152.768 Y172.473 E4.10739
G1 X150.286 Y171.956 E4.19172
G1 X147.821 Y171.519 E4.27498
G1 X145.349 Y171.151 E4.35811
G1 X142.831 Y170.848 E4.44246
G1 X140.318 Y170.617 E4.52639
G1 X137.788 Y170.458 E4.61071
G1 X137.074 Y170.428 E4.63448
G1 X136.637 Y170.402 E4.64904
G1 X135.704 Y170.306 E4.68023
G1 X134.782 Y170.131 E4.71145
G1 X134.199 Y169.978 E4.73149
G1 X133.755 Y169.848 E4.74688
G1 X133.442 Y169.751 E4.75778
G1 X133.147 Y169.655 E4.7681
G1 X132.268 Y169.327 E4.7993
G1 X129.592 Y168.139 E4.89668
G1 X127.199 Y167.156 E4.98273
G1 X124.903 Y166.29 E5.06435
G1 X122.524 Y165.468 E5.14806
G1 X121.739 Y165.218 E5.17546
G1 X121.098 Y165.003 E5.19795
G1 X120.223 Y164.666 E5.22914
G1 X119.379 Y164.256 E5.26035
G1 X118.574 Y163.775 E5.29154
G1 X117.813 Y163.228 E5.32271
G1 X117.101 Y162.617 E5.35391
G1 X116.443 Y161.948 E5.38512
G1 X115.845 Y161.226 E5.4163
G1 X115.311 Y160.455 E5.4475
G1 X114.844 Y159.641 E5.47871
G1 X114.448 Y158.791 E5.5099
G1 X114.127 Y157.91 E5.54108
G1 X113.881 Y157.005 E5.57228
G1 X113.713 Y156.082 E5.60348
G1 X113.615 Y154.92 E5.64227
G1 X113.605 Y154.598 E5.65298
G1 X113.6 Y154.257 E5.66432
G1 X113.601 Y151.122 E5.76859
G1 X113.612 Y150.417 E5.79205
G1 X113.667 Y149.481 E5.82323
G1 X113.801 Y148.553 E5.85442
G1 X114.014 Y147.639 E5.88563
G1 X114.304 Y146.747 E5.91683
G1 X114.668 Y145.883 E5.94801
G1 X115.105 Y145.054 E5.97918
G1 X115.767 Y144.048 E6.01923
G1 X116.246 Y143.402 E6.04598
G1 X117.046 Y142.351 E6.08991
G1 X118.513 Y140.306 E6.17362
G1 X119.918 Y138.226 E6.25711
G1 X121.254 Y136.123 E6.33997
G1 X122.551 Y133.944 E6.42431
G1 X123.785 Y131.736 E6.50844
G1 X124.662 Y130.056 E6.57148
G1 X124.924 Y129.571 E6.58981
G1 X125.406 Y128.767 E6.62099
G1 X125.955 Y128.007 E6.65217
G1 X126.813 Y127.042 E6.69512
G1 X126.926 Y126.929 E6.70043
G0 F6000 X127.209 Y127.212
G1 F1200 X127.887 Y126.59 E6.73104
G1 X128.617 Y126.029 E6.76166
G1 X129.393 Y125.533 E6.79229
G1 X130.209 Y125.107 E6.82291
G1 X131.059 Y124.753 E6.85353
G1 X131.937 Y124.475 E6.88416
G1 X132.835 Y124.273 E6.91478
G1 X133.748 Y124.15 E6.94542
G1 X134.346 Y124.113 E6.96535
G1 X134.722 Y124.103 E6.97786
G1 X135.261 Y124.097 E6.99578
G1 X162.694 Y124.097 E7.90821
G1 X163.547 Y124.108 E7.93658
G1 X164.466 Y124.161 E7.9672
G1 X165.377 Y124.294 E7.99782
G1 X166.273 Y124.505 E8.02844
G1 X167.148 Y124.793 E8.05907
G1 X167.994 Y125.156 E8.08969
G1 X168.805 Y125.591 E8.1203
G1 X169.576 Y126.095 E8.15094
G1 X170.3 Y126.663 E8.18155
G1 X170.972 Y127.293 E8.21218
G1 X171.504 Y127.879 E8.23851
G1 X171.68 Y128.088 E8.2476
G1 X172.242 Y128.817 E8.27821
G1 X172.556 Y129.29 E8.29709
G1 X173.821 Y131.311 E8.37639
G1 X175.204 Y133.388 E8.45939
G1 X176.672 Y135.462 E8.5439
G1 X178.211 Y137.514 E8.62921
G1 X179.764 Y139.465 E8.71215
G1 X181.396 Y141.401 E8.79637
G1 X182.746 Y142.924 E8.86406
G1 X183.246 Y143.476 E8.88883
G1 X183.834 Y144.185 E8.91947
G1 X184.358 Y144.941 E8.95006
G1 X184.815 Y145.741 E8.98071
G1 X185.2 Y146.577 E9.01132
G1 X185.512 Y147.444 E9.04197
G1 X185.747 Y148.334 E9.07258
G1 X185.904 Y149.241 E9.1032
G1 X185.985 Y150.266 E9.1374
G1 X185.995 Y150.591 E9.14821
G1 X186 Y150.917 E9.15905
G1 X185.999 Y154.022 E9.26233
G1 X185.988 Y154.745 E9.28638
G1 X185.934 Y155.664 E9.317
G1 X185.8 Y156.575 E9.34762
G1 X185.588 Y157.471 E9.37825
G1 X185.299 Y158.345 E9.40886
G1 X184.935 Y159.191 E9.43949
G1 X184.5 Y160.002 E9.4701
G1 X183.995 Y160.772 E9.50073
G1 X183.148 Y161.806 E9.54519
G1 X182.61 Y162.384 E9.57145
G1 X180.881 Y164.293 E9.65712
G1 X179.247 Y166.207 E9.74082
G1 X177.639 Y168.199 E9.82597
G1 X175.751 Y170.696 E9.93008
G1 X175.165 Y171.405 E9.96068
G1 X174.519 Y172.061 E9.9913
G1 X173.968 Y172.54 E10.01558
G1 X173.868 Y172.621 E10.01986
G1 X173.128 Y173.169 E10.05049
G1 X172.343 Y173.65 E10.08111
G1 X171.52 Y174.062 E10.11172
G1 X170.664 Y174.401 E10.14234
G1 X170.102 Y174.578 E10.16194
G1 X169.432 Y174.769 E10.18511
G1 X169.117 Y174.853 E10.19596
G1 X168.518 Y175.004 E10.2165
G1 X167.616 Y175.191 E10.24714
G1 X166.702 Y175.298 E10.27775
G1 X165.782 Y175.325 E10.30836
G1 X164.863 Y175.272 E10.33898
G1 X163.942 Y175.139 E10.36993
G1 X163.622 Y175.078 E10.38076
G1 X162.297 Y174.735 E10.42628
G1 X160.167 Y174.035 E10.50086
G1 X157.775 Y173.323 E10.58386
G1 X155.304 Y172.663 E10.66893
G1 X152.87 Y172.085 E10.75214
G1 X150.366 Y171.564 E10.8372
G1 X147.879 Y171.123 E10.92121
G1 X145.389 Y170.752 E11.00494
G1 X142.878 Y170.45 E11.08906
G1 X140.378 Y170.22 E11.17256
G1 X137.828 Y170.06 E11.25754
G1 X137.308 Y170.039 E11.27485
G1 X136.66 Y170.002 E11.29644
G1 X135.745 Y169.908 E11.32703
G1 X134.841 Y169.734 E11.35765
G1 X134.311 Y169.594 E11.37589
G1 X133.867 Y169.464 E11.39127
G1 X133.566 Y169.371 E11.40175
G1 X133.271 Y169.275 E11.41207
G1 X132.409 Y168.952 E11.44269
G1 X129.758 Y167.774 E11.53917
G1 X127.355 Y166.787 E11.62558
G1 X125.026 Y165.91 E11.70835
G1 X122.65 Y165.088 E11.79197
G1 X121.861 Y164.837 E11.81951
G1 X121.226 Y164.624 E11.84179
G1 X120.367 Y164.293 E11.8724
G1 X119.54 Y163.888 E11.90303
G1 X118.751 Y163.413 E11.93366
G1 X118.007 Y162.871 E11.96428
G1 X117.312 Y162.267 E11.9949
G1 X116.673 Y161.605 E12.02551
G1 X116.093 Y160.889 E12.05615
G1 X115.578 Y160.127 E12.08674
G1 X115.13 Y159.322 E12.11738
G1 X114.754 Y158.481 E12.14802
G1 X114.453 Y157.611 E12.17864
G1 X114.228 Y156.719 E12.20924
G1 X114.082 Y155.81 E12.23986
G1 X114.015 Y154.908 E12.26994
G1 X114.005 Y154.586 E12.28066
G1 X114 Y154.257 E12.2916
G1 X114.001 Y151.129 E12.39564
G1 X114.012 Y150.424 E12.41909
G1 X114.067 Y149.505 E12.44971
G1 X114.2 Y148.594 E12.48033
G1 X114.413 Y147.698 E12.51097
G1 X114.702 Y146.824 E12.54158
G1 X115.066 Y145.978 E12.57222
G1 X115.502 Y145.167 E12.60284
G1 X116.088 Y144.286 E12.63803
G1 X116.564 Y143.644 E12.66461
G1 X117.373 Y142.581 E12.70904
G1 X118.837 Y140.54 E12.79259
G1 X120.243 Y138.459 E12.87612
G1 X121.617 Y136.295 E12.96137
G1 X122.911 Y134.123 E13.04546
G1 X124.124 Y131.952 E13.12818
G1 X125.098 Y130.088 E13.19813
G1 X125.275 Y129.762 E13.21047
G1 X125.75 Y128.973 E13.2411
G1 X126.29 Y128.228 E13.2717
G1 X127.096 Y127.325 E13.31196
G1 X127.209 Y127.212 E13.31727
G0 F6000 X127.492 Y127.495
G1 F1200 X128.158 Y126.885 E13.34731
G1 X128.875 Y126.336 E13.37735
G1 X129.639 Y125.854 E13.40739
G1 X130.442 Y125.44 E13.43744
G1 X131.278 Y125.1 E13.46746
G1 X132.141 Y124.834 E13.49749
G1 X133.024 Y124.646 E13.52752
G1 X134.36 Y124.513 E13.57218
G1 X134.727 Y124.503 E13.58439
G1 X135.261 Y124.497 E13.60215
G1 X162.694 Y124.497 E14.51458
G1 X163.541 Y124.508 E14.54275
G1 X164.443 Y124.561 E14.5728
G1 X165.336 Y124.693 E14.60283
G1 X166.214 Y124.904 E14.63286
G1 X167.07 Y125.192 E14.6629
G1 X167.898 Y125.554 E14.69295
G1 X168.69 Y125.988 E14.72299
G1 X169.44 Y126.491 E14.75303
G1 X170.143 Y127.057 E14.78305
G1 X170.793 Y127.684 E14.81308
G1 X171.198 Y128.137 E14.83329
G1 X171.374 Y128.346 E14.84238
G1 X171.925 Y129.062 E14.87243
G1 X172.217 Y129.503 E14.89002
G1 X173.482 Y131.523 E14.9693
G1 X174.876 Y133.618 E15.05299
G1 X176.341 Y135.687 E15.13731
G1 X177.894 Y137.758 E15.22341
G1 X179.461 Y139.727 E15.30711
G1 X181.094 Y141.664 E15.39137
G1 X182.428 Y143.169 E15.45826
G1 X182.95 Y143.745 E15.48411
G1 X183.526 Y144.44 E15.51414
G1 X184.038 Y145.184 E15.54418
G1 X184.483 Y145.97 E15.57422
G1 X184.856 Y146.792 E15.60424
G1 X185.155 Y147.645 E15.6343
G1 X185.377 Y148.52 E15.66433
G1 X185.521 Y149.411 E15.69435
G1 X185.585 Y150.278 E15.72326
G1 X185.595 Y150.603 E15.73408
G1 X185.6 Y150.917 E15.74452
G1 X185.599 Y154.016 E15.8476
G1 X185.588 Y154.739 E15.87165
G1 X185.534 Y155.641 E15.9017
G1 X185.401 Y156.534 E15.93173
G1 X185.189 Y157.412 E15.96177
G1 X184.901 Y158.268 E15.99181
G1 X184.538 Y159.095 E16.02185
G1 X184.103 Y159.886 E16.05187
G1 X183.6 Y160.636 E16.08191
G1 X182.855 Y161.534 E16.12072
G1 X182.34 Y162.088 E16.14588
G1 X180.558 Y164.055 E16.23415
G1 X178.915 Y165.98 E16.31833
G1 X177.336 Y167.936 E16.40194
G1 X175.432 Y170.454 E16.50693
G1 X174.856 Y171.15 E16.53698
G1 X174.221 Y171.792 E16.56702
G1 X173.716 Y172.229 E16.58923
G1 X173.616 Y172.31 E16.59351
G1 X172.89 Y172.847 E16.62354
G1 X172.119 Y173.317 E16.65358
G1 X171.309 Y173.718 E16.68364
G1 X170.468 Y174.045 E16.71365
G1 X169.992 Y174.193 E16.73023
G1 X169.322 Y174.384 E16.7534
G1 X169.019 Y174.466 E16.76384
G1 X168.42 Y174.617 E16.78439
G1 X167.536 Y174.798 E16.8144
G1 X166.638 Y174.901 E16.84446
G1 X165.736 Y174.924 E16.87447
G1 X164.834 Y174.867 E16.90453
G1 X164.017 Y174.746 E16.932
G1 X163.697 Y174.685 E16.94284
G1 X162.421 Y174.355 E16.98667
G1 X160.291 Y173.655 E17.06125
G1 X157.887 Y172.939 E17.14467
G1 X155.394 Y172.273 E17.2305
G1 X152.937 Y171.69 E17.31449
G1 X150.445 Y171.172 E17.39914
G1 X147.971 Y170.733 E17.48272
G1 X145.425 Y170.353 E17.56833
G1 X142.927 Y170.053 E17.65201
G1 X140.407 Y169.822 E17.73618
G1 X137.825 Y169.659 E17.82223
G1 X137.121 Y169.629 E17.84567
G1 X136.684 Y169.603 E17.86023
G1 X135.786 Y169.51 E17.89025
G1 X134.899 Y169.337 E17.92031
G1 X134.424 Y169.21 E17.93667
G1 X133.98 Y169.08 E17.95205
G1 X133.69 Y168.99 E17.96215
G1 X133.395 Y168.894 E17.97247
G1 X132.351 Y168.478 E18.00985
G1 X132.347 Y168.487 E18.01018
G1 X129.893 Y167.397 E18.09949
G1 X127.512 Y166.419 E18.1851
G1 X125.15 Y165.529 E18.26905
G1 X122.751 Y164.7 E18.35347
G1 X121.819 Y164.402 E18.38602
G1 X121.353 Y164.245 E18.40237
G1 X120.511 Y163.919 E18.4324
G1 X119.701 Y163.52 E18.46243
G1 X118.929 Y163.051 E18.49248
G1 X118.202 Y162.515 E18.52252
G1 X117.525 Y161.917 E18.55256
G1 X116.904 Y161.262 E18.58258
G1 X116.343 Y160.554 E18.61263
G1 X115.847 Y159.799 E18.64267
G1 X115.42 Y159.004 E18.67269
G1 X115.064 Y158.174 E18.70273
G1 X114.784 Y157.315 E18.73278
G1 X114.58 Y156.435 E18.76282
G1 X114.455 Y155.541 E18.79285
G1 X114.415 Y154.896 E18.81434
G1 X114.405 Y154.574 E18.82505
G1 X114.4 Y154.257 E18.8356
G1 X114.401 Y151.135 E18.93944
G1 X114.412 Y150.43 E18.96289
G1 X114.466 Y149.528 E18.99294
G1 X114.6 Y148.635 E19.02298
G1 X114.812 Y147.757 E19.05302
G1 X115.101 Y146.902 E19.08304
G1 X115.464 Y146.075 E19.11308
G1 X115.899 Y145.284 E19.1431
G1 X116.41 Y144.524 E19.17356
G1 X116.883 Y143.886 E19.19998
G1 X117.684 Y142.833 E19.24398
G1 X119.178 Y140.752 E19.32918
G1 X120.58 Y138.676 E19.4125
G1 X121.946 Y136.524 E19.49728
G1 X123.255 Y134.327 E19.58234
G1 X124.485 Y132.126 E19.6662
G1 X125.45 Y130.279 E19.73551
G1 X125.627 Y129.953 E19.74785
G1 X126.093 Y129.179 E19.7779
G1 X126.625 Y128.45 E19.80792
G1 X127.379 Y127.608 E19.84551
G1 X127.492 Y127.495 E19.85082
G1 F2700 E14.85082
G0 F6000 X139.916 Y138.497
G0 X140.382 Y138.497
G1 F2700 E19.85082
G1 F1200 X157.719 Y138.497 E20.42745
G1 X157.718 Y145.987 E20.67657
G1 X140.381 Y145.987 E21.2532
G1 X140.382 Y138.497 E21.50232
G0 F6000 X139.982 Y138.097
G1 F1200 X158.119 Y138.097 E22.10556
G1 X158.118 Y146.387 E22.38129
G1 X139.981 Y146.387 E22.98453
G1 X139.982 Y138.097 E23.26025
G0 F6000 X139.582 Y137.697
G1 F1200 X158.519 Y137.697 E23.8901
G1 X158.518 Y146.787 E24.19244
G1 X139.581 Y146.787 E24.82228
G1 X139.582 Y137.697 E25.12462
G0 F6000 X139.182 Y137.297
G1 F1200 X158.919 Y137.297 E25.78107
G1 X158.918 Y147.187 E26.11002
G1 X139.181 Y147.187 E26.76647
G1 X139.182 Y137.297 E27.09541
G0 F6000 X138.782 Y137.195
G1 F1200 X138.753 Y136.897 E27.10537
G1 X159.328 Y136.897 E27.7897
G1 X159.319 Y136.979 E27.79244
G1 X159.318 Y147.587 E28.14527
G1 X138.781 Y147.587 E28.82833
G1 X138.782 Y137.195 E29.17397
G0 F6000 X138.382 Y137.195
G1 F1200 X138.342 Y136.818 E29.18658
G1 X138.241 Y136.497 E29.19777
G1 X159.795 Y136.497 E29.91466
G1 X159.74 Y136.705 E29.92182
G1 X159.719 Y136.979 E29.93096
G1 X159.718 Y147.987 E30.29708
G1 X138.381 Y147.987 E31.00675
G1 X138.382 Y137.195 E31.3657
G0 F6000 X137.982 Y137.195
G1 F1200 X137.942 Y136.863 E31.37682
G1 X137.875 Y136.659 E31.38396
G1 X137.722 Y136.29 E31.39725
G1 X137.613 Y136.097 E31.40462
G1 X160.444 Y136.097 E32.16398
G1 X160.323 Y136.252 E32.17052
G1 X160.184 Y136.556 E32.18164
G1 X160.119 Y136.979 E32.19587
G1 X160.118 Y148.387 E32.57531
G1 X137.981 Y148.387 E33.31159
G1 X137.982 Y137.195 E33.68383
G0 F6000 X137.582 Y137.195
G1 F1200 X137.506 Y136.812 E33.69682
G1 X137.353 Y136.443 E33.71011
G1 X137.136 Y136.119 E33.72308
G1 X137.007 Y135.99 E33.72914
G1 X136.781 Y135.821 E33.73853
G1 X136.517 Y135.721 E33.74792
G1 X136.3 Y135.697 E33.75518
G1 X161.801 Y135.697 E34.60335
G1 X161.522 Y135.737 E34.61272
G1 X161.265 Y135.853 E34.6221
G1 X161.094 Y135.99 E34.62939
G1 X160.812 Y136.272 E34.64265
G1 X160.643 Y136.498 E34.65204
G1 X160.543 Y136.762 E34.66143
G1 X160.519 Y136.979 E34.66869
G1 X160.518 Y148.787 E35.06143
