;FLAVOR:Marlin
;TIME:12457
;Filament used: 8.24235m
;Layer height: 0.2
;MINX:122.394
;MINY:123.697
;MINZ:0.2
;MAXX:179.138
;MAXY:175.789
;MAXZ:51
;Generated with Cura_SteamEngine master
M140 S55
M105
M190 S55
M104 S210
M105
M109 S210
M82 ;absolute extrusion mode
M201 X500.00 Y500.00 Z100.00 E5000.00 ;Setup machine max acceleration
M203 X500.00 Y500.00 Z10.00 E50.00 ;Setup machine max feedrate
M204 P500.00 R1000.00 T500.00 ;Setup Print/Retract/Travel acceleration
M205 X8.00 Y8.00 Z0.40 E5.00 ;Setup Jerk
M220 S100 ;Reset Feedrate
M221 S100 ;Reset Flowrate

G28 ;Home

G92 E0 ;Reset Extruder
G1 Z2.0 F3000 ;Move Z Axis up
G1 X10.1 Y20 Z0.28 F5000.0 ;Move to start position
G1 X10.1 Y200.0 Z0.28 F1500.0 E15 ;Draw the first line
G1 X10.4 Y200.0 Z0.28 F5000.0 ;Move to side a little
G1 X10.4 Y20 Z0.28 F1500.0 E30 ;Draw the second line
G92 E0 ;Reset Extruder
G1 Z2.0 F3000 ;Move Z Axis up

G92 E0
G92 E0
G1 F2700 E-5
;LAYER_COUNT:255
;LAYER:0
M107
G0 F6000 X125.592 Y126.961 Z0.2
;TYPE:SKIRT
G1 F2700 E0
G1 F1200 X126.28 Y126.324 E0.03119
G1 X127.02 Y125.748 E0.06237
G1 X127.806 Y125.236 E0.09357
G1 X128.633 Y124.794 E0.12476
G1 X129.495 Y124.424 E0.15596
G1 X130.385 Y124.128 E0.18716
G1 X131.297 Y123.91 E0.21835
G1 X132.224 Y123.769 E0.24953
G1 X133.095 Y123.71 E0.27857
G1 X133.416 Y123.701 E0.28925
G1 X133.712 Y123.697 E0.2991
G1 X166.752 Y123.698 E1.39801
G1 X167.454 Y123.708 E1.42136
G1 X168.39 Y123.761 E1.45254
G1 X169.318 Y123.894 E1.48372
G1 X170.232 Y124.106 E1.51493
G1 X171.125 Y124.394 E1.54614
G1 X171.989 Y124.758 E1.57732
G1 X172.82 Y125.194 E1.60853
G1 X173.61 Y125.699 E1.63972
G1 X174.354 Y126.269 E1.67089
G1 X175.075 Y126.929 E1.7034
G1 X175.187 Y127.041 E1.70867
G1 X175.821 Y127.732 E1.73986
G1 X176.395 Y128.474 E1.77106
G1 X176.902 Y129.263 E1.80226
G1 X177.341 Y130.091 E1.83343
G1 X177.708 Y130.955 E1.86465
G1 X178 Y131.846 E1.89583
G1 X178.214 Y132.759 E1.92702
G1 X178.351 Y133.687 E1.95822
G1 X178.4 Y134.379 E1.9813
G1 X178.413 Y134.809 E1.99561
G1 X178.419 Y135.377 E2.0145
G1 X178.417 Y135.923 E2.03266
G1 X178.407 Y136.631 E2.05621
G1 X178.353 Y137.571 E2.08752
G1 X178.328 Y137.818 E2.09578
G1 X178.105 Y140.425 E2.18281
G1 X177.96 Y142.958 E2.26719
G1 X177.888 Y145.445 E2.34995
G1 X177.886 Y147.97 E2.43393
G1 X177.956 Y150.49 E2.51778
G1 X178.097 Y153.011 E2.60176
G1 X178.307 Y155.5 E2.68483
G1 X178.594 Y158.049 E2.77015
G1 X178.858 Y159.953 E2.83408
G1 X178.883 Y160.12 E2.8397
G1 X178.928 Y160.453 E2.85088
G1 X178.985 Y160.934 E2.86699
G1 X179.016 Y161.232 E2.87695
G1 X179.048 Y161.59 E2.88891
G1 X179.104 Y162.297 E2.91249
G1 X179.138 Y163.235 E2.94371
G1 X179.092 Y164.171 E2.97488
G1 X178.966 Y165.101 E3.0061
G1 X178.762 Y166.016 E3.03728
G1 X178.481 Y166.911 E3.06848
G1 X178.124 Y167.778 E3.09966
G1 X177.78 Y168.46 E3.12507
G1 X177.668 Y168.664 E3.13281
G1 X177.076 Y169.623 E3.17029
G1 X176.617 Y170.284 E3.19706
G1 X176.203 Y170.858 E3.2206
G1 X175.622 Y171.594 E3.25179
G1 X174.981 Y172.279 E3.28299
G1 X174.284 Y172.906 E3.31417
G1 X173.536 Y173.472 E3.34537
G1 X172.742 Y173.972 E3.37658
G1 X171.909 Y174.402 E3.40776
G1 X170.606 Y174.909 E3.45426
G1 X170.483 Y174.948 E3.45855
G1 X170.101 Y175.061 E3.4718
G1 X169.559 Y175.21 E3.4905
G1 X169.259 Y175.289 E3.50081
G1 X168.576 Y175.461 E3.52424
G1 X167.658 Y175.651 E3.55542
G1 X166.727 Y175.762 E3.5866
G1 X165.543 Y175.789 E3.62599
G1 X165.448 Y175.786 E3.62916
G1 X164.513 Y175.716 E3.66034
G1 X163.587 Y175.567 E3.69154
G1 X162.274 Y175.212 E3.73678
G1 X161.764 Y175.04 E3.75468
G1 X159.3 Y174.249 E3.84075
G1 X156.9 Y173.552 E3.92387
G1 X154.435 Y172.912 E4.00858
G1 X151.968 Y172.344 E4.09278
G1 X149.535 Y171.859 E4.17529
G1 X147.025 Y171.43 E4.25998
G1 X144.546 Y171.078 E4.34326
G1 X142.068 Y170.798 E4.4262
G1 X139.502 Y170.58 E4.51186
G1 X137.992 Y170.486 E4.56218
G1 X136.729 Y170.418 E4.60425
G1 X135.795 Y170.328 E4.63546
G1 X134.873 Y170.158 E4.66664
G1 X134.25 Y169.997 E4.68804
G1 X133.414 Y169.754 E4.717
G1 X133.092 Y169.655 E4.7282
G1 X132.438 Y169.443 E4.75107
G1 X131.559 Y169.116 E4.78226
G1 X130.711 Y168.715 E4.81346
G1 X129.756 Y168.15 E4.85037
G1 X129.679 Y168.099 E4.85344
G1 X128.92 Y167.548 E4.88463
G1 X128.21 Y166.935 E4.91583
G1 X127.556 Y166.263 E4.94702
G1 X126.961 Y165.538 E4.97821
G1 X126.429 Y164.765 E5.00942
G1 X126.008 Y164.03 E5.0376
G1 X125.519 Y163.096 E5.07266
G1 X125.332 Y162.722 E5.08657
G1 X125.054 Y162.138 E5.10808
G1 X124.687 Y161.275 E5.13927
G1 X124.395 Y160.383 E5.17049
G1 X124.181 Y159.47 E5.20168
G1 X124.048 Y158.58 E5.23161
G1 X123.958 Y157.734 E5.25991
G1 X123.696 Y155.061 E5.34924
G1 X123.65 Y154.653 E5.36289
G1 X123.307 Y151.991 E5.45216
G1 X123.217 Y150.596 E5.49866
G1 X123.216 Y149.514 E5.53465
G1 X123.177 Y146.904 E5.62146
G1 X123.069 Y144.386 E5.70529
G1 X122.889 Y141.879 E5.78889
G1 X122.63 Y139.3 E5.8751
G1 X122.474 Y137.937 E5.92073
G1 X122.407 Y136.996 E5.9521
G1 X122.398 Y136.677 E5.96272
G1 X122.394 Y136.367 E5.97303
G1 X122.395 Y135.222 E6.01111
G1 X122.404 Y134.557 E6.03323
G1 X122.457 Y133.621 E6.06441
G1 X122.589 Y132.692 E6.09562
G1 X122.8 Y131.778 E6.12682
G1 X123.088 Y130.886 E6.158
G1 X123.451 Y130.021 E6.1892
G1 X123.886 Y129.19 E6.2204
G1 X124.39 Y128.4 E6.25156
G1 X124.96 Y127.655 E6.28276
G1 X125.592 Y126.961 E6.31398
G0 F6000 X125.983 Y127.136
G1 F1200 X126.668 Y126.52 E6.34462
G1 X127.404 Y125.967 E6.37524
G1 X128.185 Y125.479 E6.40587
G1 X129.005 Y125.061 E6.43648
G1 X129.859 Y124.716 E6.46712
G1 X130.739 Y124.446 E6.49773
G1 X131.639 Y124.254 E6.52834
G1 X132.553 Y124.14 E6.55898
G1 X133.106 Y124.11 E6.5774
G1 X133.427 Y124.101 E6.58808
G1 X133.712 Y124.097 E6.59756
G1 X166.746 Y124.098 E7.69627
G1 X167.448 Y124.108 E7.71962
G1 X168.367 Y124.161 E7.75024
G1 X169.278 Y124.294 E7.78086
G1 X170.174 Y124.505 E7.81148
G1 X171.049 Y124.793 E7.84212
G1 X171.895 Y125.156 E7.87274
G1 X172.706 Y125.591 E7.90335
G1 X173.477 Y126.095 E7.93398
G1 X174.201 Y126.663 E7.96459
G1 X174.792 Y127.212 E7.99142
G1 X174.904 Y127.324 E7.99669
G1 X175.526 Y128.002 E8.02729
G1 X176.087 Y128.732 E8.05791
G1 X176.583 Y129.508 E8.08854
G1 X177.009 Y130.324 E8.11916
G1 X177.363 Y131.174 E8.14978
G1 X177.641 Y132.052 E8.18041
G1 X177.843 Y132.95 E8.21103
G1 X177.966 Y133.863 E8.24167
G1 X178.001 Y134.395 E8.2594
G1 X178.006 Y134.52 E8.26356
G1 X178.013 Y134.814 E8.27334
G1 X178.019 Y135.376 E8.29204
G1 X178.017 Y135.918 E8.31006
G1 X178.007 Y136.626 E8.33361
G1 X177.955 Y137.531 E8.36376
G1 X177.927 Y137.812 E8.37316
G1 X177.708 Y140.369 E8.45851
G1 X177.562 Y142.923 E8.5436
G1 X177.488 Y145.468 E8.62828
G1 X177.486 Y147.981 E8.71186
G1 X177.556 Y150.524 E8.79648
G1 X177.696 Y153.029 E8.87992
G1 X177.909 Y155.545 E8.96391
G1 X178.193 Y158.065 E9.04825
G1 X178.471 Y160.075 E9.11574
G1 X178.487 Y160.179 E9.11924
G1 X178.53 Y160.5 E9.13001
G1 X178.587 Y160.981 E9.14612
G1 X178.617 Y161.268 E9.15572
G1 X178.649 Y161.622 E9.16754
G1 X178.705 Y162.329 E9.19113
G1 X178.738 Y163.249 E9.22175
G1 X178.69 Y164.169 E9.25239
G1 X178.564 Y165.08 E9.28298
G1 X178.358 Y165.978 E9.31362
G1 X178.076 Y166.854 E9.34423
G1 X177.718 Y167.702 E9.37485
G1 X177.43 Y168.267 E9.39594
G1 X177.318 Y168.471 E9.40368
G1 X176.746 Y169.396 E9.43985
G1 X176.292 Y170.05 E9.46633
G1 X175.878 Y170.624 E9.48987
G1 X175.308 Y171.346 E9.52047
G1 X174.677 Y172.017 E9.5511
G1 X173.99 Y172.63 E9.58172
G1 X173.252 Y173.181 E9.61236
G1 X172.47 Y173.666 E9.64296
G1 X171.648 Y174.081 E9.67359
G1 X170.485 Y174.527 E9.71502
G1 X170.362 Y174.566 E9.71931
G1 X169.994 Y174.676 E9.73208
G1 X169.457 Y174.824 E9.75061
G1 X169.162 Y174.901 E9.76075
G1 X168.479 Y175.073 E9.78418
G1 X167.577 Y175.259 E9.81481
G1 X166.662 Y175.366 E9.84545
G1 X165.555 Y175.389 E9.88228
G1 X165.46 Y175.386 E9.88544
G1 X164.542 Y175.317 E9.91606
G1 X163.634 Y175.168 E9.94666
G1 X162.402 Y174.833 E9.98913
G1 X161.888 Y174.659 E10.00717
G1 X159.419 Y173.867 E10.09341
G1 X156.975 Y173.157 E10.17806
G1 X154.554 Y172.528 E10.26126
G1 X152.038 Y171.949 E10.34713
G1 X149.608 Y171.465 E10.42954
G1 X147.112 Y171.038 E10.51376
G1 X144.611 Y170.683 E10.59778
G1 X142.075 Y170.397 E10.68266
G1 X139.516 Y170.179 E10.76808
G1 X138.106 Y170.092 E10.81507
G1 X136.75 Y170.019 E10.86023
G1 X135.834 Y169.929 E10.89085
G1 X134.929 Y169.761 E10.92146
G1 X134.361 Y169.613 E10.94099
G1 X133.525 Y169.37 E10.96994
G1 X133.215 Y169.274 E10.98074
G1 X132.561 Y169.062 E11.0036
G1 X131.699 Y168.741 E11.0342
G1 X130.867 Y168.345 E11.06484
G1 X129.977 Y167.816 E11.09928
G1 X129.9 Y167.765 E11.10235
G1 X129.155 Y167.224 E11.13297
G1 X128.46 Y166.62 E11.1636
G1 X127.82 Y165.958 E11.19422
G1 X127.24 Y165.244 E11.22482
G1 X126.724 Y164.481 E11.25545
G1 X126.362 Y163.845 E11.27979
G1 X125.873 Y162.911 E11.31486
G1 X125.693 Y162.55 E11.32828
G1 X125.415 Y161.966 E11.34979
G1 X125.056 Y161.118 E11.38042
G1 X124.772 Y160.243 E11.41101
G1 X124.564 Y159.346 E11.44164
G1 X124.446 Y158.537 E11.46883
G1 X124.356 Y157.695 E11.497
G1 X124.095 Y155.026 E11.58619
G1 X124.046 Y154.598 E11.60052
G1 X123.704 Y151.94 E11.68965
G1 X123.617 Y150.596 E11.73445
G1 X123.616 Y149.508 E11.77064
G1 X123.577 Y146.882 E11.85799
G1 X123.469 Y144.374 E11.94148
G1 X123.288 Y141.846 E12.02578
G1 X123.024 Y139.219 E12.11359
G1 X122.872 Y137.892 E12.15802
G1 X122.807 Y136.985 E12.18826
G1 X122.798 Y136.666 E12.19888
G1 X122.794 Y136.367 E12.20882
G1 X122.795 Y135.228 E12.2467
G1 X122.804 Y134.563 E12.26882
G1 X122.856 Y133.643 E12.29947
G1 X122.988 Y132.732 E12.33009
G1 X123.199 Y131.836 E12.36071
G1 X123.486 Y130.961 E12.39133
G1 X123.849 Y130.115 E12.42195
G1 X124.283 Y129.303 E12.45258
G1 X124.786 Y128.532 E12.48319
G1 X125.355 Y127.808 E12.51382
G1 X125.983 Y127.136 E12.54441
G0 F6000 X126.375 Y127.314
G1 F1200 X127.056 Y126.721 E12.57445
G1 X127.788 Y126.191 E12.6045
G1 X128.563 Y125.728 E12.63453
G1 X129.376 Y125.335 E12.66456
G1 X130.221 Y125.015 E12.69462
G1 X131.09 Y124.772 E12.72463
G1 X131.978 Y124.606 E12.75468
G1 X133.117 Y124.51 E12.79269
G1 X133.438 Y124.501 E12.80337
G1 X133.712 Y124.497 E12.81249
G1 X166.74 Y124.498 E13.911
G1 X167.442 Y124.508 E13.93435
G1 X168.344 Y124.561 E13.96441
G1 X169.237 Y124.693 E13.99443
G1 X170.115 Y124.904 E14.02446
G1 X170.971 Y125.192 E14.0545
G1 X171.799 Y125.554 E14.08456
G1 X172.591 Y125.988 E14.1146
G1 X173.341 Y126.491 E14.14463
G1 X174.044 Y127.057 E14.17465
G1 X174.509 Y127.495 E14.1959
G1 X174.621 Y127.607 E14.20117
G1 X175.231 Y128.273 E14.23121
G1 X175.78 Y128.99 E14.26124
G1 X176.262 Y129.754 E14.29129
G1 X176.676 Y130.557 E14.32133
G1 X177.016 Y131.393 E14.35135
G1 X177.282 Y132.256 E14.38139
G1 X177.47 Y133.139 E14.41141
G1 X177.601 Y134.411 E14.45395
G1 X177.613 Y134.819 E14.46752
G1 X177.619 Y135.375 E14.48601
G1 X177.617 Y135.912 E14.50388
G1 X177.607 Y136.62 E14.52743
G1 X177.557 Y137.491 E14.55644
G1 X177.532 Y137.736 E14.56463
G1 X177.306 Y140.383 E14.65299
G1 X177.162 Y142.888 E14.73645
G1 X177.088 Y145.457 E14.82193
G1 X177.086 Y147.991 E14.90621
G1 X177.156 Y150.522 E14.99042
G1 X177.298 Y153.051 E15.07467
G1 X177.512 Y155.588 E15.15935
G1 X177.798 Y158.125 E15.24427
G1 X178.133 Y160.547 E15.32559
G1 X178.19 Y161.028 E15.3417
G1 X178.219 Y161.305 E15.35096
G1 X178.25 Y161.654 E15.36262
G1 X178.306 Y162.361 E15.38621
G1 X178.338 Y163.263 E15.41623
G1 X178.289 Y164.165 E15.44627
G1 X178.161 Y165.059 E15.47631
G1 X177.954 Y165.938 E15.50634
G1 X177.67 Y166.795 E15.53637
G1 X177.312 Y167.624 E15.56641
G1 X177.079 Y168.075 E15.58329
G1 X176.967 Y168.279 E15.59103
G1 X176.417 Y169.169 E15.62583
G1 X175.968 Y169.816 E15.65202
G1 X175.554 Y170.39 E15.67556
G1 X174.994 Y171.098 E15.70558
G1 X174.373 Y171.754 E15.73563
G1 X173.697 Y172.353 E15.76567
G1 X172.97 Y172.889 E15.79571
G1 X172.199 Y173.359 E15.82574
G1 X171.389 Y173.759 E15.85579
G1 X170.364 Y174.146 E15.89223
G1 X170.241 Y174.185 E15.89652
G1 X169.887 Y174.29 E15.9088
G1 X169.355 Y174.437 E15.92716
G1 X169.064 Y174.513 E15.93716
G1 X168.381 Y174.685 E15.96059
G1 X167.496 Y174.867 E15.99064
G1 X166.599 Y174.969 E16.02067
G1 X165.568 Y174.989 E16.05497
G1 X165.473 Y174.986 E16.05813
G1 X164.573 Y174.917 E16.08815
G1 X163.682 Y174.77 E16.11818
G1 X162.53 Y174.454 E16.15792
G1 X162.011 Y174.279 E16.17613
G1 X159.538 Y173.485 E16.26252
G1 X157.091 Y172.774 E16.34727
G1 X154.638 Y172.137 E16.43157
G1 X152.134 Y171.561 E16.51703
G1 X149.682 Y171.072 E16.60019
G1 X147.163 Y170.641 E16.68518
G1 X144.64 Y170.284 E16.76994
G1 X142.118 Y169.998 E16.85436
G1 X139.575 Y169.783 E16.93924
G1 X138.086 Y169.69 E16.98886
G1 X136.772 Y169.619 E17.03263
G1 X135.873 Y169.531 E17.06267
G1 X134.985 Y169.363 E17.09273
G1 X134.473 Y169.229 E17.11033
G1 X133.637 Y168.986 E17.13929
G1 X133.339 Y168.894 E17.14966
G1 X132.685 Y168.682 E17.17253
G1 X131.839 Y168.366 E17.20256
G1 X131.024 Y167.976 E17.23262
G1 X130.198 Y167.483 E17.26461
G1 X130.121 Y167.432 E17.26768
G1 X129.39 Y166.9 E17.29775
G1 X128.71 Y166.306 E17.32778
G1 X128.085 Y165.654 E17.35782
G1 X127.52 Y164.95 E17.38785
G1 X127.02 Y164.198 E17.41788
G1 X126.717 Y163.659 E17.43845
G1 X126.228 Y162.725 E17.47351
G1 X126.054 Y162.378 E17.48642
G1 X125.776 Y161.794 E17.50794
G1 X125.425 Y160.962 E17.53797
G1 X125.148 Y160.103 E17.56799
G1 X124.948 Y159.222 E17.59804
G1 X124.844 Y158.495 E17.62246
G1 X124.755 Y157.656 E17.65052
G1 X124.499 Y155.041 E17.73792
G1 X124.446 Y154.576 E17.75348
G1 X124.1 Y151.889 E17.84359
G1 X124.017 Y150.596 E17.88668
G1 X124.016 Y149.501 E17.9231
G1 X123.977 Y146.894 E18.00982
G1 X123.867 Y144.329 E18.09521
G1 X123.686 Y141.811 E18.17918
G1 X123.424 Y139.201 E18.26642
G1 X123.269 Y137.846 E18.31178
G1 X123.207 Y136.974 E18.34086
G1 X123.198 Y136.655 E18.35147
G1 X123.194 Y136.367 E18.36105
G1 X123.195 Y135.233 E18.39877
G1 X123.204 Y134.568 E18.42089
G1 X123.256 Y133.666 E18.45094
G1 X123.388 Y132.773 E18.48097
G1 X123.598 Y131.895 E18.51099
G1 X123.885 Y131.038 E18.54105
G1 X124.247 Y130.211 E18.57108
G1 X124.68 Y129.419 E18.6011
G1 X125.182 Y128.668 E18.63114
G1 X125.749 Y127.964 E18.66121
G1 X126.375 Y127.314 E18.69122
G1 F2700 E13.69122
G0 F6000 X134.763 Y134.036
G0 X138.693 Y138.341
G0 X138.849 Y138.497
G1 F2700 E18.69122
G1 F1200 X161.619 Y138.497 E19.44856
G1 X161.618 Y146.787 E19.72428
G1 X138.281 Y146.787 E20.50048
G1 X138.281 Y139.38 E20.74683
G1 X138.453 Y139.181 E20.75558
G1 X138.75 Y138.717 E20.77391
G1 X138.849 Y138.497 E20.78193
G0 F6000 X138.424 Y138.477
G1 F1200 X138.586 Y138.097 E20.79567
G1 X162.019 Y138.097 E21.57505
G1 X162.018 Y147.187 E21.87739
G1 X137.881 Y147.187 E22.68019
G1 X137.881 Y139.232 E22.94477
G1 X138.149 Y138.919 E22.95848
G1 X138.424 Y138.477 E22.97579
G0 F6000 X138.096 Y138.239
G1 F1200 X138.276 Y137.784 E22.99207
G1 X138.295 Y137.697 E22.99503
G1 X162.419 Y137.697 E23.7974
G1 X162.418 Y147.587 E24.12634
G1 X137.481 Y147.587 E24.95575
G1 X137.481 Y139.078 E25.23876
G1 X137.527 Y139.032 E25.24092
G1 X137.844 Y138.659 E25.2572
G1 X138.096 Y138.239 E25.27349
G0 F6000 X137.764 Y138.005
G1 F1200 X137.919 Y137.577 E25.28863
G1 X137.956 Y137.297 E25.29803
G1 X162.819 Y137.297 E26.12497
G1 X162.818 Y147.987 E26.48052
G1 X137.081 Y147.987 E27.33654
G1 X137.081 Y138.912 E27.63838
G1 X137.244 Y138.749 E27.64604
G1 X137.537 Y138.4 E27.6612
G1 X137.764 Y138.005 E27.67635
G0 F6000 X137.429 Y137.776
G1 F1200 X137.556 Y137.376 E27.69031
G1 X137.606 Y136.911 E27.70587
G1 X137.606 Y136.897 E27.70633
G1 X163.228 Y136.897 E28.55852
G1 X163.219 Y136.979 E28.56127
G1 X163.218 Y148.387 E28.9407
G1 X136.681 Y148.387 E29.82332
G1 X136.681 Y138.748 E30.14392
G1 X136.962 Y138.467 E30.15713
G1 X137.228 Y138.143 E30.17108
G1 X137.429 Y137.776 E30.18499
G0 F6000 X137.088 Y137.551
G1 F1200 X137.185 Y137.185 E30.19759
G1 X137.206 Y136.911 E30.20673
G1 X137.206 Y136.497 E30.2205
G1 X163.695 Y136.497 E31.10152
G1 X163.64 Y136.705 E31.10868
G1 X163.619 Y136.979 E31.11782
G1 X163.618 Y148.787 E31.51056
G1 X136.281 Y148.787 E32.41979
G1 X136.281 Y138.582 E32.75921
G1 X136.679 Y138.184 E32.77793
G1 X136.917 Y137.889 E32.79054
G1 X137.088 Y137.551 E32.80313
G0 F6000 X136.602 Y137.638
G1 F1200 X136.741 Y137.334 E32.81425
G1 X136.806 Y136.911 E32.82849
