;FLAVOR:Marlin
;TIME:9979
;Filament used: 5.78963m
;Layer height: 0.2
;MINX:113.6
;MINY:124.35
;MINZ:0.2
;MAXX:186.4
;MAXY:175.025
;MAXZ:50.8
;Generated with Cura_SteamEngine master
M140 S55
M105
M190 S55
M104 S210
M105
M109 S210
M82 ;absolute extrusion mode
M201 X500.00 Y500.00 Z100.00 E5000.00 ;Setup machine max acceleration
M203 X500.00 Y500.00 Z10.00 E50.00 ;Setup machine max feedrate
M204 P500.00 R1000.00 T500.00 ;Setup Print/Retract/Travel acceleration
M205 X8.00 Y8.00 Z0.40 E5.00 ;Setup Jerk
M220 S100 ;Reset Feedrate
M221 S100 ;Reset Flowrate

G28 ;Home

G92 E0 ;Reset Extruder
G1 Z2.0 F3000 ;Move Z Axis up
G1 X10.1 Y20 Z0.28 F5000.0 ;Move to start position
G1 X10.1 Y200.0 Z0.28 F1500.0 E15 ;Draw the first line
G1 X10.4 Y200.0 Z0.28 F5000.0 ;Move to side a little
G1 X10.4 Y20 Z0.28 F1500.0 E30 ;Draw the second line
G92 E0 ;Reset Extruder
G1 Z2.0 F3000 ;Move Z Axis up

G92 E0
G92 E0
G1 F2700 E-5
;LAYER_COUNT:254
;LAYER:0
M107
G0 F6000 X130.446 Y127.737 Z0.2
;TYPE:SKIRT
G1 F2700 E0
G1 F1200 X130.569 Y127.613 E0.00581
G1 X131.258 Y126.976 E0.03702
G1 X131.998 Y126.4 E0.06821
G1 X132.784 Y125.889 E0.09939
G1 X133.611 Y125.447 E0.13058
G1 X134.473 Y125.077 E0.16178
G1 X135.363 Y124.782 E0.19296
G1 X136.275 Y124.563 E0.22416
G1 X137.203 Y124.423 E0.25537
G1 X138.008 Y124.366 E0.28221
G1 X138.393 Y124.356 E0.29502
G1 X138.936 Y124.35 E0.31309
G1 X160.815 Y124.35 E1.04078
G1 X161.674 Y124.361 E1.06936
G1 X162.61 Y124.414 E1.10054
G1 X163.538 Y124.547 E1.13172
G1 X164.452 Y124.759 E1.16293
G1 X165.345 Y125.047 E1.19413
G1 X166.209 Y125.411 E1.22532
G1 X167.04 Y125.847 E1.25653
G1 X167.83 Y126.352 E1.28771
G1 X168.574 Y126.922 E1.31889
G1 X169.26 Y127.547 E1.34975
G1 X169.371 Y127.657 E1.35495
G1 X170.129 Y128.489 E1.39239
G1 X170.441 Y128.871 E1.40879
G1 X171.734 Y130.498 E1.47791
G1 X173.357 Y132.423 E1.56166
G1 X175.033 Y134.3 E1.64535
G1 X176.748 Y136.118 E1.72848
G1 X178.534 Y137.904 E1.81249
G1 X180.375 Y139.646 E1.89678
G1 X181.881 Y140.999 E1.96412
G1 X182.655 Y141.68 E1.99841
G1 X183.332 Y142.329 E2.0296
G1 X183.952 Y143.033 E2.0608
G1 X184.509 Y143.787 E2.09198
G1 X185 Y144.586 E2.12317
G1 X185.421 Y145.425 E2.15439
G1 X185.769 Y146.295 E2.18556
G1 X186.042 Y147.193 E2.21678
G1 X186.237 Y148.11 E2.24796
G1 X186.353 Y149.041 E2.27916
G1 X186.385 Y149.601 E2.29782
G1 X186.395 Y149.926 E2.30863
G1 X186.4 Y150.264 E2.31988
G1 X186.399 Y153.361 E2.42288
G1 X186.389 Y154.082 E2.44687
G1 X186.336 Y155.018 E2.47805
G1 X186.203 Y155.946 E2.50923
G1 X185.992 Y156.86 E2.54043
G1 X185.704 Y157.753 E2.57164
G1 X185.341 Y158.617 E2.60281
G1 X184.905 Y159.448 E2.63402
G1 X184.401 Y160.238 E2.66519
G1 X183.83 Y160.983 E2.69641
G1 X183.199 Y161.676 E2.72758
G1 X182.51 Y162.313 E2.75879
G1 X182.061 Y162.675 E2.77797
G1 X180.907 Y163.554 E2.82622
G1 X180.67 Y163.73 E2.83604
G1 X178.699 Y165.283 E2.9195
G1 X176.746 Y166.913 E3.00411
G1 X174.861 Y168.58 E3.0878
G1 X173.057 Y170.267 E3.16995
G1 X172.707 Y170.611 E3.18627
G1 X171.811 Y171.469 E3.22753
G1 X171.106 Y172.088 E3.25874
G1 X170.352 Y172.645 E3.28992
G1 X169.553 Y173.136 E3.32111
G1 X168.536 Y173.635 E3.35879
G1 X167.827 Y173.913 E3.38412
G1 X167.104 Y174.167 E3.4096
G1 X166.724 Y174.295 E3.42294
G1 X166.106 Y174.494 E3.44453
G1 X165.39 Y174.698 E3.4693
G1 X164.471 Y174.886 E3.50049
G1 X163.54 Y174.996 E3.53168
G1 X162.602 Y175.025 E3.56289
G1 X161.507 Y174.959 E3.59937
G1 X160.328 Y174.828 E3.63883
G1 X159.937 Y174.779 E3.65194
G1 X157.408 Y174.531 E3.73645
G1 X154.912 Y174.359 E3.81967
G1 X152.379 Y174.255 E3.90399
G1 X149.89 Y174.223 E3.98678
G1 X147.339 Y174.263 E4.07164
G1 X144.842 Y174.373 E4.15477
G1 X142.354 Y174.553 E4.23773
G1 X139.711 Y174.819 E4.32608
G1 X138.58 Y174.948 E4.36395
G1 X137.644 Y175.015 E4.39516
G1 X136.706 Y175.001 E4.42636
G1 X135.773 Y174.908 E4.45754
G1 X134.851 Y174.735 E4.48875
G1 X133.932 Y174.48 E4.52047
G1 X132.999 Y174.175 E4.55311
G1 X132.711 Y174.075 E4.56325
G1 X132.03 Y173.831 E4.58731
G1 X131.161 Y173.478 E4.61851
G1 X130.326 Y173.051 E4.6497
G1 X129.53 Y172.555 E4.6809
G1 X128.779 Y171.993 E4.7121
G1 X128.375 Y171.647 E4.72979
G1 X128.233 Y171.519 E4.73615
G1 X127.982 Y171.285 E4.74756
G1 X127.453 Y170.776 E4.77198
G1 X126.617 Y169.957 E4.8109
G1 X124.765 Y168.241 E4.89488
G1 X122.865 Y166.578 E4.97886
G1 X120.964 Y165.006 E5.0609
G1 X117.895 Y162.641 E5.18977
G1 X117.177 Y162.037 E5.22098
G1 X116.514 Y161.374 E5.25216
G1 X115.909 Y160.658 E5.28334
G1 X115.367 Y159.892 E5.31455
G1 X114.892 Y159.083 E5.34575
G1 X114.488 Y158.237 E5.37693
G1 X114.158 Y157.359 E5.40813
G1 X113.904 Y156.456 E5.43933
G1 X113.727 Y155.535 E5.47052
G1 X113.613 Y154.233 E5.51399
G1 X113.604 Y153.91 E5.52474
G1 X113.6 Y153.604 E5.53492
G1 X113.601 Y150.485 E5.63866
G1 X113.611 Y149.782 E5.66204
G1 X113.664 Y148.845 E5.69326
G1 X113.797 Y147.917 E5.72444
G1 X114.009 Y147.003 E5.75564
G1 X114.297 Y146.111 E5.78682
G1 X114.661 Y145.246 E5.81803
G1 X115.097 Y144.416 E5.84922
G1 X115.602 Y143.625 E5.88043
G1 X116.172 Y142.881 E5.9116
G1 X116.804 Y142.188 E5.9428
G1 X117.206 Y141.803 E5.96131
G1 X117.806 Y141.258 E5.98827
G1 X118.911 Y140.284 E6.03726
G1 X120.732 Y138.585 E6.1201
G1 X122.526 Y136.812 E6.20399
G1 X124.245 Y135.013 E6.28675
G1 X125.953 Y133.123 E6.37148
G1 X127.594 Y131.201 E6.45553
G1 X129.162 Y129.254 E6.53868
G1 X129.6 Y128.696 E6.56227
G1 X130.446 Y127.737 E6.60481
G0 F6000 X130.73 Y128.019
G1 F1200 X130.853 Y127.895 E6.61062
G1 X131.53 Y127.27 E6.64126
G1 X132.257 Y126.706 E6.67187
G1 X133.031 Y126.208 E6.70248
G1 X133.846 Y125.778 E6.73313
G1 X134.694 Y125.421 E6.76373
G1 X135.57 Y125.139 E6.79434
G1 X136.468 Y124.934 E6.82497
G1 X137.38 Y124.807 E6.8556
G1 X138.021 Y124.766 E6.87696
G1 X138.397 Y124.756 E6.88947
G1 X138.936 Y124.75 E6.9074
G1 X160.815 Y124.75 E7.6351
G1 X161.668 Y124.761 E7.66347
G1 X162.587 Y124.814 E7.69409
G1 X163.498 Y124.947 E7.72471
G1 X164.394 Y125.158 E7.75533
G1 X165.269 Y125.446 E7.78596
G1 X166.115 Y125.809 E7.81658
G1 X166.926 Y126.244 E7.84719
G1 X167.697 Y126.748 E7.87783
G1 X168.421 Y127.316 E7.90844
G1 X168.978 Y127.831 E7.93367
G1 X169.089 Y127.941 E7.93886
G1 X169.82 Y128.743 E7.97496
G1 X170.128 Y129.12 E7.99115
G1 X171.431 Y130.76 E8.06082
G1 X173.036 Y132.664 E8.14364
G1 X174.744 Y134.577 E8.22894
G1 X176.474 Y136.41 E8.31277
G1 X178.259 Y138.195 E8.39673
G1 X180.075 Y139.913 E8.47988
G1 X181.633 Y141.313 E8.54954
G1 X182.391 Y141.98 E8.58313
G1 X183.055 Y142.618 E8.61375
G1 X183.662 Y143.31 E8.64437
G1 X184.206 Y144.053 E8.675
G1 X184.683 Y144.84 E8.7056
G1 X185.091 Y145.666 E8.73625
G1 X185.425 Y146.524 E8.76687
G1 X185.683 Y147.407 E8.79747
G1 X185.864 Y148.31 E8.8281
G1 X185.985 Y149.613 E8.87162
G1 X185.995 Y149.938 E8.88244
G1 X186 Y150.264 E8.89328
G1 X185.999 Y153.355 E8.99609
G1 X185.989 Y154.076 E9.02007
G1 X185.936 Y154.995 E9.05069
G1 X185.804 Y155.906 E9.0813
G1 X185.593 Y156.802 E9.11192
G1 X185.305 Y157.677 E9.14256
G1 X184.943 Y158.523 E9.17316
G1 X184.508 Y159.335 E9.2038
G1 X184.005 Y160.106 E9.23442
G1 X183.436 Y160.83 E9.26505
G1 X182.807 Y161.502 E9.29566
G1 X181.818 Y162.357 E9.33914
G1 X180.668 Y163.233 E9.38723
G1 X180.429 Y163.411 E9.39714
G1 X178.458 Y164.964 E9.4806
G1 X176.491 Y166.605 E9.5658
G1 X174.587 Y168.289 E9.65034
G1 X172.749 Y170.008 E9.73404
G1 X172.43 Y170.322 E9.74893
G1 X171.534 Y171.18 E9.79019
G1 X170.842 Y171.787 E9.82081
G1 X170.1 Y172.332 E9.85143
G1 X169.314 Y172.811 E9.88204
G1 X168.379 Y173.267 E9.91664
G1 X167.694 Y173.535 E9.94111
G1 X166.975 Y173.788 E9.96646
G1 X166.601 Y173.914 E9.97959
G1 X165.983 Y174.113 E10.00118
G1 X165.293 Y174.31 E10.02505
G1 X164.391 Y174.494 E10.05566
G1 X163.476 Y174.599 E10.0863
G1 X162.556 Y174.625 E10.11691
G1 X161.551 Y174.561 E10.1504
G1 X160.205 Y174.41 E10.19545
G1 X159.956 Y174.378 E10.2038
G1 X157.476 Y174.135 E10.28668
G1 X154.919 Y173.958 E10.37193
G1 X152.4 Y173.855 E10.45578
G1 X149.889 Y173.823 E10.53931
G1 X147.351 Y173.863 E10.62373
G1 X144.796 Y173.976 E10.70879
G1 X142.319 Y174.155 E10.79139
G1 X139.695 Y174.419 E10.87911
G1 X138.534 Y174.551 E10.91797
G1 X137.616 Y174.615 E10.94858
G1 X136.696 Y174.6 E10.97918
G1 X135.78 Y174.504 E11.00982
G1 X134.876 Y174.33 E11.04044
G1 X134.055 Y174.099 E11.0688
G1 X133.128 Y173.796 E11.10124
G1 X132.846 Y173.699 E11.11116
G1 X132.165 Y173.455 E11.13522
G1 X131.312 Y173.107 E11.16586
G1 X130.493 Y172.686 E11.19649
G1 X129.714 Y172.196 E11.2271
G1 X128.643 Y171.349 E11.27251
G1 X128.501 Y171.221 E11.27887
G1 X128.259 Y170.996 E11.28986
G1 X127.733 Y170.49 E11.31414
G1 X126.905 Y169.679 E11.35269
G1 X125.018 Y167.93 E11.43826
G1 X123.138 Y166.285 E11.52135
G1 X121.21 Y164.69 E11.60457
G1 X118.139 Y162.324 E11.73351
G1 X117.435 Y161.731 E11.76413
G1 X116.785 Y161.079 E11.79475
G1 X116.194 Y160.373 E11.82537
G1 X115.666 Y159.618 E11.85601
G1 X115.206 Y158.821 E11.88662
G1 X114.817 Y157.987 E11.91723
G1 X114.502 Y157.122 E11.94785
G1 X114.263 Y156.232 E11.9785
G1 X114.102 Y155.326 E12.0091
G1 X114.013 Y154.222 E12.04594
G1 X114.004 Y153.899 E12.05669
G1 X114 Y153.604 E12.0665
G1 X114.001 Y150.49 E12.17007
G1 X114.011 Y149.787 E12.19346
G1 X114.064 Y148.868 E12.22407
G1 X114.197 Y147.957 E12.2547
G1 X114.408 Y147.061 E12.28531
G1 X114.696 Y146.187 E12.31592
G1 X115.059 Y145.34 E12.34657
G1 X115.494 Y144.529 E12.37718
G1 X115.998 Y143.758 E12.40781
G1 X116.566 Y143.034 E12.43842
G1 X117.475 Y142.098 E12.48182
G1 X117.942 Y141.673 E12.50282
G1 X119.166 Y140.594 E12.55709
G1 X121.004 Y138.879 E12.6407
G1 X122.796 Y137.108 E12.7245
G1 X124.565 Y135.257 E12.80966
G1 X126.241 Y133.403 E12.89278
G1 X127.909 Y131.449 E12.97823
G1 X129.469 Y129.512 E13.06095
G1 X129.915 Y128.943 E13.085
G1 X130.73 Y128.019 E13.12598
G0 F6000 X131.014 Y128.301
G1 F1200 X131.137 Y128.177 E13.13179
G1 X131.801 Y127.564 E13.16184
G1 X132.516 Y127.013 E13.19187
G1 X133.278 Y126.527 E13.22193
G1 X134.079 Y126.111 E13.25195
G1 X134.914 Y125.767 E13.28198
G1 X135.776 Y125.498 E13.31202
G1 X136.659 Y125.306 E13.34207
G1 X137.555 Y125.193 E13.37211
G1 X138.035 Y125.166 E13.3881
G1 X138.402 Y125.156 E13.40031
G1 X138.936 Y125.15 E13.41807
G1 X160.815 Y125.15 E14.14577
G1 X161.662 Y125.161 E14.17394
G1 X162.564 Y125.214 E14.204
G1 X163.457 Y125.346 E14.23402
G1 X164.335 Y125.557 E14.26405
G1 X165.191 Y125.845 E14.29409
G1 X166.019 Y126.207 E14.32415
G1 X166.811 Y126.641 E14.35419
G1 X167.561 Y127.144 E14.38422
G1 X168.264 Y127.71 E14.41424
G1 X168.697 Y128.115 E14.43396
G1 X168.808 Y128.225 E14.43916
G1 X169.511 Y128.997 E14.47389
G1 X169.815 Y129.369 E14.48987
G1 X171.128 Y131.021 E14.56005
G1 X172.731 Y132.923 E14.64278
G1 X174.438 Y134.835 E14.72803
G1 X176.2 Y136.702 E14.81342
G1 X177.948 Y138.45 E14.89564
G1 X179.856 Y140.255 E14.983
G1 X181.296 Y141.549 E15.04739
G1 X182.127 Y142.28 E15.0842
G1 X182.778 Y142.906 E15.11424
G1 X183.371 Y143.587 E15.14427
G1 X183.902 Y144.318 E15.17432
G1 X184.365 Y145.093 E15.20435
G1 X184.759 Y145.906 E15.2344
G1 X185.079 Y146.751 E15.26445
G1 X185.323 Y147.62 E15.29447
G1 X185.489 Y148.508 E15.32452
G1 X185.585 Y149.625 E15.3618
G1 X185.595 Y149.95 E15.37262
G1 X185.6 Y150.264 E15.38306
G1 X185.599 Y153.349 E15.48567
G1 X185.589 Y154.07 E15.50965
G1 X185.537 Y154.972 E15.53971
G1 X185.404 Y155.865 E15.56973
G1 X185.194 Y156.744 E15.59979
G1 X184.907 Y157.6 E15.62982
G1 X184.545 Y158.427 E15.65985
G1 X184.111 Y159.219 E15.68988
G1 X183.609 Y159.97 E15.71993
G1 X183.042 Y160.673 E15.74997
G1 X182.416 Y161.324 E15.78001
G1 X181.576 Y162.039 E15.8167
G1 X180.43 Y162.912 E15.86461
G1 X180.189 Y163.091 E15.8746
G1 X178.182 Y164.672 E15.95957
G1 X176.233 Y166.3 E16.04404
G1 X174.332 Y167.98 E16.12842
G1 X172.478 Y169.714 E16.21285
G1 X172.154 Y170.033 E16.22797
G1 X171.258 Y170.891 E16.26923
G1 X170.578 Y171.486 E16.29929
G1 X169.849 Y172.019 E16.32932
G1 X169.076 Y172.485 E16.35934
G1 X168.221 Y172.899 E16.39094
G1 X167.561 Y173.158 E16.41452
G1 X166.846 Y173.409 E16.43972
G1 X166.478 Y173.533 E16.45264
G1 X165.86 Y173.732 E16.47423
G1 X165.196 Y173.921 E16.4972
G1 X164.311 Y174.101 E16.52723
G1 X163.413 Y174.203 E16.55729
G1 X162.511 Y174.224 E16.5873
G1 X161.596 Y174.164 E16.6178
G1 X160.417 Y174.033 E16.65725
G1 X160.013 Y173.982 E16.6708
G1 X157.507 Y173.736 E16.75455
G1 X154.928 Y173.558 E16.84053
G1 X152.422 Y173.455 E16.92395
G1 X149.888 Y173.423 E17.00824
G1 X147.327 Y173.463 E17.09343
G1 X144.786 Y173.575 E17.17802
G1 X142.286 Y173.756 E17.26139
G1 X139.612 Y174.025 E17.35078
G1 X138.489 Y174.153 E17.38837
G1 X137.588 Y174.216 E17.41841
G1 X136.685 Y174.198 E17.44845
G1 X135.787 Y174.101 E17.47849
G1 X134.902 Y173.925 E17.50851
G1 X134.179 Y173.719 E17.53351
G1 X133.257 Y173.418 E17.56577
G1 X132.981 Y173.322 E17.57549
G1 X132.3 Y173.078 E17.59955
G1 X131.464 Y172.736 E17.62959
G1 X130.661 Y172.322 E17.65964
G1 X129.899 Y171.838 E17.68966
G1 X128.911 Y171.052 E17.73165
G1 X128.769 Y170.924 E17.73801
G1 X128.536 Y170.707 E17.7486
G1 X128.012 Y170.205 E17.77274
G1 X127.137 Y169.348 E17.81347
G1 X125.307 Y167.651 E17.89648
G1 X123.373 Y165.959 E17.98195
G1 X121.473 Y164.388 E18.06395
G1 X118.383 Y162.007 E18.19369
G1 X117.693 Y161.424 E18.22374
G1 X117.057 Y160.783 E18.25377
G1 X116.48 Y160.088 E18.28382
G1 X115.967 Y159.345 E18.31385
G1 X115.522 Y158.56 E18.34386
G1 X115.148 Y157.738 E18.3739
G1 X114.848 Y156.886 E18.40394
G1 X114.624 Y156.011 E18.43398
G1 X114.479 Y155.12 E18.46401
G1 X114.413 Y154.211 E18.49432
G1 X114.404 Y153.888 E18.50507
G1 X114.4 Y153.604 E18.51451
G1 X114.401 Y150.496 E18.61788
G1 X114.411 Y149.793 E18.64127
G1 X114.464 Y148.891 E18.67132
G1 X114.596 Y147.998 E18.70135
G1 X114.807 Y147.12 E18.73138
G1 X115.095 Y146.264 E18.76142
G1 X115.457 Y145.437 E18.79144
G1 X115.891 Y144.645 E18.82148
G1 X116.393 Y143.894 E18.85153
G1 X116.96 Y143.191 E18.88157
G1 X117.745 Y142.394 E18.91877
G1 X118.335 Y141.859 E18.94526
G1 X119.438 Y140.888 E18.99414
G1 X121.275 Y139.173 E19.07773
G1 X123.101 Y137.368 E19.16312
G1 X124.851 Y135.537 E19.24736
G1 X126.541 Y133.667 E19.3312
G1 X128.194 Y131.731 E19.41587
G1 X129.837 Y129.691 E19.50299
G1 X130.23 Y129.19 E19.52417
G1 X131.014 Y128.301 E19.56359
G1 F2700 E14.56359
G0 F6000 X143.679 Y139.151
G0 X144.143 Y139.15
G1 F2700 E19.56359
G1 F1200 X155.618 Y139.15 E19.94525
G1 X155.61 Y144.03 E20.10756
G1 X155.612 Y145.334 E20.15093
G1 X144.144 Y145.334 E20.53236
G1 X144.143 Y139.15 E20.73804
G0 F6000 X143.743 Y138.75
G1 F1200 X156.018 Y138.75 E21.14631
G1 X156.01 Y144.029 E21.32189
G1 X156.013 Y145.734 E21.3786
G1 X143.744 Y145.734 E21.78666
G1 X143.743 Y138.75 E22.01895
G0 F6000 X143.343 Y138.35
G1 F1200 X156.419 Y138.35 E22.45386
G1 X156.41 Y144.029 E22.64275
G1 X156.413 Y146.134 E22.71276
G1 X143.344 Y146.134 E23.14744
G1 X143.343 Y138.35 E23.40633
G0 F6000 X142.943 Y138.226
G1 F1200 X142.919 Y137.95 E23.41555
G1 X156.855 Y137.95 E23.87906
G1 X156.819 Y138.222 E23.88819
G1 X156.81 Y144.028 E24.08129
G1 X156.814 Y146.534 E24.16464
G1 X142.944 Y146.534 E24.62596
G1 X142.943 Y138.226 E24.90229
G0 F6000 X142.543 Y138.226
G1 F1200 X142.503 Y137.809 E24.91622
G1 X142.427 Y137.55 E24.9252
G1 X157.336 Y137.55 E25.42107
G1 X157.269 Y137.761 E25.42844
G1 X157.219 Y138.223 E25.44389
G1 X157.21 Y144.027 E25.63694
G1 X157.215 Y146.934 E25.73362
G1 X142.544 Y146.934 E26.22158
G1 X142.543 Y138.226 E26.51121
G0 F6000 X142.143 Y138.226
G1 F1200 X142.103 Y137.849 E26.52382
G1 X141.985 Y137.489 E26.53642
G1 X141.794 Y137.161 E26.54905
G1 X141.785 Y137.15 E26.54952
G1 X157.987 Y137.15 E27.0884
G1 X157.908 Y137.248 E27.09259
G1 X157.737 Y137.586 E27.10518
G1 X157.64 Y137.952 E27.11778
G1 X157.619 Y138.223 E27.12682
G1 X157.61 Y144.027 E27.31986
G1 X157.615 Y147.334 E27.42985
G1 X142.144 Y147.334 E27.94442
G1 X142.143 Y138.226 E28.24735
G0 F6000 X141.743 Y138.226
G1 F1200 X141.703 Y137.894 E28.25847
G1 X141.586 Y137.581 E28.26959
G1 X141.333 Y137.236 E28.28382
G1 X141.051 Y136.954 E28.29708
G1 X140.791 Y136.75 E28.30807
G1 X158.99 Y136.75 E28.91338
G1 X158.711 Y136.954 E28.92487
G1 X158.429 Y137.236 E28.93814
G1 X158.223 Y137.499 E28.94925
G1 X158.084 Y137.803 E28.96036
G1 X158.019 Y138.224 E28.97453
