;FLAVOR:Marlin
;TIME:14651
;Filament used: 8.51247m
;Layer height: 0.2
;MINX:113.6
;MINY:116.702
;MINZ:0.2
;MAXX:186.4
;MAXY:182.595
;MAXZ:76.2
;Generated with Cura_SteamEngine master
M140 S55
M105
M190 S55
M104 S190
M105
M109 S190
M82 ;absolute extrusion mode
M201 X500.00 Y500.00 Z100.00 E5000.00 ;Setup machine max acceleration
M203 X500.00 Y500.00 Z10.00 E50.00 ;Setup machine max feedrate
M204 P500.00 R1000.00 T500.00 ;Setup Print/Retract/Travel acceleration
M205 X8.00 Y8.00 Z0.40 E5.00 ;Setup Jerk
M220 S100 ;Reset Feedrate
M221 S100 ;Reset Flowrate

G28 ;Home

G92 E0 ;Reset Extruder
G1 Z2.0 F3000 ;Move Z Axis up
G1 X10.1 Y20 Z0.28 F5000.0 ;Move to start position
G1 X10.1 Y200.0 Z0.28 F1500.0 E15 ;Draw the first line
G1 X10.4 Y200.0 Z0.28 F5000.0 ;Move to side a little
G1 X10.4 Y20 Z0.28 F1500.0 E30 ;Draw the second line
G92 E0 ;Reset Extruder
G1 Z2.0 F3000 ;Move Z Axis up

G92 E0
G92 E0
G1 F2700 E-5
;LAYER_COUNT:381
;LAYER:0
M107
G0 F6000 X117.493 Y149.21 Z0.2
;TYPE:SKIRT
G1 F2700 E0
G1 F1200 X118.233 Y148.634 E0.03119
G1 X118.708 Y148.314 E0.05024
G1 X119.95 Y147.525 E0.09918
G1 X120.269 Y147.327 E0.11167
G1 X122.347 Y145.957 E0.19445
G1 X124.439 Y144.49 E0.27943
G1 X126.443 Y143.002 E0.36245
G1 X128.414 Y141.447 E0.44595
G1 X130.342 Y139.837 E0.5295
G1 X132.257 Y138.141 E0.61458
G1 X134.065 Y136.45 E0.69691
G1 X135.847 Y134.685 E0.78034
G1 X137.604 Y132.841 E0.86505
G1 X139.264 Y130.999 E0.94752
G1 X140.937 Y129.033 E1.03338
G1 X142.487 Y127.106 E1.11564
G1 X144 Y125.108 E1.19899
G1 X145.491 Y123.02 E1.28433
G1 X146.262 Y121.881 E1.33008
G1 X146.595 Y121.405 E1.3494
G1 X147.165 Y120.661 E1.38057
G1 X147.796 Y119.967 E1.41177
G1 X148.484 Y119.33 E1.44295
G1 X149.224 Y118.753 E1.47416
G1 X150.01 Y118.242 E1.50534
G1 X150.837 Y117.8 E1.53653
G1 X151.699 Y117.429 E1.56775
G1 X152.589 Y117.134 E1.59893
G1 X153.501 Y116.915 E1.63013
G1 X154.428 Y116.774 E1.66131
G1 X155.301 Y116.715 E1.69042
G1 X155.623 Y116.706 E1.70113
G1 X155.93 Y116.702 E1.71134
G1 X158.893 Y116.702 E1.80989
G1 X159.75 Y116.713 E1.8384
G1 X160.686 Y116.766 E1.86958
G1 X161.615 Y116.899 E1.90079
G1 X162.529 Y117.111 E1.932
G1 X163.421 Y117.4 E1.96319
G1 X164.285 Y117.763 E1.99436
G1 X165.116 Y118.199 E2.02557
G1 X165.906 Y118.704 E2.05675
G1 X166.651 Y119.275 E2.08797
G1 X167.344 Y119.906 E2.11915
G1 X167.98 Y120.595 E2.15033
G1 X168.556 Y121.335 E2.18152
G1 X169.067 Y122.122 E2.21273
G1 X169.508 Y122.949 E2.2439
G1 X169.959 Y124.031 E2.28289
G1 X170.124 Y124.499 E2.2994
G1 X170.744 Y126.326 E2.36357
G1 X171.625 Y128.705 E2.44794
G1 X172.565 Y131.036 E2.53154
G1 X173.566 Y133.331 E2.61482
G1 X174.638 Y135.608 E2.69852
G1 X175.775 Y137.858 E2.78237
G1 X176.984 Y140.093 E2.86689
G1 X178.224 Y142.234 E2.94918
G1 X179.556 Y144.393 E3.03355
G1 X180.947 Y146.511 E3.11783
G1 X182.383 Y148.566 E3.20122
G1 X183.919 Y150.641 E3.28708
G1 X184.145 Y150.938 E3.29949
G1 X184.681 Y151.708 E3.3307
G1 X185.148 Y152.52 E3.36185
G1 X185.545 Y153.37 E3.39306
G1 X185.869 Y154.25 E3.42425
G1 X186.116 Y155.155 E3.45545
G1 X186.285 Y156.078 E3.48666
G1 X186.385 Y157.259 E3.52608
G1 X186.395 Y157.584 E3.53689
G1 X186.4 Y157.922 E3.54814
G1 X186.399 Y161.019 E3.65114
G1 X186.389 Y161.74 E3.67513
G1 X186.336 Y162.676 E3.70631
G1 X186.203 Y163.604 E3.73749
G1 X185.992 Y164.518 E3.76869
G1 X185.704 Y165.411 E3.79989
G1 X185.341 Y166.275 E3.83106
G1 X184.905 Y167.106 E3.86228
G1 X184.401 Y167.896 E3.89344
G1 X183.83 Y168.641 E3.92466
G1 X183.445 Y169.078 E3.94404
G1 X182.633 Y169.951 E3.98369
G1 X180.932 Y171.832 E4.06804
G1 X179.29 Y173.755 E4.15214
G1 X177.684 Y175.744 E4.23717
G1 X176.469 Y177.33 E4.30362
G1 X176.301 Y177.543 E4.31264
G1 X176.018 Y177.894 E4.32764
G1 X175.399 Y178.599 E4.35884
G1 X174.707 Y179.261 E4.3907
G1 X174.439 Y179.496 E4.40255
G1 X173.708 Y180.083 E4.43373
G1 X172.822 Y180.672 E4.46912
G1 X172.537 Y180.842 E4.48016
G1 X171.712 Y181.288 E4.51135
G1 X170.75 Y181.7 E4.54616
G1 X170.442 Y181.815 E4.55709
G1 X169.55 Y182.105 E4.58829
G1 X168.84 Y182.278 E4.61259
G1 X168.442 Y182.361 E4.62612
G1 X167.516 Y182.513 E4.65733
G1 X166.589 Y182.586 E4.68825
G1 X166.477 Y182.59 E4.69198
G1 X165.878 Y182.595 E4.7119
G1 X165.664 Y182.591 E4.71902
G1 X164.728 Y182.534 E4.75021
G1 X164.254 Y182.474 E4.7661
G1 X164.153 Y182.459 E4.7695
G1 X163.517 Y182.345 E4.79099
G1 X163.278 Y182.295 E4.79911
G1 X162.149 Y181.996 E4.83796
G1 X161.478 Y181.778 E4.86142
G1 X159.715 Y181.185 E4.92329
G1 X157.265 Y180.438 E5.00848
G1 X154.889 Y179.787 E5.09042
G1 X152.383 Y179.175 E5.17622
G1 X149.97 Y178.659 E5.25829
G1 X147.476 Y178.198 E5.34264
G1 X145.014 Y177.815 E5.42552
G1 X142.478 Y177.493 E5.51054
G1 X139.987 Y177.248 E5.59379
G1 X137.472 Y177.072 E5.67765
G1 X136.768 Y177.039 E5.70109
G1 X136.331 Y177.011 E5.71565
G1 X135.4 Y176.902 E5.74683
G1 X134.769 Y176.782 E5.76819
G1 X134.229 Y176.663 E5.78658
G1 X133.322 Y176.423 E5.81779
G1 X132.429 Y176.101 E5.84936
G1 X132.111 Y175.97 E5.8608
G1 X130.095 Y175.121 E5.93356
G1 X127.712 Y174.197 E6.01856
G1 X125.354 Y173.36 E6.10179
G1 X122.966 Y172.586 E6.18528
G1 X122.739 Y172.518 E6.19316
G1 X121.385 Y172.102 E6.24027
G1 X120.501 Y171.789 E6.27146
G1 X119.647 Y171.401 E6.30266
G1 X118.829 Y170.942 E6.33386
G1 X118.054 Y170.415 E6.36503
G1 X117.325 Y169.824 E6.39624
G1 X116.65 Y169.173 E6.42743
G1 X116.033 Y168.467 E6.45862
G1 X115.478 Y167.711 E6.48981
G1 X114.77 Y166.492 E6.5367
G1 X114.387 Y165.636 E6.56789
G1 X114.078 Y164.751 E6.59907
G1 X113.846 Y163.842 E6.63027
G1 X113.691 Y162.917 E6.66146
G1 X113.614 Y161.891 E6.69569
G1 X113.605 Y161.58 E6.70603
G1 X113.6 Y161.262 E6.71661
G1 X113.601 Y158.142 E6.82038
G1 X113.611 Y157.44 E6.84373
G1 X113.664 Y156.504 E6.87492
G1 X113.797 Y155.576 E6.9061
G1 X114.009 Y154.662 E6.9373
G1 X114.297 Y153.769 E6.96851
G1 X114.661 Y152.905 E6.99969
G1 X115.097 Y152.074 E7.03091
G1 X115.602 Y151.284 E7.06209
G1 X116.172 Y150.54 E7.09326
G1 X116.804 Y149.847 E7.12446
G1 X117.493 Y149.21 E7.15567
G0 F6000 X117.881 Y149.407
G1 F1200 X118.923 Y148.652 E7.19847
G1 X120.161 Y147.865 E7.24726
G1 X120.478 Y147.668 E7.25967
G1 X122.592 Y146.275 E7.34388
G1 X124.662 Y144.824 E7.42796
G1 X126.684 Y143.321 E7.51175
G1 X128.673 Y141.752 E7.59601
G1 X130.607 Y140.137 E7.67981
G1 X132.512 Y138.45 E7.76445
G1 X134.355 Y136.726 E7.84839
G1 X136.136 Y134.962 E7.93176
G1 X137.874 Y133.139 E8.01553
G1 X139.598 Y131.226 E8.10118
G1 X141.227 Y129.311 E8.18481
G1 X142.805 Y127.348 E8.26857
G1 X144.341 Y125.32 E8.35319
G1 X145.797 Y123.281 E8.43652
G1 X146.589 Y122.111 E8.48351
G1 X146.922 Y121.635 E8.50284
G1 X147.482 Y120.904 E8.53346
G1 X148.104 Y120.225 E8.56409
G1 X148.782 Y119.602 E8.59471
G1 X149.511 Y119.04 E8.62533
G1 X150.286 Y118.544 E8.65593
G1 X151.102 Y118.116 E8.68658
G1 X151.952 Y117.762 E8.71721
G1 X152.829 Y117.482 E8.74783
G1 X153.727 Y117.279 E8.77845
G1 X154.639 Y117.155 E8.80906
G1 X155.312 Y117.115 E8.83148
G1 X155.634 Y117.106 E8.8422
G1 X155.93 Y117.102 E8.85204
G1 X158.893 Y117.102 E8.95059
G1 X159.744 Y117.113 E8.9789
G1 X160.664 Y117.166 E9.00955
G1 X161.575 Y117.299 E9.04017
G1 X162.471 Y117.51 E9.07079
G1 X163.345 Y117.798 E9.10139
G1 X164.191 Y118.161 E9.13201
G1 X165.003 Y118.596 E9.16265
G1 X165.773 Y119.1 E9.19326
G1 X166.497 Y119.669 E9.22389
G1 X167.169 Y120.298 E9.2545
G1 X167.784 Y120.984 E9.28514
G1 X168.337 Y121.72 E9.31576
G1 X168.824 Y122.501 E9.34638
G1 X169.241 Y123.322 E9.377
G1 X169.582 Y124.165 E9.40725
G1 X169.745 Y124.628 E9.42357
G1 X170.362 Y126.446 E9.48743
G1 X171.25 Y128.844 E9.57248
G1 X172.203 Y131.209 E9.65729
G1 X173.195 Y133.483 E9.7398
G1 X174.277 Y135.779 E9.82422
G1 X175.432 Y138.065 E9.90941
G1 X176.629 Y140.279 E9.99312
G1 X177.887 Y142.45 E10.07657
G1 X179.224 Y144.617 E10.16126
G1 X180.601 Y146.714 E10.2447
G1 X182.066 Y148.81 E10.32976
G1 X183.562 Y150.832 E10.41341
G1 X183.827 Y151.18 E10.42796
G1 X184.352 Y151.936 E10.45858
G1 X184.809 Y152.735 E10.48919
G1 X185.196 Y153.571 E10.51983
G1 X185.508 Y154.437 E10.55045
G1 X185.744 Y155.327 E10.58107
G1 X185.902 Y156.234 E10.61169
G1 X185.985 Y157.271 E10.64629
G1 X185.995 Y157.596 E10.65711
G1 X186 Y157.922 E10.66795
G1 X185.999 Y161.013 E10.77076
G1 X185.989 Y161.734 E10.79474
G1 X185.936 Y162.653 E10.82536
G1 X185.804 Y163.564 E10.85598
G1 X185.593 Y164.46 E10.88659
G1 X185.305 Y165.335 E10.91723
G1 X184.943 Y166.181 E10.94784
G1 X184.508 Y166.993 E10.97847
G1 X184.005 Y167.764 E11.00909
G1 X183.152 Y168.806 E11.05388
G1 X182.363 Y169.655 E11.09243
G1 X180.615 Y171.587 E11.17909
G1 X178.976 Y173.506 E11.26302
G1 X177.376 Y175.489 E11.34777
G1 X176.152 Y177.086 E11.41469
G1 X175.99 Y177.292 E11.42341
G1 X175.707 Y177.643 E11.43841
G1 X175.098 Y178.334 E11.46904
G1 X174.444 Y178.96 E11.49915
G1 X174.176 Y179.195 E11.51101
G1 X173.458 Y179.771 E11.54162
G1 X172.617 Y180.328 E11.57517
G1 X172.332 Y180.498 E11.58621
G1 X171.522 Y180.935 E11.61682
G1 X170.61 Y181.325 E11.64981
G1 X170.302 Y181.44 E11.66075
G1 X169.426 Y181.725 E11.69139
G1 X168.758 Y181.887 E11.71425
G1 X168.36 Y181.97 E11.72777
G1 X167.451 Y182.118 E11.7584
G1 X166.574 Y182.186 E11.78766
G1 X166.462 Y182.19 E11.79139
G1 X165.886 Y182.195 E11.81054
G1 X165.672 Y182.191 E11.81766
G1 X164.313 Y182.078 E11.86302
G1 X164.212 Y182.063 E11.86642
G1 X163.598 Y181.953 E11.88716
G1 X163.359 Y181.903 E11.89528
G1 X162.272 Y181.615 E11.93269
G1 X161.605 Y181.399 E11.956
G1 X159.811 Y180.796 E12.01895
G1 X157.414 Y180.065 E12.1023
G1 X154.951 Y179.39 E12.18724
G1 X152.49 Y178.788 E12.27151
G1 X150.027 Y178.262 E12.35528
G1 X147.567 Y177.807 E12.43848
G1 X145.06 Y177.417 E12.52287
G1 X142.531 Y177.096 E12.60766
G1 X140.018 Y176.849 E12.69165
G1 X137.475 Y176.671 E12.77643
G1 X136.787 Y176.639 E12.79934
G1 X136.511 Y176.623 E12.80854
G1 X136.361 Y176.612 E12.81354
G1 X135.446 Y176.504 E12.84418
G1 X134.855 Y176.392 E12.86419
G1 X134.315 Y176.273 E12.88258
G1 X133.425 Y176.036 E12.91321
G1 X132.581 Y175.731 E12.94306
G1 X132.266 Y175.602 E12.95438
G1 X130.216 Y174.739 E13.02836
G1 X127.865 Y173.827 E13.11223
G1 X125.495 Y172.986 E13.19588
G1 X123.026 Y172.186 E13.2822
G1 X122.857 Y172.136 E13.28806
G1 X121.503 Y171.72 E13.33517
G1 X120.635 Y171.411 E13.36582
G1 X119.798 Y171.029 E13.39642
G1 X118.997 Y170.575 E13.42704
G1 X118.238 Y170.054 E13.45766
G1 X117.528 Y169.468 E13.48828
G1 X116.87 Y168.823 E13.51893
G1 X116.272 Y168.124 E13.54952
G1 X115.736 Y167.375 E13.58016
G1 X115.128 Y166.313 E13.62086
G1 X114.752 Y165.473 E13.65147
G1 X114.451 Y164.603 E13.68209
G1 X114.227 Y163.71 E13.71271
G1 X114.08 Y162.801 E13.74333
G1 X114.013 Y161.88 E13.77405
G1 X114.004 Y161.569 E13.7844
G1 X114 Y161.262 E13.79461
G1 X114.001 Y158.148 E13.89818
G1 X114.011 Y157.446 E13.92153
G1 X114.064 Y156.527 E13.95215
G1 X114.197 Y155.616 E13.98277
G1 X114.408 Y154.72 E14.01338
G1 X114.696 Y153.845 E14.04402
G1 X115.059 Y152.999 E14.07464
G1 X115.494 Y152.188 E14.10525
G1 X115.998 Y151.417 E14.13589
G1 X116.566 Y150.693 E14.16649
G1 X117.196 Y150.021 E14.19713
G1 X117.881 Y149.407 E14.22773
G0 F6000 X118.269 Y149.608
G1 F1200 X119.137 Y148.989 E14.26319
G1 X120.372 Y148.205 E14.31184
G1 X120.704 Y147.999 E14.32484
G1 X122.796 Y146.62 E14.40817
G1 X124.891 Y145.152 E14.49326
G1 X126.941 Y143.628 E14.57822
G1 X128.914 Y142.072 E14.66179
G1 X130.876 Y140.433 E14.74682
G1 X132.767 Y138.76 E14.8308
G1 X134.626 Y137.02 E14.91549
G1 X136.424 Y135.239 E14.99966
G1 X138.178 Y133.4 E15.08419
G1 X139.901 Y131.487 E15.16982
G1 X141.52 Y129.584 E15.25292
G1 X143.134 Y127.577 E15.33858
G1 X144.64 Y125.588 E15.42156
G1 X146.152 Y123.471 E15.50808
G1 X146.917 Y122.34 E15.5535
G1 X147.25 Y121.864 E15.57282
G1 X147.8 Y121.148 E15.60285
G1 X148.411 Y120.483 E15.63288
G1 X149.079 Y119.875 E15.66293
G1 X149.798 Y119.328 E15.69297
G1 X150.562 Y118.847 E15.723
G1 X151.366 Y118.435 E15.75305
G1 X152.203 Y118.096 E15.78308
G1 X153.067 Y117.833 E15.81312
G1 X153.95 Y117.647 E15.84314
G1 X154.847 Y117.539 E15.87319
G1 X155.323 Y117.515 E15.88904
G1 X155.645 Y117.506 E15.89975
G1 X155.93 Y117.502 E15.90923
G1 X158.893 Y117.502 E16.00778
G1 X159.739 Y117.513 E16.03592
G1 X160.64 Y117.566 E16.06594
G1 X161.534 Y117.698 E16.096
G1 X162.412 Y117.909 E16.12603
G1 X163.268 Y118.197 E16.15607
G1 X164.095 Y118.559 E16.1861
G1 X164.887 Y118.993 E16.21613
G1 X165.637 Y119.496 E16.24617
G1 X166.34 Y120.063 E16.27621
G1 X166.991 Y120.689 E16.30625
G1 X167.583 Y121.371 E16.33629
G1 X168.112 Y122.103 E16.36632
G1 X168.575 Y122.878 E16.39635
G1 X168.967 Y123.692 E16.4264
G1 X169.205 Y124.298 E16.44805
G1 X169.366 Y124.756 E16.4642
G1 X169.984 Y126.576 E16.52813
G1 X170.88 Y128.997 E16.61399
G1 X171.825 Y131.34 E16.69802
G1 X172.844 Y133.677 E16.78281
G1 X173.916 Y135.952 E16.86646
G1 X175.064 Y138.225 E16.95116
G1 X176.26 Y140.438 E17.03482
G1 X177.543 Y142.655 E17.12002
G1 X178.893 Y144.842 E17.2055
G1 X180.272 Y146.941 E17.28903
G1 X181.732 Y149.031 E17.37383
G1 X183.279 Y151.121 E17.46031
G1 X183.508 Y151.422 E17.47289
G1 X184.023 Y152.164 E17.50293
G1 X184.469 Y152.949 E17.53296
G1 X184.845 Y153.77 E17.56299
G1 X185.146 Y154.622 E17.59305
G1 X185.371 Y155.496 E17.62307
G1 X185.518 Y156.387 E17.6531
G1 X185.585 Y157.283 E17.68299
G1 X185.595 Y157.608 E17.6938
G1 X185.6 Y157.922 E17.70425
G1 X185.599 Y161.007 E17.80685
G1 X185.589 Y161.728 E17.83084
G1 X185.537 Y162.63 E17.86089
G1 X185.404 Y163.523 E17.89091
G1 X185.194 Y164.402 E17.92097
G1 X184.907 Y165.258 E17.951
G1 X184.545 Y166.085 E17.98103
G1 X184.111 Y166.877 E18.01107
G1 X183.609 Y167.628 E18.04111
G1 X182.859 Y168.533 E18.0802
G1 X182.089 Y169.361 E18.11781
G1 X180.315 Y171.322 E18.20576
G1 X178.677 Y173.241 E18.28968
G1 X177.048 Y175.259 E18.37594
G1 X175.834 Y176.843 E18.44231
G1 X175.679 Y177.041 E18.45068
G1 X175.396 Y177.392 E18.46567
G1 X174.798 Y178.069 E18.49572
G1 X174.18 Y178.659 E18.52414
G1 X173.912 Y178.894 E18.53599
G1 X173.207 Y179.459 E18.56604
G1 X172.412 Y179.985 E18.59775
G1 X172.127 Y180.155 E18.60878
G1 X171.332 Y180.583 E18.63881
G1 X170.47 Y180.951 E18.66999
G1 X170.162 Y181.066 E18.68092
G1 X169.303 Y181.344 E18.71095
G1 X168.676 Y181.495 E18.7324
G1 X168.278 Y181.578 E18.74592
G1 X167.387 Y181.723 E18.77595
G1 X166.56 Y181.787 E18.80354
G1 X166.448 Y181.791 E18.80726
G1 X165.893 Y181.795 E18.82572
G1 X165.679 Y181.791 E18.83284
G1 X164.372 Y181.682 E18.87646
G1 X164.271 Y181.667 E18.87986
G1 X163.68 Y181.562 E18.89983
G1 X163.441 Y181.512 E18.90795
G1 X162.395 Y181.234 E18.94394
G1 X161.732 Y181.02 E18.96712
G1 X159.917 Y180.41 E19.0308
G1 X157.522 Y179.68 E19.11408
G1 X155.08 Y179.01 E19.1983
G1 X152.57 Y178.397 E19.28424
G1 X150.104 Y177.87 E19.36811
G1 X147.635 Y177.413 E19.45162
G1 X145.1 Y177.019 E19.53695
G1 X142.584 Y176.7 E19.6213
G1 X140.049 Y176.45 E19.70603
G1 X137.521 Y176.274 E19.79031
G1 X136.806 Y176.24 E19.81412
G1 X136.39 Y176.213 E19.82798
G1 X135.493 Y176.107 E19.85803
G1 X134.941 Y176.001 E19.87672
G1 X134.401 Y175.882 E19.89511
G1 X133.528 Y175.649 E19.92516
G1 X132.732 Y175.361 E19.95332
G1 X132.421 Y175.233 E19.9645
G1 X130.379 Y174.373 E20.0382
G1 X127.995 Y173.449 E20.12324
G1 X125.604 Y172.6 E20.20763
G1 X123.189 Y171.817 E20.29207
G1 X122.974 Y171.753 E20.29953
G1 X121.62 Y171.337 E20.34664
G1 X120.77 Y171.034 E20.37665
G1 X119.949 Y170.657 E20.4067
G1 X119.165 Y170.208 E20.43675
G1 X118.424 Y169.692 E20.46678
G1 X117.731 Y169.113 E20.49682
G1 X117.093 Y168.475 E20.52683
G1 X116.513 Y167.782 E20.55689
G1 X115.997 Y167.041 E20.58692
G1 X115.486 Y166.135 E20.62152
G1 X115.118 Y165.31 E20.65156
G1 X114.825 Y164.456 E20.68159
G1 X114.608 Y163.579 E20.71164
G1 X114.47 Y162.686 E20.74169
G1 X114.413 Y161.868 E20.76897
G1 X114.404 Y161.557 E20.77931
G1 X114.4 Y161.262 E20.78913
G1 X114.401 Y158.154 E20.8925
G1 X114.411 Y157.452 E20.91585
G1 X114.464 Y156.55 E20.9459
G1 X114.596 Y155.657 E20.97593
G1 X114.807 Y154.779 E21.00596
G1 X115.095 Y153.923 E21.036
G1 X115.457 Y153.095 E21.06606
G1 X115.891 Y152.303 E21.09609
G1 X116.394 Y151.553 E21.12613
G1 X116.96 Y150.85 E21.15615
G1 X117.587 Y150.2 E21.18619
G1 X118.269 Y149.608 E21.21622
G1 F2700 E16.21622
G0 F6000 X123.939 Y161.749
