;FLAVOR:Marlin
;TIME:15829
;Filament used: 10.9573m
;Layer height: 0.2
;MINX:167.235
;MINY:171.274
;MINZ:0.2
;MAXX:232.764
;MAXY:230.202
;MAXZ:76.2
;Generated with Cura_SteamEngine master
M140 S50
M105
M190 S50
M104 S200
M105
M109 S200
M82 ;absolute extrusion mode
M201 X500.00 Y500.00 Z100.00 E5000.00 ;Setup machine max acceleration
M203 X500.00 Y500.00 Z10.00 E50.00 ;Setup machine max feedrate
M204 P500.00 R1000.00 T500.00 ;Setup Print/Retract/Travel acceleration
M205 X8.00 Y8.00 Z0.40 E5.00 ;Setup Jerk
M220 S100 ;Reset Feedrate
M221 S100 ;Reset Flowrate

G28 ;Home

G92 E0 ;Reset Extruder
G1 Z2.0 F3000 ;Move Z Axis up
G1 X10.1 Y20 Z0.28 F5000.0 ;Move to start position
G1 X10.1 Y200.0 Z0.28 F1500.0 E15 ;Draw the first line
G1 X10.4 Y200.0 Z0.28 F5000.0 ;Move to side a little
G1 X10.4 Y20 Z0.28 F1500.0 E30 ;Draw the second line
G92 E0 ;Reset Extruder
G1 Z2.0 F3000 ;Move Z Axis up

G92 E0
G92 E0
G1 F2700 E-5
;LAYER_COUNT:381
;LAYER:0
M107
G0 F6000 X171.449 Y175.633 Z0.2
;TYPE:SKIRT
G1 F2700 E0
G1 F1200 X171.884 Y175.21 E0.02018
G1 X172.064 Y175.044 E0.02832
G1 X172.684 Y174.513 E0.05548
G1 X172.805 Y174.417 E0.06061
G1 X173.316 Y174.035 E0.08183
G1 X173.555 Y173.867 E0.09155
G1 X174.113 Y173.499 E0.11378
G1 X174.316 Y173.374 E0.12171
G1 X175.063 Y172.954 E0.15021
G1 X175.293 Y172.836 E0.15881
G1 X175.905 Y172.545 E0.18135
G1 X176.017 Y172.496 E0.18542
G1 X176.542 Y172.282 E0.20427
G1 X176.807 Y172.182 E0.21369
G1 X177.342 Y171.996 E0.23253
G1 X177.464 Y171.957 E0.23679
G1 X178.022 Y171.795 E0.25612
G1 X178.266 Y171.731 E0.26451
G1 X179.167 Y171.535 E0.29518
G1 X179.448 Y171.486 E0.30466
G1 X180.027 Y171.4 E0.32413
G1 X180.277 Y171.37 E0.33251
G1 X181.161 Y171.3 E0.362
G1 X181.521 Y171.286 E0.37398
G1 X181.841 Y171.279 E0.38463
G1 X182.362 Y171.274 E0.40196
G1 X185.74 Y171.276 E0.51431
G1 X186.414 Y171.286 E0.53673
G1 X187.651 Y171.374 E0.57798
G1 X188.655 Y171.503 E0.61165
G1 X191.169 Y171.789 E0.6958
G1 X193.675 Y172.002 E0.77945
G1 X196.207 Y172.147 E0.8638
G1 X198.692 Y172.218 E0.94649
G1 X201.216 Y172.218 E1.03044
G1 X203.741 Y172.147 E1.11445
G1 X206.257 Y172.006 E1.19827
G1 X208.787 Y171.791 E1.28272
G1 X211.285 Y171.509 E1.36633
G1 X211.737 Y171.447 E1.3815
G1 X212.425 Y171.364 E1.40455
G1 X213.373 Y171.291 E1.43618
G1 X213.757 Y171.281 E1.44895
G1 X214.3 Y171.275 E1.46701
G1 X217.823 Y171.275 E1.58419
G1 X218.085 Y171.277 E1.5929
G1 X218.357 Y171.283 E1.60195
G1 X218.697 Y171.294 E1.61327
G1 X219.328 Y171.332 E1.63429
G1 X219.71 Y171.37 E1.64706
G1 X219.988 Y171.402 E1.65637
G1 X221.024 Y171.572 E1.69129
G1 X221.357 Y171.643 E1.70261
G1 X222.44 Y171.932 E1.73989
G1 X222.843 Y172.062 E1.75398
G1 X223.359 Y172.243 E1.77216
G1 X223.47 Y172.285 E1.77611
G1 X224.349 Y172.662 E1.80792
G1 X224.592 Y172.779 E1.81689
G1 X225.191 Y173.09 E1.83934
G1 X225.418 Y173.217 E1.84799
G1 X226.123 Y173.647 E1.87546
G1 X226.438 Y173.86 E1.88811
G1 X226.638 Y174 E1.89622
G1 X227.066 Y174.316 E1.91392
G1 X227.137 Y174.371 E1.91691
G1 X227.649 Y174.793 E1.93897
G1 X227.907 Y175.019 E1.95038
G1 X228.515 Y175.594 E1.97822
G1 X228.613 Y175.694 E1.98287
G1 X229.072 Y176.192 E2.0054
G1 X229.324 Y176.483 E2.0182
G1 X230.072 Y177.451 E2.05889
G1 X230.246 Y177.704 E2.0691
G1 X230.548 Y178.166 E2.08746
G1 X230.654 Y178.338 E2.09418
G1 X231.128 Y179.19 E2.12661
G1 X231.292 Y179.518 E2.13881
G1 X231.687 Y180.405 E2.1711
G1 X231.778 Y180.636 E2.17936
G1 X231.968 Y181.156 E2.19777
G1 X231.999 Y181.248 E2.201
G1 X232.257 Y182.132 E2.23163
G1 X232.349 Y182.506 E2.24444
G1 X232.501 Y183.233 E2.26914
G1 X232.574 Y183.649 E2.28319
G1 X232.726 Y184.988 E2.32801
G1 X232.744 Y185.34 E2.33973
G1 X232.757 Y185.764 E2.35384
G1 X232.763 Y186.3 E2.37167
G1 X232.764 Y218.49 E3.44232
G1 X232.754 Y219.23 E3.46693
G1 X232.701 Y220.166 E3.49811
G1 X232.569 Y221.095 E3.52932
G1 X232.358 Y222.008 E3.56049
G1 X232.07 Y222.901 E3.5917
G1 X231.708 Y223.766 E3.62288
G1 X231.272 Y224.597 E3.6541
G1 X230.768 Y225.387 E3.68526
G1 X230.198 Y226.132 E3.71646
G1 X229.498 Y226.894 E3.75088
G1 X229.386 Y227.005 E3.75612
G1 X228.693 Y227.636 E3.78729
G1 X227.948 Y228.206 E3.81849
G1 X227.157 Y228.71 E3.84969
G1 X226.326 Y229.145 E3.88089
G1 X225.461 Y229.508 E3.91209
G1 X224.568 Y229.796 E3.94329
G1 X223.655 Y230.007 E3.97446
G1 X222.726 Y230.139 E4.00567
G1 X222.014 Y230.186 E4.0294
G1 X221.629 Y230.196 E4.04221
G1 X221.086 Y230.202 E4.06027
G1 X178.902 Y230.201 E5.46332
G1 X178.2 Y230.191 E5.48667
G1 X177.264 Y230.138 E5.51785
G1 X176.336 Y230.005 E5.54903
G1 X175.422 Y229.793 E5.58024
G1 X174.529 Y229.505 E5.61145
G1 X173.665 Y229.141 E5.64263
G1 X172.834 Y228.705 E5.67384
G1 X172.044 Y228.2 E5.70503
G1 X171.3 Y227.63 E5.7362
G1 X170.544 Y226.936 E5.77033
G1 X170.432 Y226.823 E5.77563
G1 X169.801 Y226.129 E5.80682
G1 X169.231 Y225.384 E5.83802
G1 X168.727 Y224.593 E5.86922
G1 X168.292 Y223.762 E5.90041
G1 X167.929 Y222.898 E5.93158
G1 X167.641 Y222.005 E5.96279
G1 X167.431 Y221.091 E5.99398
G1 X167.298 Y220.162 E6.0252
G1 X167.251 Y219.453 E6.04883
G1 X167.241 Y219.054 E6.06211
G1 X167.235 Y218.479 E6.08123
G1 X167.239 Y186.299 E7.15154
G1 X167.249 Y185.58 E7.17546
G1 X167.28 Y184.893 E7.19833
G1 X167.3 Y184.632 E7.20704
G1 X167.35 Y184.129 E7.22385
G1 X167.431 Y183.555 E7.24313
G1 X167.472 Y183.312 E7.25133
G1 X167.726 Y182.179 E7.28995
G1 X167.806 Y181.893 E7.29982
G1 X168.065 Y181.087 E7.32798
G1 X168.243 Y180.599 E7.34526
G1 X168.609 Y179.716 E7.37705
G1 X168.637 Y179.656 E7.37925
G1 X169.057 Y178.846 E7.4096
G1 X169.196 Y178.603 E7.41891
G1 X169.58 Y177.981 E7.44322
G1 X169.823 Y177.615 E7.45784
G1 X170.437 Y176.778 E7.49236
G1 X170.624 Y176.547 E7.50225
G1 X171.282 Y175.805 E7.53523
G1 X171.449 Y175.633 E7.54321
G0 F6000 X171.736 Y175.912
G1 F1200 X172.155 Y175.504 E7.56266
G1 X172.335 Y175.338 E7.5708
G1 X172.933 Y174.826 E7.59698
G1 X173.054 Y174.73 E7.60212
G1 X173.546 Y174.362 E7.62256
G1 X173.785 Y174.194 E7.63227
G1 X174.323 Y173.84 E7.65369
G1 X174.526 Y173.715 E7.66162
G1 X175.245 Y173.31 E7.68907
G1 X175.475 Y173.192 E7.69767
G1 X176.065 Y172.912 E7.71939
G1 X176.177 Y172.863 E7.72345
G1 X176.684 Y172.657 E7.74166
G1 X176.949 Y172.557 E7.75108
G1 X177.463 Y172.377 E7.76919
G1 X177.585 Y172.338 E7.77345
G1 X178.124 Y172.182 E7.79211
G1 X178.368 Y172.118 E7.8005
G1 X179.236 Y171.929 E7.83005
G1 X179.517 Y171.88 E7.83954
G1 X180.075 Y171.798 E7.8583
G1 X180.325 Y171.768 E7.86667
G1 X181.176 Y171.7 E7.89506
G1 X181.536 Y171.686 E7.90705
G1 X181.845 Y171.679 E7.91733
G1 X182.362 Y171.674 E7.93452
G1 X185.734 Y171.676 E8.04668
G1 X186.408 Y171.686 E8.0691
G1 X187.6 Y171.771 E8.10884
G1 X188.557 Y171.894 E8.14094
G1 X191.127 Y172.186 E8.22696
G1 X193.652 Y172.401 E8.31125
G1 X196.174 Y172.545 E8.39527
G1 X198.716 Y172.618 E8.47985
G1 X201.227 Y172.618 E8.56337
G1 X203.774 Y172.547 E8.64811
G1 X206.279 Y172.406 E8.73156
G1 X208.795 Y172.192 E8.81555
G1 X211.351 Y171.903 E8.9011
G1 X211.784 Y171.844 E8.91564
G1 X212.472 Y171.761 E8.93868
G1 X213.386 Y171.691 E8.96917
G1 X213.761 Y171.681 E8.98165
G1 X214.3 Y171.675 E8.99958
G1 X217.82 Y171.675 E9.11665
G1 X218.082 Y171.677 E9.12537
G1 X218.684 Y171.694 E9.1454
G1 X219.292 Y171.731 E9.16566
G1 X219.664 Y171.768 E9.17809
G1 X219.942 Y171.8 E9.1874
G1 X220.94 Y171.963 E9.22103
G1 X221.273 Y172.034 E9.23236
G1 X222.317 Y172.313 E9.2683
G1 X222.72 Y172.443 E9.28238
G1 X223.217 Y172.617 E9.2999
G1 X223.328 Y172.659 E9.30385
G1 X224.175 Y173.022 E9.33449
G1 X224.418 Y173.139 E9.34347
G1 X224.995 Y173.439 E9.3651
G1 X225.222 Y173.566 E9.37375
G1 X225.902 Y173.981 E9.40024
G1 X226.209 Y174.188 E9.41256
G1 X226.409 Y174.328 E9.42068
G1 X226.821 Y174.632 E9.43771
G1 X226.892 Y174.687 E9.44069
G1 X227.386 Y175.094 E9.46198
G1 X227.644 Y175.32 E9.47339
G1 X228.23 Y175.874 E9.50021
G1 X228.328 Y175.974 E9.50487
G1 X228.77 Y176.454 E9.52657
G1 X229.022 Y176.745 E9.53938
G1 X229.743 Y177.677 E9.57857
G1 X229.917 Y177.93 E9.58878
G1 X230.207 Y178.376 E9.60647
G1 X230.313 Y178.548 E9.61319
G1 X230.77 Y179.369 E9.64445
G1 X230.934 Y179.697 E9.65664
G1 X231.315 Y180.552 E9.68778
G1 X231.406 Y180.783 E9.69603
G1 X231.589 Y181.283 E9.71374
G1 X231.62 Y181.375 E9.71697
G1 X231.868 Y182.228 E9.74652
G1 X231.96 Y182.602 E9.75933
G1 X232.107 Y183.302 E9.78312
G1 X232.18 Y183.718 E9.79716
G1 X232.326 Y185.009 E9.84038
G1 X232.344 Y185.361 E9.8521
G1 X232.357 Y185.769 E9.86568
G1 X232.363 Y186.3 E9.88334
G1 X232.364 Y218.484 E10.95378
G1 X232.354 Y219.224 E10.9784
G1 X232.302 Y220.143 E11.00901
G1 X232.17 Y221.055 E11.03966
G1 X231.959 Y221.951 E11.07028
G1 X231.672 Y222.825 E11.10088
G1 X231.309 Y223.672 E11.13152
G1 X230.875 Y224.483 E11.16212
G1 X230.372 Y225.254 E11.19274
G1 X229.804 Y225.979 E11.22337
G1 X229.217 Y226.61 E11.25203
G1 X229.105 Y226.721 E11.25728
G1 X228.423 Y227.34 E11.28791
G1 X227.691 Y227.898 E11.31853
G1 X226.912 Y228.389 E11.34915
G1 X226.094 Y228.812 E11.37978
G1 X225.243 Y229.162 E11.41039
G1 X224.364 Y229.437 E11.44102
G1 X223.465 Y229.634 E11.47163
G1 X222.552 Y229.753 E11.50225
G1 X222.001 Y229.786 E11.52061
G1 X221.625 Y229.796 E11.53312
G1 X221.086 Y229.802 E11.55105
G1 X178.908 Y229.801 E12.9539
G1 X178.206 Y229.791 E12.97725
G1 X177.287 Y229.738 E13.00786
G1 X176.376 Y229.605 E13.03849
G1 X175.48 Y229.394 E13.0691
G1 X174.605 Y229.106 E13.09974
G1 X173.759 Y228.743 E13.13036
G1 X172.948 Y228.308 E13.16097
G1 X172.177 Y227.804 E13.1916
G1 X171.453 Y227.236 E13.22221
G1 X170.828 Y226.654 E13.25062
G1 X170.716 Y226.541 E13.25591
G1 X170.097 Y225.86 E13.28652
G1 X169.54 Y225.127 E13.31714
G1 X169.048 Y224.349 E13.34775
G1 X168.625 Y223.531 E13.37838
G1 X168.275 Y222.679 E13.40902
G1 X168 Y221.801 E13.43962
G1 X167.803 Y220.901 E13.47026
G1 X167.684 Y219.988 E13.50089
G1 X167.651 Y219.439 E13.51918
G1 X167.641 Y219.049 E13.53215
G1 X167.635 Y218.479 E13.55111
G1 X167.639 Y186.305 E14.62122
G1 X167.649 Y185.586 E14.64514
G1 X167.679 Y184.923 E14.66721
G1 X167.699 Y184.662 E14.67592
G1 X167.737 Y184.262 E14.68929
G1 X167.747 Y184.175 E14.6922
G1 X167.826 Y183.621 E14.71081
G1 X167.867 Y183.378 E14.71901
G1 X168.111 Y182.287 E14.75619
G1 X168.191 Y182.001 E14.76607
G1 X168.441 Y181.224 E14.79322
G1 X168.619 Y180.736 E14.81049
G1 X168.971 Y179.885 E14.84112
G1 X168.999 Y179.825 E14.84332
G1 X169.404 Y179.045 E14.87256
G1 X169.543 Y178.802 E14.88187
G1 X169.913 Y178.202 E14.90531
G1 X170.156 Y177.836 E14.91992
G1 X170.748 Y177.029 E14.95321
G1 X170.935 Y176.798 E14.9631
G1 X171.569 Y176.084 E14.99486
G1 X171.736 Y175.912 E15.00283
G0 F6000 X172.023 Y176.191
G1 F1200 X172.426 Y175.798 E15.02155
G1 X172.606 Y175.632 E15.0297
G1 X173.181 Y175.139 E15.05489
G1 X173.302 Y175.043 E15.06003
G1 X173.776 Y174.689 E15.0797
G1 X174.015 Y174.521 E15.08942
G1 X174.533 Y174.181 E15.11003
G1 X174.736 Y174.056 E15.11796
G1 X175.428 Y173.666 E15.14438
G1 X175.658 Y173.548 E15.15297
G1 X176.226 Y173.278 E15.17389
G1 X176.338 Y173.229 E15.17796
G1 X176.825 Y173.031 E15.19544
G1 X177.09 Y172.931 E15.20486
G1 X177.585 Y172.758 E15.2223
G1 X177.707 Y172.719 E15.22656
G1 X178.225 Y172.569 E15.2445
G1 X178.469 Y172.505 E15.25289
G1 X179.305 Y172.323 E15.28135
G1 X179.586 Y172.274 E15.29083
G1 X180.123 Y172.195 E15.30889
G1 X180.373 Y172.165 E15.31726
G1 X181.192 Y172.1 E15.34459
G1 X181.552 Y172.086 E15.35657
G1 X181.849 Y172.078 E15.36645
G1 X182.362 Y172.074 E15.38352
G1 X185.728 Y172.076 E15.49547
G1 X186.402 Y172.086 E15.51789
G1 X187.549 Y172.168 E15.55614
G1 X188.459 Y172.285 E15.58665
G1 X191.119 Y172.588 E15.6757
G1 X193.632 Y172.801 E15.75958
G1 X196.14 Y172.945 E15.84313
G1 X198.704 Y173.018 E15.92845
G1 X201.238 Y173.018 E16.01273
G1 X203.773 Y172.947 E16.09707
G1 X206.3 Y172.805 E16.18125
G1 X208.873 Y172.587 E16.26714
G1 X211.373 Y172.304 E16.35082
G1 X211.832 Y172.241 E16.36623
G1 X212.52 Y172.158 E16.38928
G1 X213.4 Y172.091 E16.41863
G1 X213.766 Y172.081 E16.43081
G1 X214.3 Y172.075 E16.44857
G1 X217.817 Y172.075 E16.56555
G1 X218.079 Y172.077 E16.57426
G1 X218.331 Y172.082 E16.58265
G1 X218.671 Y172.093 E16.59396
G1 X219.256 Y172.129 E16.61345
G1 X219.618 Y172.165 E16.62555
G1 X219.896 Y172.197 E16.63486
G1 X220.857 Y172.354 E16.66725
G1 X221.19 Y172.425 E16.67857
G1 X222.194 Y172.694 E16.71314
G1 X222.597 Y172.824 E16.72723
G1 X223.076 Y172.991 E16.7441
G1 X223.187 Y173.033 E16.74805
G1 X224.002 Y173.383 E16.77755
G1 X224.245 Y173.5 E16.78652
G1 X224.8 Y173.788 E16.80732
G1 X225.027 Y173.915 E16.81597
G1 X225.681 Y174.314 E16.84145
G1 X225.979 Y174.516 E16.85342
G1 X226.179 Y174.656 E16.86154
G1 X226.576 Y174.948 E16.87793
G1 X226.647 Y175.003 E16.88092
G1 X227.122 Y175.394 E16.90138
G1 X227.38 Y175.62 E16.91279
G1 X227.944 Y176.154 E16.93862
G1 X228.042 Y176.254 E16.94328
G1 X228.468 Y176.716 E16.96418
G1 X228.72 Y177.007 E16.97698
G1 X229.413 Y177.904 E17.01469
G1 X229.587 Y178.157 E17.0249
G1 X229.866 Y178.586 E17.04192
G1 X229.972 Y178.758 E17.04864
G1 X230.412 Y179.547 E17.07869
G1 X230.576 Y179.875 E17.09088
G1 X230.943 Y180.698 E17.12085
G1 X231.034 Y180.929 E17.12911
G1 X231.21 Y181.411 E17.14618
G1 X231.241 Y181.503 E17.14941
G1 X231.48 Y182.324 E17.17785
G1 X231.572 Y182.698 E17.19066
G1 X231.713 Y183.371 E17.21353
G1 X231.786 Y183.787 E17.22758
G1 X231.927 Y185.029 E17.26915
G1 X231.945 Y185.381 E17.28087
G1 X231.957 Y185.774 E17.29395
G1 X231.963 Y186.3 E17.31145
G1 X231.964 Y218.479 E18.38172
G1 X231.954 Y219.219 E18.40634
G1 X231.902 Y220.12 E18.43636
G1 X231.77 Y221.014 E18.46641
G1 X231.56 Y221.892 E18.49644
G1 X231.273 Y222.748 E18.52647
G1 X230.911 Y223.576 E18.55652
G1 X230.478 Y224.368 E18.58655
G1 X229.976 Y225.119 E18.61659
G1 X229.41 Y225.823 E18.64664
G1 X228.935 Y226.326 E18.66965
G1 X228.823 Y226.437 E18.67489
G1 X228.154 Y227.043 E18.70491
G1 X227.434 Y227.589 E18.73497
G1 X226.669 Y228.068 E18.76499
G1 X225.864 Y228.478 E18.79503
G1 X225.026 Y228.815 E18.82508
G1 X224.162 Y229.076 E18.8551
G1 X223.277 Y229.26 E18.88516
G1 X221.987 Y229.386 E18.92827
G1 X221.62 Y229.396 E18.94048
G1 X221.086 Y229.402 E18.95824
G1 X178.914 Y229.401 E20.36089
G1 X178.212 Y229.391 E20.38424
G1 X177.31 Y229.338 E20.41429
G1 X176.417 Y229.206 E20.44432
G1 X175.539 Y228.995 E20.47435
G1 X174.683 Y228.707 E20.50439
G1 X173.855 Y228.345 E20.53445
G1 X173.063 Y227.911 E20.56448
G1 X172.313 Y227.408 E20.59452
G1 X171.61 Y226.842 E20.62454
G1 X171.113 Y226.372 E20.64729
G1 X171.001 Y226.259 E20.65258
G1 X170.394 Y225.59 E20.68263
G1 X169.849 Y224.87 E20.71266
G1 X169.369 Y224.105 E20.7427
G1 X168.959 Y223.3 E20.77274
G1 X168.622 Y222.462 E20.80279
G1 X168.361 Y221.598 E20.8328
G1 X168.177 Y220.714 E20.86284
G1 X168.051 Y219.426 E20.90588
G1 X168.041 Y219.045 E20.91856
G1 X168.035 Y218.479 E20.93738
G1 X168.039 Y186.31 E22.00733
G1 X168.049 Y185.591 E22.03125
G1 X168.078 Y184.954 E22.05245
G1 X168.098 Y184.693 E22.06116
G1 X168.145 Y184.22 E22.07697
G1 X168.22 Y183.688 E22.09484
G1 X168.261 Y183.445 E22.10304
G1 X168.496 Y182.394 E22.13885
G1 X168.576 Y182.108 E22.14873
G1 X168.817 Y181.361 E22.17484
G1 X168.995 Y180.873 E22.19212
G1 X169.334 Y180.055 E22.22157
G1 X169.362 Y179.995 E22.22377
G1 X169.751 Y179.243 E22.25193
G1 X169.89 Y179 E22.26124
G1 X170.246 Y178.423 E22.28379
G1 X170.489 Y178.057 E22.2984
G1 X171.059 Y177.281 E22.33043
G1 X171.246 Y177.05 E22.34031
G1 X171.856 Y176.363 E22.37087
G1 X172.023 Y176.191 E22.37884
G1 F2700 E17.37884
G0 F6000 X178.84 Y182.906
G0 X179.428 Y183.541
;TYPE:SUPPORT-INTERFACE
G1 F2700 E22.37884
G1 F1200 X179.678 Y183.309 E22.39019
G1 X179.702 Y183.288 E22.39125
G1 X179.98 Y183.08 E22.40279
G1 X179.995 Y183.072 E22.40336
G1 X180.217 Y182.94 E22.41195
G1 X180.225 Y182.936 E22.41225
G1 X180.459 Y182.816 E22.42099
G1 X180.492 Y182.801 E22.4222
G1 X180.932 Y182.647 E22.4377
G1 X180.953 Y182.642 E22.43842
G1 X181.35 Y182.557 E22.45193
G1 X181.364 Y182.555 E22.4524
G1 X181.836 Y182.522 E22.46813
G1 X186.179 Y182.522 E22.61258
G1 X186.179 Y183.879 E22.65772
G1 X181.805 Y183.879 E22.8032
G1 X181.727 Y183.885 E22.8058
G1 X181.4 Y183.928 E22.81677
G1 X181.23 Y183.97 E22.82259
G1 X181.037 Y184.057 E22.82963
G1 X180.427 Y184.057 E22.84992
G1 X180.028 Y184.456 E22.86869
