;FLAVOR:Marlin
;TIME:11198
;Filament used: 7.96834m
;Layer height: 0.2
;MINX:154.528
;MINY:132.626
;MINZ:0.2
;MAXX:245.472
;MAXY:267.373
;MAXZ:6.4
;Generated with Cura_SteamEngine master
M140 S60
M105
M190 S60
M104 S210
M105
M109 S210
M82 ;absolute extrusion mode
M201 X500.00 Y500.00 Z100.00 E5000.00 ;Setup machine max acceleration
M203 X500.00 Y500.00 Z10.00 E50.00 ;Setup machine max feedrate
M204 P500.00 R1000.00 T500.00 ;Setup Print/Retract/Travel acceleration
M205 X8.00 Y8.00 Z0.40 E5.00 ;Setup Jerk
M220 S100 ;Reset Feedrate
M221 S100 ;Reset Flowrate

G28 ;Home

G92 E0 ;Reset Extruder
G1 Z2.0 F3000 ;Move Z Axis up
G1 X10.1 Y20 Z0.28 F5000.0 ;Move to start position
G1 X10.1 Y200.0 Z0.28 F1500.0 E15 ;Draw the first line
G1 X10.4 Y200.0 Z0.28 F5000.0 ;Move to side a little
G1 X10.4 Y20 Z0.28 F1500.0 E30 ;Draw the second line
G92 E0 ;Reset Extruder
G1 Z2.0 F3000 ;Move Z Axis up

G92 E0
G92 E0
G1 F2400 E-3
;LAYER_COUNT:32
;LAYER:0
M107
G0 F6000 X157.529 Y136.788 Z0.2
;TYPE:SKIRT
G1 F2400 E0
G1 F1200 X157.613 Y136.693 E0.00422
G1 X158.264 Y136.017 E0.03543
G1 X159.058 Y135.329 E0.07038
G1 X159.296 Y135.142 E0.08044
G1 X160.057 Y134.595 E0.11161
G1 X160.863 Y134.114 E0.14283
G1 X161.366 Y133.859 E0.16159
G1 X161.572 Y133.761 E0.16918
G1 X162.436 Y133.394 E0.2004
G1 X163.327 Y133.103 E0.23157
G1 X163.803 Y132.981 E0.24792
G1 X164.052 Y132.923 E0.25642
G1 X164.973 Y132.749 E0.2876
G1 X166.174 Y132.642 E0.3277
G1 X166.41 Y132.634 E0.33555
G1 X166.69 Y132.628 E0.34487
G1 X167.019 Y132.626 E0.35581
G1 X232.907 Y132.628 E2.54725
G1 X233.607 Y132.638 E2.57054
G1 X234.543 Y132.691 E2.60172
G1 X235.664 Y132.862 E2.63944
G1 X235.883 Y132.907 E2.64687
G1 X236.793 Y133.135 E2.67807
G1 X237.981 Y133.562 E2.72006
G1 X238.211 Y133.66 E2.72838
G1 X239.057 Y134.064 E2.75956
G1 X239.866 Y134.539 E2.79076
G1 X240.318 Y134.847 E2.80895
G1 X240.453 Y134.944 E2.81448
G1 X241.19 Y135.523 E2.84566
G1 X242.066 Y136.361 E2.88598
G1 X242.299 Y136.61 E2.89732
G1 X242.91 Y137.322 E2.92852
G1 X243.458 Y138.083 E2.95971
G1 X243.852 Y138.729 E2.98488
G1 X243.919 Y138.848 E2.98942
G1 X244.344 Y139.684 E3.02062
G1 X244.627 Y140.366 E3.04517
G1 X244.728 Y140.634 E3.0547
G1 X245.021 Y141.525 E3.0859
G1 X245.237 Y142.437 E3.11707
G1 X245.367 Y143.288 E3.1457
G1 X245.394 Y143.529 E3.15377
G1 X245.455 Y144.361 E3.18151
G1 X245.467 Y144.787 E3.19569
G1 X245.472 Y145.249 E3.21106
G1 X245.471 Y254.697 E6.85131
G1 X245.461 Y255.394 E6.8745
G1 X245.415 Y256.252 E6.90307
G1 X245.397 Y256.446 E6.90955
G1 X245.271 Y257.376 E6.94077
G1 X244.97 Y258.624 E6.98347
G1 X244.882 Y258.914 E6.99355
G1 X244.572 Y259.799 E7.02474
G1 X244.187 Y260.655 E7.05595
G1 X243.84 Y261.293 E7.08011
G1 X243.736 Y261.47 E7.08694
G1 X243.227 Y262.257 E7.11811
G1 X242.534 Y263.137 E7.15537
G1 X242.402 Y263.288 E7.16204
G1 X241.755 Y263.967 E7.19323
G1 X240.948 Y264.673 E7.22889
G1 X240.579 Y264.957 E7.24438
G1 X240.415 Y265.078 E7.25116
G1 X239.637 Y265.602 E7.28236
G1 X238.817 Y266.058 E7.31356
G1 X238.389 Y266.261 E7.32932
G1 X238.193 Y266.349 E7.33647
G1 X237.322 Y266.696 E7.36765
G1 X236.032 Y267.061 E7.41224
G1 X235.844 Y267.102 E7.41864
G1 X234.92 Y267.263 E7.44983
G1 X233.702 Y267.353 E7.49046
G1 X232.518 Y267.373 E7.52984
G1 X167.079 Y267.373 E9.70635
G1 X166.371 Y267.362 E9.7299
G1 X165.435 Y267.307 E9.76109
G1 X164.345 Y267.141 E9.79776
G1 X164.188 Y267.109 E9.80309
G1 X163.278 Y266.883 E9.83427
G1 X162.099 Y266.462 E9.87591
G1 X161.787 Y266.33 E9.88718
G1 X160.94 Y265.928 E9.91836
G1 X160.13 Y265.455 E9.94956
G1 X159.613 Y265.102 E9.97038
G1 X159.449 Y264.983 E9.97712
G1 X158.714 Y264.4 E10.00833
G1 X157.748 Y263.455 E10.05327
G1 X157.626 Y263.32 E10.05932
G1 X157.027 Y262.598 E10.09053
G1 X156.362 Y261.617 E10.12994
G1 X156.229 Y261.396 E10.13852
G1 X155.78 Y260.573 E10.16971
G1 X155.272 Y259.358 E10.21351
G1 X155.188 Y259.118 E10.22196
G1 X154.916 Y258.22 E10.25317
G1 X154.721 Y257.303 E10.28435
G1 X154.649 Y256.799 E10.30129
G1 X154.616 Y256.525 E10.31047
G1 X154.545 Y255.622 E10.34059
G1 X154.531 Y255.141 E10.3566
G1 X154.528 Y254.778 E10.36867
G1 X154.529 Y145.3 E14.00992
G1 X154.539 Y144.606 E14.03301
G1 X154.585 Y143.748 E14.06159
G1 X154.603 Y143.554 E14.06807
G1 X154.729 Y142.624 E14.09928
G1 X155.027 Y141.385 E14.14167
G1 X155.099 Y141.147 E14.14994
G1 X155.409 Y140.262 E14.18113
G1 X155.991 Y139.028 E14.2265
G1 X156.133 Y138.77 E14.2363
G1 X156.62 Y137.968 E14.26751
G1 X157.173 Y137.211 E14.29869
G1 X157.529 Y136.788 E14.31708
G0 F6000 X157.829 Y137.053
G1 F1200 X157.913 Y136.958 E14.32129
G1 X158.552 Y136.295 E14.35192
G1 X159.305 Y135.644 E14.38503
G1 X159.543 Y135.457 E14.39509
G1 X160.291 Y134.92 E14.42572
G1 X161.083 Y134.45 E14.45635
G1 X161.538 Y134.22 E14.47331
G1 X161.744 Y134.122 E14.48089
G1 X162.592 Y133.763 E14.51152
G1 X163.893 Y133.37 E14.55673
G1 X164.142 Y133.312 E14.56523
G1 X165.047 Y133.143 E14.59585
G1 X166.188 Y133.042 E14.63395
G1 X166.424 Y133.034 E14.6418
G1 X166.693 Y133.028 E14.65075
G1 X167.019 Y133.026 E14.66159
G1 X232.901 Y133.028 E16.85284
G1 X233.601 Y133.038 E16.87612
G1 X234.521 Y133.091 E16.90677
G1 X235.584 Y133.254 E16.94254
G1 X235.803 Y133.299 E16.94998
G1 X236.695 Y133.523 E16.98057
G1 X237.824 Y133.93 E17.02048
G1 X238.054 Y134.028 E17.0288
G1 X238.885 Y134.426 E17.05944
G1 X239.677 Y134.894 E17.09004
G1 X240.084 Y135.172 E17.10643
G1 X240.219 Y135.269 E17.11196
G1 X240.943 Y135.838 E17.14259
G1 X241.774 Y136.634 E17.18086
G1 X242.007 Y136.883 E17.19221
G1 X242.606 Y137.582 E17.22282
G1 X243.142 Y138.331 E17.25346
G1 X243.504 Y138.926 E17.27662
G1 X243.571 Y139.045 E17.28116
G1 X243.987 Y139.866 E17.31178
G1 X244.253 Y140.507 E17.33486
G1 X244.354 Y140.775 E17.34438
G1 X244.641 Y141.65 E17.37501
G1 X244.851 Y142.546 E17.40562
G1 X244.969 Y143.333 E17.43209
G1 X244.996 Y143.574 E17.44016
G1 X245.055 Y144.376 E17.4669
G1 X245.067 Y144.792 E17.48074
G1 X245.072 Y145.249 E17.49594
G1 X245.071 Y254.691 E21.136
G1 X245.061 Y255.388 E21.15918
G1 X245.017 Y256.215 E21.18673
G1 X244.999 Y256.409 E21.19321
G1 X244.874 Y257.321 E21.22383
G1 X244.587 Y258.508 E21.26444
G1 X244.499 Y258.798 E21.27452
G1 X244.194 Y259.667 E21.30516
G1 X243.814 Y260.505 E21.33576
G1 X243.495 Y261.09 E21.35792
G1 X243.391 Y261.267 E21.36475
G1 X242.891 Y262.04 E21.39537
G1 X242.233 Y262.873 E21.43068
G1 X242.101 Y263.024 E21.43735
G1 X241.465 Y263.691 E21.468
G1 X240.699 Y264.359 E21.5018
G1 X240.341 Y264.635 E21.51684
G1 X240.177 Y264.756 E21.52362
G1 X239.413 Y265.27 E21.55424
G1 X238.226 Y265.896 E21.59888
G1 X238.03 Y265.984 E21.60602
G1 X237.174 Y266.324 E21.63666
G1 X235.947 Y266.671 E21.67907
G1 X235.759 Y266.712 E21.68547
G1 X234.851 Y266.868 E21.71611
G1 X233.694 Y266.953 E21.7547
G1 X232.518 Y266.973 E21.79382
G1 X167.085 Y266.973 E23.97013
G1 X166.377 Y266.962 E23.99368
G1 X165.458 Y266.907 E24.0243
G1 X164.425 Y266.749 E24.05906
G1 X164.268 Y266.717 E24.06438
G1 X163.375 Y266.495 E24.09499
G1 X162.255 Y266.093 E24.13457
G1 X161.943 Y265.961 E24.14584
G1 X161.111 Y265.566 E24.17647
G1 X160.317 Y265.1 E24.20709
G1 X159.848 Y264.778 E24.22601
G1 X159.684 Y264.659 E24.23275
G1 X158.963 Y264.087 E24.26336
G1 X158.045 Y263.187 E24.30612
G1 X157.923 Y263.052 E24.31217
G1 X157.336 Y262.343 E24.34279
G1 X156.705 Y261.411 E24.38022
G1 X156.572 Y261.19 E24.3888
G1 X156.132 Y260.381 E24.41943
G1 X155.649 Y259.226 E24.46107
G1 X155.565 Y258.986 E24.46953
G1 X155.299 Y258.104 E24.50017
G1 X155.046 Y256.751 E24.54595
G1 X155.013 Y256.477 E24.55513
G1 X154.944 Y255.607 E24.58415
G1 X154.938 Y255.447 E24.58948
G1 X154.931 Y255.138 E24.59976
G1 X154.928 Y254.775 E24.61183
G1 X154.929 Y145.305 E28.25282
G1 X154.939 Y144.611 E28.27591
G1 X154.983 Y143.785 E28.30342
G1 X155.001 Y143.591 E28.3099
G1 X155.126 Y142.679 E28.34051
G1 X155.41 Y141.501 E28.38082
G1 X155.482 Y141.263 E28.38909
G1 X155.787 Y140.394 E28.41972
G1 X156.342 Y139.221 E28.46288
G1 X156.484 Y138.963 E28.47267
G1 X156.962 Y138.176 E28.5033
G1 X157.507 Y137.434 E28.53392
G1 X157.829 Y137.053 E28.55051
G0 F6000 X158.129 Y137.317
G1 F1200 X158.213 Y137.222 E28.55473
G1 X158.84 Y136.573 E28.58474
G1 X159.552 Y135.959 E28.61602
G1 X159.79 Y135.772 E28.62608
G1 X160.524 Y135.246 E28.65612
G1 X161.302 Y134.787 E28.68616
G1 X161.71 Y134.581 E28.70136
G1 X161.916 Y134.483 E28.70895
G1 X162.748 Y134.132 E28.73898
G1 X163.984 Y133.76 E28.78192
G1 X164.233 Y133.702 E28.79042
G1 X165.121 Y133.536 E28.82047
G1 X166.201 Y133.442 E28.85652
G1 X166.697 Y133.428 E28.87303
G1 X167.019 Y133.426 E28.88374
G1 X232.896 Y133.428 E31.07481
G1 X233.596 Y133.438 E31.0981
G1 X234.497 Y133.491 E31.12812
G1 X235.503 Y133.646 E31.16197
G1 X235.722 Y133.691 E31.16941
G1 X236.598 Y133.911 E31.19945
G1 X237.667 Y134.298 E31.23726
G1 X237.897 Y134.396 E31.24558
G1 X238.712 Y134.787 E31.27564
G1 X239.851 Y135.497 E31.32028
G1 X239.986 Y135.594 E31.32581
G1 X240.695 Y136.152 E31.35582
G1 X241.482 Y136.908 E31.39212
G1 X241.715 Y137.157 E31.40346
G1 X242.302 Y137.843 E31.43349
G1 X242.826 Y138.578 E31.46351
G1 X243.155 Y139.122 E31.48466
G1 X243.222 Y139.241 E31.4892
G1 X243.63 Y140.047 E31.51925
G1 X243.879 Y140.648 E31.54088
G1 X243.98 Y140.916 E31.55041
G1 X244.26 Y141.774 E31.58043
G1 X244.464 Y142.654 E31.61047
G1 X244.572 Y143.377 E31.63479
G1 X244.599 Y143.618 E31.64285
G1 X244.656 Y144.39 E31.6686
G1 X244.667 Y144.797 E31.68214
G1 X244.672 Y145.249 E31.69717
G1 X244.671 Y254.685 E35.33703
G1 X244.661 Y255.382 E35.36021
G1 X244.618 Y256.178 E35.38673
G1 X244.6 Y256.372 E35.39321
G1 X244.477 Y257.267 E35.42326
G1 X244.205 Y258.392 E35.46175
G1 X244.117 Y258.682 E35.47183
G1 X243.816 Y259.534 E35.50189
G1 X243.442 Y260.355 E35.53189
G1 X243.15 Y260.887 E35.55208
G1 X243.046 Y261.064 E35.5589
G1 X242.555 Y261.822 E35.58894
G1 X241.931 Y262.61 E35.62237
G1 X241.799 Y262.761 E35.62905
G1 X241.176 Y263.414 E35.65906
G1 X240.451 Y264.045 E35.69103
G1 X240.104 Y264.313 E35.70561
G1 X239.94 Y264.434 E35.71239
G1 X239.19 Y264.937 E35.74243
G1 X238.062 Y265.531 E35.78483
G1 X237.866 Y265.619 E35.79197
G1 X237.026 Y265.952 E35.82203
G1 X235.861 Y266.28 E35.86228
G1 X235.673 Y266.321 E35.86868
G1 X234.783 Y266.474 E35.89872
G1 X233.687 Y266.553 E35.93527
G1 X232.518 Y266.573 E35.97415
G1 X167.092 Y266.573 E38.15023
G1 X166.384 Y266.562 E38.17378
G1 X165.482 Y266.508 E38.20384
G1 X164.505 Y266.358 E38.23671
G1 X164.348 Y266.326 E38.24204
G1 X163.472 Y266.106 E38.27208
G1 X162.411 Y265.725 E38.30958
G1 X162.099 Y265.593 E38.32085
G1 X161.283 Y265.205 E38.3509
G1 X160.506 Y264.746 E38.38091
G1 X160.083 Y264.455 E38.39799
G1 X159.919 Y264.336 E38.40473
G1 X159.212 Y263.773 E38.43479
G1 X158.341 Y262.919 E38.47536
G1 X158.219 Y262.784 E38.48141
G1 X157.644 Y262.088 E38.51144
G1 X157.048 Y261.204 E38.5469
G1 X156.915 Y260.983 E38.55548
G1 X156.484 Y260.19 E38.5855
G1 X156.027 Y259.094 E38.62499
G1 X155.943 Y258.854 E38.63345
G1 X155.682 Y257.989 E38.6635
G1 X155.443 Y256.704 E38.70697
G1 X155.41 Y256.43 E38.71615
G1 X155.344 Y255.592 E38.74411
G1 X155.338 Y255.432 E38.74944
G1 X155.331 Y255.134 E38.75935
G1 X155.328 Y254.771 E38.77142
G1 X155.329 Y145.311 E42.41208
G1 X155.339 Y144.617 E42.43516
G1 X155.382 Y143.822 E42.46164
G1 X155.4 Y143.628 E42.46812
G1 X155.523 Y142.733 E42.49817
G1 X155.793 Y141.616 E42.53639
G1 X155.865 Y141.378 E42.54466
G1 X156.164 Y140.526 E42.5747
G1 X156.692 Y139.414 E42.61564
G1 X156.834 Y139.156 E42.62543
G1 X157.304 Y138.385 E42.65547
G1 X158.129 Y137.317 E42.70035
G1 F2400 E39.70035
;MESH:wall_plate.stl
G0 F6000 X198.136 Y169.059
G0 X196.722 Y168.681
G0 X197.02 Y170.776
G0 X197.424 Y171.598
G0 X198.052 Y172.278
G0 X198.752 Y172.687
G0 X200.146 Y173.118
;TYPE:WALL-INNER
G1 F2400 E42.70035
G1 F1200 X200.462 Y173.088 E42.71091
G1 X200.83 Y173.015 E42.72339
G1 X201.129 Y172.922 E42.7338
G1 X201.405 Y172.803 E42.7438
G1 X201.691 Y172.651 E42.75457
G1 X201.98 Y172.457 E42.76615
G1 X202.239 Y172.239 E42.77741
G1 X202.48 Y171.989 E42.78896
G1 X202.769 Y171.606 E42.80492
G1 X202.95 Y171.278 E42.81738
G1 X203.122 Y170.856 E42.83253
G1 X203.207 Y170.542 E42.84335
G1 X203.273 Y170.072 E42.85914
G1 X203.281 Y169.72 E42.87085
G1 X203.25 Y169.362 E42.8828
G1 X203.164 Y168.959 E42.89651
G1 X203.045 Y168.607 E42.90886
G1 X202.909 Y168.32 E42.91943
G1 X202.761 Y168.058 E42.92944
G1 X202.585 Y167.813 E42.93947
G1 X202.362 Y167.558 E42.95074
G1 X202.152 Y167.359 E42.96036
G1 X201.863 Y167.134 E42.97254
G1 X201.611 Y166.977 E42.98242
G1 X201.236 Y166.796 E42.99626
G1 X200.959 Y166.696 E43.00606
G1 X200.675 Y166.625 E43.0158
G1 X200.37 Y166.573 E43.02609
G1 X199.92 Y166.554 E43.04107
G1 X199.606 Y166.577 E43.05154
G1 X199.149 Y166.665 E43.06702
G1 X198.825 Y166.772 E43.07837
G1 X198.545 Y166.895 E43.08854
G1 X198.4 Y166.969 E43.09395
G1 X198.141 Y167.132 E43.10413
G1 X197.908 Y167.307 E43.11382
G1 X197.618 Y167.579 E43.12705
G1 X197.377 Y167.862 E43.13941
G1 X197.19 Y168.141 E43.15058
G1 X197.026 Y168.447 E43.16213
G1 X196.903 Y168.744 E43.17282
G1 X196.795 Y169.126 E43.18602
G1 X196.739 Y169.46 E43.19729
G1 X196.718 Y169.778 E43.20789
G1 X196.728 Y170.108 E43.21887
G1 X196.793 Y170.538 E43.23333
G1 X196.867 Y170.825 E43.24319
G1 X196.981 Y171.133 E43.25411
G1 X197.128 Y171.429 E43.26511
G1 X197.291 Y171.689 E43.27531
G1 X197.485 Y171.95 E43.28613
G1 X197.683 Y172.163 E43.2958
G1 X197.952 Y172.403 E43.30779
G1 X198.217 Y172.595 E43.31868
G1 X198.509 Y172.761 E43.32985
G1 X198.769 Y172.881 E43.33937
G1 X199.092 Y172.994 E43.35075
G1 X199.381 Y173.062 E43.36063
G1 X199.741 Y173.11 E43.37271
G1 X200.146 Y173.118 E43.38618
G0 F6000 X200.131 Y172.718
;TYPE:WALL-OUTER
G1 F1200 X200.404 Y172.692 E43.3953
G1 X200.731 Y172.627 E43.40639
G1 X200.99 Y172.546 E43.41542
G1 X201.232 Y172.442 E43.42418
G1 X201.485 Y172.307 E43.43372
G1 X201.739 Y172.137 E43.44388
G1 X201.965 Y171.946 E43.45372
G1 X202.175 Y171.729 E43.46377
G1 X202.432 Y171.388 E43.47797
G1 X202.588 Y171.105 E43.48872
G1 X202.742 Y170.728 E43.50226
G1 X202.814 Y170.461 E43.51146
G1 X202.874 Y170.039 E43.52564
G1 X202.881 Y169.733 E43.53582
G1 X202.854 Y169.421 E43.54623
G1 X202.778 Y169.065 E43.55834
G1 X202.674 Y168.757 E43.56915
G1 X202.554 Y168.504 E43.57847
G1 X202.424 Y168.274 E43.58725
G1 X202.271 Y168.062 E43.59595
G1 X202.073 Y167.835 E43.60597
G1 X201.891 Y167.663 E43.6143
G1 X201.634 Y167.462 E43.62515
G1 X201.418 Y167.328 E43.6336
G1 X201.081 Y167.165 E43.64605
G1 X200.843 Y167.079 E43.65447
G1 X200.593 Y167.017 E43.66304
G1 X200.328 Y166.972 E43.67198
G1 X199.926 Y166.955 E43.68536
G1 X199.658 Y166.974 E43.6943
G1 X199.25 Y167.053 E43.70812
G1 X198.968 Y167.146 E43.71799
G1 X198.717 Y167.256 E43.72711
G1 X198.599 Y167.317 E43.73153
G1 X198.368 Y167.462 E43.7406
G1 X198.166 Y167.614 E43.74901
G1 X197.908 Y167.856 E43.76077
G1 X197.696 Y168.104 E43.77162
G1 X197.533 Y168.347 E43.78136
G1 X197.388 Y168.618 E43.79158
G1 X197.282 Y168.875 E43.80082
G1 X197.186 Y169.214 E43.81254
G1 X197.137 Y169.507 E43.82242
G1 X197.118 Y169.785 E43.83169
G1 X197.127 Y170.072 E43.84124
G1 X197.185 Y170.458 E43.85422
G1 X197.249 Y170.705 E43.86271
G1 X197.349 Y170.974 E43.87226
G1 X197.478 Y171.234 E43.88191
G1 X197.621 Y171.463 E43.89089
G1 X197.793 Y171.693 E43.90044
G1 X197.964 Y171.877 E43.9088
G1 X198.203 Y172.091 E43.91947
G1 X198.434 Y172.258 E43.92895
G1 X198.692 Y172.405 E43.93882
G1 X198.919 Y172.51 E43.94714
G1 X199.204 Y172.609 E43.95718
G1 X199.454 Y172.668 E43.96572
G1 X199.772 Y172.711 E43.97639
G1 X200.131 Y172.718 E43.98834
G0 F6000 X200.147 Y173.157
G1 F2400 E40.98834
G0 F6000 X199.726 Y173.301
G0 X199.85 Y171.85
G0 X199.726 Y188.473
G0 X199.726 Y187.018
G0 X194.238 Y187.38
G0 X194.066 Y212.792
;TYPE:WALL-INNER
G1 F2400 E43.98834
G1 F1200 X205.934 Y212.792 E44.38307
G1 X205.934 Y187.208 E45.23399
G1 X194.066 Y187.208 E45.62873
G1 X194.066 Y212.792 E46.47965
G0 F6000 X194.466 Y212.392
;TYPE:WALL-OUTER
G1 F1200 X205.534 Y212.392 E46.84778
G1 X205.534 Y187.608 E47.6721
G1 X194.466 Y187.608 E48.04022
G1 X194.466 Y212.392 E48.86454
G1 F2400 E45.86454
G0 F6000 X194.166 Y212.392
G0 X200.146 Y212.982
G0 X200.146 Y211.527
G0 X199.948 Y228.144
G0 X199.917 Y226.688
