;FLAVOR:Marlin
;TIME:14990
;Filament used: 10.4821m
;Layer height: 0.2
;MINX:167.235
;MINY:172.544
;MINZ:0.2
;MAXX:232.764
;MAXY:228.932
;MAXZ:76.2
;Generated with Cura_SteamEngine master
M140 S50
M105
M190 S50
M104 S200
M105
M109 S200
M82 ;absolute extrusion mode
M201 X500.00 Y500.00 Z100.00 E5000.00 ;Setup machine max acceleration
M203 X500.00 Y500.00 Z10.00 E50.00 ;Setup machine max feedrate
M204 P500.00 R1000.00 T500.00 ;Setup Print/Retract/Travel acceleration
M205 X8.00 Y8.00 Z0.40 E5.00 ;Setup Jerk
M220 S100 ;Reset Feedrate
M221 S100 ;Reset Flowrate

G28 ;Home

G92 E0 ;Reset Extruder
G1 Z2.0 F3000 ;Move Z Axis up
G1 X10.1 Y20 Z0.28 F5000.0 ;Move to start position
G1 X10.1 Y200.0 Z0.28 F1500.0 E15 ;Draw the first line
G1 X10.4 Y200.0 Z0.28 F5000.0 ;Move to side a little
G1 X10.4 Y20 Z0.28 F1500.0 E30 ;Draw the second line
G92 E0 ;Reset Extruder
G1 Z2.0 F3000 ;Move Z Axis up

G92 E0
G92 E0
G1 F2700 E-5
;LAYER_COUNT:381
;LAYER:0
M107
G0 F6000 X171.539 Y176.813 Z0.2
;TYPE:SKIRT
G1 F2700 E0
G1 F1200 X172.247 Y176.153 E0.03219
G1 X172.541 Y175.902 E0.04505
G1 X173.265 Y175.335 E0.07564
G1 X173.368 Y175.261 E0.07985
G1 X173.937 Y174.878 E0.10267
G1 X174.109 Y174.77 E0.10942
G1 X174.603 Y174.477 E0.12853
G1 X174.856 Y174.336 E0.13816
G1 X175.355 Y174.075 E0.15689
G1 X175.479 Y174.014 E0.16149
G1 X176.015 Y173.768 E0.1811
G1 X176.207 Y173.686 E0.18804
G1 X176.969 Y173.393 E0.2152
G1 X177.32 Y173.273 E0.22754
G1 X178.359 Y172.974 E0.2635
G1 X178.495 Y172.942 E0.26814
G1 X178.801 Y172.875 E0.27856
G1 X179.059 Y172.822 E0.28732
G1 X180.046 Y172.666 E0.32056
G1 X180.153 Y172.654 E0.32414
G1 X180.809 Y172.6 E0.34603
G1 X181.426 Y172.568 E0.36658
G1 X181.832 Y172.554 E0.38009
G1 X182.602 Y172.544 E0.4057
G1 X185.74 Y172.546 E0.51007
G1 X186.414 Y172.556 E0.53249
G1 X187.651 Y172.644 E0.57374
G1 X188.655 Y172.773 E0.60741
G1 X191.169 Y173.059 E0.69156
G1 X193.675 Y173.272 E0.77521
G1 X196.207 Y173.417 E0.85957
G1 X198.692 Y173.488 E0.94225
G1 X201.216 Y173.488 E1.0262
G1 X203.741 Y173.417 E1.11022
G1 X206.257 Y173.276 E1.19403
G1 X208.787 Y173.061 E1.27848
G1 X211.285 Y172.779 E1.36209
G1 X211.737 Y172.717 E1.37727
G1 X212.425 Y172.634 E1.40032
G1 X213.373 Y172.561 E1.43194
G1 X213.757 Y172.551 E1.44472
G1 X214.303 Y172.545 E1.46288
G1 X217.921 Y172.546 E1.58321
G1 X218.236 Y172.551 E1.59369
G1 X218.685 Y172.564 E1.60863
G1 X219.603 Y172.629 E1.63924
G1 X219.948 Y172.668 E1.65079
G1 X220.604 Y172.762 E1.67283
G1 X220.73 Y172.784 E1.67708
G1 X221.311 Y172.902 E1.6968
G1 X221.506 Y172.947 E1.70346
G1 X222.399 Y173.193 E1.73427
G1 X222.847 Y173.337 E1.74992
G1 X223.857 Y173.717 E1.78581
G1 X224.143 Y173.841 E1.79618
G1 X224.643 Y174.073 E1.81451
G1 X224.734 Y174.118 E1.81789
G1 X225.827 Y174.739 E1.8597
G1 X226.313 Y175.053 E1.87894
G1 X226.989 Y175.526 E1.90638
G1 X227.051 Y175.573 E1.90897
G1 X227.645 Y176.056 E1.93443
G1 X227.883 Y176.264 E1.94495
G1 X228.528 Y176.876 E1.97452
G1 X228.636 Y176.987 E1.97967
G1 X229.058 Y177.446 E2.00041
G1 X229.315 Y177.742 E2.01345
G1 X230.025 Y178.653 E2.05186
G1 X230.148 Y178.829 E2.059
G1 X230.486 Y179.343 E2.07947
G1 X230.645 Y179.6 E2.08952
G1 X231.13 Y180.468 E2.12259
G1 X231.297 Y180.802 E2.13501
G1 X231.671 Y181.636 E2.16541
G1 X231.751 Y181.836 E2.17257
G1 X231.965 Y182.418 E2.1932
G1 X232.008 Y182.546 E2.19769
G1 X232.258 Y183.404 E2.22741
G1 X232.339 Y183.731 E2.23862
G1 X232.498 Y184.486 E2.26428
G1 X232.573 Y184.916 E2.2788
G1 X232.705 Y185.966 E2.31399
G1 X232.721 Y186.175 E2.32097
G1 X232.745 Y186.605 E2.33529
G1 X232.757 Y187.009 E2.34873
G1 X232.763 Y187.54 E2.3664
G1 X232.764 Y217.216 E3.35342
G1 X232.754 Y217.959 E3.37814
G1 X232.701 Y218.895 E3.40932
G1 X232.569 Y219.824 E3.44053
G1 X232.358 Y220.738 E3.47173
G1 X232.071 Y221.63 E3.50289
G1 X231.708 Y222.495 E3.53409
G1 X231.273 Y223.326 E3.56529
G1 X230.768 Y224.117 E3.5965
G1 X230.198 Y224.862 E3.6277
G1 X229.498 Y225.624 E3.66212
G1 X229.386 Y225.735 E3.66736
G1 X228.693 Y226.366 E3.69854
G1 X227.948 Y226.936 E3.72974
G1 X227.157 Y227.44 E3.76093
G1 X226.326 Y227.875 E3.79213
G1 X225.461 Y228.238 E3.82333
G1 X224.568 Y228.526 E3.85454
G1 X223.655 Y228.737 E3.8857
G1 X222.726 Y228.869 E3.91691
G1 X222.014 Y228.916 E3.94065
G1 X221.629 Y228.926 E3.95345
G1 X221.086 Y228.932 E3.97152
G1 X178.903 Y228.931 E5.37453
G1 X178.2 Y228.921 E5.39791
G1 X177.263 Y228.868 E5.42913
G1 X176.335 Y228.735 E5.46031
G1 X175.421 Y228.523 E5.49151
G1 X174.529 Y228.235 E5.52269
G1 X173.664 Y227.871 E5.5539
G1 X172.834 Y227.435 E5.58509
G1 X172.043 Y226.93 E5.6163
G1 X171.299 Y226.36 E5.64747
G1 X170.509 Y225.63 E5.68325
G1 X170.398 Y225.517 E5.68852
G1 X169.77 Y224.821 E5.7197
G1 X169.203 Y224.073 E5.75092
G1 X168.702 Y223.28 E5.78211
G1 X168.271 Y222.448 E5.81328
G1 X167.912 Y221.581 E5.84449
G1 X167.628 Y220.687 E5.87569
G1 X167.422 Y219.773 E5.90685
G1 X167.294 Y218.843 E5.93807
G1 X167.251 Y218.186 E5.95997
G1 X167.239 Y217.738 E5.97488
G1 X167.235 Y217.209 E5.99247
G1 X167.239 Y187.569 E6.9783
G1 X167.249 Y186.849 E7.00225
G1 X167.262 Y186.437 E7.01596
G1 X167.301 Y185.888 E7.03427
G1 X167.328 Y185.606 E7.04369
G1 X167.421 Y184.885 E7.06787
G1 X167.457 Y184.664 E7.07532
G1 X167.634 Y183.8 E7.10465
G1 X167.774 Y183.273 E7.12279
G1 X167.843 Y183.037 E7.13097
G1 X168.051 Y182.399 E7.15329
G1 X168.227 Y181.91 E7.17057
G1 X168.704 Y180.785 E7.21121
G1 X168.732 Y180.728 E7.21333
G1 X169.064 Y180.104 E7.23683
G1 X169.204 Y179.86 E7.24619
G1 X169.577 Y179.256 E7.2698
G1 X169.819 Y178.891 E7.28437
G1 X170.437 Y178.048 E7.31913
G1 X170.624 Y177.817 E7.32902
G1 X171.324 Y177.032 E7.364
G1 X171.539 Y176.813 E7.37421
G0 F6000 X171.825 Y177.093
G1 F1200 X172.506 Y176.457 E7.4052
G1 X172.8 Y176.206 E7.41806
G1 X173.498 Y175.659 E7.44755
G1 X173.601 Y175.585 E7.45177
G1 X174.149 Y175.217 E7.47373
G1 X174.321 Y175.109 E7.48048
G1 X174.798 Y174.827 E7.49891
G1 X175.051 Y174.686 E7.50854
G1 X175.532 Y174.434 E7.5266
G1 X175.656 Y174.373 E7.5312
G1 X176.172 Y174.136 E7.55009
G1 X176.364 Y174.054 E7.55703
G1 X177.098 Y173.772 E7.58318
G1 X177.449 Y173.652 E7.59552
G1 X178.45 Y173.364 E7.63017
G1 X178.881 Y173.267 E7.64486
G1 X179.139 Y173.214 E7.65362
G1 X180.091 Y173.063 E7.68568
G1 X180.198 Y173.051 E7.68926
G1 X180.83 Y172.999 E7.71035
G1 X181.447 Y172.967 E7.7309
G1 X181.838 Y172.954 E7.74391
G1 X182.602 Y172.944 E7.76933
G1 X185.734 Y172.946 E7.8735
G1 X186.408 Y172.956 E7.89592
G1 X187.6 Y173.041 E7.93566
G1 X188.557 Y173.164 E7.96775
G1 X191.127 Y173.456 E8.05378
G1 X193.652 Y173.671 E8.13807
G1 X196.174 Y173.815 E8.22209
G1 X198.716 Y173.888 E8.30667
G1 X201.227 Y173.888 E8.39019
G1 X203.774 Y173.817 E8.47493
G1 X206.279 Y173.676 E8.55838
G1 X208.795 Y173.462 E8.64237
G1 X211.351 Y173.173 E8.72792
G1 X211.784 Y173.114 E8.74245
G1 X212.472 Y173.031 E8.7655
G1 X213.386 Y172.961 E8.79599
G1 X213.761 Y172.951 E8.80847
G1 X214.303 Y172.945 E8.8265
G1 X217.921 Y172.946 E8.94683
G1 X218.225 Y172.95 E8.95694
G1 X218.674 Y172.963 E8.97188
G1 X219.558 Y173.026 E9.00136
G1 X219.903 Y173.065 E9.01291
G1 X220.535 Y173.156 E9.03415
G1 X220.661 Y173.178 E9.0384
G1 X221.222 Y173.291 E9.05743
G1 X221.417 Y173.336 E9.06409
G1 X222.277 Y173.573 E9.09376
G1 X222.725 Y173.717 E9.10941
G1 X223.698 Y174.084 E9.144
G1 X223.984 Y174.208 E9.15437
G1 X224.466 Y174.431 E9.17203
G1 X224.557 Y174.476 E9.17541
G1 X225.61 Y175.075 E9.2157
G1 X226.096 Y175.389 E9.23495
G1 X226.748 Y175.845 E9.26141
G1 X226.81 Y175.892 E9.264
G1 X227.381 Y176.358 E9.28851
G1 X227.619 Y176.566 E9.29902
G1 X228.241 Y177.155 E9.32751
G1 X228.349 Y177.266 E9.33266
G1 X228.756 Y177.709 E9.35267
G1 X229.013 Y178.005 E9.36571
G1 X229.697 Y178.882 E9.4027
G1 X229.82 Y179.058 E9.40985
G1 X230.146 Y179.553 E9.42956
G1 X230.305 Y179.81 E9.43961
G1 X230.772 Y180.647 E9.47149
G1 X230.939 Y180.981 E9.48391
G1 X231.3 Y181.784 E9.51319
G1 X231.38 Y181.984 E9.52036
G1 X231.586 Y182.545 E9.54023
G1 X231.629 Y182.673 E9.54472
G1 X231.87 Y183.5 E9.57337
G1 X231.951 Y183.827 E9.58458
G1 X232.104 Y184.555 E9.60932
G1 X232.179 Y184.985 E9.62384
G1 X232.306 Y185.997 E9.65776
G1 X232.322 Y186.206 E9.66473
G1 X232.346 Y186.62 E9.67853
G1 X232.357 Y187.014 E9.69164
G1 X232.363 Y187.54 E9.70913
G1 X232.364 Y217.211 E10.69599
G1 X232.354 Y217.954 E10.72071
G1 X232.302 Y218.873 E10.75132
G1 X232.17 Y219.784 E10.78194
G1 X231.959 Y220.68 E10.81256
G1 X231.672 Y221.555 E10.84318
G1 X231.31 Y222.401 E10.87379
G1 X230.875 Y223.213 E10.90443
G1 X230.372 Y223.984 E10.93505
G1 X229.804 Y224.708 E10.96565
G1 X229.217 Y225.34 E10.99434
G1 X229.105 Y225.451 E10.99959
G1 X228.423 Y226.07 E11.03022
G1 X227.691 Y226.628 E11.06083
G1 X226.912 Y227.119 E11.09146
G1 X226.094 Y227.542 E11.12209
G1 X225.243 Y227.892 E11.15269
G1 X224.364 Y228.167 E11.18333
G1 X223.465 Y228.364 E11.21394
G1 X222.552 Y228.483 E11.24456
G1 X222.001 Y228.516 E11.26292
G1 X221.625 Y228.526 E11.27543
G1 X221.086 Y228.532 E11.29336
G1 X178.908 Y228.531 E12.69621
G1 X178.205 Y228.521 E12.71959
G1 X177.286 Y228.468 E12.75021
G1 X176.375 Y228.335 E12.78083
G1 X175.479 Y228.124 E12.81144
G1 X174.605 Y227.836 E12.84205
G1 X173.758 Y227.473 E12.8727
G1 X172.947 Y227.038 E12.90331
G1 X172.176 Y226.534 E12.93395
G1 X171.452 Y225.966 E12.96455
G1 X170.794 Y225.35 E12.99453
G1 X170.683 Y225.237 E12.9998
G1 X170.067 Y224.553 E13.03042
G1 X169.513 Y223.818 E13.06103
G1 X169.024 Y223.037 E13.09168
G1 X168.605 Y222.218 E13.12227
G1 X168.259 Y221.365 E13.15289
G1 X167.988 Y220.485 E13.18351
G1 X167.795 Y219.585 E13.21413
G1 X167.68 Y218.671 E13.24477
G1 X167.651 Y218.172 E13.26139
G1 X167.639 Y217.734 E13.27597
G1 X167.635 Y217.209 E13.29343
G1 X167.639 Y187.575 E14.27906
G1 X167.649 Y186.855 E14.30301
G1 X167.662 Y186.455 E14.31632
G1 X167.699 Y185.926 E14.33396
G1 X167.726 Y185.644 E14.34338
G1 X167.816 Y184.95 E14.36666
G1 X167.852 Y184.729 E14.3741
G1 X168.022 Y183.895 E14.40241
G1 X168.04 Y183.822 E14.40491
G1 X168.158 Y183.385 E14.41997
G1 X168.227 Y183.149 E14.42815
G1 X168.427 Y182.534 E14.44966
G1 X168.603 Y182.045 E14.46694
G1 X169.063 Y180.961 E14.50611
G1 X169.091 Y180.904 E14.50822
G1 X169.411 Y180.303 E14.53087
G1 X169.551 Y180.059 E14.54022
G1 X169.91 Y179.477 E14.56297
G1 X170.152 Y179.112 E14.57753
G1 X170.748 Y178.299 E14.61106
G1 X170.935 Y178.068 E14.62095
G1 X171.61 Y177.312 E14.65465
G1 X171.825 Y177.093 E14.66486
G0 F6000 X172.11 Y177.373
G1 F1200 X172.766 Y176.762 E14.69468
G1 X173.06 Y176.511 E14.70754
G1 X173.732 Y175.984 E14.73594
G1 X173.835 Y175.91 E14.74016
G1 X174.362 Y175.556 E14.76127
G1 X174.534 Y175.448 E14.76803
G1 X174.992 Y175.176 E14.78575
G1 X175.245 Y175.035 E14.79538
G1 X175.709 Y174.793 E14.81279
G1 X175.833 Y174.732 E14.81738
G1 X176.329 Y174.504 E14.83554
G1 X176.521 Y174.422 E14.84248
G1 X177.227 Y174.15 E14.86765
G1 X177.578 Y174.03 E14.87998
G1 X178.542 Y173.753 E14.91334
G1 X178.678 Y173.721 E14.91799
G1 X178.962 Y173.659 E14.92766
G1 X179.22 Y173.606 E14.93642
G1 X180.135 Y173.461 E14.96723
G1 X180.242 Y173.449 E14.97081
G1 X180.851 Y173.399 E14.99114
G1 X181.468 Y173.367 E15.01169
G1 X181.844 Y173.354 E15.0242
G1 X182.601 Y173.344 E15.04938
G1 X185.728 Y173.346 E15.15338
G1 X186.402 Y173.356 E15.1758
G1 X187.549 Y173.438 E15.21405
G1 X188.459 Y173.555 E15.24457
G1 X191.119 Y173.858 E15.33361
G1 X193.632 Y174.071 E15.41749
G1 X196.14 Y174.215 E15.50105
G1 X198.704 Y174.288 E15.58636
G1 X201.238 Y174.288 E15.67064
G1 X203.773 Y174.217 E15.75499
G1 X206.3 Y174.075 E15.83917
G1 X208.873 Y173.857 E15.92505
G1 X211.373 Y173.574 E16.00874
G1 X211.832 Y173.511 E16.02415
G1 X212.52 Y173.428 E16.04719
G1 X213.4 Y173.361 E16.07655
G1 X213.766 Y173.351 E16.08873
G1 X214.303 Y173.345 E16.10659
G1 X217.921 Y173.346 E16.22692
G1 X218.213 Y173.35 E16.23664
G1 X218.662 Y173.363 E16.25158
G1 X219.513 Y173.424 E16.27995
G1 X219.858 Y173.463 E16.2915
G1 X220.466 Y173.55 E16.31193
G1 X220.592 Y173.572 E16.31618
G1 X221.132 Y173.681 E16.33451
G1 X221.327 Y173.726 E16.34116
G1 X222.154 Y173.954 E16.36969
G1 X222.602 Y174.098 E16.38535
G1 X223.538 Y174.451 E16.41862
G1 X223.824 Y174.575 E16.42899
G1 X224.288 Y174.79 E16.44599
G1 X224.379 Y174.835 E16.44937
G1 X225.393 Y175.411 E16.48816
G1 X225.879 Y175.725 E16.5074
G1 X226.506 Y176.164 E16.53286
G1 X226.568 Y176.211 E16.53545
G1 X227.118 Y176.659 E16.55904
G1 X227.356 Y176.867 E16.56955
G1 X227.955 Y177.434 E16.59699
G1 X228.063 Y177.545 E16.60214
G1 X228.454 Y177.971 E16.62137
G1 X228.711 Y178.267 E16.63441
G1 X229.37 Y179.111 E16.67002
G1 X229.493 Y179.287 E16.67717
G1 X229.806 Y179.764 E16.69614
G1 X229.965 Y180.021 E16.70619
G1 X230.414 Y180.825 E16.73682
G1 X230.581 Y181.159 E16.74924
G1 X230.928 Y181.933 E16.77745
G1 X231.008 Y182.133 E16.78462
G1 X231.207 Y182.673 E16.80376
G1 X231.25 Y182.801 E16.80825
G1 X231.482 Y183.597 E16.83583
G1 X231.563 Y183.924 E16.84703
G1 X231.71 Y184.623 E16.87079
G1 X231.785 Y185.053 E16.88531
G1 X231.907 Y186.027 E16.91796
G1 X231.923 Y186.236 E16.92493
G1 X231.946 Y186.635 E16.93822
G1 X231.957 Y187.019 E16.951
G1 X231.963 Y187.54 E16.96833
G1 X231.964 Y217.205 E17.95499
G1 X231.954 Y217.948 E17.9797
G1 X231.902 Y218.85 E18.00975
G1 X231.77 Y219.743 E18.03978
G1 X231.56 Y220.622 E18.06984
G1 X231.273 Y221.478 E18.09986
G1 X230.911 Y222.305 E18.12989
G1 X230.478 Y223.098 E18.15994
G1 X229.976 Y223.849 E18.18999
G1 X229.41 Y224.552 E18.22
G1 X228.935 Y225.056 E18.24304
G1 X228.823 Y225.167 E18.24828
G1 X228.154 Y225.773 E18.27831
G1 X227.434 Y226.319 E18.30836
G1 X226.669 Y226.798 E18.33838
G1 X225.864 Y227.208 E18.36843
G1 X225.026 Y227.545 E18.39847
G1 X224.162 Y227.806 E18.42849
G1 X223.277 Y227.99 E18.45855
G1 X221.987 Y228.116 E18.50166
G1 X221.62 Y228.126 E18.51387
G1 X221.086 Y228.132 E18.53164
G1 X178.914 Y228.131 E19.93428
G1 X178.211 Y228.121 E19.95767
G1 X177.309 Y228.068 E19.98772
G1 X176.416 Y227.936 E20.01774
G1 X175.538 Y227.725 E20.04778
G1 X174.682 Y227.437 E20.07782
G1 X173.855 Y227.075 E20.10784
G1 X173.063 Y226.641 E20.13788
G1 X172.312 Y226.139 E20.16792
G1 X171.609 Y225.572 E20.19796
G1 X171.079 Y225.07 E20.22224
G1 X170.968 Y224.957 E20.22751
G1 X170.365 Y224.285 E20.25754
G1 X169.823 Y223.563 E20.28757
G1 X169.347 Y222.795 E20.31762
G1 X168.941 Y221.989 E20.34764
G1 X168.607 Y221.149 E20.3777
G1 X168.35 Y220.284 E20.40772
G1 X168.17 Y219.399 E20.43775
G1 X168.051 Y218.159 E20.47919
G1 X168.039 Y217.73 E20.49346
G1 X168.035 Y217.209 E20.51079
G1 X168.039 Y187.58 E21.49625
G1 X168.049 Y186.86 E21.5202
G1 X168.062 Y186.473 E21.53308
G1 X168.097 Y185.964 E21.55005
G1 X168.124 Y185.682 E21.55947
G1 X168.211 Y185.014 E21.58188
G1 X168.247 Y184.793 E21.58933
G1 X168.411 Y183.991 E21.61655
G1 X168.542 Y183.498 E21.63352
G1 X168.611 Y183.262 E21.6417
G1 X168.804 Y182.67 E21.66241
G1 X168.98 Y182.181 E21.67969
G1 X169.422 Y181.138 E21.71737
G1 X169.45 Y181.081 E21.71948
G1 X169.758 Y180.502 E21.7413
G1 X169.898 Y180.258 E21.75065
G1 X170.244 Y179.698 E21.77255
G1 X170.486 Y179.333 E21.78711
G1 X171.059 Y178.551 E21.81936
G1 X171.246 Y178.32 E21.82924
G1 X171.895 Y177.592 E21.86168
G1 X172.11 Y177.373 E21.87189
G1 F2700 E16.87189
G0 F6000 X178.84 Y184.176
G0 X179.428 Y184.811
;TYPE:SUPPORT-INTERFACE
G1 F2700 E21.87189
G1 F1200 X179.678 Y184.579 E21.88323
G1 X179.702 Y184.558 E21.88429
G1 X179.98 Y184.35 E21.89584
G1 X179.995 Y184.342 E21.89641
G1 X180.217 Y184.21 E21.905
G1 X180.225 Y184.206 E21.90529
G1 X180.459 Y184.086 E21.91404
G1 X180.492 Y184.071 E21.91525
G1 X180.932 Y183.917 E21.93075
G1 X180.953 Y183.912 E21.93147
G1 X181.35 Y183.827 E21.94497
G1 X181.364 Y183.825 E21.94544
G1 X181.836 Y183.792 E21.96118
G1 X186.179 Y183.792 E22.10563
G1 X186.179 Y185.149 E22.15076
G1 X181.805 Y185.149 E22.29624
G1 X181.727 Y185.155 E22.29884
G1 X181.4 Y185.198 E22.30981
G1 X181.23 Y185.24 E22.31564
G1 X181.037 Y185.327 E22.32268
G1 X180.427 Y185.327 E22.34297
G1 X180.028 Y185.726 E22.36174
G1 X180.028 Y186.337 E22.38206
G1 X179.888 Y186.735 E22.39609
G1 X179.852 Y186.934 E22.40282
G1 X179.843 Y207.772 E23.09589
G1 X179.842 Y217.732 E23.42716
G1 X178.483 Y217.732 E23.47236
G1 X178.486 Y187.01 E24.49418
G1 X178.486 Y186.99 E24.49485
