;FLAVOR:Marlin
;TIME:33090
;Filament used: 23.7807m
;Layer height: 0.16
;MINX:81.85
;MINY:116.931
;MINZ:0.2
;MAXX:218.15
;MAXY:183.069
;MAXZ:92.48
;Generated with Cura_SteamEngine master
M140 S70
M105
M190 S70
M104 S200
M105
M109 S200
M82 ;absolute extrusion mode
M201 X500.00 Y500.00 Z100.00 E5000.00 ;Setup machine max acceleration
M203 X500.00 Y500.00 Z10.00 E50.00 ;Setup machine max feedrate
M204 P500.00 R1000.00 T500.00 ;Setup Print/Retract/Travel acceleration
M205 X8.00 Y8.00 Z0.40 E5.00 ;Setup Jerk
M220 S100 ;Reset Feedrate
M221 S100 ;Reset Flowrate

G28 ;Home

G92 E0 ;Reset Extruder
G1 Z2.0 F3000 ;Move Z Axis up
G1 X10.1 Y20 Z0.28 F5000.0 ;Move to start position
G1 X10.1 Y200.0 Z0.28 F1500.0 E15 ;Draw the first line
G1 X10.4 Y200.0 Z0.28 F5000.0 ;Move to side a little
G1 X10.4 Y20 Z0.28 F1500.0 E30 ;Draw the second line
G92 E0 ;Reset Extruder
G1 Z2.0 F3000 ;Move Z Axis up

G92 E0
G92 E0
G1 F2700 E-5
;LAYER_COUNT:464
;LAYER:0
M107
G0 F6000 X86.476 Y118.985 Z0.2
;TYPE:SKIRT
G1 F2700 E0
G1 F1200 X87.262 Y118.473 E0.0312
G1 X88.089 Y118.031 E0.06239
G1 X88.951 Y117.661 E0.09359
G1 X89.841 Y117.365 E0.12478
G1 X90.753 Y117.147 E0.15597
G1 X91.68 Y117.006 E0.18716
G1 X92.551 Y116.947 E0.21619
G1 X92.872 Y116.938 E0.22687
G1 X93.18 Y116.934 E0.23712
G1 X130.95 Y116.934 E1.49335
G1 X130.993 Y116.931 E1.49479
G1 X131.92 Y116.935 E1.52562
G1 X132.093 Y116.934 E1.53138
G1 X149.163 Y116.937 E2.09913
G1 X149.249 Y116.932 E2.10199
G1 X150.067 Y116.936 E2.1292
G1 X150.281 Y116.934 E2.13632
G1 X206.443 Y116.934 E4.00427
G1 X206.601 Y116.935 E4.00953
G1 X207.299 Y116.945 E4.03274
G1 X208.235 Y116.999 E4.06393
G1 X209.163 Y117.131 E4.0951
G1 X210.077 Y117.343 E4.12631
G1 X210.969 Y117.632 E4.1575
G1 X211.834 Y117.995 E4.1887
G1 X212.664 Y118.431 E4.21988
G1 X213.455 Y118.936 E4.25109
G1 X214.199 Y119.507 E4.28229
G1 X214.892 Y120.139 E4.31348
G1 X215.529 Y120.827 E4.34467
G1 X216.104 Y121.568 E4.37586
G1 X216.615 Y122.354 E4.40704
G1 X217.057 Y123.182 E4.43826
G1 X217.426 Y124.044 E4.46945
G1 X217.721 Y124.934 E4.50063
G1 X217.939 Y125.846 E4.53182
G1 X218.079 Y126.774 E4.56304
G1 X218.137 Y127.635 E4.59174
G1 X218.146 Y127.955 E4.60239
G1 X218.15 Y128.264 E4.61266
G1 X218.149 Y171.466 E6.04957
G1 X218.14 Y172.193 E6.07375
G1 X218.089 Y173.13 E6.10496
G1 X217.957 Y174.058 E6.13614
G1 X217.748 Y174.972 E6.16732
G1 X217.461 Y175.865 E6.19852
G1 X217.099 Y176.731 E6.22974
G1 X216.665 Y177.562 E6.26092
G1 X216.161 Y178.353 E6.29211
G1 X215.592 Y179.098 E6.32329
G1 X214.961 Y179.793 E6.35452
G1 X214.274 Y180.431 E6.3857
G1 X213.535 Y181.008 E6.41688
G1 X212.749 Y181.52 E6.44808
G1 X211.923 Y181.963 E6.47926
G1 X211.061 Y182.335 E6.51048
G1 X210.172 Y182.631 E6.54165
G1 X209.26 Y182.851 E6.57285
G1 X208.333 Y182.992 E6.60404
G1 X207.449 Y183.053 E6.63351
G1 X207.128 Y183.062 E6.64419
G1 X206.82 Y183.066 E6.65444
G1 X150 Y183.067 E8.54428
G1 X149.957 Y183.069 E8.54571
G1 X148.934 Y183.065 E8.57973
G1 X131.75 Y183.065 E9.15128
G1 X131.715 Y183.067 E9.15244
G1 X130.862 Y183.064 E9.18081
G1 X130.612 Y183.066 E9.18913
G1 X93.399 Y183.065 E10.42684
G1 X92.701 Y183.055 E10.45006
G1 X91.765 Y183.001 E10.48124
G1 X90.837 Y182.869 E10.51241
G1 X89.923 Y182.657 E10.54362
G1 X89.031 Y182.368 E10.57481
G1 X88.166 Y182.005 E10.60601
G1 X87.336 Y181.569 E10.63719
G1 X86.545 Y181.064 E10.6684
G1 X85.801 Y180.493 E10.6996
G1 X85.108 Y179.861 E10.73079
G1 X84.471 Y179.173 E10.76198
G1 X83.896 Y178.432 E10.79317
G1 X83.385 Y177.646 E10.82436
G1 X82.943 Y176.818 E10.85557
G1 X82.574 Y175.956 E10.88676
G1 X82.279 Y175.066 E10.91794
G1 X82.061 Y174.154 E10.94913
G1 X81.921 Y173.226 E10.98035
G1 X81.863 Y172.354 E11.00941
G1 X81.854 Y172.022 E11.02046
G1 X81.85 Y171.724 E11.03037
G1 X81.851 Y128.459 E12.46937
G1 X81.86 Y127.794 E12.49149
G1 X81.913 Y126.858 E12.52267
G1 X82.045 Y125.929 E12.55388
G1 X82.256 Y125.015 E12.58508
G1 X82.544 Y124.123 E12.61626
G1 X82.907 Y123.258 E12.64746
G1 X83.342 Y122.427 E12.67866
G1 X83.846 Y121.637 E12.70982
G1 X84.416 Y120.892 E12.74102
G1 X85.048 Y120.198 E12.77224
G1 X85.736 Y119.561 E12.80343
G1 X86.476 Y118.985 E12.83462
G0 F6000 X86.86 Y119.204
G1 F1200 X87.641 Y118.716 E12.86525
G1 X88.461 Y118.298 E12.89586
G1 X89.315 Y117.953 E12.92649
G1 X90.195 Y117.683 E12.95711
G1 X91.095 Y117.491 E12.98772
G1 X92.009 Y117.377 E13.01835
G1 X92.562 Y117.347 E13.03677
G1 X92.883 Y117.338 E13.04745
G1 X93.18 Y117.334 E13.05733
G1 X130.948 Y117.333 E14.3135
G1 X130.992 Y117.331 E14.31497
G1 X131.922 Y117.335 E14.3459
G1 X132.093 Y117.334 E14.35159
G1 X149.137 Y117.337 E14.91847
G1 X149.247 Y117.332 E14.92213
G1 X150.068 Y117.336 E14.94944
G1 X150.284 Y117.334 E14.95663
G1 X206.443 Y117.334 E16.82448
G1 X207.293 Y117.345 E16.85275
G1 X208.212 Y117.398 E16.88337
G1 X209.123 Y117.531 E16.91399
G1 X210.019 Y117.742 E16.94461
G1 X210.893 Y118.03 E16.97522
G1 X211.74 Y118.393 E17.00587
G1 X212.551 Y118.828 E17.03647
G1 X213.321 Y119.332 E17.06708
G1 X214.045 Y119.901 E17.09771
G1 X214.717 Y120.531 E17.12835
G1 X215.332 Y121.216 E17.15897
G1 X215.885 Y121.952 E17.18958
G1 X216.372 Y122.733 E17.2202
G1 X216.789 Y123.554 E17.25082
G1 X217.134 Y124.408 E17.28146
G1 X217.403 Y125.288 E17.31206
G1 X217.595 Y126.189 E17.3427
G1 X217.708 Y127.102 E17.3733
G1 X217.737 Y127.646 E17.39142
G1 X217.746 Y127.966 E17.40207
G1 X217.75 Y128.264 E17.41198
G1 X217.749 Y171.461 E18.84872
G1 X217.74 Y172.188 E18.8729
G1 X217.689 Y173.107 E18.90352
G1 X217.558 Y174.019 E18.93416
G1 X217.348 Y174.915 E18.96477
G1 X217.062 Y175.79 E18.99539
G1 X216.701 Y176.637 E19.02601
G1 X216.267 Y177.449 E19.05663
G1 X215.765 Y178.221 E19.08726
G1 X215.197 Y178.946 E19.11789
G1 X214.569 Y179.619 E19.14851
G1 X213.885 Y180.235 E19.17912
G1 X213.15 Y180.789 E19.20974
G1 X212.37 Y181.278 E19.24036
G1 X211.55 Y181.697 E19.27098
G1 X210.697 Y182.043 E19.3016
G1 X209.817 Y182.314 E19.33223
G1 X208.917 Y182.507 E19.36284
G1 X208.003 Y182.622 E19.39348
G1 X207.438 Y182.653 E19.4123
G1 X207.117 Y182.662 E19.42298
G1 X206.82 Y182.666 E19.43286
G1 X150.003 Y182.667 E21.3226
G1 X149.959 Y182.669 E21.32407
G1 X148.936 Y182.665 E21.35809
G1 X131.76 Y182.665 E21.92937
G1 X131.716 Y182.667 E21.93083
G1 X130.86 Y182.664 E21.9593
G1 X130.609 Y182.666 E21.96765
G1 X93.405 Y182.665 E23.20506
G1 X92.707 Y182.655 E23.22828
G1 X91.788 Y182.602 E23.2589
G1 X90.877 Y182.469 E23.28952
G1 X89.981 Y182.258 E23.32013
G1 X89.107 Y181.97 E23.35074
G1 X88.26 Y181.607 E23.38139
G1 X87.449 Y181.172 E23.412
G1 X86.679 Y180.668 E23.44261
G1 X85.955 Y180.099 E23.47324
G1 X85.283 Y179.469 E23.50387
G1 X84.668 Y178.784 E23.53449
G1 X84.115 Y178.048 E23.56511
G1 X83.628 Y177.267 E23.59572
G1 X83.211 Y176.446 E23.62635
G1 X82.866 Y175.592 E23.65698
G1 X82.597 Y174.712 E23.68759
G1 X82.405 Y173.811 E23.71823
G1 X82.292 Y172.898 E23.74883
G1 X82.263 Y172.343 E23.76731
G1 X82.254 Y172.011 E23.77836
G1 X82.25 Y171.724 E23.78791
G1 X82.251 Y128.465 E25.22671
G1 X82.26 Y127.8 E25.24883
G1 X82.312 Y126.88 E25.27947
G1 X82.444 Y125.969 E25.31009
G1 X82.655 Y125.073 E25.34071
G1 X82.942 Y124.198 E25.37134
G1 X83.305 Y123.352 E25.40195
G1 X83.739 Y122.54 E25.43258
G1 X84.242 Y121.769 E25.4632
G1 X84.811 Y121.045 E25.49382
G1 X85.439 Y120.373 E25.52441
G1 X86.124 Y119.757 E25.55505
G1 X86.86 Y119.204 E25.58567
G0 F6000 X87.244 Y119.428
G1 F1200 X88.019 Y118.965 E25.6157
G1 X88.832 Y118.572 E25.64573
G1 X89.677 Y118.252 E25.67579
G1 X90.546 Y118.009 E25.7058
G1 X91.434 Y117.843 E25.73585
G1 X92.573 Y117.747 E25.77386
G1 X92.894 Y117.738 E25.78454
G1 X93.18 Y117.734 E25.79406
G1 X130.926 Y117.733 E27.04949
G1 X130.99 Y117.731 E27.05162
G1 X131.923 Y117.735 E27.08266
G1 X132.093 Y117.734 E27.08831
G1 X149.085 Y117.737 E27.65347
G1 X149.245 Y117.732 E27.65879
G1 X150.069 Y117.736 E27.6862
G1 X150.287 Y117.734 E27.69345
G1 X206.443 Y117.734 E29.5612
G1 X207.287 Y117.745 E29.58928
G1 X208.189 Y117.798 E29.61933
G1 X209.082 Y117.93 E29.64935
G1 X209.96 Y118.141 E29.67939
G1 X210.816 Y118.429 E29.70943
G1 X211.643 Y118.791 E29.73945
G1 X212.435 Y119.226 E29.76951
G1 X213.186 Y119.728 E29.79955
G1 X213.889 Y120.295 E29.82959
G1 X214.539 Y120.922 E29.85963
G1 X215.131 Y121.604 E29.88967
G1 X215.661 Y122.335 E29.9197
G1 X216.123 Y123.111 E29.94974
G1 X216.516 Y123.924 E29.97977
G1 X216.834 Y124.769 E30.0098
G1 X217.077 Y125.639 E30.03984
G1 X217.242 Y126.527 E30.06988
G1 X217.337 Y127.657 E30.1076
G1 X217.346 Y127.977 E30.11825
G1 X217.35 Y128.264 E30.12779
G1 X217.349 Y171.456 E31.56436
G1 X217.34 Y172.183 E31.58855
G1 X217.289 Y173.085 E31.6186
G1 X217.158 Y173.979 E31.64865
G1 X216.949 Y174.857 E31.67867
G1 X216.663 Y175.714 E31.70872
G1 X216.302 Y176.542 E31.73876
G1 X215.87 Y177.334 E31.76876
G1 X215.369 Y178.086 E31.79882
G1 X214.803 Y178.79 E31.82886
G1 X214.178 Y179.441 E31.85888
G1 X213.497 Y180.035 E31.88893
G1 X212.766 Y180.566 E31.91898
G1 X211.992 Y181.03 E31.949
G1 X211.179 Y181.424 E31.97905
G1 X210.335 Y181.744 E32.00907
G1 X209.465 Y181.989 E32.03913
G1 X208.578 Y182.155 E32.06915
G1 X207.427 Y182.253 E32.10757
G1 X207.106 Y182.262 E32.11825
G1 X206.82 Y182.266 E32.12776
G1 X150.024 Y182.267 E34.0168
G1 X149.96 Y182.269 E34.01893
G1 X148.937 Y182.265 E34.05296
G1 X131.78 Y182.265 E34.6236
G1 X131.717 Y182.267 E34.6257
G1 X130.859 Y182.264 E34.65424
G1 X130.607 Y182.266 E34.66262
G1 X93.411 Y182.265 E35.89976
G1 X92.713 Y182.255 E35.92298
G1 X91.811 Y182.202 E35.95303
G1 X90.918 Y182.07 E35.98306
G1 X90.04 Y181.859 E36.01309
G1 X89.184 Y181.571 E36.04313
G1 X88.357 Y181.209 E36.07315
G1 X87.565 Y180.774 E36.10321
G1 X86.814 Y180.272 E36.13325
G1 X86.111 Y179.705 E36.16329
G1 X85.461 Y179.078 E36.19333
G1 X84.869 Y178.396 E36.22337
G1 X84.339 Y177.665 E36.2534
G1 X83.877 Y176.889 E36.28344
G1 X83.484 Y176.076 E36.31347
G1 X83.166 Y175.231 E36.3435
G1 X82.923 Y174.361 E36.37354
G1 X82.758 Y173.473 E36.40358
G1 X82.663 Y172.332 E36.44167
G1 X82.654 Y172 E36.45271
G1 X82.65 Y171.724 E36.46189
G1 X82.651 Y128.47 E37.90053
G1 X82.66 Y127.805 E37.92265
G1 X82.712 Y126.903 E37.9527
G1 X82.844 Y126.01 E37.98272
G1 X83.054 Y125.132 E38.01275
G1 X83.341 Y124.275 E38.04281
G1 X83.703 Y123.448 E38.07283
G1 X84.136 Y122.656 E38.10285
G1 X84.638 Y121.905 E38.1329
G1 X85.205 Y121.201 E38.16296
G1 X85.831 Y120.551 E38.19298
G1 X86.512 Y119.958 E38.22301
G1 X87.244 Y119.428 E38.25307
G1 F2700 E33.25307
G0 F6000 X131.107 Y127.273
G0 X132.75 Y128.934
G1 F2700 E38.25307
G1 F1200 X148.2 Y128.937 E38.76694
G1 X148.2 Y129.315 E38.77951
G1 X132.75 Y129.315 E39.29338
G1 X132.75 Y128.934 E39.30605
G0 F6000 X132.35 Y128.534
G1 F1200 X148.6 Y128.537 E39.84653
G1 X148.6 Y129.715 E39.88571
G1 X132.35 Y129.715 E40.42619
G1 X132.35 Y128.534 E40.46547
G0 F6000 X131.95 Y128.134
G1 F1200 X149 Y128.137 E41.03255
G1 X149 Y130.115 E41.09834
G1 X131.95 Y130.115 E41.66543
G1 X131.95 Y128.134 E41.73132
G1 F2700 E36.73132
G0 F6000 X131.95 Y169.885
G1 F2700 E41.73132
G1 F1200 X149 Y169.885 E42.2984
G1 X149 Y171.866 E42.36429
G1 X131.95 Y171.865 E42.93138
G1 X131.95 Y169.885 E42.99723
G0 F6000 X132.35 Y170.285
G1 F1200 X148.6 Y170.285 E43.53771
G1 X148.6 Y171.466 E43.57699
G1 X132.35 Y171.465 E44.11747
G1 X132.35 Y170.285 E44.15671
G0 F6000 X132.75 Y170.685
G1 F1200 X148.2 Y170.685 E44.67058
G1 X148.2 Y171.066 E44.68325
G1 X132.75 Y171.065 E45.19712
G1 X132.75 Y170.685 E45.20976
G1 F2700 E40.20976
;MESH:half-lap_narrow-half_narrow_cross.scad.stl
G0 F6000 X194.12 Y135.163
G0 X194.12 Y136.998
G0 X195.475 Y136.256
G0 X195.482 Y134.533
G0 X194.514 Y132.707
G0 X192.821 Y132.71
G0 X192.347 Y133.711
;TYPE:WALL-INNER
G1 F2700 E45.20976
G1 F1200 X192.128 Y133.711 E45.21705
G1 X192.127 Y133.711 E45.21708
G1 X191.525 Y133.711 E45.2371
G1 X191.525 Y132.162 E45.28862
G1 X188.688 Y132.162 E45.38298
G1 X188.688 Y136.408 E45.5242
G1 X188.688 Y136.45 E45.5256
G1 X188.611 Y136.408 E45.52681
G1 X188.611 Y136.45
G1 X188.611 Y139.602 E45.63164
G1 X192.734 Y141.846 E45.78777
G1 X192.953 Y141.965 E45.79606
G1 X193.96 Y142.514 E45.8342
G1 X192.824 Y142.193 E45.85424
G1 X192.583 Y142.125 E45.86172
G1 X192.572 Y142.375 E45.86678
G1 X192.53 Y143.243 E45.89568
G1 X192.51 Y143.689 E45.91053
G1 X192.192 Y143.376 E45.91859
G1 X191.986 Y143.172 E45.92823
G1 X191.432 Y142.77 E45.951
G1 X190.7 Y142.379 E45.9786
G1 X188.688 Y142.379 E46.04552
G1 X188.688 Y148.29 E46.24212
G1 X191.602 Y148.29 E46.33904
G1 X191.602 Y147.604 E46.36186
G1 X191.602 Y147.316 E46.37144
G1 X191.602 Y147.174 E46.37616
G1 X191.73 Y147.316 E46.37817
G1 X191.951 Y147.5 E46.38479
G1 X192.285 Y147.777 E46.39922
G1 X192.935 Y148.106 E46.42345
G1 X193.7 Y148.232 E46.44924
G1 X194.721 Y148.012 E46.48397
G1 X195.517 Y147.339 E46.51864
G1 X195.991 Y146.409 E46.55336
G1 X196.133 Y145.332 E46.58949
G1 X195.988 Y144.273 E46.62504
G1 X195.809 Y143.938 E46.63768
G1 X195.499 Y143.354 E46.65967
G1 X195.492 Y143.349 E46.65995
G1 X196.073 Y143.665 E46.67145
G1 X196.286 Y143.781 E46.67951
G1 X196.58 Y143.941 E46.69064
G1 X196.58 Y143.607 E46.69698
G1 X196.58 Y143.606 E46.69701
G1 X196.58 Y140.749 E46.79204
G1 X191.525 Y137.996 E46.98349
G1 X191.525 Y136.828 E47.02233
G1 X196.047 Y136.828 E47.17274
G1 X196.047 Y134.237 E47.25891
G1 X195.36 Y133.764 E47.28665
G1 X195.247 Y133.615 E47.29287
G1 X195.169 Y133.405 E47.30032
G1 X195.022 Y132.136 E47.34281
G1 X192.406 Y132.136 E47.42982
G1 X192.405 Y132.136 E47.42986
G1 X192.186 Y132.136 E47.43714
G1 X192.208 Y132.354 E47.44173
G1 X192.325 Y133.493 E47.47981
G1 X192.347 Y133.711 E47.48441
G0 F6000 X192.752 Y133.733
G1 F1200 X192.754 Y133.755 E47.48514
G1 X192.869 Y134.111 E47.49758
G1 X192.754 Y134.111
G1 X192.731 Y134.111 E47.49832
G1 X191.125 Y134.111 E47.55174
G1 X191.125 Y132.562 E47.60326
G1 X189.088 Y132.562 E47.67101
G1 X189.088 Y137.082 E47.82134
G1 X189.088 Y137.124 E47.82274
G1 X189.011 Y137.082 E47.82394
G1 X189.011 Y137.124
G1 X189.011 Y139.364 E47.89845
G1 X195.886 Y143.108 E48.15882
G1 X196.18 Y143.268 E48.16995
G1 X196.18 Y142.934 E48.17629
G1 X196.18 Y142.933 E48.17632
G1 X196.18 Y140.987 E48.24105
G1 X190.831 Y138.073 E48.44364
G1 X190.144 Y137.699 E48.46966
G1 X190.926 Y137.699 E48.48307
G1 X190.927 Y137.699 E48.4831
G1 X191.125 Y137.699 E48.48969
G1 X191.125 Y136.428 E48.53196
G1 X195.647 Y136.428 E48.68236
G1 X195.647 Y134.447 E48.74825
G1 X195.081 Y134.058 E48.7711
G1 X194.892 Y133.808 E48.78152
G1 X194.778 Y133.502 E48.79238
G1 X194.773 Y133.452 E48.79405
G1 X194.666 Y132.536 E48.82473
G1 X192.85 Y132.536 E48.88513
G1 X192.849 Y132.536 E48.88516
G1 X192.629 Y132.536 E48.89248
G1 X192.651 Y132.755 E48.89708
G1 X192.752 Y133.733 E48.92979
G0 F6000 X193.156 Y134.311
G0 X193.526 Y134.509
G0 X193.596 Y134.546
G0 X193.53 Y134.511
;TYPE:WALL-OUTER
G1 F1200 X190.725 Y134.511 E49.02308
G1 X190.725 Y132.962 E49.0746
G1 X189.488 Y132.962 E49.11574
G1 X189.488 Y137.299 E49.25999
G1 X190.725 Y137.299 E49.30114
G1 X190.725 Y136.028 E49.34341
G1 X195.247 Y136.028 E49.49381
G1 X195.247 Y134.657 E49.53941
G1 X194.801 Y134.35 E49.55742
G1 X194.537 Y134.001 E49.57197
G1 X194.387 Y133.599 E49.58625
G1 X194.31 Y132.936 E49.60845
G1 X193.072 Y132.936 E49.64962
G1 X193.148 Y133.672 E49.67423
G1 X193.315 Y134.189 E49.6923
G1 X193.53 Y134.511 E49.70518
G1 F2700 E44.70518
G0 F6000 X193.596 Y134.546
G0 X194.038 Y134.705
G0 X194.038 Y136.228
G0 X191.823 Y136.238
G0 X190.953 Y137.527
G0 X189.399 Y137.508
G0 X195.533 Y140.894
G0 X196.08 Y142.595
G0 X195.78 Y142.595
G1 F2700 E49.70518
G1 F1200 X195.78 Y141.225 E49.75075
G1 X189.411 Y137.755 E49.99198
G1 X189.411 Y139.126 E50.03758
G1 X195.78 Y142.595 E50.2788
G0 F6000 X196.08 Y142.595
G0 X196 Y142.967
G0 X193.124 Y142.876
G0 X191.622 Y143.6
G0 X191.133 Y143.247
G0 X190.56 Y142.941
G0 X189.26 Y142.951
G0 X189.26 Y147.718
G0 X191.03 Y147.718
G0 X191.202 Y146.092
;TYPE:WALL-INNER
G1 F1200 X191.543 Y146.512 E50.29679
G1 X191.593 Y146.567 E50.29926
G1 X192.008 Y147.027 E50.31987
G1 X192.506 Y147.44 E50.34139
G1 X193.061 Y147.721 E50.36208
G1 X193.69 Y147.825 E50.38328
G1 X194.539 Y147.642 E50.41217
G1 X195.197 Y147.086 E50.44082
G1 X195.603 Y146.289 E50.47057
G1 X195.729 Y145.333 E50.50264
G1 X195.601 Y144.398 E50.53403
