;FLAVOR:Marlin
;TIME:31899
;Filament used: 22.3522m
;Layer height: 0.16
;MINX:81.85
;MINY:116.931
;MINZ:0.2
;MAXX:218.15
;MAXY:183.069
;MAXZ:92.48
;Generated with Cura_SteamEngine master
M140 S70
M105
M190 S70
M104 S200
M105
M109 S200
M82 ;absolute extrusion mode
M201 X500.00 Y500.00 Z100.00 E5000.00 ;Setup machine max acceleration
M203 X500.00 Y500.00 Z10.00 E50.00 ;Setup machine max feedrate
M204 P500.00 R1000.00 T500.00 ;Setup Print/Retract/Travel acceleration
M205 X8.00 Y8.00 Z0.40 E5.00 ;Setup Jerk
M220 S100 ;Reset Feedrate
M221 S100 ;Reset Flowrate

G28 ;Home

G92 E0 ;Reset Extruder
G1 Z2.0 F3000 ;Move Z Axis up
G1 X10.1 Y20 Z0.28 F5000.0 ;Move to start position
G1 X10.1 Y200.0 Z0.28 F1500.0 E15 ;Draw the first line
G1 X10.4 Y200.0 Z0.28 F5000.0 ;Move to side a little
G1 X10.4 Y20 Z0.28 F1500.0 E30 ;Draw the second line
G92 E0 ;Reset Extruder
G1 Z2.0 F3000 ;Move Z Axis up

G92 E0
G92 E0
G1 F2700 E-5
;LAYER_COUNT:464
;LAYER:0
M107
G0 F6000 X86.476 Y118.985 Z0.2
;TYPE:SKIRT
G1 F2700 E0
G1 F1200 X87.262 Y118.473 E0.0312
G1 X88.089 Y118.031 E0.06239
G1 X88.951 Y117.661 E0.09359
G1 X89.841 Y117.365 E0.12478
G1 X90.753 Y117.147 E0.15597
G1 X91.68 Y117.006 E0.18716
G1 X92.551 Y116.947 E0.21619
G1 X92.872 Y116.938 E0.22687
G1 X93.18 Y116.934 E0.23712
G1 X130.95 Y116.934 E1.49335
G1 X130.993 Y116.931 E1.49479
G1 X131.929 Y116.935 E1.52592
G1 X132.102 Y116.934 E1.53167
G1 X168.219 Y116.937 E2.73293
G1 X168.287 Y116.933 E2.7352
G1 X169.093 Y116.936 E2.762
G1 X169.322 Y116.934 E2.76962
G1 X206.601 Y116.935 E4.00953
G1 X207.299 Y116.945 E4.03274
G1 X208.235 Y116.999 E4.06393
G1 X209.163 Y117.131 E4.0951
G1 X210.077 Y117.343 E4.12631
G1 X210.969 Y117.632 E4.1575
G1 X211.834 Y117.995 E4.1887
G1 X212.664 Y118.431 E4.21988
G1 X213.455 Y118.936 E4.25109
G1 X214.199 Y119.507 E4.28229
G1 X214.892 Y120.139 E4.31348
G1 X215.529 Y120.827 E4.34467
G1 X216.104 Y121.568 E4.37586
G1 X216.615 Y122.354 E4.40704
G1 X217.057 Y123.182 E4.43826
G1 X217.426 Y124.044 E4.46945
G1 X217.721 Y124.934 E4.50063
G1 X217.939 Y125.846 E4.53182
G1 X218.079 Y126.774 E4.56304
G1 X218.137 Y127.635 E4.59174
G1 X218.146 Y127.955 E4.60238
G1 X218.15 Y128.264 E4.61266
G1 X218.149 Y171.466 E6.04957
G1 X218.14 Y172.193 E6.07375
G1 X218.089 Y173.13 E6.10496
G1 X217.957 Y174.058 E6.13614
G1 X217.748 Y174.972 E6.16732
G1 X217.461 Y175.865 E6.19852
G1 X217.099 Y176.731 E6.22974
G1 X216.665 Y177.562 E6.26092
G1 X216.161 Y178.353 E6.29211
G1 X215.592 Y179.098 E6.32329
G1 X214.961 Y179.793 E6.35451
G1 X214.274 Y180.431 E6.3857
G1 X213.535 Y181.008 E6.41688
G1 X212.749 Y181.52 E6.44808
G1 X211.923 Y181.963 E6.47926
G1 X211.061 Y182.335 E6.51048
G1 X210.172 Y182.631 E6.54165
G1 X209.26 Y182.851 E6.57285
G1 X208.333 Y182.992 E6.60404
G1 X207.449 Y183.053 E6.63351
G1 X207.128 Y183.062 E6.64419
G1 X206.82 Y183.066 E6.65443
G1 X169.05 Y183.066 E7.91067
G1 X169.007 Y183.069 E7.9121
G1 X167.982 Y183.065 E7.9462
G1 X131.75 Y183.065 E9.15128
G1 X131.714 Y183.067 E9.15248
G1 X130.866 Y183.064 E9.18068
G1 X130.616 Y183.066 E9.189
G1 X93.399 Y183.065 E10.42684
G1 X92.701 Y183.055 E10.45006
G1 X91.765 Y183.001 E10.48124
G1 X90.837 Y182.869 E10.51242
G1 X89.923 Y182.657 E10.54362
G1 X89.031 Y182.368 E10.57481
G1 X88.166 Y182.005 E10.60601
G1 X87.336 Y181.569 E10.63719
G1 X86.545 Y181.064 E10.66841
G1 X85.801 Y180.493 E10.6996
G1 X85.108 Y179.861 E10.73079
G1 X84.471 Y179.173 E10.76198
G1 X83.896 Y178.432 E10.79317
G1 X83.385 Y177.646 E10.82436
G1 X82.943 Y176.818 E10.85557
G1 X82.574 Y175.956 E10.88676
G1 X82.279 Y175.066 E10.91795
G1 X82.061 Y174.154 E10.94913
G1 X81.921 Y173.226 E10.98035
G1 X81.863 Y172.354 E11.00941
G1 X81.854 Y172.022 E11.02046
G1 X81.85 Y171.724 E11.03037
G1 X81.851 Y128.459 E12.46937
G1 X81.86 Y127.794 E12.49149
G1 X81.913 Y126.858 E12.52267
G1 X82.045 Y125.929 E12.55388
G1 X82.256 Y125.015 E12.58508
G1 X82.544 Y124.123 E12.61626
G1 X82.907 Y123.258 E12.64746
G1 X83.342 Y122.427 E12.67866
G1 X83.846 Y121.637 E12.70982
G1 X84.416 Y120.892 E12.74102
G1 X85.048 Y120.198 E12.77224
G1 X85.736 Y119.561 E12.80343
G1 X86.476 Y118.985 E12.83462
G0 F6000 X86.86 Y119.204
G1 F1200 X87.641 Y118.716 E12.86525
G1 X88.461 Y118.298 E12.89586
G1 X89.315 Y117.953 E12.92649
G1 X90.195 Y117.683 E12.95711
G1 X91.095 Y117.491 E12.98772
G1 X92.009 Y117.377 E13.01835
G1 X92.562 Y117.347 E13.03677
G1 X92.883 Y117.338 E13.04745
G1 X93.18 Y117.334 E13.05733
G1 X130.948 Y117.333 E14.3135
G1 X130.992 Y117.331 E14.31497
G1 X131.931 Y117.335 E14.3462
G1 X132.102 Y117.334 E14.35189
G1 X168.199 Y117.337 E15.55248
G1 X168.286 Y117.333 E15.55537
G1 X169.095 Y117.336 E15.58228
G1 X169.325 Y117.334 E15.58993
G1 X206.595 Y117.335 E16.82954
G1 X207.293 Y117.345 E16.85275
G1 X208.212 Y117.398 E16.88337
G1 X209.123 Y117.531 E16.91399
G1 X210.019 Y117.742 E16.94461
G1 X210.893 Y118.03 E16.97522
G1 X211.74 Y118.393 E17.00587
G1 X212.551 Y118.828 E17.03647
G1 X213.321 Y119.332 E17.06708
G1 X214.045 Y119.901 E17.09771
G1 X214.717 Y120.531 E17.12835
G1 X215.332 Y121.216 E17.15897
G1 X215.885 Y121.952 E17.18958
G1 X216.372 Y122.733 E17.2202
G1 X216.789 Y123.554 E17.25082
G1 X217.134 Y124.408 E17.28146
G1 X217.403 Y125.288 E17.31206
G1 X217.595 Y126.189 E17.3427
G1 X217.708 Y127.102 E17.3733
G1 X217.737 Y127.646 E17.39142
G1 X217.746 Y127.966 E17.40207
G1 X217.75 Y128.264 E17.41198
G1 X217.749 Y171.461 E18.84872
G1 X217.74 Y172.188 E18.8729
G1 X217.689 Y173.107 E18.90352
G1 X217.558 Y174.019 E18.93416
G1 X217.348 Y174.915 E18.96477
G1 X217.062 Y175.79 E18.99539
G1 X216.701 Y176.637 E19.02601
G1 X216.267 Y177.449 E19.05663
G1 X215.765 Y178.221 E19.08726
G1 X215.197 Y178.946 E19.11789
G1 X214.569 Y179.619 E19.14851
G1 X213.885 Y180.235 E19.17912
G1 X213.15 Y180.789 E19.20974
G1 X212.37 Y181.278 E19.24036
G1 X211.55 Y181.697 E19.27098
G1 X210.697 Y182.043 E19.3016
G1 X209.817 Y182.314 E19.33223
G1 X208.917 Y182.507 E19.36284
G1 X208.003 Y182.622 E19.39348
G1 X207.438 Y182.653 E19.4123
G1 X207.117 Y182.662 E19.42298
G1 X206.82 Y182.666 E19.43286
G1 X169.053 Y182.667 E20.689
G1 X169.009 Y182.669 E20.69046
G1 X167.984 Y182.665 E20.72455
G1 X131.76 Y182.665 E21.92937
G1 X131.716 Y182.667 E21.93083
G1 X130.865 Y182.664 E21.95914
G1 X130.613 Y182.666 E21.96752
G1 X93.405 Y182.665 E23.20506
G1 X92.707 Y182.655 E23.22828
G1 X91.788 Y182.602 E23.2589
G1 X90.877 Y182.469 E23.28952
G1 X89.981 Y182.258 E23.32013
G1 X89.107 Y181.97 E23.35074
G1 X88.26 Y181.607 E23.38139
G1 X87.449 Y181.172 E23.412
G1 X86.679 Y180.668 E23.44261
G1 X85.955 Y180.099 E23.47324
G1 X85.283 Y179.469 E23.50387
G1 X84.668 Y178.784 E23.53449
G1 X84.115 Y178.048 E23.56511
G1 X83.628 Y177.267 E23.59572
G1 X83.211 Y176.446 E23.62635
G1 X82.866 Y175.592 E23.65698
G1 X82.597 Y174.712 E23.68759
G1 X82.405 Y173.811 E23.71823
G1 X82.292 Y172.898 E23.74883
G1 X82.263 Y172.343 E23.76731
G1 X82.254 Y172.011 E23.77836
G1 X82.25 Y171.724 E23.78791
G1 X82.251 Y128.465 E25.22671
G1 X82.26 Y127.8 E25.24883
G1 X82.312 Y126.88 E25.27947
G1 X82.444 Y125.969 E25.31009
G1 X82.655 Y125.073 E25.34071
G1 X82.942 Y124.198 E25.37134
G1 X83.305 Y123.352 E25.40195
G1 X83.739 Y122.54 E25.43258
G1 X84.242 Y121.769 E25.4632
G1 X84.811 Y121.045 E25.49382
G1 X85.439 Y120.373 E25.52441
G1 X86.124 Y119.757 E25.55505
G1 X86.86 Y119.204 E25.58567
G0 F6000 X87.244 Y119.428
G1 F1200 X88.019 Y118.965 E25.6157
G1 X88.832 Y118.572 E25.64573
G1 X89.677 Y118.252 E25.67579
G1 X90.546 Y118.009 E25.7058
G1 X91.434 Y117.843 E25.73584
G1 X92.573 Y117.747 E25.77386
G1 X92.894 Y117.738 E25.78454
G1 X93.18 Y117.734 E25.79406
G1 X130.926 Y117.733 E27.04949
G1 X130.99 Y117.731 E27.05162
G1 X131.933 Y117.735 E27.08299
G1 X132.102 Y117.734 E27.08861
G1 X168.157 Y117.737 E28.2878
G1 X168.284 Y117.733 E28.29203
G1 X169.096 Y117.736 E28.31904
G1 X169.328 Y117.734 E28.32675
G1 X206.589 Y117.735 E29.56606
G1 X207.287 Y117.745 E29.58928
G1 X208.189 Y117.798 E29.61933
G1 X209.082 Y117.93 E29.64935
G1 X209.96 Y118.141 E29.67939
G1 X210.816 Y118.429 E29.70943
G1 X211.643 Y118.791 E29.73945
G1 X212.435 Y119.226 E29.76951
G1 X213.186 Y119.728 E29.79955
G1 X213.889 Y120.295 E29.82959
G1 X214.539 Y120.922 E29.85963
G1 X215.131 Y121.604 E29.88967
G1 X215.661 Y122.335 E29.9197
G1 X216.123 Y123.111 E29.94973
G1 X216.516 Y123.924 E29.97977
G1 X216.834 Y124.769 E30.0098
G1 X217.077 Y125.639 E30.03984
G1 X217.242 Y126.527 E30.06988
G1 X217.337 Y127.657 E30.1076
G1 X217.346 Y127.977 E30.11825
G1 X217.35 Y128.264 E30.12779
G1 X217.349 Y171.456 E31.56436
G1 X217.34 Y172.183 E31.58855
G1 X217.289 Y173.085 E31.61859
G1 X217.158 Y173.979 E31.64865
G1 X216.949 Y174.857 E31.67867
G1 X216.663 Y175.714 E31.70871
G1 X216.302 Y176.542 E31.73876
G1 X215.87 Y177.334 E31.76876
G1 X215.369 Y178.086 E31.79882
G1 X214.803 Y178.79 E31.82886
G1 X214.178 Y179.441 E31.85888
G1 X213.497 Y180.035 E31.88893
G1 X212.766 Y180.566 E31.91898
G1 X211.992 Y181.03 E31.949
G1 X211.179 Y181.424 E31.97905
G1 X210.335 Y181.744 E32.00907
G1 X209.465 Y181.989 E32.03913
G1 X208.578 Y182.155 E32.06914
G1 X207.427 Y182.253 E32.10757
G1 X207.106 Y182.262 E32.11825
G1 X206.82 Y182.266 E32.12776
G1 X169.074 Y182.267 E33.3832
G1 X169.01 Y182.269 E33.38533
G1 X167.985 Y182.265 E33.41942
G1 X131.78 Y182.265 E34.6236
G1 X131.717 Y182.267 E34.6257
G1 X130.863 Y182.264 E34.6541
G1 X130.61 Y182.266 E34.66252
G1 X93.411 Y182.265 E35.89976
G1 X92.713 Y182.255 E35.92298
G1 X91.811 Y182.202 E35.95303
G1 X90.918 Y182.07 E35.98306
G1 X90.04 Y181.859 E36.01309
G1 X89.184 Y181.571 E36.04313
G1 X88.357 Y181.209 E36.07315
G1 X87.565 Y180.774 E36.10321
G1 X86.814 Y180.272 E36.13325
G1 X86.111 Y179.705 E36.16329
G1 X85.461 Y179.078 E36.19333
G1 X84.869 Y178.396 E36.22337
G1 X84.339 Y177.665 E36.2534
G1 X83.877 Y176.889 E36.28344
G1 X83.484 Y176.076 E36.31347
G1 X83.166 Y175.231 E36.3435
G1 X82.923 Y174.361 E36.37354
G1 X82.758 Y173.473 E36.40358
G1 X82.663 Y172.332 E36.44166
G1 X82.654 Y172 E36.45271
G1 X82.65 Y171.724 E36.46189
G1 X82.651 Y128.47 E37.90053
G1 X82.66 Y127.805 E37.92265
G1 X82.712 Y126.903 E37.9527
G1 X82.844 Y126.01 E37.98272
G1 X83.054 Y125.132 E38.01275
G1 X83.341 Y124.275 E38.04281
G1 X83.703 Y123.448 E38.07283
G1 X84.136 Y122.656 E38.10285
G1 X84.638 Y121.905 E38.1329
G1 X85.205 Y121.201 E38.16296
G1 X85.831 Y120.551 E38.19298
G1 X86.512 Y119.958 E38.22301
G1 X87.244 Y119.428 E38.25307
G1 F2700 E33.25307
G0 F6000 X131.107 Y127.273
G0 X132.75 Y128.934
G1 F2700 E38.25307
G1 F1200 X167.25 Y128.937 E39.40055
G1 X167.25 Y129.315 E39.41312
G1 X132.75 Y129.315 E40.56059
G1 X132.75 Y128.934 E40.57326
G0 F6000 X132.35 Y128.534
G1 F1200 X167.65 Y128.537 E41.74735
G1 X167.65 Y129.715 E41.78653
G1 X132.35 Y129.715 E42.96061
G1 X132.35 Y128.534 E42.99989
G0 F6000 X131.95 Y128.134
G1 F1200 X168.05 Y128.137 E44.20058
G1 X168.05 Y130.115 E44.26637
G1 X131.95 Y130.115 E45.46706
G1 X131.95 Y128.134 E45.53295
G1 F2700 E40.53295
G0 F6000 X131.95 Y169.885
G1 F2700 E45.53295
G1 F1200 X168.05 Y169.885 E46.73364
G1 X168.05 Y171.866 E46.79953
G1 X131.95 Y171.865 E48.00022
G1 X131.95 Y169.885 E48.06607
G0 F6000 X132.35 Y170.285
G1 F1200 X167.65 Y170.285 E49.24016
G1 X167.65 Y171.466 E49.27944
G1 X132.35 Y171.465 E50.45352
G1 X132.35 Y170.285 E50.49277
G0 F6000 X132.75 Y170.685
G1 F1200 X167.25 Y170.685 E51.64024
G1 X167.25 Y171.066 E51.65291
G1 X132.75 Y171.065 E52.80039
G1 X132.75 Y170.685 E52.81303
G1 F2700 E47.81303
;MESH:half-lap_narrow-narrow_cross.scad.stl
G0 F6000 X188.956 Y144.182
G0 X189.934 Y142.625
G0 X190.604 Y143.374
;TYPE:WALL-INNER
G1 F2700 E52.81303
G1 F1200 X190.399 Y143.172 E52.8226
G1 X189.843 Y142.77 E52.84542
G1 X189.112 Y142.379 E52.87299
G1 X187.1 Y142.379 E52.93991
G1 X187.1 Y149.952 E53.19179
G1 X187.631 Y150.319 E53.21326
G1 X187.871 Y150.484 E53.22295
G1 X187.629 Y150.646 E53.22862
G1 X187.1 Y151.002 E53.24983
G1 X187.1 Y153.344 E53.32772
G1 X188.193 Y153.897 E53.36847
G1 X188.243 Y153.861 E53.37052
G1 X188.243 Y153.897
G1 X188.243 Y155.034 E53.40833
G1 X187.1 Y155.034 E53.44635
G1 X187.1 Y158.101 E53.54836
G1 X188.243 Y158.101 E53.58637
G1 X188.243 Y158.863 E53.61172
G1 X191.081 Y158.863 E53.70611
G1 X191.081 Y158.101 E53.73145
G1 X194.459 Y158.101 E53.84381
G1 X194.459 Y155.336 E53.93577
G1 X192.565 Y154.011 E54.01265
G1 X192.29 Y153.819 E54.02381
G1 X192.591 Y153.67 E54.03017
G1 X193.392 Y153.273 E54.0599
G1 X193.392 Y150.9 E54.13883
G1 X193.014 Y150.646 E54.15397
G1 X192.772 Y150.483 E54.16368
G1 X193.012 Y150.317 E54.16937
G1 X193.392 Y150.054 E54.18474
G1 X193.392 Y147.794 E54.2599
G1 X193.929 Y147.341 E54.28327
G1 X194.404 Y146.409 E54.31806
G1 X194.545 Y145.332 E54.35419
G1 X194.401 Y144.273 E54.38974
G1 X193.911 Y143.354 E54.42438
G1 X193.085 Y142.716 E54.45909
G1 X191.236 Y142.193 E54.523
G1 X190.995 Y142.125 E54.53133
G1 X190.984 Y142.375 E54.53639
G1 X190.943 Y143.242 E54.56526
G1 X190.922 Y143.688 E54.58011
G1 X190.604 Y143.374 E54.58818
G0 F6000 X190.14 Y143.478
G1 F1200 X189.631 Y143.11 E54.60907
G1 X189.012 Y142.779 E54.63242
G1 X187.5 Y142.779 E54.68271
G1 X187.5 Y147.89 E54.8527
G1 X187.5 Y147.893 E54.8528
G1 X187.5 Y149.742 E54.9143
G1 X188.341 Y150.322 E54.94828
G1 X188.582 Y150.488 E54.95801
G1 X188.339 Y150.651 E54.96371
G1 X187.5 Y151.215 E54.99733
G1 X187.5 Y153.098 E55.05996
G1 X188.156 Y153.43 E55.08442
G1 X188.327 Y153.305 E55.09146
G1 X188.643 Y153.076 E55.10444
G1 X188.643 Y153.466 E55.11164
G1 X188.643 Y153.467 E55.11168
G1 X188.643 Y155.434 E55.1771
G1 X187.5 Y155.434 E55.21512
G1 X187.5 Y157.701 E55.29052
G1 X188.643 Y157.701 E55.32853
G1 X188.643 Y158.463 E55.35388
G1 X190.681 Y158.463 E55.42166
G1 X190.681 Y157.701 E55.44701
G1 X194.059 Y157.701 E55.55936
G1 X194.059 Y155.544 E55.6311
G1 X190.27 Y152.894 E55.78489
G1 X189.505 Y152.894 E55.81033
G1 X189.504 Y152.894 E55.81036
G1 X188.893 Y152.894 E55.83069
G1 X189.387 Y152.534 E55.84135
G1 X190.328 Y151.849 E55.88006
G1 X192.326 Y153.355 E55.96328
G1 X192.992 Y153.025 E55.988
G1 X192.992 Y151.113 E56.05159
G1 X192.304 Y150.65 E56.07918
G1 X192.062 Y150.488 E56.08886
G1 X192.302 Y150.322 E56.09455
G1 X192.992 Y149.844 E56.12247
G1 X192.992 Y147.966 E56.18493
G1 X192.829 Y147.884 E56.191
G1 X192.531 Y147.733 E56.20211
G1 X192.923 Y147.649 E56.20756
G1 X192.951 Y147.642
G1 X193.609 Y147.087 E56.23619
G1 X194.016 Y146.289 E56.26598
G1 X194.141 Y145.333 E56.29805
G1 X194.014 Y144.398 E56.32943
G1 X193.598 Y143.618 E56.35883
G1 X192.902 Y143.08 E56.38809
G1 X191.612 Y142.715 E56.43268
G1 X191.371 Y142.647 E56.44101
G1 X191.36 Y142.897 E56.44607
G1 X191.298 Y144.215 E56.48996
G1 X191.279 Y144.642 E56.50417
G1 X191.276 Y144.703 E56.5062
G1 X191.223 Y144.64 E56.50688
G1 X190.943 Y144.317 E56.51541
G1 X190.659 Y143.99 E56.52982
G1 X190.14 Y143.478 E56.55407
G1 F2700 E51.55407
G0 F6000 X188.971 Y142.941
G0 X187.672 Y142.951
G0 X187.672 Y147.718
G0 X189.442 Y147.718
G0 X189.448 Y145.632
G0 X189.214 Y145.059
;TYPE:WALL-OUTER
G1 F2700 E56.55407
G1 F1200 X189.406 Y145.223 E56.56247
G1 X189.736 Y145.607 E56.57931
G1 X190.259 Y146.252 E56.60692
G1 X190.698 Y146.737 E56.62868
G1 X191.138 Y147.103 E56.64772
G1 X191.599 Y147.336 E56.6649
G1 X192.093 Y147.418 E56.68155
G1 X192.769 Y147.272 E56.70456
G1 X193.289 Y146.833 E56.72719
G1 X193.628 Y146.169 E56.75199
G1 X193.737 Y145.334 E56.77999
G1 X193.627 Y144.523 E56.80722
G1 X193.285 Y143.882 E56.83138
G1 X192.719 Y143.444 E56.85518
G1 X191.747 Y143.169 E56.88878
G1 X191.677 Y144.693 E56.93952
G1 X192.128 Y144.83 E56.9552
G1 X192.299 Y144.945 E56.96205
G1 X192.405 Y145.1 E56.9683
G1 X192.444 Y145.337 E56.97629
G1 X192.41 Y145.597 E56.98501
G1 X192.317 Y145.756 E56.99114
G1 X192.204 Y145.838 E56.99578
G1 X192.034 Y145.868 E57.00152
G1 X191.925 Y145.853 E57.00518
G1 X191.801 Y145.792 E57.00978
G1 X191.667 Y145.707 E57.01506
G1 X191.518 Y145.574 E57.0217
G1 X191.283 Y145.334 E57.03287
G1 X190.919 Y144.9 E57.05171
G1 X190.367 Y144.264 E57.07972
G1 X189.881 Y143.784 E57.10244
G1 X189.419 Y143.45 E57.1214
G1 X188.912 Y143.179 E57.14052
G1 X187.9 Y143.179 E57.17418
G1 X187.9 Y147.49 E57.31756
G1 X189.214 Y147.49 E57.36127
G1 X189.214 Y145.059 E57.44212
G0 F6000 X189.448 Y145.632
G0 X190.308 Y148.622
;TYPE:WALL-INNER
