;FLAVOR:Marlin
;TIME:24769
;Filament used: 17.4647m
;Layer height: 0.16
;MINX:99.709
;MINY:116.931
;MINZ:0.2
;MAXX:200.291
;MAXY:183.068
;MAXZ:92.36
;Generated with Cura_SteamEngine master
M140 S70
M105
M190 S70
M104 S200
M105
M109 S200
M82 ;absolute extrusion mode
M201 X500.00 Y500.00 Z100.00 E5000.00 ;Setup machine max acceleration
M203 X500.00 Y500.00 Z10.00 E50.00 ;Setup machine max feedrate
M204 P500.00 R1000.00 T500.00 ;Setup Print/Retract/Travel acceleration
M205 X8.00 Y8.00 Z0.40 E5.00 ;Setup Jerk
M220 S100 ;Reset Feedrate
M221 S100 ;Reset Flowrate

G28 ;Home

G92 E0 ;Reset Extruder
G1 Z2.0 F3000 ;Move Z Axis up
G1 X10.1 Y20 Z0.28 F5000.0 ;Move to start position
G1 X10.1 Y200.0 Z0.28 F1500.0 E15 ;Draw the first line
G1 X10.4 Y200.0 Z0.28 F5000.0 ;Move to side a little
G1 X10.4 Y20 Z0.28 F1500.0 E30 ;Draw the second line
G92 E0 ;Reset Extruder
G1 Z2.0 F3000 ;Move Z Axis up

G92 E0
G92 E0
G1 F2700 E-5
;LAYER_COUNT:464
;LAYER:0
M107
G0 F6000 X103.608 Y119.55 Z0.2
;TYPE:SKIRT
G1 F2700 E0
G1 F1200 X104.349 Y118.975 E0.0312
G1 X105.136 Y118.465 E0.06239
G1 X105.964 Y118.024 E0.09359
G1 X106.826 Y117.655 E0.12478
G1 X107.717 Y117.361 E0.15598
G1 X108.629 Y117.143 E0.18717
G1 X109.556 Y117.005 E0.21834
G1 X110.41 Y116.947 E0.24681
G1 X110.73 Y116.938 E0.25746
G1 X111.034 Y116.934 E0.26757
G1 X113.086 Y116.934 E0.33582
G1 X113.134 Y116.931 E0.33742
G1 X114.071 Y116.935 E0.36859
G1 X114.244 Y116.934 E0.37434
G1 X156.71 Y116.937 E1.78676
G1 X156.778 Y116.933 E1.78903
G1 X157.584 Y116.936 E1.81584
G1 X157.813 Y116.934 E1.82345
G1 X188.742 Y116.935 E2.85216
G1 X189.44 Y116.945 E2.87538
G1 X190.376 Y116.999 E2.90656
G1 X191.304 Y117.131 E2.93773
G1 X192.218 Y117.343 E2.96894
G1 X193.11 Y117.632 E3.00013
G1 X193.975 Y117.995 E3.03133
G1 X194.805 Y118.431 E3.06251
G1 X195.596 Y118.936 E3.09372
G1 X196.34 Y119.507 E3.12492
G1 X197.033 Y120.139 E3.15611
G1 X197.67 Y120.827 E3.1873
G1 X198.245 Y121.568 E3.21849
G1 X198.756 Y122.354 E3.24967
G1 X199.198 Y123.182 E3.28089
G1 X199.567 Y124.044 E3.31208
G1 X199.862 Y124.934 E3.34326
G1 X200.08 Y125.846 E3.37445
G1 X200.22 Y126.774 E3.40567
G1 X200.278 Y127.635 E3.43437
G1 X200.287 Y127.955 E3.44502
G1 X200.291 Y128.264 E3.45529
G1 X200.29 Y171.481 E4.8927
G1 X200.28 Y172.208 E4.91688
G1 X200.227 Y173.145 E4.94809
G1 X200.095 Y174.073 E4.97927
G1 X199.884 Y174.987 E5.01047
G1 X199.595 Y175.879 E5.04166
G1 X199.232 Y176.744 E5.07286
G1 X198.797 Y177.575 E5.10405
G1 X198.292 Y178.365 E5.13524
G1 X197.722 Y179.11 E5.16644
G1 X197.091 Y179.804 E5.19764
G1 X196.402 Y180.441 E5.22885
G1 X195.662 Y181.017 E5.26003
G1 X194.876 Y181.528 E5.29122
G1 X194.049 Y181.97 E5.3224
G1 X193.187 Y182.34 E5.3536
G1 X192.297 Y182.635 E5.38479
G1 X191.385 Y182.854 E5.41599
G1 X190.458 Y182.994 E5.44717
G1 X189.59 Y183.053 E5.4761
G1 X189.27 Y183.062 E5.48675
G1 X188.962 Y183.066 E5.497
G1 X157.508 Y183.068 E6.54316
G1 X156.594 Y183.065 E6.57356
G1 X156.411 Y183.066 E6.57965
G1 X114.767 Y183.053 E7.96473
G1 X114.068 Y183.065 E7.98798
G1 X113.831 Y183.059 E7.99587
G1 X112.858 Y183.066 E8.02823
G1 X111.258 Y183.065 E8.08145
G1 X110.56 Y183.055 E8.10467
G1 X109.624 Y183.001 E8.13585
G1 X108.696 Y182.869 E8.16703
G1 X107.782 Y182.657 E8.19823
G1 X106.89 Y182.368 E8.22942
G1 X106.025 Y182.005 E8.26062
G1 X105.195 Y181.569 E8.2918
G1 X104.404 Y181.064 E8.32302
G1 X103.66 Y180.493 E8.35421
G1 X102.967 Y179.861 E8.3854
G1 X102.33 Y179.173 E8.41659
G1 X101.755 Y178.432 E8.44778
G1 X101.244 Y177.646 E8.47897
G1 X100.802 Y176.818 E8.51018
G1 X100.433 Y175.956 E8.54137
G1 X100.138 Y175.066 E8.57256
G1 X99.92 Y174.154 E8.60374
G1 X99.78 Y173.226 E8.63496
G1 X99.722 Y172.354 E8.66403
G1 X99.713 Y172.022 E8.67507
G1 X99.709 Y171.724 E8.68498
G1 X99.71 Y128.443 E10.12452
G1 X99.72 Y127.778 E10.14664
G1 X99.774 Y126.841 E10.17785
G1 X99.908 Y125.913 E10.20904
G1 X100.12 Y124.999 E10.24025
G1 X100.409 Y124.107 E10.27143
G1 X100.774 Y123.243 E10.30263
G1 X101.21 Y122.413 E10.33381
G1 X101.716 Y121.623 E10.36501
G1 X102.287 Y120.879 E10.39621
G1 X102.919 Y120.186 E10.4274
G1 X103.608 Y119.55 E10.45859
G0 F6000 X103.997 Y119.747
G1 F1200 X104.733 Y119.195 E10.48919
G1 X105.515 Y118.708 E10.51983
G1 X106.336 Y118.292 E10.55044
G1 X107.19 Y117.948 E10.58106
G1 X108.07 Y117.679 E10.61167
G1 X108.971 Y117.488 E10.6423
G1 X109.885 Y117.376 E10.67293
G1 X110.421 Y117.347 E10.69078
G1 X110.741 Y117.338 E10.70143
G1 X111.034 Y117.334 E10.71118
G1 X113.086 Y117.333 E10.77943
G1 X113.132 Y117.331 E10.78096
G1 X114.072 Y117.335 E10.81222
G1 X114.244 Y117.334 E10.81794
G1 X156.69 Y117.337 E12.2297
G1 X156.777 Y117.333 E12.2326
G1 X157.586 Y117.336 E12.25951
G1 X157.816 Y117.334 E12.26716
G1 X188.736 Y117.335 E13.29556
G1 X189.434 Y117.345 E13.31878
G1 X190.353 Y117.398 E13.3494
G1 X191.264 Y117.531 E13.38002
G1 X192.16 Y117.742 E13.41063
G1 X193.034 Y118.03 E13.44124
G1 X193.881 Y118.393 E13.47189
G1 X194.692 Y118.828 E13.5025
G1 X195.462 Y119.332 E13.53311
G1 X196.186 Y119.901 E13.56373
G1 X196.858 Y120.531 E13.59437
G1 X197.473 Y121.216 E13.62499
G1 X198.026 Y121.952 E13.65561
G1 X198.513 Y122.733 E13.68622
G1 X198.93 Y123.554 E13.71685
G1 X199.275 Y124.408 E13.74748
G1 X199.544 Y125.288 E13.77809
G1 X199.736 Y126.189 E13.80873
G1 X199.849 Y127.102 E13.83933
G1 X199.878 Y127.646 E13.85745
G1 X199.887 Y127.966 E13.86809
G1 X199.891 Y128.264 E13.87801
G1 X199.89 Y171.476 E15.31524
G1 X199.88 Y172.203 E15.33943
G1 X199.827 Y173.122 E15.37004
G1 X199.695 Y174.033 E15.40066
G1 X199.484 Y174.929 E15.43127
G1 X199.197 Y175.804 E15.4619
G1 X198.834 Y176.65 E15.49252
G1 X198.4 Y177.462 E15.52314
G1 X197.896 Y178.233 E15.55378
G1 X197.328 Y178.957 E15.58439
G1 X196.699 Y179.629 E15.615
G1 X196.014 Y180.244 E15.64562
G1 X195.278 Y180.797 E15.67624
G1 X194.497 Y181.285 E15.70687
G1 X193.677 Y181.703 E15.73748
G1 X192.823 Y182.048 E15.76812
G1 X191.943 Y182.317 E15.79872
G1 X191.042 Y182.51 E15.82937
G1 X190.129 Y182.623 E15.85997
G1 X189.579 Y182.653 E15.87829
G1 X189.259 Y182.662 E15.88894
G1 X188.962 Y182.666 E15.89881
G1 X157.509 Y182.668 E16.94495
G1 X156.591 Y182.665 E16.97548
G1 X156.411 Y182.666 E16.98147
G1 X114.761 Y182.653 E18.36675
G1 X114.062 Y182.665 E18.39
G1 X113.829 Y182.659 E18.39775
G1 X112.855 Y182.666 E18.43015
G1 X111.264 Y182.665 E18.48307
G1 X110.566 Y182.655 E18.50629
G1 X109.647 Y182.602 E18.5369
G1 X108.736 Y182.469 E18.56752
G1 X107.84 Y182.258 E18.59814
G1 X106.966 Y181.97 E18.62875
G1 X106.119 Y181.607 E18.6594
G1 X105.308 Y181.172 E18.69001
G1 X104.538 Y180.668 E18.72061
G1 X103.814 Y180.099 E18.75124
G1 X103.142 Y179.469 E18.78188
G1 X102.527 Y178.784 E18.8125
G1 X101.974 Y178.048 E18.84312
G1 X101.487 Y177.267 E18.87373
G1 X101.07 Y176.446 E18.90436
G1 X100.725 Y175.592 E18.93499
G1 X100.456 Y174.712 E18.9656
G1 X100.264 Y173.811 E18.99624
G1 X100.151 Y172.898 E19.02683
G1 X100.122 Y172.343 E19.04532
G1 X100.113 Y172.011 E19.05636
G1 X100.109 Y171.724 E19.06591
G1 X100.11 Y128.449 E20.50524
G1 X100.12 Y127.784 E20.52736
G1 X100.174 Y126.865 E20.55798
G1 X100.307 Y125.954 E20.5886
G1 X100.519 Y125.058 E20.61923
G1 X100.808 Y124.183 E20.64988
G1 X101.172 Y123.338 E20.68048
G1 X101.607 Y122.527 E20.71109
G1 X102.112 Y121.756 E20.74174
G1 X102.681 Y121.033 E20.77234
G1 X103.311 Y120.361 E20.80298
G1 X103.997 Y119.747 E20.8336
G0 F6000 X104.384 Y119.948
G1 F1200 X105.116 Y119.419 E20.86364
G1 X105.892 Y118.957 E20.89368
G1 X106.706 Y118.566 E20.92371
G1 X107.551 Y118.247 E20.95375
G1 X108.421 Y118.005 E20.98379
G1 X109.309 Y117.841 E21.01382
G1 X110.432 Y117.747 E21.0513
G1 X110.752 Y117.738 E21.06195
G1 X111.034 Y117.734 E21.07133
G1 X113.067 Y117.733 E21.13895
G1 X113.131 Y117.731 E21.14108
G1 X114.075 Y117.735 E21.17248
G1 X114.244 Y117.734 E21.1781
G1 X156.648 Y117.737 E22.58846
G1 X156.775 Y117.733 E22.59269
G1 X157.587 Y117.736 E22.6197
G1 X157.819 Y117.734 E22.62741
G1 X188.73 Y117.735 E23.65552
G1 X189.428 Y117.745 E23.67873
G1 X190.33 Y117.798 E23.70879
G1 X191.223 Y117.93 E23.73881
G1 X192.101 Y118.141 E23.76884
G1 X192.957 Y118.429 E23.79888
G1 X193.784 Y118.791 E23.82891
G1 X194.576 Y119.226 E23.85896
G1 X195.327 Y119.728 E23.88901
G1 X196.03 Y120.295 E23.91905
G1 X196.68 Y120.922 E23.94908
G1 X197.272 Y121.604 E23.97912
G1 X197.802 Y122.335 E24.00915
G1 X198.264 Y123.111 E24.03919
G1 X198.657 Y123.924 E24.06923
G1 X198.975 Y124.769 E24.09925
G1 X199.218 Y125.639 E24.1293
G1 X199.383 Y126.527 E24.15934
G1 X199.478 Y127.657 E24.19706
G1 X199.487 Y127.977 E24.2077
G1 X199.491 Y128.264 E24.21725
G1 X199.49 Y171.47 E25.65429
G1 X199.48 Y172.197 E25.67847
G1 X199.428 Y173.099 E25.70852
G1 X199.296 Y173.992 E25.73854
G1 X199.085 Y174.871 E25.76861
G1 X198.798 Y175.727 E25.79864
G1 X198.436 Y176.554 E25.82866
G1 X198.002 Y177.346 E25.8587
G1 X197.5 Y178.097 E25.88875
G1 X196.934 Y178.8 E25.91876
G1 X196.307 Y179.451 E25.94883
G1 X195.626 Y180.043 E25.97884
G1 X194.895 Y180.573 E26.00887
G1 X194.119 Y181.036 E26.03892
G1 X193.306 Y181.429 E26.06896
G1 X192.461 Y181.749 E26.09901
G1 X191.592 Y181.992 E26.12902
G1 X190.704 Y182.157 E26.15906
G1 X189.568 Y182.253 E26.19698
G1 X189.248 Y182.262 E26.20763
G1 X188.962 Y182.266 E26.21714
G1 X157.51 Y182.268 E27.26324
G1 X156.589 Y182.265 E27.29387
G1 X156.411 Y182.266 E27.29979
G1 X114.812 Y182.253 E28.68338
G1 X114.055 Y182.266 E28.70856
G1 X113.805 Y182.259 E28.71688
G1 X112.852 Y182.266 E28.74858
G1 X111.27 Y182.265 E28.8012
G1 X110.572 Y182.255 E28.82442
G1 X109.67 Y182.202 E28.85447
G1 X108.777 Y182.07 E28.88449
G1 X107.899 Y181.859 E28.91453
G1 X107.043 Y181.571 E28.94456
G1 X106.216 Y181.209 E28.97459
G1 X105.424 Y180.774 E29.00464
G1 X104.673 Y180.272 E29.03469
G1 X103.97 Y179.705 E29.06473
G1 X103.32 Y179.078 E29.09477
G1 X102.728 Y178.396 E29.1248
G1 X102.198 Y177.665 E29.15483
G1 X101.736 Y176.889 E29.18487
G1 X101.343 Y176.076 E29.21491
G1 X101.025 Y175.231 E29.24494
G1 X100.782 Y174.361 E29.27498
G1 X100.617 Y173.473 E29.30502
G1 X100.522 Y172.332 E29.3431
G1 X100.513 Y172 E29.35415
G1 X100.509 Y171.724 E29.36333
G1 X100.51 Y128.455 E30.80246
G1 X100.52 Y127.79 E30.82458
G1 X100.574 Y126.888 E30.85464
G1 X100.707 Y125.995 E30.88466
G1 X100.918 Y125.117 E30.9147
G1 X101.207 Y124.261 E30.94475
G1 X101.57 Y123.434 E30.97479
G1 X102.004 Y122.643 E31.0048
G1 X102.507 Y121.892 E31.03486
G1 X103.075 Y121.19 E31.06489
G1 X103.702 Y120.54 E31.09493
G1 X104.384 Y119.948 E31.12497
G1 F2700 E26.12497
G0 F6000 X113.248 Y127.273
G0 X114.891 Y128.934
G1 F2700 E31.12497
G1 F1200 X155.741 Y128.937 E32.48365
G1 X155.741 Y129.315 E32.49622
G1 X114.891 Y129.315 E33.85489
G1 X114.891 Y128.934 E33.86757
G0 F6000 X114.491 Y128.534
G1 F1200 X156.141 Y128.537 E35.25285
G1 X156.141 Y129.715 E35.29203
G1 X114.491 Y129.715 E36.67732
G1 X114.491 Y128.534 E36.7166
G0 F6000 X114.091 Y128.134
G1 F1200 X156.541 Y128.137 E38.12849
G1 X156.541 Y130.115 E38.19428
G1 X114.091 Y130.115 E39.60617
G1 X114.091 Y128.134 E39.67206
G1 F2700 E34.67206
G0 F6000 X114.091 Y169.885
G1 F2700 E39.67206
G1 F1200 X156.541 Y169.885 E41.08395
G1 X156.541 Y171.866 E41.14984
G1 X114.091 Y171.853 E42.56173
G1 X114.091 Y169.885 E42.62719
G0 F6000 X114.491 Y170.285
G1 F1200 X156.141 Y170.285 E44.01247
G1 X156.141 Y171.466 E44.05175
G1 X114.491 Y171.453 E45.43704
G1 X114.491 Y170.285 E45.47589
G0 F6000 X114.891 Y170.685
G1 F1200 X155.741 Y170.685 E46.83456
G1 X155.741 Y171.066 E46.84723
G1 X114.891 Y171.053 E48.20591
G1 X114.891 Y170.685 E48.21815
G1 F2700 E43.21815
;MESH:half-lap_narrow-narrow_end.scad.stl
G0 F6000 X167.287 Y144.182
G0 X168.266 Y142.625
G0 X168.935 Y143.376
;TYPE:WALL-INNER
G1 F2700 E48.21815
G1 F1200 X168.729 Y143.172 E48.22779
G1 X168.175 Y142.77 E48.25056
G1 X167.443 Y142.379 E48.27816
G1 X165.431 Y142.379 E48.34508
G1 X165.431 Y149.952 E48.59696
G1 X165.962 Y150.319 E48.61843
G1 X166.202 Y150.484 E48.62812
G1 X165.96 Y150.646 E48.63379
G1 X165.431 Y151.002 E48.655
G1 X165.431 Y153.344 E48.73289
G1 X166.524 Y153.897 E48.77364
G1 X166.574 Y153.861 E48.77568
G1 X166.574 Y153.897
G1 X166.574 Y155.034 E48.8135
G1 X165.431 Y155.034 E48.85152
G1 X165.431 Y158.101 E48.95353
G1 X166.574 Y158.101 E48.99154
G1 X166.574 Y158.863 E49.01689
G1 X169.412 Y158.863 E49.11128
G1 X169.412 Y158.101 E49.13662
G1 X172.79 Y158.101 E49.24898
G1 X172.79 Y155.336 E49.34094
G1 X170.896 Y154.011 E49.41782
G1 X170.621 Y153.819 E49.42898
G1 X170.922 Y153.67 E49.43534
G1 X171.723 Y153.273 E49.46507
G1 X171.723 Y150.9 E49.544
G1 X171.344 Y150.645 E49.55919
G1 X171.102 Y150.483 E49.56888
G1 X171.342 Y150.317 E49.57456
G1 X171.723 Y150.054 E49.58996
G1 X171.723 Y147.793 E49.66516
G1 X172.26 Y147.339 E49.68855
G1 X172.734 Y146.409 E49.72327
G1 X172.876 Y145.332 E49.7594
G1 X172.731 Y144.273 E49.79495
G1 X172.242 Y143.354 E49.82957
G1 X171.416 Y142.716 E49.86429
G1 X169.567 Y142.193 E49.9282
G1 X169.326 Y142.125 E49.93653
G1 X169.315 Y142.375 E49.94159
G1 X169.274 Y143.243 E49.97049
G1 X169.253 Y143.689 E49.98534
G1 X168.935 Y143.376 E49.9934
G0 F6000 X168.47 Y143.478
G1 F1200 X167.962 Y143.11 E50.01426
G1 X167.343 Y142.779 E50.03761
G1 X165.831 Y142.779 E50.0879
G1 X165.831 Y147.89 E50.25789
G1 X165.831 Y147.893 E50.25799
G1 X165.831 Y149.742 E50.31949
G1 X166.672 Y150.322 E50.35347
G1 X166.913 Y150.488 E50.3632
G1 X166.67 Y150.651 E50.3689
G1 X165.831 Y151.215 E50.40253
G1 X165.831 Y153.098 E50.46516
G1 X166.487 Y153.43 E50.48961
G1 X166.658 Y153.305 E50.49665
G1 X166.974 Y153.076 E50.50963
G1 X166.974 Y153.466 E50.51683
G1 X166.974 Y153.467 E50.51687
G1 X166.974 Y155.434 E50.58229
G1 X165.831 Y155.434 E50.62031
G1 X165.831 Y157.701 E50.69571
G1 X166.974 Y157.701 E50.73372
G1 X166.974 Y158.463 E50.75907
G1 X169.012 Y158.463 E50.82685
G1 X169.012 Y157.701 E50.8522
G1 X172.39 Y157.701 E50.96455
G1 X172.39 Y155.544 E51.03629
G1 X168.601 Y152.894 E51.19008
G1 X167.836 Y152.894 E51.21552
G1 X167.835 Y152.894 E51.21556
G1 X167.224 Y152.894 E51.23588
G1 X167.718 Y152.534 E51.24654
G1 X168.659 Y151.849 E51.28525
G1 X170.657 Y153.355 E51.36847
G1 X171.323 Y153.025 E51.39319
G1 X171.323 Y151.113 E51.45679
G1 X170.634 Y150.65 E51.4844
G1 X170.392 Y150.487 E51.4941
G1 X170.632 Y150.321 E51.49979
G1 X171.323 Y149.844 E51.52771
G1 X171.323 Y147.966 E51.59018
G1 X171.16 Y147.884 E51.59624
G1 X170.862 Y147.732 E51.60737
G1 X171.254 Y147.648 E51.61283
G1 X171.282 Y147.642
G1 X171.94 Y147.086 E51.64148
G1 X172.346 Y146.289 E51.67123
G1 X172.472 Y145.333 E51.7033
G1 X172.344 Y144.398 E51.73469
G1 X171.929 Y143.618 E51.76408
G1 X171.233 Y143.08 E51.79334
G1 X169.943 Y142.715 E51.83793
G1 X169.702 Y142.647 E51.84626
G1 X169.691 Y142.897 E51.85132
G1 X169.629 Y144.215 E51.8952
G1 X169.61 Y144.642 E51.90942
G1 X169.607 Y144.703 E51.91145
G1 X169.554 Y144.64 E51.91212
G1 X169.274 Y144.317 E51.92066
G1 X168.989 Y143.99 E51.93509
G1 X168.47 Y143.478 E51.95933
G1 F2700 E46.95933
G0 F6000 X167.302 Y142.941
G0 X166.003 Y142.951
G0 X166.003 Y147.718
G0 X167.773 Y147.718
G0 X167.779 Y145.633
G0 X167.545 Y145.059
;TYPE:WALL-OUTER
G1 F2700 E51.95933
G1 F1200 X167.736 Y145.223 E51.96771
G1 X168.066 Y145.607 E51.98455
G1 X168.59 Y146.252 E52.01219
G1 X169.028 Y146.737 E52.03392
G1 X169.47 Y147.103 E52.05301
G1 X169.93 Y147.336 E52.07016
G1 X170.423 Y147.418 E52.08678
G1 X171.1 Y147.272 E52.10982
G1 X171.62 Y146.833 E52.13245
G1 X171.958 Y146.169 E52.15723
G1 X172.068 Y145.334 E52.18525
G1 X171.957 Y144.523 E52.21247
G1 X171.616 Y143.882 E52.23662
G1 X171.05 Y143.444 E52.26042
G1 X170.078 Y143.169 E52.29402
G1 X170.008 Y144.693 E52.34476
G1 X170.459 Y144.831 E52.36045
G1 X170.63 Y144.945 E52.36729
G1 X170.736 Y145.1 E52.37353
G1 X170.775 Y145.337 E52.38152
G1 X170.74 Y145.599 E52.39031
G1 X170.649 Y145.754 E52.39629
G1 X170.534 Y145.838 E52.40103
G1 X170.365 Y145.868 E52.40673
G1 X170.255 Y145.852 E52.41043
G1 X170.135 Y145.794 E52.41486
G1 X169.998 Y145.707 E52.42026
G1 X169.85 Y145.575 E52.42686
G1 X169.614 Y145.334 E52.43808
G1 X169.25 Y144.9 E52.45692
G1 X168.697 Y144.264 E52.48495
G1 X168.211 Y143.784 E52.50767
G1 X167.749 Y143.45 E52.52663
G1 X167.243 Y143.179 E52.54572
G1 X166.231 Y143.179 E52.57938
G1 X166.231 Y147.49 E52.72276
