;FLAVOR:Marlin
;TIME:36832
;Filament used: 35.4976m
;Layer height: 0.16
;MINX:88.2
;MINY:94.55
;MINZ:0.2
;MAXX:211.8
;MAXY:205.45
;MAXZ:39.56
;Generated with Cura_SteamEngine master
M140 S70
M105
M190 S70
M104 S200
M105
M109 S200
M82 ;absolute extrusion mode
M201 X500.00 Y500.00 Z100.00 E5000.00 ;Setup machine max acceleration
M203 X500.00 Y500.00 Z10.00 E50.00 ;Setup machine max feedrate
M204 P500.00 R1000.00 T500.00 ;Setup Print/Retract/Travel acceleration
M205 X8.00 Y8.00 Z0.40 E5.00 ;Setup Jerk
M220 S100 ;Reset Feedrate
M221 S100 ;Reset Flowrate

G28 ;Home

G92 E0 ;Reset Extruder
G1 Z2.0 F3000 ;Move Z Axis up
G1 X10.1 Y20 Z0.28 F5000.0 ;Move to start position
G1 X10.1 Y200.0 Z0.28 F1500.0 E15 ;Draw the first line
G1 X10.4 Y200.0 Z0.28 F5000.0 ;Move to side a little
G1 X10.4 Y20 Z0.28 F1500.0 E30 ;Draw the second line
G92 E0 ;Reset Extruder
G1 Z2.0 F3000 ;Move Z Axis up

G92 E0
G92 E0
G1 F2700 E-5
;LAYER_COUNT:200
;LAYER:0
M107
G0 F6000 X91.398 Y97.814 Z0.2
;TYPE:SKIRT
G1 F2700 E0
G1 F1200 X92.086 Y97.177 E0.03119
G1 X92.826 Y96.601 E0.06237
G1 X93.612 Y96.089 E0.09357
G1 X94.439 Y95.647 E0.12476
G1 X95.301 Y95.277 E0.15596
G1 X96.191 Y94.981 E0.18716
G1 X97.103 Y94.763 E0.21835
G1 X98.03 Y94.622 E0.24953
G1 X98.901 Y94.563 E0.27857
G1 X99.222 Y94.554 E0.28925
G1 X99.53 Y94.55 E0.29949
G1 X200.093 Y94.55 E3.64423
G1 X200.251 Y94.551 E3.64949
G1 X200.949 Y94.561 E3.67271
G1 X201.885 Y94.615 E3.70389
G1 X202.813 Y94.747 E3.73507
G1 X203.727 Y94.959 E3.76627
G1 X204.619 Y95.248 E3.79746
G1 X205.484 Y95.611 E3.82866
G1 X206.314 Y96.047 E3.85984
G1 X207.105 Y96.552 E3.89106
G1 X207.849 Y97.123 E3.92225
G1 X208.542 Y97.755 E3.95344
G1 X209.179 Y98.443 E3.98463
G1 X209.754 Y99.184 E4.01582
G1 X210.265 Y99.97 E4.04701
G1 X210.707 Y100.798 E4.07822
G1 X211.076 Y101.66 E4.10941
G1 X211.371 Y102.55 E4.1406
G1 X211.589 Y103.462 E4.17178
G1 X211.729 Y104.39 E4.203
G1 X211.787 Y105.251 E4.2317
G1 X211.796 Y105.571 E4.24235
G1 X211.8 Y105.88 E4.25263
G1 X211.8 Y193.714 E7.174
G1 X211.79 Y194.577 E7.2027
G1 X211.739 Y195.514 E7.23391
G1 X211.607 Y196.442 E7.26509
G1 X211.398 Y197.356 E7.29627
G1 X211.111 Y198.249 E7.32747
G1 X210.749 Y199.115 E7.35869
G1 X210.315 Y199.946 E7.38987
G1 X209.811 Y200.737 E7.42107
G1 X209.242 Y201.482 E7.45225
G1 X208.611 Y202.177 E7.48347
G1 X207.924 Y202.815 E7.51465
G1 X207.185 Y203.392 E7.54583
G1 X206.399 Y203.904 E7.57703
G1 X205.573 Y204.347 E7.60821
G1 X204.711 Y204.719 E7.63944
G1 X203.822 Y205.015 E7.6706
G1 X202.91 Y205.235 E7.7018
G1 X201.983 Y205.376 E7.73299
G1 X201.099 Y205.437 E7.76246
G1 X200.778 Y205.446 E7.77314
G1 X200.47 Y205.45 E7.78339
G1 X99.907 Y205.45 E11.12813
G1 X99.067 Y205.44 E11.15607
G1 X98.131 Y205.388 E11.18725
G1 X97.202 Y205.256 E11.21845
G1 X96.288 Y205.046 E11.24965
G1 X95.395 Y204.759 E11.28084
G1 X94.53 Y204.396 E11.31204
G1 X93.699 Y203.962 E11.34323
G1 X92.908 Y203.458 E11.37442
G1 X92.163 Y202.888 E11.40562
G1 X91.469 Y202.257 E11.43682
G1 X90.832 Y201.57 E11.46798
G1 X90.255 Y200.83 E11.49919
G1 X89.743 Y200.044 E11.53039
G1 X89.3 Y199.217 E11.56159
G1 X88.929 Y198.356 E11.59278
G1 X88.633 Y197.466 E11.62397
G1 X88.414 Y196.554 E11.65517
G1 X88.273 Y195.627 E11.68635
G1 X88.213 Y194.738 E11.71599
G1 X88.204 Y194.405 E11.72707
G1 X88.2 Y194.108 E11.73695
G1 X88.2 Y106.224 E14.65998
G1 X88.21 Y105.41 E14.68706
G1 X88.263 Y104.474 E14.71824
G1 X88.395 Y103.545 E14.74945
G1 X88.606 Y102.631 E14.78065
G1 X88.894 Y101.739 E14.81182
G1 X89.257 Y100.874 E14.84302
G1 X89.692 Y100.043 E14.87422
G1 X90.196 Y99.253 E14.90539
G1 X90.766 Y98.508 E14.93659
G1 X91.398 Y97.814 E14.96781
G0 F6000 X91.789 Y97.989
G1 F1200 X92.474 Y97.373 E14.99845
G1 X93.21 Y96.82 E15.02907
G1 X93.991 Y96.332 E15.0597
G1 X94.811 Y95.914 E15.09031
G1 X95.665 Y95.569 E15.12094
G1 X96.545 Y95.299 E15.15156
G1 X97.445 Y95.107 E15.18217
G1 X98.359 Y94.993 E15.2128
G1 X98.912 Y94.963 E15.23122
G1 X99.233 Y94.954 E15.2419
G1 X99.53 Y94.95 E15.25178
G1 X200.093 Y94.95 E18.59652
G1 X200.943 Y94.961 E18.62479
G1 X201.862 Y95.014 E18.65541
G1 X202.773 Y95.147 E18.68603
G1 X203.669 Y95.358 E18.71665
G1 X204.543 Y95.646 E18.74726
G1 X205.39 Y96.009 E18.77791
G1 X206.201 Y96.444 E18.80851
G1 X206.971 Y96.948 E18.83912
G1 X207.695 Y97.517 E18.86975
G1 X208.367 Y98.147 E18.90039
G1 X208.982 Y98.832 E18.93101
G1 X209.535 Y99.568 E18.96162
G1 X210.022 Y100.349 E18.99224
G1 X210.439 Y101.17 E19.02286
G1 X210.784 Y102.024 E19.0535
G1 X211.053 Y102.904 E19.0841
G1 X211.245 Y103.805 E19.11474
G1 X211.358 Y104.718 E19.14534
G1 X211.387 Y105.262 E19.16346
G1 X211.396 Y105.582 E19.17411
G1 X211.4 Y105.88 E19.18402
G1 X211.4 Y193.714 E22.10539
G1 X211.39 Y194.572 E22.13393
G1 X211.339 Y195.491 E22.16454
G1 X211.208 Y196.403 E22.19519
G1 X210.998 Y197.299 E22.2258
G1 X210.712 Y198.174 E22.25642
G1 X210.351 Y199.021 E22.28704
G1 X209.917 Y199.833 E22.31766
G1 X209.415 Y200.605 E22.34829
G1 X208.847 Y201.33 E22.37892
G1 X208.219 Y202.003 E22.40954
G1 X207.535 Y202.619 E22.44015
G1 X206.8 Y203.173 E22.47077
G1 X206.02 Y203.662 E22.50139
G1 X205.2 Y204.081 E22.53201
G1 X204.347 Y204.427 E22.56263
G1 X203.467 Y204.698 E22.59326
G1 X202.567 Y204.891 E22.62387
G1 X201.653 Y205.006 E22.65451
G1 X201.088 Y205.037 E22.67333
G1 X200.767 Y205.046 E22.68401
G1 X200.47 Y205.05 E22.69389
G1 X99.907 Y205.05 E26.03863
G1 X99.072 Y205.04 E26.0664
G1 X98.153 Y204.988 E26.09702
G1 X97.242 Y204.857 E26.12763
G1 X96.346 Y204.647 E26.15824
G1 X95.471 Y204.36 E26.18887
G1 X94.624 Y203.998 E26.2195
G1 X93.812 Y203.564 E26.25013
G1 X93.041 Y203.062 E26.28073
G1 X92.316 Y202.494 E26.31136
G1 X91.643 Y201.865 E26.342
G1 X91.028 Y201.181 E26.37259
G1 X90.474 Y200.446 E26.4032
G1 X89.986 Y199.665 E26.43383
G1 X89.567 Y198.845 E26.46446
G1 X89.221 Y197.992 E26.49508
G1 X88.951 Y197.112 E26.52569
G1 X88.758 Y196.211 E26.55634
G1 X88.644 Y195.298 E26.58694
G1 X88.613 Y194.727 E26.60596
G1 X88.604 Y194.394 E26.61704
G1 X88.6 Y194.108 E26.62655
G1 X88.6 Y106.224 E29.54959
G1 X88.61 Y105.416 E29.57646
G1 X88.662 Y104.496 E29.60711
G1 X88.794 Y103.585 E29.63773
G1 X89.005 Y102.689 E29.66835
G1 X89.292 Y101.814 E29.69897
G1 X89.655 Y100.968 E29.72959
G1 X90.089 Y100.156 E29.76022
G1 X90.592 Y99.385 E29.79083
G1 X91.161 Y98.661 E29.82146
G1 X91.789 Y97.989 E29.85205
G0 F6000 X92.181 Y98.167
G1 F1200 X92.862 Y97.574 E29.88209
G1 X93.594 Y97.044 E29.91214
G1 X94.369 Y96.581 E29.94217
G1 X95.182 Y96.188 E29.9722
G1 X96.027 Y95.868 E30.00226
G1 X96.896 Y95.625 E30.03227
G1 X97.784 Y95.459 E30.06232
G1 X98.923 Y95.363 E30.10033
G1 X99.244 Y95.354 E30.11101
G1 X99.53 Y95.35 E30.12053
G1 X200.093 Y95.35 E33.46527
G1 X200.937 Y95.361 E33.49334
G1 X201.839 Y95.414 E33.52339
G1 X202.732 Y95.546 E33.55342
G1 X203.61 Y95.757 E33.58345
G1 X204.466 Y96.045 E33.61349
G1 X205.293 Y96.407 E33.64352
G1 X206.085 Y96.842 E33.67357
G1 X206.836 Y97.344 E33.70361
G1 X207.539 Y97.911 E33.73365
G1 X208.189 Y98.538 E33.76369
G1 X208.781 Y99.22 E33.79373
G1 X209.311 Y99.951 E33.82376
G1 X209.773 Y100.727 E33.8538
G1 X210.166 Y101.54 E33.88383
G1 X210.484 Y102.385 E33.91386
G1 X210.727 Y103.255 E33.9439
G1 X210.892 Y104.143 E33.97394
G1 X210.987 Y105.273 E34.01166
G1 X210.996 Y105.593 E34.02231
G1 X211 Y105.88 E34.03186
G1 X211 Y193.714 E36.95323
G1 X210.99 Y194.567 E36.9816
G1 X210.939 Y195.469 E37.01165
G1 X210.808 Y196.363 E37.0417
G1 X210.599 Y197.241 E37.07172
G1 X210.313 Y198.098 E37.10177
G1 X209.952 Y198.926 E37.13181
G1 X209.52 Y199.718 E37.16182
G1 X209.019 Y200.47 E37.19187
G1 X208.453 Y201.174 E37.22191
G1 X207.828 Y201.825 E37.25193
G1 X207.147 Y202.419 E37.28199
G1 X206.416 Y202.95 E37.31204
G1 X205.642 Y203.414 E37.34205
G1 X204.829 Y203.808 E37.3721
G1 X203.985 Y204.128 E37.40212
G1 X203.115 Y204.373 E37.43218
G1 X202.228 Y204.539 E37.4622
G1 X201.077 Y204.637 E37.50062
G1 X200.756 Y204.646 E37.5113
G1 X200.47 Y204.65 E37.52081
G1 X99.907 Y204.65 E40.86555
G1 X99.077 Y204.64 E40.89316
G1 X98.176 Y204.589 E40.92317
G1 X97.282 Y204.457 E40.95323
G1 X96.404 Y204.248 E40.98325
G1 X95.547 Y203.961 E41.01331
G1 X94.72 Y203.6 E41.04332
G1 X93.927 Y203.167 E41.07337
G1 X93.176 Y202.666 E41.1034
G1 X92.472 Y202.1 E41.13344
G1 X91.821 Y201.474 E41.16348
G1 X91.228 Y200.793 E41.19352
G1 X90.698 Y200.062 E41.22355
G1 X90.234 Y199.287 E41.25359
G1 X89.84 Y198.474 E41.28364
G1 X89.52 Y197.63 E41.31366
G1 X89.276 Y196.76 E41.34371
G1 X89.11 Y195.872 E41.37376
G1 X89.013 Y194.717 E41.41231
G1 X89.004 Y194.384 E41.42339
G1 X89 Y194.108 E41.43257
G1 X89 Y106.224 E44.35561
G1 X89.01 Y105.421 E44.38232
G1 X89.062 Y104.519 E44.41237
G1 X89.194 Y103.626 E44.44239
G1 X89.404 Y102.748 E44.47242
G1 X89.691 Y101.891 E44.50248
G1 X90.053 Y101.064 E44.5325
G1 X90.486 Y100.272 E44.56252
G1 X90.988 Y99.521 E44.59257
G1 X91.555 Y98.817 E44.62263
G1 X92.181 Y98.167 E44.65265
G1 F2700 E39.65265
;MESH:depth_narrow_face.scad.stl
G0 F6000 X100.41 Y104.885
G0 X100.41 Y106.76
G0 X100.382 Y193.268
G0 X199.8 Y193.45
;TYPE:WALL-INNER
G1 F2700 E44.65265
G1 F1200 X100.2 Y193.45 E47.96536
G1 X100.2 Y106.55 E50.85566
G1 X199.8 Y106.55 E54.16837
G1 X199.8 Y193.45 E57.05868
G0 F6000 X200.2 Y193.85
G1 F1200 X99.8 Y193.85 E60.398
G1 X99.8 Y106.15 E63.31491
G1 X200.2 Y106.15 E66.65423
G1 X200.2 Y193.85 E69.57114
G0 F6000 X200.6 Y194.25
;TYPE:WALL-OUTER
G1 F1200 X99.4 Y194.25 E72.93707
G1 X99.4 Y105.75 E75.88059
G1 X200.6 Y105.75 E79.24651
G1 X200.6 Y194.25 E82.19004
G0 F6000 X200.33 Y193.98
G0 X199.69 Y193.06
G0 X199.41 Y193.06
;TYPE:SKIN
G1 F1200 X100.59 Y193.06 E85.4768
G1 X100.59 Y106.94 E88.34117
G1 X199.41 Y106.94 E91.62793
G1 X199.41 Y193.06 E94.4923
G1 F2700 E89.4923
G0 F6000 X199.69 Y193.06
G0 X199.69 Y107.608
G0 X199.249 Y107.608
G1 F2700 E94.4923
G1 F1200 X198.741 Y107.1 E94.51619
G0 F6000 X198.175 Y107.1
G1 F1200 X199.249 Y108.173 E94.56668
G0 F6000 X199.249 Y108.739
G1 F1200 X197.61 Y107.1 E94.64378
G0 F6000 X197.044 Y107.1
G1 F1200 X199.249 Y109.305 E94.74749
G0 F6000 X199.249 Y109.87
G1 F1200 X196.478 Y107.1 E94.87781
G0 F6000 X195.913 Y107.1
G1 F1200 X199.249 Y110.436 E95.03473
G0 F6000 X199.249 Y111.002
G1 F1200 X195.347 Y107.1 E95.21826
G0 F6000 X194.781 Y107.1
G1 F1200 X199.249 Y111.568 E95.42842
G0 F6000 X199.249 Y112.133
G1 F1200 X194.216 Y107.1 E95.66516
G0 F6000 X193.65 Y107.1
G1 F1200 X199.249 Y112.699 E95.92852
G0 F6000 X199.249 Y113.265
G1 F1200 X193.084 Y107.1 E96.2185
G0 F6000 X192.519 Y107.1
G1 F1200 X199.249 Y113.83 E96.53506
G0 F6000 X199.249 Y114.396
G1 F1200 X191.953 Y107.1 E96.87824
G0 F6000 X191.387 Y107.1
G1 F1200 X199.249 Y114.962 E97.24805
G0 F6000 X199.249 Y115.527
G1 F1200 X190.821 Y107.1 E97.64445
G0 F6000 X190.256 Y107.1
G1 F1200 X199.249 Y116.093 E98.06746
G0 F6000 X199.249 Y116.659
G1 F1200 X189.69 Y107.1 E98.51708
G0 F6000 X189.124 Y107.1
G1 F1200 X199.249 Y117.224 E98.99331
G0 F6000 X199.249 Y117.79
G1 F1200 X188.559 Y107.1 E99.49613
G0 F6000 X187.993 Y107.1
G1 F1200 X199.249 Y118.356 E100.02558
G0 F6000 X199.249 Y118.921
G1 F1200 X187.427 Y107.1 E100.58163
G0 F6000 X186.862 Y107.1
G1 F1200 X199.249 Y119.487 E101.16427
G0 F6000 X199.249 Y120.053
G1 F1200 X186.296 Y107.1 E101.77354
G0 F6000 X185.73 Y107.1
G1 F1200 X199.249 Y120.618 E102.40941
G0 F6000 X199.249 Y121.184
G1 F1200 X185.165 Y107.1 E103.07188
G0 F6000 X184.599 Y107.1
G1 F1200 X199.249 Y121.75 E103.76097
G0 F6000 X199.249 Y122.316
G1 F1200 X184.033 Y107.1 E104.47668
G0 F6000 X183.468 Y107.1
G1 F1200 X199.249 Y122.881 E105.21897
G0 F6000 X199.249 Y123.447
G1 F1200 X182.902 Y107.1 E105.98789
G0 F6000 X182.336 Y107.1
G1 F1200 X199.249 Y124.013 E106.78342
G0 F6000 X199.249 Y124.578
G1 F1200 X181.77 Y107.1 E107.60556
G0 F6000 X181.205 Y107.1
G1 F1200 X199.249 Y125.144 E108.45429
G0 F6000 X199.249 Y125.71
G1 F1200 X180.639 Y107.1 E109.32965
G0 F6000 X180.073 Y107.1
G1 F1200 X199.249 Y126.275 E110.23161
G0 F6000 X199.249 Y126.841
G1 F1200 X179.508 Y107.1 E111.16016
G0 F6000 X178.942 Y107.1
G1 F1200 X199.249 Y127.407 E112.11534
G0 F6000 X199.249 Y127.972
G1 F1200 X178.376 Y107.1 E113.09712
G0 F6000 X177.811 Y107.1
G1 F1200 X199.249 Y128.538 E114.1055
G0 F6000 X199.249 Y129.104
G1 F1200 X177.245 Y107.1 E115.1405
G0 F6000 X176.679 Y107.1
G1 F1200 X199.249 Y129.669 E116.2021
G0 F6000 X199.249 Y130.235
G1 F1200 X176.114 Y107.1 E117.2903
G0 F6000 X175.548 Y107.1
G1 F1200 X199.249 Y130.801 E118.40512
G0 F6000 X199.249 Y131.367
G1 F1200 X174.982 Y107.1 E119.54657
G0 F6000 X174.417 Y107.1
G1 F1200 X199.249 Y131.932 E120.71459
G0 F6000 X199.249 Y132.498
G1 F1200 X173.851 Y107.1 E121.90923
G0 F6000 X173.285 Y107.1
G1 F1200 X199.249 Y133.064 E123.1305
G0 F6000 X199.249 Y133.629
G1 F1200 X172.72 Y107.1 E124.37834
G0 F6000 X172.154 Y107.1
G1 F1200 X199.249 Y134.195 E125.65281
G0 F6000 X199.249 Y134.761
G1 F1200 X171.588 Y107.1 E126.95389
G0 F6000 X171.022 Y107.1
G1 F1200 X199.249 Y135.326 E128.28158
G0 F6000 X199.249 Y135.892
G1 F1200 X170.457 Y107.1 E129.63587
G0 F6000 X169.891 Y107.1
G1 F1200 X199.249 Y136.458 E131.01678
G0 F6000 X199.249 Y137.023
G1 F1200 X169.325 Y107.1 E132.42429
G0 F6000 X168.76 Y107.1
G1 F1200 X199.249 Y137.589 E133.8584
G0 F6000 X199.249 Y138.155
G1 F1200 X168.194 Y107.1 E135.31913
G0 F6000 X167.628 Y107.1
G1 F1200 X199.249 Y138.72 E136.80646
G0 F6000 X199.249 Y139.286
G1 F1200 X167.063 Y107.1 E138.32039
G0 F6000 X166.497 Y107.1
G1 F1200 X199.249 Y139.852 E139.86095
G0 F6000 X199.249 Y140.417
G1 F1200 X165.931 Y107.1 E141.4281
G0 F6000 X165.366 Y107.1
G1 F1200 X199.249 Y140.983 E143.02185
G0 F6000 X199.249 Y141.549
G1 F1200 X164.8 Y107.1 E144.64223
G0 F6000 X164.234 Y107.1
G1 F1200 X199.249 Y142.115 E146.28923
G0 F6000 X199.249 Y142.68
G1 F1200 X163.669 Y107.1 E147.9628
G0 F6000 X163.103 Y107.1
G1 F1200 X199.249 Y143.246 E149.663
G0 F6000 X199.249 Y143.812
G1 F1200 X162.537 Y107.1 E151.38982
G0 F6000 X161.972 Y107.1
G1 F1200 X199.249 Y144.377 E153.14321
G0 F6000 X199.249 Y144.943
G1 F1200 X161.406 Y107.1 E154.92323
G0 F6000 X160.84 Y107.1
G1 F1200 X199.249 Y145.509 E156.72987
G0 F6000 X199.249 Y146.074
G1 F1200 X160.274 Y107.1 E158.56311
G0 F6000 X159.709 Y107.1
G1 F1200 X199.249 Y146.64 E160.42295
G0 F6000 X199.249 Y147.206
G1 F1200 X159.143 Y107.1 E162.30942
G0 F6000 X158.577 Y107.1
G1 F1200 X199.249 Y147.771 E164.22248
G0 F6000 X199.249 Y148.337
G1 F1200 X158.012 Y107.1 E166.16214
G0 F6000 X157.446 Y107.1
G1 F1200 X199.249 Y148.903 E168.12843
G0 F6000 X199.249 Y149.468
G1 F1200 X156.88 Y107.1 E170.12131
G0 F6000 X156.315 Y107.1
G1 F1200 X199.249 Y150.034 E172.1408
G0 F6000 X199.249 Y150.6
G1 F1200 X155.749 Y107.1 E174.1869
G0 F6000 X155.183 Y107.1
G1 F1200 X199.249 Y151.165 E176.25961
G0 F6000 X199.249 Y151.731
G1 F1200 X154.618 Y107.1 E178.35891
G0 F6000 X154.052 Y107.1
G1 F1200 X199.249 Y152.297 E180.48484
G0 F6000 X199.249 Y152.863
G1 F1200 X153.486 Y107.1 E182.63739
G0 F6000 X152.921 Y107.1
G1 F1200 X199.249 Y153.428 E184.81652
G0 F6000 X199.249 Y153.994
G1 F1200 X152.355 Y107.1 E187.02227
G0 F6000 X151.789 Y107.1
G1 F1200 X199.249 Y154.56 E189.25464
G0 F6000 X199.249 Y155.125
G1 F1200 X151.223 Y107.1 E191.51362
G0 F6000 X150.658 Y107.1
G1 F1200 X199.249 Y155.691 E193.79919
G0 F6000 X199.249 Y156.257
G1 F1200 X150.092 Y107.1 E196.11138
G0 F6000 X149.526 Y107.1
G1 F1200 X199.249 Y156.822 E198.45018
G0 F6000 X199.249 Y157.388
G1 F1200 X148.961 Y107.1 E200.81557
G0 F6000 X148.395 Y107.1
G1 F1200 X199.249 Y157.954 E203.20759
G0 F6000 X199.249 Y158.519
G1 F1200 X147.829 Y107.1 E205.6262
G0 F6000 X147.264 Y107.1
G1 F1200 X199.249 Y159.085 E208.07142
G0 F6000 X199.249 Y159.651
G1 F1200 X146.698 Y107.1 E210.54325
G0 F6000 X146.132 Y107.1
G1 F1200 X199.249 Y160.216 E213.04169
G0 F6000 X199.249 Y160.782
G1 F1200 X145.567 Y107.1 E215.56673
G0 F6000 X145.001 Y107.1
G1 F1200 X199.249 Y161.348 E218.11839
G0 F6000 X199.249 Y161.914
G1 F1200 X144.435 Y107.1 E220.69667
G0 F6000 X143.87 Y107.1
G1 F1200 X199.249 Y162.479 E223.30153
G0 F6000 X199.249 Y163.045
G1 F1200 X143.304 Y107.1 E225.93301
G0 F6000 X142.738 Y107.1
G1 F1200 X199.249 Y163.611 E228.59111
G0 F6000 X199.249 Y164.176
G1 F1200 X142.173 Y107.1 E231.27579
G0 F6000 X141.607 Y107.1
G1 F1200 X199.249 Y164.742 E233.9871
