;FLAVOR:Marlin
;TIME:22187
;Filament used: 15.2523m
;Layer height: 0.16
;MINX:81.85
;MINY:91.531
;MINZ:0.2
;MAXX:218.15
;MAXY:208.469
;MAXZ:41.68
;Generated with Cura_SteamEngine master
M140 S70
M105
M190 S70
M104 S200
M105
M109 S200
M82 ;absolute extrusion mode
M201 X500.00 Y500.00 Z100.00 E5000.00 ;Setup machine max acceleration
M203 X500.00 Y500.00 Z10.00 E50.00 ;Setup machine max feedrate
M204 P500.00 R1000.00 T500.00 ;Setup Print/Retract/Travel acceleration
M205 X8.00 Y8.00 Z0.40 E5.00 ;Setup Jerk
M220 S100 ;Reset Feedrate
M221 S100 ;Reset Flowrate

G28 ;Home

G92 E0 ;Reset Extruder
G1 Z2.0 F3000 ;Move Z Axis up
G1 X10.1 Y20 Z0.28 F5000.0 ;Move to start position
G1 X10.1 Y200.0 Z0.28 F1500.0 E15 ;Draw the first line
G1 X10.4 Y200.0 Z0.28 F5000.0 ;Move to side a little
G1 X10.4 Y20 Z0.28 F1500.0 E30 ;Draw the second line
G92 E0 ;Reset Extruder
G1 Z2.0 F3000 ;Move Z Axis up

G92 E0
G92 E0
G1 F2700 E-5
;LAYER_COUNT:210
;LAYER:0
M107
G0 F6000 X85.736 Y94.161 Z0.2
;TYPE:SKIRT
G1 F2700 E0
G1 F1200 X86.476 Y93.585 E0.03119
G1 X87.262 Y93.073 E0.06239
G1 X88.089 Y92.631 E0.09358
G1 X88.951 Y92.261 E0.12478
G1 X89.841 Y91.965 E0.15597
G1 X90.753 Y91.747 E0.18716
G1 X91.68 Y91.606 E0.21835
G1 X92.551 Y91.547 E0.24738
G1 X92.872 Y91.538 E0.25806
G1 X93.18 Y91.534 E0.26831
G1 X130.95 Y91.534 E1.52454
G1 X130.993 Y91.531 E1.52598
G1 X132.02 Y91.535 E1.56014
G1 X168.242 Y91.534 E2.76489
G1 X168.293 Y91.531 E2.76658
G1 X169.32 Y91.535 E2.80074
G1 X206.601 Y91.535 E4.04071
G1 X207.299 Y91.545 E4.06393
G1 X208.235 Y91.599 E4.09512
G1 X209.163 Y91.731 E4.12629
G1 X210.077 Y91.943 E4.1575
G1 X210.969 Y92.232 E4.18868
G1 X211.834 Y92.595 E4.21989
G1 X212.664 Y93.031 E4.25107
G1 X213.455 Y93.536 E4.28228
G1 X214.199 Y94.107 E4.31347
G1 X214.892 Y94.739 E4.34467
G1 X215.529 Y95.427 E4.37585
G1 X216.104 Y96.168 E4.40705
G1 X216.615 Y96.954 E4.43823
G1 X217.057 Y97.782 E4.46945
G1 X217.426 Y98.644 E4.50064
G1 X217.721 Y99.534 E4.53182
G1 X217.939 Y100.446 E4.56301
G1 X218.079 Y101.374 E4.59422
G1 X218.137 Y102.235 E4.62293
G1 X218.146 Y102.555 E4.63357
G1 X218.15 Y102.864 E4.64385
G1 X218.15 Y196.73 E7.76585
G1 X218.14 Y197.593 E7.79455
G1 X218.089 Y198.53 E7.82576
G1 X217.957 Y199.458 E7.85694
G1 X217.748 Y200.372 E7.88812
G1 X217.461 Y201.265 E7.91932
G1 X217.099 Y202.131 E7.95054
G1 X216.665 Y202.962 E7.98172
G1 X216.161 Y203.753 E8.01292
G1 X215.592 Y204.498 E8.0441
G1 X214.961 Y205.193 E8.07532
G1 X214.274 Y205.831 E8.1065
G1 X213.535 Y206.408 E8.13769
G1 X212.749 Y206.92 E8.16888
G1 X211.923 Y207.363 E8.20006
G1 X211.061 Y207.735 E8.23129
G1 X210.172 Y208.031 E8.26245
G1 X209.26 Y208.251 E8.29365
G1 X208.333 Y208.392 E8.32484
G1 X207.449 Y208.453 E8.35431
G1 X207.128 Y208.462 E8.36499
G1 X206.82 Y208.466 E8.37524
G1 X169.05 Y208.466 E9.63147
G1 X169.007 Y208.469 E9.63291
G1 X167.98 Y208.465 E9.66706
G1 X131.758 Y208.466 E10.87181
G1 X131.707 Y208.469 E10.87351
G1 X130.68 Y208.465 E10.90767
G1 X93.399 Y208.465 E12.14764
G1 X92.701 Y208.455 E12.17086
G1 X91.765 Y208.401 E12.20204
G1 X90.837 Y208.269 E12.23322
G1 X89.923 Y208.057 E12.26443
G1 X89.031 Y207.768 E12.29561
G1 X88.166 Y207.405 E12.32681
G1 X87.336 Y206.969 E12.358
G1 X86.545 Y206.464 E12.38921
G1 X85.801 Y205.893 E12.4204
G1 X85.108 Y205.261 E12.4516
G1 X84.471 Y204.573 E12.48278
G1 X83.896 Y203.832 E12.51398
G1 X83.385 Y203.046 E12.54516
G1 X82.943 Y202.218 E12.57638
G1 X82.574 Y201.356 E12.60756
G1 X82.279 Y200.466 E12.63875
G1 X82.061 Y199.554 E12.66994
G1 X81.921 Y198.626 E12.70115
G1 X81.863 Y197.754 E12.73022
G1 X81.854 Y197.422 E12.74127
G1 X81.85 Y197.124 E12.75118
G1 X81.85 Y103.208 E15.87484
G1 X81.86 Y102.394 E15.90191
G1 X81.913 Y101.458 E15.93309
G1 X82.045 Y100.529 E15.9643
G1 X82.256 Y99.615 E15.9955
G1 X82.544 Y98.723 E16.02668
G1 X82.907 Y97.858 E16.05788
G1 X83.342 Y97.027 E16.08908
G1 X83.846 Y96.237 E16.12024
G1 X84.416 Y95.492 E16.15144
G1 X85.048 Y94.798 E16.18266
G1 X85.736 Y94.161 E16.21385
G0 F6000 X86.124 Y94.357
G1 F1200 X86.86 Y93.804 E16.24447
G1 X87.641 Y93.316 E16.2751
G1 X88.461 Y92.898 E16.30571
G1 X89.315 Y92.553 E16.33634
G1 X90.195 Y92.283 E16.36696
G1 X91.095 Y92.091 E16.39757
G1 X92.009 Y91.977 E16.4282
G1 X92.562 Y91.947 E16.44662
G1 X92.883 Y91.938 E16.4573
G1 X93.18 Y91.934 E16.46718
G1 X130.947 Y91.933 E17.72332
G1 X130.991 Y91.931 E17.72478
G1 X132.018 Y91.935 E17.75894
G1 X168.225 Y91.934 E18.96319
G1 X168.291 Y91.931 E18.96539
G1 X169.318 Y91.935 E18.99955
G1 X206.595 Y91.935 E20.23938
G1 X207.293 Y91.945 E20.2626
G1 X208.212 Y91.998 E20.29322
G1 X209.123 Y92.131 E20.32384
G1 X210.019 Y92.342 E20.35446
G1 X210.893 Y92.63 E20.38506
G1 X211.74 Y92.993 E20.41571
G1 X212.551 Y93.428 E20.44632
G1 X213.321 Y93.932 E20.47693
G1 X214.045 Y94.501 E20.50756
G1 X214.717 Y95.131 E20.53819
G1 X215.332 Y95.816 E20.56881
G1 X215.885 Y96.552 E20.59943
G1 X216.372 Y97.333 E20.63004
G1 X216.789 Y98.154 E20.66067
G1 X217.134 Y99.008 E20.69131
G1 X217.403 Y99.888 E20.72191
G1 X217.595 Y100.789 E20.75255
G1 X217.708 Y101.702 E20.78315
G1 X217.737 Y102.246 E20.80127
G1 X217.746 Y102.566 E20.81192
G1 X217.75 Y102.864 E20.82183
G1 X217.75 Y196.73 E23.94383
G1 X217.74 Y197.588 E23.97236
G1 X217.689 Y198.507 E24.00298
G1 X217.558 Y199.419 E24.03362
G1 X217.348 Y200.315 E24.06423
G1 X217.062 Y201.19 E24.09485
G1 X216.701 Y202.037 E24.12547
G1 X216.267 Y202.849 E24.15609
G1 X215.765 Y203.621 E24.18672
G1 X215.197 Y204.346 E24.21736
G1 X214.569 Y205.019 E24.24797
G1 X213.885 Y205.635 E24.27859
G1 X213.15 Y206.189 E24.3092
G1 X212.37 Y206.678 E24.33982
G1 X211.55 Y207.097 E24.37045
G1 X210.697 Y207.443 E24.40106
G1 X209.817 Y207.714 E24.43169
G1 X208.917 Y207.907 E24.4623
G1 X208.003 Y208.022 E24.49294
G1 X207.438 Y208.053 E24.51176
G1 X207.117 Y208.062 E24.52244
G1 X206.82 Y208.066 E24.53232
G1 X169.053 Y208.067 E25.78846
G1 X169.009 Y208.069 E25.78992
G1 X167.982 Y208.065 E25.82408
G1 X131.775 Y208.066 E27.02833
G1 X131.709 Y208.069 E27.03053
G1 X130.682 Y208.065 E27.06469
G1 X93.405 Y208.065 E28.30453
G1 X92.707 Y208.055 E28.32774
G1 X91.788 Y208.002 E28.35836
G1 X90.877 Y207.869 E28.38898
G1 X89.981 Y207.658 E28.4196
G1 X89.107 Y207.37 E28.4502
G1 X88.26 Y207.007 E28.48085
G1 X87.449 Y206.572 E28.51146
G1 X86.679 Y206.068 E28.54207
G1 X85.955 Y205.499 E28.5727
G1 X85.283 Y204.869 E28.60334
G1 X84.668 Y204.184 E28.63395
G1 X84.115 Y203.448 E28.66457
G1 X83.628 Y202.667 E28.69519
G1 X83.211 Y201.846 E28.72581
G1 X82.866 Y200.992 E28.75645
G1 X82.597 Y200.112 E28.78705
G1 X82.405 Y199.211 E28.81769
G1 X82.292 Y198.298 E28.84829
G1 X82.263 Y197.743 E28.86678
G1 X82.254 Y197.411 E28.87782
G1 X82.25 Y197.124 E28.88737
G1 X82.25 Y103.208 E32.01103
G1 X82.26 Y102.4 E32.0379
G1 X82.312 Y101.48 E32.06855
G1 X82.444 Y100.569 E32.09917
G1 X82.655 Y99.673 E32.12978
G1 X82.942 Y98.798 E32.16041
G1 X83.305 Y97.952 E32.19103
G1 X83.739 Y97.14 E32.22165
G1 X84.242 Y96.369 E32.25227
G1 X84.811 Y95.645 E32.2829
G1 X85.439 Y94.973 E32.31349
G1 X86.124 Y94.357 E32.34413
G0 F6000 X86.512 Y94.558
G1 F1200 X87.244 Y94.028 E32.37419
G1 X88.019 Y93.565 E32.40422
G1 X88.832 Y93.172 E32.43425
G1 X89.677 Y92.852 E32.4643
G1 X90.546 Y92.609 E32.49432
G1 X91.434 Y92.443 E32.52436
G1 X92.573 Y92.347 E32.56238
G1 X92.894 Y92.338 E32.57306
G1 X93.18 Y92.334 E32.58257
G1 X130.926 Y92.333 E33.83801
G1 X130.99 Y92.331 E33.84014
G1 X132.017 Y92.335 E33.8743
G1 X168.194 Y92.334 E35.07755
G1 X168.29 Y92.331 E35.08074
G1 X169.317 Y92.335 E35.1149
G1 X206.589 Y92.335 E36.35458
G1 X207.287 Y92.345 E36.37779
G1 X208.189 Y92.398 E36.40785
G1 X209.082 Y92.53 E36.43787
G1 X209.96 Y92.741 E36.4679
G1 X210.816 Y93.029 E36.49794
G1 X211.643 Y93.391 E36.52797
G1 X212.435 Y93.826 E36.55802
G1 X213.186 Y94.328 E36.58807
G1 X213.889 Y94.895 E36.61811
G1 X214.539 Y95.522 E36.64814
G1 X215.131 Y96.204 E36.67818
G1 X215.661 Y96.935 E36.70821
G1 X216.123 Y97.711 E36.73825
G1 X216.516 Y98.524 E36.76828
G1 X216.834 Y99.369 E36.79831
G1 X217.077 Y100.239 E36.82836
G1 X217.242 Y101.127 E36.8584
G1 X217.337 Y102.257 E36.89611
G1 X217.346 Y102.577 E36.90676
G1 X217.35 Y102.864 E36.91631
G1 X217.35 Y196.73 E40.0383
G1 X217.34 Y197.583 E40.06668
G1 X217.289 Y198.485 E40.09673
G1 X217.158 Y199.379 E40.12678
G1 X216.949 Y200.257 E40.1568
G1 X216.663 Y201.114 E40.18685
G1 X216.302 Y201.942 E40.21689
G1 X215.87 Y202.734 E40.24689
G1 X215.369 Y203.486 E40.27695
G1 X214.803 Y204.19 E40.30699
G1 X214.178 Y204.841 E40.33701
G1 X213.497 Y205.435 E40.36706
G1 X212.766 Y205.966 E40.39711
G1 X211.992 Y206.43 E40.42713
G1 X211.179 Y206.824 E40.45718
G1 X210.335 Y207.144 E40.4872
G1 X209.465 Y207.389 E40.51726
G1 X208.578 Y207.555 E40.54728
G1 X207.427 Y207.653 E40.5857
G1 X207.106 Y207.662 E40.59638
G1 X206.82 Y207.666 E40.60589
G1 X169.074 Y207.667 E41.86133
G1 X169.01 Y207.669 E41.86346
G1 X167.983 Y207.665 E41.89762
G1 X131.806 Y207.666 E43.10087
G1 X131.71 Y207.669 E43.10406
G1 X130.683 Y207.665 E43.13822
G1 X93.411 Y207.665 E44.37789
G1 X92.713 Y207.655 E44.40111
G1 X91.811 Y207.602 E44.43116
G1 X90.918 Y207.47 E44.46119
G1 X90.04 Y207.259 E44.49122
G1 X89.184 Y206.971 E44.52126
G1 X88.357 Y206.609 E44.55129
G1 X87.565 Y206.174 E44.58134
G1 X86.814 Y205.672 E44.61138
G1 X86.111 Y205.105 E44.64142
G1 X85.461 Y204.478 E44.67146
G1 X84.869 Y203.796 E44.7015
G1 X84.339 Y203.065 E44.73153
G1 X83.877 Y202.289 E44.76157
G1 X83.484 Y201.476 E44.7916
G1 X83.166 Y200.631 E44.82163
G1 X82.923 Y199.761 E44.85167
G1 X82.758 Y198.873 E44.88171
G1 X82.663 Y197.732 E44.9198
G1 X82.654 Y197.4 E44.93084
G1 X82.65 Y197.124 E44.94002
G1 X82.65 Y103.208 E48.06368
G1 X82.66 Y102.405 E48.09039
G1 X82.712 Y101.503 E48.12044
G1 X82.844 Y100.61 E48.15047
G1 X83.054 Y99.732 E48.18049
G1 X83.341 Y98.875 E48.21055
G1 X83.703 Y98.048 E48.24058
G1 X84.136 Y97.256 E48.2706
G1 X84.638 Y96.505 E48.30064
G1 X85.205 Y95.801 E48.33071
G1 X85.831 Y95.151 E48.36072
G1 X86.512 Y94.558 E48.39076
G1 F2700 E43.39076
G0 F6000 X131.107 Y101.873
G0 X132.75 Y103.534
G1 F2700 E48.39076
G1 F1200 X167.25 Y103.534 E49.53823
G1 X167.25 Y103.915 E49.55091
G1 X132.75 Y103.914 E50.69838
G1 X132.75 Y103.534 E50.71102
G0 F6000 X132.35 Y103.134
G1 F1200 X167.65 Y103.134 E51.8851
G1 X167.65 Y104.315 E51.92438
G1 X132.35 Y104.314 E53.09846
G1 X132.35 Y103.134 E53.13771
G0 F6000 X131.95 Y102.734
G1 F1200 X168.05 Y102.734 E54.3384
G1 X168.05 Y104.715 E54.40429
G1 X131.95 Y104.714 E55.60498
G1 X131.95 Y102.734 E55.67084
G1 F2700 E50.67084
G0 F6000 X131.95 Y195.285
G1 F2700 E55.67084
G1 F1200 X168.05 Y195.287 E56.87153
G1 X168.05 Y197.266 E56.93735
G1 X131.95 Y197.266 E58.13804
G1 X131.95 Y195.285 E58.20393
G0 F6000 X132.35 Y195.685
G1 F1200 X167.65 Y195.687 E59.37801
G1 X167.65 Y196.866 E59.41723
G1 X132.35 Y196.866 E60.59131
G1 X132.35 Y195.685 E60.63059
G0 F6000 X132.75 Y196.085
G1 F1200 X167.25 Y196.087 E61.77806
G1 X167.25 Y196.466 E61.79067
G1 X132.75 Y196.466 E62.93814
G1 X132.75 Y196.085 E62.95082
G1 F2700 E57.95082
;MESH:half-lap_wide-narrow_cross.scad.stl
G0 F6000 X131.615 Y134.911
G0 X121.231 Y134.911
G0 X120.42 Y128.748
G0 X121.334 Y125.968
G0 X121.338 Y124.836
G0 X120.419 Y119.671
G0 X120.512 Y117.338
G0 X120.204 Y116.139
G0 X118.205 Y114.841
;TYPE:WALL-INNER
G1 F2700 E62.95082
G1 F1200 X117.984 Y114.802 E62.95828
G1 X117.635 Y114.74 E62.97007
G1 X116.834 Y114.87 E62.99706
G1 X116.138 Y115.311 E63.02446
G1 X115.699 Y116.016 E63.05209
G1 X115.576 Y116.802 E63.07855
G1 X115.646 Y117.402 E63.09864
G1 X115.803 Y117.787 E63.11247
G1 X115.698 Y117.958 E63.11914
G1 X115.606 Y118.563 E63.1395
G1 X115.63 Y118.879 E63.15004
G1 X115.649 Y118.94 E63.15216
G1 X115.656 Y119.023 E63.15493
G1 X115.662 Y119.041 E63.15556
G1 X115.662 Y124.072 E63.32289
G1 X116.034 Y124.072 E63.33527
G1 X116.108 Y124.072 E63.33773
G1 X116.471 Y124.072 E63.3498
G1 X116.108 Y124.391 E63.35796
G1 X116.067 Y124.452 E63.36019
G1 X115.783 Y124.876 E63.37716
G1 X115.645 Y125.442 E63.39654
G1 X115.613 Y125.933 E63.41291
G1 X115.611 Y125.953 E63.41357
G1 X115.62 Y126.235 E63.42296
G1 X115.64 Y126.43 E63.42948
G1 X115.661 Y126.723 E63.43925
G1 X115.716 Y127.081 E63.4513
G1 X115.662 Y127.081
G1 X115.662 Y132.51 E63.63186
G1 X115.699 Y132.51 E63.6331
G1 X115.746 Y132.51 E63.63466
G1 X115.723 Y132.547 E63.63485
G1 X115.699 Y132.586 E63.63521
G1 X115.576 Y133.371 E63.66163
G1 X115.646 Y133.974 E63.68183
G1 X115.803 Y134.356 E63.69556
G1 X115.699 Y134.524 E63.70213
G1 X115.606 Y135.13 E63.72253
G1 X115.628 Y135.441 E63.73289
G1 X115.65 Y135.513 E63.7354
G1 X115.657 Y135.595 E63.73814
G1 X115.662 Y135.61 E63.73866
G1 X115.662 Y140.642 E63.90603
G1 X118.628 Y140.642 E64.00468
G1 X118.979 Y140.642 E64.01635
G1 X120.572 Y140.212 E64.07123
G1 X121.192 Y138.713 E64.12518
G1 X121.098 Y137.952 E64.15069
G1 X121.091 Y137.936 E64.15127
G1 X121.091 Y135.569 E64.22999
G1 X120.964 Y135.569 E64.23422
G1 X120.963 Y135.569 E64.23425
G1 X120.611 Y135.569 E64.24596
G1 X120.793 Y135.267 E64.25258
G1 X121.047 Y134.845 E64.26896
G1 X121.185 Y133.87 E64.30172
G1 X120.778 Y132.278 E64.35637
G1 X120.529 Y132.131 E64.36599
G1 X120.58 Y132.08
G1 X121.014 Y131.646 E64.3864
G1 X121.182 Y130.855 E64.4133
G1 X121.091 Y130.24 E64.43397
G1 X121.036 Y130.141 E64.43774
G1 X121.081 Y130.076 E64.44037
G1 X121.18 Y129.452 E64.46138
G1 X121.091 Y128.899 E64.48001
G1 X121.091 Y126.64 E64.55515
G1 X122.006 Y126.64 E64.58558
G1 X122.006 Y124.341 E64.66205
G1 X121.091 Y124.061 E64.69387
G1 X121.091 Y123.218 E64.72191
G1 X120.748 Y123.218 E64.73332
G1 X120.798 Y123.097 E64.73352
G1 X121.192 Y122.144 E64.76782
G1 X121.098 Y121.383 E64.79333
G1 X121.091 Y121.367 E64.79391
G1 X121.091 Y118.999 E64.87267
G1 X120.963 Y118.999 E64.87692
G1 X120.611 Y118.999 E64.88863
G1 X120.792 Y118.697 E64.89525
G1 X121.047 Y118.273 E64.91171
G1 X121.185 Y117.3 E64.94439
G1 X120.778 Y115.708 E64.99905
G1 X118.52 Y114.374 E65.08628
G1 X118.238 Y114.208 E65.09716
G1 X118.222 Y114.535 E65.10339
G1 X118.221 Y114.536 E65.10343
G1 X118.216 Y114.616 E65.1061
G1 X118.215 Y114.617 E65.10615
G1 X118.205 Y114.841 E65.1108
G0 F6000 X118.603 Y114.888
G1 F1200 X118.603 Y114.891 E65.1109
G1 X118.587 Y115.196 E65.12106
G1 X118.583 Y115.282 E65.12392
G1 X118.583 Y115.286 E65.12405
G1 X118.577 Y115.383 E65.12729
G1 X118.574 Y115.442 E65.12925
G1 X118.337 Y115.27 E65.1366
G1 X118.279 Y115.261 E65.13855
G1 X118.253 Y115.256 E65.13943
G1 X117.632 Y115.146 E65.16041
G1 X116.979 Y115.252 E65.18241
G1 X116.429 Y115.6 E65.20406
G1 X116.082 Y116.158 E65.22591
G1 X115.98 Y116.81 E65.24786
G1 X116.037 Y117.302 E65.26434
G1 X116.223 Y117.759 E65.28075
G1 X116.263 Y117.802 E65.2827
G1 X116.081 Y118.098 E65.29426
G1 X116.008 Y118.578 E65.31041
G1 X116.025 Y118.802 E65.31788
G1 X116.045 Y118.865 E65.32008
G1 X116.051 Y118.943 E65.32268
G1 X116.062 Y118.976 E65.32383
G1 X116.062 Y119.103 E65.32806
G1 X116.158 Y119.391 E65.33816
G1 X116.169 Y119.424 E65.33931
G1 X116.062 Y119.424 E65.33962
G1 X116.062 Y121.514 E65.40914
G1 X118.482 Y121.514 E65.48963
G1 X118.6 Y121.529 E65.49358
G1 X118.715 Y121.545 E65.49744
G1 X118.765 Y121.57 E65.4993
G1 X118.718 Y121.573
G1 X118.593 Y121.584 E65.49989
G1 X118.482 Y121.584 E65.50037
G1 X116.062 Y121.584 E65.51449
G1 X116.062 Y123.672 E65.58393
G1 X118.907 Y123.672 E65.67856
G1 X118.907 Y124.151 E65.69449
G1 X117.704 Y124.151 E65.7345
G1 X117.225 Y124.192 E65.75049
G1 X116.763 Y124.348 E65.76671
G1 X116.411 Y124.657 E65.78229
G1 X116.155 Y125.04 E65.79761
G1 X116.042 Y125.503 E65.81346
G1 X116.011 Y125.96 E65.8287
G1 X116.019 Y126.208 E65.83695
G1 X116.039 Y126.401 E65.8434
G1 X116.059 Y126.679 E65.85268
G1 X116.11 Y127.021 E65.86418
G1 X116.178 Y127.463 E65.87905
G1 X116.181 Y127.481 E65.87966
G1 X116.062 Y127.481 E65.88187
G1 X116.062 Y132.11 E66.03583
G1 X116.429 Y132.11 E66.04804
G1 X116.524 Y132.11 E66.0512
G1 X116.429 Y132.17 E66.05186
G1 X116.354 Y132.291 E66.05282
G1 X116.082 Y132.728 E66.06994
G1 X115.98 Y133.379 E66.09186
G1 X116.037 Y133.873 E66.10839
G1 X116.224 Y134.328 E66.12476
G1 X116.264 Y134.371 E66.12671
G1 X116.082 Y134.665 E66.13821
G1 X116.008 Y135.146 E66.1544
G1 X116.024 Y135.368 E66.1618
G1 X116.044 Y135.434 E66.16409
