;FLAVOR:Marlin
;TIME:31078
;Filament used: 21.1461m
;Layer height: 0.16
;MINX:71.134
;MINY:91.531
;MINZ:0.2
;MAXX:228.866
;MAXY:208.469
;MAXZ:41.56
;Generated with Cura_SteamEngine master
M140 S62
M105
M190 S62
M104 S200
M105
M109 S200
M82 ;absolute extrusion mode
M201 X500.00 Y500.00 Z100.00 E5000.00 ;Setup machine max acceleration
M203 X500.00 Y500.00 Z10.00 E50.00 ;Setup machine max feedrate
M204 P500.00 R1000.00 T500.00 ;Setup Print/Retract/Travel acceleration
M205 X8.00 Y8.00 Z0.40 E5.00 ;Setup Jerk
M220 S100 ;Reset Feedrate
M221 S100 ;Reset Flowrate

G28 ;Home

G92 E0 ;Reset Extruder
G1 Z2.0 F3000 ;Move Z Axis up
G1 X10.1 Y20 Z0.28 F5000.0 ;Move to start position
G1 X10.1 Y200.0 Z0.28 F1500.0 E15 ;Draw the first line
G1 X10.4 Y200.0 Z0.28 F5000.0 ;Move to side a little
G1 X10.4 Y20 Z0.28 F1500.0 E30 ;Draw the second line
G92 E0 ;Reset Extruder
G1 Z2.0 F3000 ;Move Z Axis up

G92 E0
G92 E0
G1 F2700 E-5
;LAYER_COUNT:210
;LAYER:0
M107
G0 F6000 X75.02 Y94.161 Z0.2
;TYPE:SKIRT
G1 F2700 E0
G1 F1200 X75.76 Y93.585 E0.03119
G1 X76.546 Y93.073 E0.06239
G1 X77.373 Y92.631 E0.09358
G1 X78.235 Y92.261 E0.12478
G1 X79.125 Y91.965 E0.15597
G1 X80.037 Y91.747 E0.18716
G1 X80.964 Y91.606 E0.21835
G1 X81.835 Y91.547 E0.24738
G1 X82.156 Y91.538 E0.25806
G1 X82.459 Y91.534 E0.26814
G1 X84.511 Y91.534 E0.33639
G1 X84.559 Y91.531 E0.33799
G1 X85.585 Y91.535 E0.37212
G1 X102.758 Y91.534 E0.94329
G1 X102.809 Y91.531 E0.94499
G1 X103.836 Y91.535 E0.97915
G1 X143.774 Y91.534 E2.30749
G1 X143.825 Y91.531 E2.30919
G1 X144.852 Y91.535 E2.34335
G1 X172.608 Y91.534 E3.26652
G1 X172.659 Y91.531 E3.26822
G1 X173.686 Y91.535 E3.30238
G1 X217.317 Y91.535 E4.75355
G1 X218.015 Y91.545 E4.77677
G1 X218.951 Y91.599 E4.80795
G1 X219.879 Y91.731 E4.83913
G1 X220.793 Y91.943 E4.87034
G1 X221.685 Y92.232 E4.90152
G1 X222.55 Y92.595 E4.93272
G1 X223.38 Y93.031 E4.96391
G1 X224.171 Y93.536 E4.99512
G1 X224.915 Y94.107 E5.02631
G1 X225.608 Y94.739 E5.05751
G1 X226.245 Y95.427 E5.08869
G1 X226.82 Y96.168 E5.11989
G1 X227.331 Y96.954 E5.15107
G1 X227.773 Y97.782 E5.18229
G1 X228.142 Y98.644 E5.21347
G1 X228.437 Y99.534 E5.24466
G1 X228.655 Y100.446 E5.27585
G1 X228.795 Y101.374 E5.30706
G1 X228.853 Y102.235 E5.33576
G1 X228.862 Y102.555 E5.34641
G1 X228.866 Y102.864 E5.35669
G1 X228.866 Y196.73 E8.47868
G1 X228.856 Y197.593 E8.50739
G1 X228.805 Y198.53 E8.5386
G1 X228.673 Y199.458 E8.56978
G1 X228.464 Y200.372 E8.60096
G1 X228.177 Y201.265 E8.63216
G1 X227.815 Y202.131 E8.66338
G1 X227.381 Y202.962 E8.69456
G1 X226.877 Y203.753 E8.72575
G1 X226.308 Y204.498 E8.75693
G1 X225.677 Y205.193 E8.78816
G1 X224.99 Y205.831 E8.81934
G1 X224.251 Y206.408 E8.85052
G1 X223.465 Y206.92 E8.88172
G1 X222.639 Y207.363 E8.9129
G1 X221.777 Y207.735 E8.94412
G1 X220.888 Y208.031 E8.97529
G1 X219.976 Y208.251 E9.00649
G1 X219.049 Y208.392 E9.03768
G1 X218.165 Y208.453 E9.06715
G1 X217.844 Y208.462 E9.07783
G1 X217.536 Y208.466 E9.08807
G1 X173.416 Y208.466 E10.55551
G1 X173.373 Y208.469 E10.55695
G1 X172.346 Y208.465 E10.5911
G1 X144.59 Y208.466 E11.51427
G1 X144.539 Y208.469 E11.51597
G1 X143.512 Y208.465 E11.55013
G1 X103.574 Y208.466 E12.87847
G1 X103.523 Y208.469 E12.88017
G1 X102.497 Y208.465 E12.9143
G1 X85.324 Y208.466 E13.48547
G1 X85.273 Y208.469 E13.48717
G1 X84.254 Y208.465 E13.52107
G1 X82.683 Y208.465 E13.57332
G1 X81.985 Y208.455 E13.59653
G1 X81.049 Y208.401 E13.62772
G1 X80.121 Y208.269 E13.65889
G1 X79.207 Y208.057 E13.6901
G1 X78.315 Y207.768 E13.72129
G1 X77.45 Y207.405 E13.75249
G1 X76.62 Y206.969 E13.78367
G1 X75.829 Y206.464 E13.81488
G1 X75.085 Y205.893 E13.84608
G1 X74.392 Y205.261 E13.87727
G1 X73.755 Y204.573 E13.90846
G1 X73.18 Y203.832 E13.93965
G1 X72.669 Y203.046 E13.97083
G1 X72.227 Y202.218 E14.00205
G1 X71.858 Y201.356 E14.03324
G1 X71.563 Y200.466 E14.06442
G1 X71.345 Y199.554 E14.09561
G1 X71.205 Y198.626 E14.12683
G1 X71.147 Y197.754 E14.15589
G1 X71.138 Y197.422 E14.16694
G1 X71.134 Y197.124 E14.17685
G1 X71.134 Y103.208 E17.30051
G1 X71.144 Y102.394 E17.32759
G1 X71.197 Y101.458 E17.35877
G1 X71.329 Y100.529 E17.38998
G1 X71.54 Y99.615 E17.42118
G1 X71.828 Y98.723 E17.45235
G1 X72.191 Y97.858 E17.48355
G1 X72.626 Y97.027 E17.51475
G1 X73.13 Y96.237 E17.54592
G1 X73.7 Y95.492 E17.57712
G1 X74.332 Y94.798 E17.60834
G1 X75.02 Y94.161 E17.63952
G0 F6000 X75.408 Y94.357
G1 F1200 X76.144 Y93.804 E17.67014
G1 X76.925 Y93.316 E17.70077
G1 X77.745 Y92.898 E17.73138
G1 X78.599 Y92.553 E17.76202
G1 X79.479 Y92.283 E17.79263
G1 X80.379 Y92.091 E17.82324
G1 X81.293 Y91.977 E17.85388
G1 X81.846 Y91.947 E17.8723
G1 X82.167 Y91.938 E17.88298
G1 X82.459 Y91.934 E17.89269
G1 X84.511 Y91.933 E17.96094
G1 X84.557 Y91.931 E17.96247
G1 X85.583 Y91.935 E17.9966
G1 X102.741 Y91.934 E18.56727
G1 X102.807 Y91.931 E18.56947
G1 X103.834 Y91.935 E18.60363
G1 X143.757 Y91.934 E19.93147
G1 X143.823 Y91.931 E19.93367
G1 X144.85 Y91.935 E19.96783
G1 X172.591 Y91.934 E20.8905
G1 X172.657 Y91.931 E20.8927
G1 X173.684 Y91.935 E20.92686
G1 X217.311 Y91.935 E22.3779
G1 X218.009 Y91.945 E22.40111
G1 X218.928 Y91.998 E22.43173
G1 X219.839 Y92.131 E22.46235
G1 X220.735 Y92.342 E22.49297
G1 X221.609 Y92.63 E22.52357
G1 X222.456 Y92.993 E22.55422
G1 X223.267 Y93.428 E22.58483
G1 X224.037 Y93.932 E22.61544
G1 X224.761 Y94.501 E22.64607
G1 X225.433 Y95.131 E22.67671
G1 X226.048 Y95.816 E22.70732
G1 X226.601 Y96.552 E22.73794
G1 X227.088 Y97.333 E22.76856
G1 X227.505 Y98.154 E22.79918
G1 X227.85 Y99.008 E22.82982
G1 X228.119 Y99.888 E22.86042
G1 X228.311 Y100.789 E22.89106
G1 X228.424 Y101.702 E22.92166
G1 X228.453 Y102.246 E22.93978
G1 X228.462 Y102.566 E22.95043
G1 X228.466 Y102.864 E22.96034
G1 X228.466 Y196.73 E26.08234
G1 X228.456 Y197.588 E26.11088
G1 X228.405 Y198.507 E26.14149
G1 X228.274 Y199.419 E26.17213
G1 X228.064 Y200.315 E26.20274
G1 X227.778 Y201.19 E26.23336
G1 X227.417 Y202.037 E26.26398
G1 X226.983 Y202.849 E26.29461
G1 X226.481 Y203.621 E26.32523
G1 X225.913 Y204.346 E26.35587
G1 X225.285 Y205.019 E26.38648
G1 X224.601 Y205.635 E26.4171
G1 X223.866 Y206.189 E26.44771
G1 X223.086 Y206.678 E26.47833
G1 X222.266 Y207.097 E26.50896
G1 X221.413 Y207.443 E26.53957
G1 X220.533 Y207.714 E26.5702
G1 X219.633 Y207.907 E26.60081
G1 X218.719 Y208.022 E26.63145
G1 X218.154 Y208.053 E26.65027
G1 X217.833 Y208.062 E26.66095
G1 X217.536 Y208.066 E26.67083
G1 X173.419 Y208.067 E28.13817
G1 X173.375 Y208.069 E28.13964
G1 X172.348 Y208.065 E28.17379
G1 X144.607 Y208.066 E29.09646
G1 X144.541 Y208.069 E29.09866
G1 X143.514 Y208.065 E29.13282
G1 X103.591 Y208.066 E30.46066
G1 X103.525 Y208.069 E30.46286
G1 X102.499 Y208.065 E30.49699
G1 X85.341 Y208.066 E31.06766
G1 X85.275 Y208.069 E31.06986
G1 X84.255 Y208.065 E31.10379
G1 X82.689 Y208.065 E31.15587
G1 X81.991 Y208.055 E31.17909
G1 X81.072 Y208.002 E31.20971
G1 X80.161 Y207.869 E31.24033
G1 X79.265 Y207.658 E31.27094
G1 X78.391 Y207.37 E31.30155
G1 X77.544 Y207.007 E31.3322
G1 X76.733 Y206.572 E31.36281
G1 X75.963 Y206.068 E31.39342
G1 X75.239 Y205.499 E31.42405
G1 X74.567 Y204.869 E31.45468
G1 X73.952 Y204.184 E31.4853
G1 X73.399 Y203.448 E31.51592
G1 X72.912 Y202.667 E31.54653
G1 X72.495 Y201.846 E31.57716
G1 X72.15 Y200.992 E31.60779
G1 X71.881 Y200.112 E31.6384
G1 X71.689 Y199.211 E31.66904
G1 X71.576 Y198.298 E31.69964
G1 X71.547 Y197.743 E31.71812
G1 X71.538 Y197.411 E31.72917
G1 X71.534 Y197.124 E31.73872
G1 X71.534 Y103.208 E34.86238
G1 X71.544 Y102.4 E34.88925
G1 X71.596 Y101.48 E34.9199
G1 X71.728 Y100.569 E34.95052
G1 X71.939 Y99.673 E34.98113
G1 X72.226 Y98.798 E35.01176
G1 X72.589 Y97.952 E35.04238
G1 X73.023 Y97.14 E35.073
G1 X73.526 Y96.369 E35.10362
G1 X74.095 Y95.645 E35.13425
G1 X74.723 Y94.973 E35.16484
G1 X75.408 Y94.357 E35.19548
G0 F6000 X75.796 Y94.558
G1 F1200 X76.528 Y94.028 E35.22554
G1 X77.303 Y93.565 E35.25556
G1 X78.116 Y93.172 E35.2856
G1 X78.961 Y92.852 E35.31565
G1 X79.83 Y92.609 E35.34566
G1 X80.718 Y92.443 E35.37571
G1 X81.857 Y92.347 E35.41373
G1 X82.178 Y92.338 E35.42441
G1 X82.459 Y92.334 E35.43375
G1 X84.492 Y92.333 E35.50137
G1 X84.556 Y92.331 E35.5035
G1 X85.582 Y92.335 E35.53763
G1 X102.71 Y92.334 E36.10731
G1 X102.806 Y92.331 E36.1105
G1 X103.833 Y92.335 E36.14466
G1 X143.726 Y92.334 E37.47151
G1 X143.822 Y92.331 E37.4747
G1 X144.849 Y92.335 E37.50886
G1 X172.56 Y92.334 E38.43053
G1 X172.656 Y92.331 E38.43373
G1 X173.683 Y92.335 E38.46788
G1 X217.305 Y92.335 E39.91876
G1 X218.003 Y92.345 E39.94198
G1 X218.905 Y92.398 E39.97203
G1 X219.798 Y92.53 E40.00205
G1 X220.676 Y92.741 E40.03209
G1 X221.532 Y93.029 E40.06212
G1 X222.359 Y93.391 E40.09215
G1 X223.151 Y93.826 E40.1222
G1 X223.902 Y94.328 E40.15225
G1 X224.605 Y94.895 E40.18229
G1 X225.255 Y95.522 E40.21233
G1 X225.847 Y96.204 E40.24236
G1 X226.377 Y96.935 E40.27239
G1 X226.839 Y97.711 E40.30243
G1 X227.232 Y98.524 E40.33247
G1 X227.55 Y99.369 E40.3625
G1 X227.793 Y100.239 E40.39254
G1 X227.958 Y101.127 E40.42258
G1 X228.053 Y102.257 E40.4603
G1 X228.062 Y102.577 E40.47094
G1 X228.066 Y102.864 E40.48049
G1 X228.066 Y196.73 E43.60249
G1 X228.056 Y197.583 E43.63086
G1 X228.005 Y198.485 E43.66091
G1 X227.874 Y199.379 E43.69096
G1 X227.665 Y200.257 E43.72098
G1 X227.379 Y201.114 E43.75103
G1 X227.018 Y201.942 E43.78107
G1 X226.586 Y202.734 E43.81108
G1 X226.085 Y203.486 E43.84113
G1 X225.519 Y204.19 E43.87117
G1 X224.894 Y204.841 E43.90119
G1 X224.213 Y205.435 E43.93125
G1 X223.482 Y205.966 E43.9613
G1 X222.708 Y206.43 E43.99131
G1 X221.895 Y206.824 E44.02136
G1 X221.051 Y207.144 E44.05138
G1 X220.181 Y207.389 E44.08144
G1 X219.294 Y207.555 E44.11146
G1 X218.143 Y207.653 E44.14988
G1 X217.822 Y207.662 E44.16056
G1 X217.536 Y207.666 E44.17007
G1 X173.44 Y207.667 E45.63671
G1 X173.376 Y207.669 E45.63884
G1 X172.349 Y207.665 E45.673
G1 X144.638 Y207.666 E46.59467
G1 X144.542 Y207.669 E46.59787
G1 X143.515 Y207.665 E46.63202
G1 X103.622 Y207.666 E47.95887
G1 X103.526 Y207.669 E47.96207
G1 X102.5 Y207.665 E47.99619
G1 X85.372 Y207.666 E48.56587
G1 X85.276 Y207.669 E48.56906
G1 X84.256 Y207.665 E48.60299
G1 X82.695 Y207.665 E48.65491
G1 X81.997 Y207.655 E48.67813
G1 X81.095 Y207.602 E48.70818
G1 X80.202 Y207.47 E48.7382
G1 X79.324 Y207.259 E48.76824
G1 X78.468 Y206.971 E48.79828
G1 X77.641 Y206.609 E48.8283
G1 X76.849 Y206.174 E48.85836
G1 X76.098 Y205.672 E48.8884
G1 X75.395 Y205.105 E48.91844
G1 X74.745 Y204.478 E48.94848
G1 X74.153 Y203.796 E48.97852
G1 X73.623 Y203.065 E49.00855
G1 X73.161 Y202.289 E49.03858
G1 X72.768 Y201.476 E49.06862
G1 X72.45 Y200.631 E49.09865
G1 X72.207 Y199.761 E49.12869
G1 X72.042 Y198.873 E49.15873
G1 X71.947 Y197.732 E49.19681
G1 X71.938 Y197.4 E49.20786
G1 X71.934 Y197.124 E49.21704
G1 X71.934 Y103.208 E52.3407
G1 X71.944 Y102.405 E52.36741
G1 X71.996 Y101.503 E52.39746
G1 X72.128 Y100.61 E52.42748
G1 X72.338 Y99.732 E52.45751
G1 X72.625 Y98.875 E52.48757
G1 X72.987 Y98.048 E52.5176
G1 X73.42 Y97.256 E52.54762
G1 X73.922 Y96.505 E52.57766
G1 X74.489 Y95.801 E52.60773
G1 X75.115 Y95.151 E52.63774
G1 X75.796 Y94.558 E52.66778
G1 F2700 E47.66778
G0 F6000 X143.939 Y101.873
G0 X145.582 Y103.534
G1 F2700 E52.66778
G1 F1200 X171.616 Y103.534 E53.53367
G1 X171.616 Y103.915 E53.54634
G1 X145.582 Y103.914 E54.41224
G1 X145.582 Y103.534 E54.42488
G0 F6000 X145.182 Y103.134
G1 F1200 X172.016 Y103.134 E55.31738
G1 X172.016 Y104.315 E55.35666
G1 X145.182 Y104.314 E56.24916
G1 X145.182 Y103.134 E56.28841
G0 F6000 X144.782 Y102.734
G1 F1200 X172.416 Y102.734 E57.20752
G1 X172.416 Y104.715 E57.27341
G1 X144.782 Y104.714 E58.19252
G1 X144.782 Y102.734 E58.25837
G1 F2700 E53.25837
G0 F6000 X143.939 Y101.873
G0 X103.409 Y101.873
G0 X102.566 Y102.734
G1 F2700 E58.25837
G1 F1200 X102.566 Y104.715 E58.32426
G1 X85.516 Y104.715 E58.89135
G1 X85.516 Y102.734 E58.95723
G1 X102.566 Y102.734 E59.52432
G0 F6000 X102.166 Y103.134
G1 F1200 X102.166 Y104.315 E59.5636
G1 X85.916 Y104.315 E60.10408
G1 X85.916 Y103.134 E60.14336
G1 X102.166 Y103.134 E60.68383
G0 F6000 X101.766 Y103.534
G1 F1200 X101.766 Y103.915 E60.69651
G1 X86.316 Y103.915 E61.21038
G1 X86.316 Y103.534 E61.22305
G1 X101.766 Y103.534 E61.73692
G1 F2700 E56.73692
G0 F6000 X102.566 Y195.287
G1 F2700 E61.73692
G1 F1200 X102.566 Y197.266 E61.80274
G1 X85.516 Y197.266 E62.36982
G1 X85.516 Y195.285 E62.43571
G1 X102.566 Y195.287 E63.0028
G0 F6000 X102.166 Y195.687
G1 F1200 X102.166 Y196.866 E63.04201
G1 X85.916 Y196.866 E63.58249
G1 X85.916 Y195.685 E63.62177
G1 X102.166 Y195.687 E64.16225
G0 F6000 X101.766 Y196.087
G1 F1200 X101.766 Y196.466 E64.17485
G1 X86.316 Y196.466 E64.68872
G1 X86.316 Y196.085 E64.70139
G1 X101.766 Y196.087 E65.21526
G1 F2700 E60.21526
G0 F6000 X102.905 Y197.623
G0 X103.409 Y198.127
G0 X143.939 Y198.127
G0 X144.443 Y197.623
G0 X144.782 Y195.285
G1 F2700 E65.21526
G1 F1200 X172.416 Y195.287 E66.13437
G1 X172.416 Y197.266 E66.20019
G1 X144.782 Y197.266 E67.1193
G1 X144.782 Y195.285 E67.18519
G0 F6000 X145.182 Y195.685
G1 F1200 X172.016 Y195.687 E68.0777
G1 X172.016 Y196.866 E68.11691
G1 X145.182 Y196.866 E69.00941
G1 X145.182 Y195.685 E69.04869
G0 F6000 X145.582 Y196.085
G1 F1200 X171.616 Y196.087 E69.91459
G1 X171.616 Y196.466 E69.92719
G1 X145.582 Y196.466 E70.79309
G1 X145.582 Y196.085 E70.80576
G1 F2700 E65.80576
;MESH:half-lap_wide-wide_end.scad.stl
G0 F6000 X144.447 Y196.085
G0 X142.572 Y196.085
G0 X142.6 Y196.284
G0 X104.748 Y196.284
G0 X104.757 Y135.91
G0 X107.092 Y136.601
G0 X108.342 Y136.194
;TYPE:WALL-INNER
G1 F2700 E70.80576
G1 F1200 X108.68 Y136.194 E70.817
G1 X108.681 Y136.194 E70.81703
G1 X111.519 Y136.194 E70.91143
G1 X111.519 Y133.838 E70.98979
G1 X108.646 Y133.838 E71.08534
G1 X108.645 Y133.838 E71.08538
G1 X108.313 Y133.838 E71.09642
G1 X108.47 Y133.545 E71.10273
G1 X108.578 Y133.344 E71.11032
G1 X108.735 Y133.051 E71.12137
G1 X108.403 Y133.051 E71.12768
G1 X108.402 Y133.051 E71.12771
G1 X106.372 Y133.051 E71.19523
G1 X105.63 Y133.791 E71.23008
G1 X104.901 Y134.259 E71.2589
G1 X104.693 Y134.392 E71.26711
G1 X104.693 Y135.644 E71.30875
G1 X104.901 Y135.775 E71.31692
G1 X105.636 Y136.238 E71.34582
G1 X106.382 Y136.956 E71.38025
G1 X108.428 Y136.956 E71.4483
G1 X108.429 Y136.956 E71.44834
G1 X108.767 Y136.956 E71.45958
G1 X108.602 Y136.66 E71.46599
G1 X108.507 Y136.49 E71.47247
G1 X108.342 Y136.194 E71.47888
G0 F6000 X107.921 Y136.26
G1 F1200 X107.826 Y136.09 E71.48536
G1 X107.661 Y135.794 E71.49663
G1 X107.999 Y135.794 E71.50302
G1 X108 Y135.794 E71.50305
G1 X111.119 Y135.794 E71.60679
G1 X111.119 Y134.238 E71.65855
G1 X107.978 Y134.238 E71.76302
G1 X107.977 Y134.238 E71.76305
G1 X107.645 Y134.238 E71.77409
G1 X107.802 Y133.945 E71.7804
G1 X107.91 Y133.744 E71.78799
G1 X108.067 Y133.451 E71.79905
G1 X107.735 Y133.451 E71.80535
G1 X107.734 Y133.451 E71.80538
G1 X106.537 Y133.451 E71.8452
G1 X105.879 Y134.107 E71.8761
G1 X105.093 Y134.611 E71.90715
G1 X105.093 Y135.423 E71.93416
G1 X105.887 Y135.924 E71.96539
G1 X106.543 Y136.556 E71.99569
G1 X107.747 Y136.556 E72.03573
G1 X107.748 Y136.556 E72.03576
G1 X108.086 Y136.556 E72.04701
G1 X107.921 Y136.26 E72.05342
G0 F6000 X107.237 Y135.544
G0 X106.979 Y135.394
;TYPE:WALL-OUTER
G1 F1200 X110.719 Y135.394 E72.17781
G1 X110.719 Y134.638 E72.20295
G1 X106.974 Y134.638 E72.32751
G1 X106.987 Y134.62 E72.32825
G1 X107.399 Y133.851 E72.35727
G1 X106.702 Y133.851 E72.38045
G1 X106.131 Y134.421 E72.40729
G1 X105.493 Y134.83 E72.43249
G1 X105.493 Y135.202 E72.44486
G1 X106.133 Y135.606 E72.47004
G1 X106.704 Y136.156 E72.49641
G1 X107.405 Y136.156 E72.51972
G1 X106.985 Y135.402 E72.54843
G1 X106.979 Y135.394 E72.54876
G1 F2700 E67.54876
G0 F6000 X107.237 Y135.544
G0 X107.609 Y136.276
G0 X105.531 Y136.374
G0 X104.757 Y135.91
G0 X104.748 Y142.248
G0 X105.619 Y147.771
G0 X111.634 Y148.261
G0 X111.645 Y155.22
G0 X111.466 Y156.444
G0 X110.16 Y158.583
;TYPE:WALL-INNER
G1 F2700 E72.54876
G1 F1200 X111.369 Y157.859 E72.59563
G1 X112.101 Y156.676 E72.6419
G1 X112.306 Y155.269 E72.68919
G1 X112.306 Y142.43 E73.11622
G1 X104.947 Y142.43 E73.36098
G1 X104.947 Y155.511 E73.79606
G1 X104.964 Y155.613 E73.79949
G1 X105.172 Y156.805 E73.83974
G1 X105.946 Y157.915 E73.88475
G1 X107.176 Y158.593 E73.93146
