;FLAVOR:Marlin
;TIME:27962
;Filament used: 19.8481m
;Layer height: 0.16
;MINX:71.134
;MINY:91.534
;MINZ:0.2
;MAXX:228.866
;MAXY:208.466
;MAXZ:41.56
;Generated with Cura_SteamEngine master
M140 S62
M105
M190 S62
M104 S200
M105
M109 S200
M82 ;absolute extrusion mode
M201 X500.00 Y500.00 Z100.00 E5000.00 ;Setup machine max acceleration
M203 X500.00 Y500.00 Z10.00 E50.00 ;Setup machine max feedrate
M204 P500.00 R1000.00 T500.00 ;Setup Print/Retract/Travel acceleration
M205 X8.00 Y8.00 Z0.40 E5.00 ;Setup Jerk
M220 S100 ;Reset Feedrate
M221 S100 ;Reset Flowrate

G28 ;Home

G92 E0 ;Reset Extruder
G1 Z2.0 F3000 ;Move Z Axis up
G1 X10.1 Y20 Z0.28 F5000.0 ;Move to start position
G1 X10.1 Y200.0 Z0.28 F1500.0 E15 ;Draw the first line
G1 X10.4 Y200.0 Z0.28 F5000.0 ;Move to side a little
G1 X10.4 Y20 Z0.28 F1500.0 E30 ;Draw the second line
G92 E0 ;Reset Extruder
G1 Z2.0 F3000 ;Move Z Axis up

G92 E0
G92 E0
G1 F2700 E-5
;LAYER_COUNT:210
;LAYER:0
M107
G0 F6000 X75.02 Y94.161 Z0.2
;TYPE:SKIRT
G1 F2700 E0
G1 F1200 X75.76 Y93.585 E0.03119
G1 X76.546 Y93.073 E0.06239
G1 X77.373 Y92.631 E0.09358
G1 X78.235 Y92.261 E0.12478
G1 X79.125 Y91.965 E0.15597
G1 X80.037 Y91.747 E0.18716
G1 X80.964 Y91.606 E0.21835
G1 X81.835 Y91.547 E0.24738
G1 X82.156 Y91.538 E0.25806
G1 X82.464 Y91.534 E0.26831
G1 X83.967 Y91.535 E0.3183
G1 X84.665 Y91.545 E0.34152
G1 X85.271 Y91.571 E0.36169
G1 X85.87 Y91.614 E0.38167
G1 X87.73 Y91.772 E0.44375
G1 X90.276 Y91.915 E0.52857
G1 X92.8 Y91.986 E0.61255
G1 X95.324 Y91.986 E0.6965
G1 X97.809 Y91.915 E0.77918
G1 X100.375 Y91.768 E0.86467
G1 X101.669 Y91.667 E0.90784
G1 X102.627 Y91.584 E0.93982
G1 X103.267 Y91.547 E0.96114
G1 X103.587 Y91.538 E0.97179
G1 X103.896 Y91.534 E0.98207
G1 X143.244 Y91.535 E2.29079
G1 X143.961 Y91.546 E2.31464
G1 X145.192 Y91.634 E2.35568
G1 X145.8 Y91.712 E2.37607
G1 X147.229 Y91.916 E2.42408
G1 X149.719 Y92.2 E2.50744
G1 X152.249 Y92.417 E2.59189
G1 X154.764 Y92.562 E2.67568
G1 X157.259 Y92.635 E2.7587
G1 X159.778 Y92.637 E2.84248
G1 X162.309 Y92.567 E2.9267
G1 X164.826 Y92.427 E3.01054
G1 X167.302 Y92.219 E3.09319
G1 X169.882 Y91.928 E3.17954
G1 X171.252 Y91.742 E3.22553
G1 X171.868 Y91.654 E3.24622
G1 X173.117 Y91.547 E3.28792
G1 X173.437 Y91.538 E3.29856
G1 X173.746 Y91.534 E3.30884
G1 X217.301 Y91.535 E4.75749
G1 X217.999 Y91.544 E4.7807
G1 X218.935 Y91.596 E4.81188
G1 X219.864 Y91.728 E4.84309
G1 X220.778 Y91.938 E4.87428
G1 X221.671 Y92.225 E4.90548
G1 X222.536 Y92.588 E4.93668
G1 X223.367 Y93.022 E4.96786
G1 X224.158 Y93.526 E4.99906
G1 X224.903 Y94.096 E5.03026
G1 X225.597 Y94.727 E5.06146
G1 X226.234 Y95.414 E5.09262
G1 X226.811 Y96.154 E5.12383
G1 X227.323 Y96.94 E5.15503
G1 X227.766 Y97.767 E5.18623
G1 X228.137 Y98.628 E5.21741
G1 X228.433 Y99.518 E5.24861
G1 X228.652 Y100.43 E5.2798
G1 X228.793 Y101.357 E5.31099
G1 X228.852 Y102.219 E5.33973
G1 X228.861 Y102.524 E5.34988
G1 X228.866 Y102.848 E5.36065
G1 X228.866 Y196.73 E8.48318
G1 X228.856 Y197.593 E8.51189
G1 X228.805 Y198.53 E8.5431
G1 X228.673 Y199.458 E8.57428
G1 X228.464 Y200.372 E8.60546
G1 X228.177 Y201.265 E8.63666
G1 X227.815 Y202.131 E8.66788
G1 X227.381 Y202.962 E8.69906
G1 X226.877 Y203.753 E8.73025
G1 X226.308 Y204.498 E8.76143
G1 X225.677 Y205.193 E8.79265
G1 X224.99 Y205.831 E8.82384
G1 X224.251 Y206.408 E8.85502
G1 X223.465 Y206.92 E8.88622
G1 X222.639 Y207.363 E8.9174
G1 X221.777 Y207.735 E8.94862
G1 X220.888 Y208.031 E8.97979
G1 X219.976 Y208.251 E9.01099
G1 X219.049 Y208.392 E9.04218
G1 X218.165 Y208.453 E9.07165
G1 X217.844 Y208.462 E9.08233
G1 X217.536 Y208.466 E9.09257
G1 X173.954 Y208.465 E10.54212
G1 X173.236 Y208.454 E10.566
G1 X172.003 Y208.365 E10.60712
G1 X171.239 Y208.266 E10.63274
G1 X169.969 Y208.084 E10.67541
G1 X167.479 Y207.8 E10.75877
G1 X164.949 Y207.583 E10.84322
G1 X162.434 Y207.438 E10.92701
G1 X159.939 Y207.365 E11.01003
G1 X157.42 Y207.363 E11.09381
G1 X154.889 Y207.433 E11.17803
G1 X152.372 Y207.573 E11.26187
G1 X149.896 Y207.781 E11.34451
G1 X147.316 Y208.072 E11.43087
G1 X145.946 Y208.258 E11.47685
G1 X145.33 Y208.346 E11.49755
G1 X144.081 Y208.453 E11.53924
G1 X143.761 Y208.462 E11.54989
G1 X143.452 Y208.466 E11.56017
G1 X104.115 Y208.465 E12.86852
G1 X103.418 Y208.455 E12.89171
G1 X102.814 Y208.43 E12.91181
G1 X102.382 Y208.4 E12.92622
G1 X100.352 Y208.228 E12.99398
G1 X97.806 Y208.085 E13.07879
G1 X95.282 Y208.014 E13.16277
G1 X92.758 Y208.014 E13.24672
G1 X90.273 Y208.085 E13.32941
G1 X87.707 Y208.232 E13.41489
G1 X86.38 Y208.336 E13.45916
G1 X85.449 Y208.416 E13.49024
G1 X84.815 Y208.453 E13.51137
G1 X84.498 Y208.462 E13.52191
G1 X84.186 Y208.466 E13.53229
G1 X82.699 Y208.465 E13.58175
G1 X82.001 Y208.456 E13.60497
G1 X81.065 Y208.404 E13.63615
G1 X80.136 Y208.272 E13.66736
G1 X79.222 Y208.062 E13.69855
G1 X78.329 Y207.775 E13.72975
G1 X77.464 Y207.412 E13.76095
G1 X76.633 Y206.978 E13.79213
G1 X75.842 Y206.474 E13.82332
G1 X75.097 Y205.904 E13.85452
G1 X74.403 Y205.273 E13.88572
G1 X73.766 Y204.586 E13.91688
G1 X73.189 Y203.846 E13.94809
G1 X72.677 Y203.06 E13.97929
G1 X72.234 Y202.233 E14.01049
G1 X71.863 Y201.372 E14.04168
G1 X71.567 Y200.482 E14.07287
G1 X71.348 Y199.57 E14.10407
G1 X71.207 Y198.643 E14.13525
G1 X71.147 Y197.754 E14.16489
G1 X71.138 Y197.421 E14.17597
G1 X71.134 Y197.124 E14.18585
G1 X71.134 Y103.208 E17.30951
G1 X71.144 Y102.394 E17.33658
G1 X71.197 Y101.458 E17.36776
G1 X71.329 Y100.529 E17.39897
G1 X71.54 Y99.615 E17.43017
G1 X71.828 Y98.723 E17.46135
G1 X72.191 Y97.858 E17.49255
G1 X72.626 Y97.027 E17.52375
G1 X73.13 Y96.237 E17.55491
G1 X73.7 Y95.492 E17.58611
G1 X74.332 Y94.798 E17.61733
G1 X75.02 Y94.161 E17.64852
G0 F6000 X75.408 Y94.357
G1 F1200 X76.144 Y93.804 E17.67914
G1 X76.925 Y93.316 E17.70977
G1 X77.745 Y92.898 E17.74038
G1 X78.599 Y92.553 E17.77101
G1 X79.479 Y92.283 E17.80163
G1 X80.379 Y92.091 E17.83224
G1 X81.293 Y91.977 E17.86287
G1 X81.846 Y91.947 E17.88129
G1 X82.167 Y91.938 E17.89197
G1 X82.464 Y91.934 E17.90185
G1 X83.809 Y91.934 E17.94659
G1 X84.659 Y91.945 E17.97486
G1 X85.243 Y91.97 E17.9943
G1 X85.836 Y92.012 E18.01408
G1 X87.744 Y92.174 E18.07776
G1 X90.241 Y92.315 E18.16095
G1 X92.789 Y92.386 E18.24573
G1 X95.3 Y92.386 E18.32924
G1 X97.844 Y92.313 E18.41389
G1 X100.385 Y92.168 E18.49854
G1 X101.777 Y92.06 E18.54498
G1 X102.661 Y91.983 E18.57449
G1 X103.278 Y91.947 E18.59505
G1 X103.598 Y91.938 E18.6057
G1 X103.896 Y91.934 E18.61561
G1 X143.238 Y91.935 E19.92413
G1 X143.955 Y91.946 E19.94798
G1 X145.141 Y92.031 E19.98753
G1 X145.749 Y92.109 E20.00792
G1 X147.16 Y92.31 E20.05532
G1 X149.712 Y92.602 E20.14075
G1 X152.191 Y92.814 E20.22351
G1 X154.767 Y92.962 E20.30933
G1 X157.247 Y93.035 E20.39185
G1 X159.789 Y93.037 E20.47639
G1 X162.308 Y92.967 E20.56021
G1 X164.847 Y92.826 E20.64479
G1 X167.379 Y92.613 E20.7293
G1 X169.892 Y92.33 E20.81341
G1 X171.366 Y92.13 E20.86288
G1 X171.925 Y92.05 E20.88167
G1 X173.128 Y91.947 E20.92182
G1 X173.448 Y91.938 E20.93247
G1 X173.746 Y91.934 E20.94238
G1 X217.296 Y91.935 E22.39086
G1 X217.994 Y91.944 E22.41408
G1 X218.913 Y91.996 E22.4447
G1 X219.824 Y92.127 E22.47531
G1 X220.72 Y92.337 E22.50592
G1 X221.595 Y92.624 E22.53654
G1 X222.442 Y92.986 E22.56718
G1 X223.254 Y93.42 E22.5978
G1 X224.025 Y93.922 E22.6284
G1 X224.75 Y94.49 E22.65904
G1 X225.423 Y95.119 E22.68967
G1 X226.038 Y95.803 E22.72027
G1 X226.592 Y96.538 E22.75088
G1 X227.08 Y97.319 E22.78151
G1 X227.499 Y98.139 E22.81214
G1 X227.845 Y98.992 E22.84275
G1 X228.115 Y99.872 E22.87337
G1 X228.308 Y100.773 E22.90402
G1 X228.422 Y101.686 E22.93462
G1 X228.452 Y102.23 E22.95274
G1 X228.461 Y102.535 E22.96289
G1 X228.466 Y102.848 E22.9733
G1 X228.466 Y196.73 E26.09583
G1 X228.456 Y197.588 E26.12437
G1 X228.405 Y198.507 E26.15498
G1 X228.274 Y199.419 E26.18563
G1 X228.064 Y200.315 E26.21623
G1 X227.778 Y201.19 E26.24685
G1 X227.417 Y202.037 E26.27748
G1 X226.983 Y202.849 E26.3081
G1 X226.481 Y203.621 E26.33873
G1 X225.913 Y204.346 E26.36936
G1 X225.285 Y205.019 E26.39997
G1 X224.601 Y205.635 E26.43059
G1 X223.866 Y206.189 E26.4612
G1 X223.086 Y206.678 E26.49182
G1 X222.266 Y207.097 E26.52245
G1 X221.413 Y207.443 E26.55307
G1 X220.533 Y207.714 E26.58369
G1 X219.633 Y207.907 E26.61431
G1 X218.719 Y208.022 E26.64495
G1 X218.154 Y208.053 E26.66377
G1 X217.833 Y208.062 E26.67445
G1 X217.536 Y208.066 E26.68433
G1 X173.961 Y208.065 E28.13364
G1 X173.243 Y208.054 E28.15752
G1 X172.054 Y207.969 E28.19717
G1 X171.447 Y207.891 E28.21752
G1 X170.038 Y207.69 E28.26486
G1 X167.486 Y207.398 E28.35029
G1 X165.007 Y207.186 E28.43305
G1 X162.431 Y207.038 E28.51887
G1 X159.951 Y206.965 E28.60139
G1 X157.409 Y206.963 E28.68593
G1 X154.89 Y207.033 E28.76975
G1 X152.351 Y207.174 E28.85433
G1 X149.819 Y207.387 E28.93884
G1 X147.306 Y207.67 E29.02295
G1 X145.832 Y207.87 E29.07242
G1 X145.273 Y207.95 E29.09121
G1 X144.07 Y208.053 E29.13136
G1 X143.75 Y208.062 E29.14201
G1 X143.452 Y208.066 E29.15192
G1 X104.121 Y208.065 E30.46008
G1 X103.424 Y208.055 E30.48326
G1 X102.842 Y208.031 E30.50264
G1 X102.41 Y208.001 E30.51704
G1 X100.338 Y207.826 E30.5862
G1 X97.841 Y207.685 E30.66938
G1 X95.293 Y207.614 E30.75416
G1 X92.782 Y207.614 E30.83768
G1 X90.238 Y207.687 E30.92233
G1 X87.697 Y207.832 E31.00698
G1 X86.326 Y207.939 E31.05272
G1 X85.415 Y208.018 E31.08313
G1 X84.804 Y208.053 E31.10349
G1 X84.487 Y208.062 E31.11403
G1 X84.186 Y208.066 E31.12405
G1 X82.704 Y208.065 E31.17334
G1 X82.006 Y208.056 E31.19656
G1 X81.087 Y208.004 E31.22717
G1 X80.176 Y207.873 E31.25778
G1 X79.28 Y207.663 E31.28839
G1 X78.405 Y207.376 E31.31902
G1 X77.558 Y207.014 E31.34966
G1 X76.746 Y206.58 E31.38028
G1 X75.975 Y206.078 E31.41088
G1 X75.25 Y205.51 E31.44151
G1 X74.577 Y204.881 E31.47215
G1 X73.962 Y204.197 E31.50274
G1 X73.408 Y203.462 E31.53336
G1 X72.92 Y202.681 E31.56399
G1 X72.501 Y201.861 E31.59461
G1 X72.155 Y201.008 E31.62523
G1 X71.885 Y200.128 E31.65585
G1 X71.692 Y199.227 E31.68649
G1 X71.578 Y198.314 E31.71709
G1 X71.547 Y197.743 E31.73611
G1 X71.538 Y197.41 E31.74719
G1 X71.534 Y197.124 E31.75671
G1 X71.534 Y103.208 E34.88037
G1 X71.544 Y102.4 E34.90724
G1 X71.596 Y101.48 E34.93789
G1 X71.728 Y100.569 E34.96851
G1 X71.939 Y99.673 E34.99912
G1 X72.226 Y98.798 E35.02975
G1 X72.589 Y97.952 E35.06037
G1 X73.023 Y97.14 E35.09099
G1 X73.526 Y96.369 E35.12161
G1 X74.095 Y95.645 E35.15224
G1 X74.723 Y94.973 E35.18283
G1 X75.408 Y94.357 E35.21347
G0 F6000 X75.796 Y94.558
G1 F1200 X76.528 Y94.028 E35.24353
G1 X77.303 Y93.565 E35.27355
G1 X78.116 Y93.172 E35.30359
G1 X78.961 Y92.852 E35.33364
G1 X79.83 Y92.609 E35.36365
G1 X80.718 Y92.443 E35.3937
G1 X81.857 Y92.347 E35.43172
G1 X82.178 Y92.338 E35.4424
G1 X82.464 Y92.334 E35.45191
G1 X83.955 Y92.335 E35.5015
G1 X84.653 Y92.345 E35.52472
G1 X85.215 Y92.369 E35.54343
G1 X85.802 Y92.411 E35.563
G1 X87.686 Y92.571 E35.62589
G1 X90.244 Y92.715 E35.7111
G1 X92.778 Y92.786 E35.79542
G1 X95.312 Y92.786 E35.8797
G1 X97.876 Y92.713 E35.96501
G1 X100.393 Y92.569 E36.04887
G1 X101.796 Y92.459 E36.09567
G1 X102.696 Y92.381 E36.12572
G1 X103.289 Y92.347 E36.14548
G1 X103.609 Y92.338 E36.15612
G1 X103.896 Y92.334 E36.16567
G1 X143.231 Y92.335 E37.47396
G1 X143.948 Y92.346 E37.49781
G1 X145.09 Y92.428 E37.53589
G1 X145.845 Y92.526 E37.56121
G1 X147.124 Y92.709 E37.60418
G1 X149.636 Y92.996 E37.68828
G1 X152.202 Y93.216 E37.77393
G1 X154.697 Y93.36 E37.85706
G1 X157.27 Y93.435 E37.94267
G1 X159.8 Y93.437 E38.02682
G1 X162.341 Y93.367 E38.11137
G1 X164.866 Y93.226 E38.19548
G1 X167.39 Y93.014 E38.27972
G1 X169.985 Y92.721 E38.36658
G1 X171.345 Y92.537 E38.41223
G1 X171.981 Y92.446 E38.4336
G1 X173.139 Y92.347 E38.47225
G1 X173.459 Y92.338 E38.4829
G1 X173.746 Y92.334 E38.49245
G1 X217.291 Y92.335 E39.94076
G1 X217.989 Y92.344 E39.96398
G1 X218.89 Y92.395 E39.99399
G1 X219.784 Y92.527 E40.02405
G1 X220.662 Y92.736 E40.05407
G1 X221.519 Y93.023 E40.08413
G1 X222.346 Y93.384 E40.11414
G1 X223.139 Y93.817 E40.14419
G1 X223.89 Y94.318 E40.17422
G1 X224.594 Y94.884 E40.20426
G1 X225.245 Y95.51 E40.2343
G1 X225.838 Y96.191 E40.26433
G1 X226.368 Y96.922 E40.29436
G1 X226.832 Y97.697 E40.32441
G1 X227.226 Y98.51 E40.35446
G1 X227.546 Y99.354 E40.38448
G1 X227.79 Y100.224 E40.41453
G1 X227.956 Y101.112 E40.44458
G1 X228.053 Y102.242 E40.4823
G1 X228.062 Y102.547 E40.49245
G1 X228.066 Y102.848 E40.50246
G1 X228.066 Y196.73 E43.62499
G1 X228.056 Y197.583 E43.65336
G1 X228.005 Y198.485 E43.68341
G1 X227.874 Y199.379 E43.71346
G1 X227.665 Y200.257 E43.74348
G1 X227.379 Y201.114 E43.77353
G1 X227.018 Y201.942 E43.80357
G1 X226.586 Y202.734 E43.83358
G1 X226.085 Y203.486 E43.86363
G1 X225.519 Y204.19 E43.89368
G1 X224.894 Y204.841 E43.92369
G1 X224.213 Y205.435 E43.95375
G1 X223.482 Y205.966 E43.9838
G1 X222.708 Y206.43 E44.01381
G1 X221.895 Y206.824 E44.04386
G1 X221.051 Y207.144 E44.07388
G1 X220.181 Y207.389 E44.10395
G1 X219.294 Y207.555 E44.13396
G1 X218.143 Y207.653 E44.17238
G1 X217.822 Y207.662 E44.18306
G1 X217.536 Y207.666 E44.19257
G1 X173.967 Y207.665 E45.64169
G1 X173.249 Y207.654 E45.66557
G1 X172.105 Y207.572 E45.70372
G1 X171.498 Y207.494 E45.72407
G1 X170.074 Y207.291 E45.77191
G1 X167.562 Y207.004 E45.85601
G1 X164.996 Y206.784 E45.94166
G1 X162.501 Y206.64 E46.02479
G1 X159.928 Y206.565 E46.1104
G1 X157.398 Y206.563 E46.19455
G1 X154.857 Y206.633 E46.2791
G1 X152.332 Y206.774 E46.36321
G1 X149.808 Y206.986 E46.44745
G1 X147.213 Y207.279 E46.53431
G1 X145.853 Y207.463 E46.57996
G1 X145.217 Y207.554 E46.60133
G1 X144.059 Y207.653 E46.63998
G1 X143.739 Y207.662 E46.65063
G1 X143.452 Y207.666 E46.66018
G1 X104.127 Y207.665 E47.96813
G1 X103.43 Y207.655 E47.99131
G1 X102.869 Y207.631 E48.00999
G1 X102.28 Y207.589 E48.02963
G1 X100.396 Y207.429 E48.09252
G1 X97.838 Y207.285 E48.17773
G1 X95.304 Y207.214 E48.26205
G1 X92.77 Y207.214 E48.34633
G1 X90.206 Y207.287 E48.43164
G1 X87.689 Y207.431 E48.51549
G1 X86.274 Y207.542 E48.5627
G1 X85.38 Y207.619 E48.59255
G1 X84.792 Y207.653 E48.61214
G1 X84.475 Y207.662 E48.62268
G1 X84.186 Y207.666 E48.6323
G1 X82.709 Y207.665 E48.68142
G1 X82.011 Y207.656 E48.70464
G1 X81.11 Y207.605 E48.73465
G1 X80.216 Y207.473 E48.76471
G1 X79.338 Y207.264 E48.79473
G1 X78.481 Y206.977 E48.82479
G1 X77.654 Y206.616 E48.8548
G1 X76.861 Y206.183 E48.88485
G1 X76.11 Y205.682 E48.91488
G1 X75.406 Y205.116 E48.94492
G1 X74.755 Y204.49 E48.97496
G1 X74.162 Y203.809 E49.005
G1 X73.632 Y203.078 E49.03503
G1 X73.168 Y202.303 E49.06507
G1 X72.774 Y201.49 E49.09512
G1 X72.454 Y200.646 E49.12514
G1 X72.21 Y199.776 E49.15519
G1 X72.044 Y198.888 E49.18524
G1 X71.947 Y197.733 E49.22379
G1 X71.938 Y197.4 E49.23487
G1 X71.934 Y197.124 E49.24405
G1 X71.934 Y103.208 E52.36771
G1 X71.944 Y102.405 E52.39442
G1 X71.996 Y101.503 E52.42447
G1 X72.128 Y100.61 E52.4545
G1 X72.338 Y99.732 E52.48452
G1 X72.625 Y98.875 E52.51458
G1 X72.987 Y98.048 E52.54461
G1 X73.42 Y97.256 E52.57463
G1 X73.922 Y96.505 E52.60467
G1 X74.489 Y95.801 E52.63474
G1 X75.115 Y95.151 E52.66475
G1 X75.796 Y94.558 E52.69479
G1 F2700 E47.69479
;MESH:half-lap_wide-wide_end.scad.stl
G0 F6000 X102.901 Y102.848
G0 X103.88 Y102.848
G0 X104.757 Y113.487
G0 X107.178 Y112.24
G0 X107.6 Y113.093
G0 X110.847 Y113.872
G0 X110.847 Y114.884
G0 X108.344 Y115.556
;TYPE:WALL-INNER
G1 F2700 E52.69479
G1 F1200 X108.684 Y115.556 E52.7061
G1 X111.519 Y115.556 E52.80039
G1 X111.519 Y113.2 E52.87875
G1 X108.646 Y113.2 E52.97431
G1 X108.645 Y113.2 E52.97434
G1 X108.314 Y113.2 E52.98535
G1 X108.47 Y112.908 E52.99164
G1 X108.578 Y112.706 E52.99926
G1 X108.735 Y112.413 E53.01032
G1 X108.403 Y112.413 E53.01662
G1 X108.402 Y112.413 E53.01665
G1 X106.37 Y112.413 E53.08424
G1 X105.629 Y113.155 E53.11912
G1 X104.901 Y113.622 E53.14788
G1 X104.693 Y113.755 E53.1561
G1 X104.693 Y115.01 E53.19784
G1 X104.9 Y115.139 E53.20595
G1 X105.634 Y115.598 E53.23474
G1 X106.38 Y116.318 E53.26923
G1 X108.43 Y116.318 E53.33741
G1 X108.77 Y116.318 E53.34872
G1 X108.604 Y116.021 E53.35516
G1 X108.51 Y115.853 E53.36156
G1 X108.344 Y115.556 E53.368
G0 F6000 X107.922 Y115.621
G1 F1200 X107.828 Y115.453 E53.3744
G1 X107.662 Y115.156 E53.38572
G1 X108.002 Y115.156 E53.39216
G1 X111.119 Y115.156 E53.49583
