;FLAVOR:Marlin
;TIME:29204
;Filament used: 20.6051m
;Layer height: 0.16
;MINX:50.1
;MINY:91.531
;MINZ:0.2
;MAXX:249.9
;MAXY:208.469
;MAXZ:41.56
;Generated with Cura_SteamEngine master
M140 S70
M105
M190 S70
M104 S200
M105
M109 S200
M82 ;absolute extrusion mode
M201 X500.00 Y500.00 Z100.00 E5000.00 ;Setup machine max acceleration
M203 X500.00 Y500.00 Z10.00 E50.00 ;Setup machine max feedrate
M204 P500.00 R1000.00 T500.00 ;Setup Print/Retract/Travel acceleration
M205 X8.00 Y8.00 Z0.40 E5.00 ;Setup Jerk
M220 S100 ;Reset Feedrate
M221 S100 ;Reset Flowrate

G28 ;Home

G92 E0 ;Reset Extruder
G1 Z2.0 F3000 ;Move Z Axis up
G1 X10.1 Y20 Z0.28 F5000.0 ;Move to start position
G1 X10.1 Y200.0 Z0.28 F1500.0 E15 ;Draw the first line
G1 X10.4 Y200.0 Z0.28 F5000.0 ;Move to side a little
G1 X10.4 Y20 Z0.28 F1500.0 E30 ;Draw the second line
G92 E0 ;Reset Extruder
G1 Z2.0 F3000 ;Move Z Axis up

G92 E0
G92 E0
G1 F2700 E-5
;LAYER_COUNT:210
;LAYER:0
M107
G0 F6000 X55.512 Y93.073 Z0.2
;TYPE:SKIRT
G1 F2700 E0
G1 F1200 X56.339 Y92.631 E0.03119
G1 X57.201 Y92.261 E0.06239
G1 X58.091 Y91.965 E0.09358
G1 X59.003 Y91.747 E0.12477
G1 X59.93 Y91.606 E0.15596
G1 X60.801 Y91.547 E0.18499
G1 X61.122 Y91.538 E0.19567
G1 X61.43 Y91.534 E0.20592
G1 X105.55 Y91.534 E1.67336
G1 X105.593 Y91.531 E1.67479
G1 X106.62 Y91.535 E1.70895
G1 X193.642 Y91.534 E4.60331
G1 X193.693 Y91.531 E4.60501
G1 X194.72 Y91.535 E4.63917
G1 X238.351 Y91.535 E6.09034
G1 X239.049 Y91.545 E6.11356
G1 X239.985 Y91.599 E6.14474
G1 X240.913 Y91.731 E6.17592
G1 X241.827 Y91.943 E6.20713
G1 X242.719 Y92.232 E6.23831
G1 X243.584 Y92.595 E6.26951
G1 X244.414 Y93.031 E6.3007
G1 X245.205 Y93.536 E6.33191
G1 X245.949 Y94.107 E6.3631
G1 X246.642 Y94.739 E6.3943
G1 X247.279 Y95.427 E6.42548
G1 X247.854 Y96.168 E6.45668
G1 X248.365 Y96.954 E6.48786
G1 X248.807 Y97.782 E6.51908
G1 X249.176 Y98.644 E6.55027
G1 X249.471 Y99.534 E6.58145
G1 X249.689 Y100.446 E6.61264
G1 X249.829 Y101.374 E6.64385
G1 X249.887 Y102.235 E6.67255
G1 X249.896 Y102.555 E6.6832
G1 X249.9 Y102.864 E6.69348
G1 X249.9 Y196.73 E9.81548
G1 X249.89 Y197.593 E9.84418
G1 X249.839 Y198.53 E9.87539
G1 X249.707 Y199.458 E9.90657
G1 X249.498 Y200.372 E9.93775
G1 X249.211 Y201.265 E9.96895
G1 X248.849 Y202.131 E10.00017
G1 X248.415 Y202.962 E10.03135
G1 X247.911 Y203.753 E10.06255
G1 X247.342 Y204.498 E10.09373
G1 X246.711 Y205.193 E10.12495
G1 X246.024 Y205.831 E10.15613
G1 X245.285 Y206.408 E10.18731
G1 X244.499 Y206.92 E10.21851
G1 X243.673 Y207.363 E10.24969
G1 X242.811 Y207.735 E10.28091
G1 X241.922 Y208.031 E10.31208
G1 X241.01 Y208.251 E10.34328
G1 X240.083 Y208.392 E10.37447
G1 X239.199 Y208.453 E10.40394
G1 X238.878 Y208.462 E10.41462
G1 X238.57 Y208.466 E10.42487
G1 X194.45 Y208.466 E11.8923
G1 X194.407 Y208.469 E11.89374
G1 X193.38 Y208.465 E11.9279
G1 X106.358 Y208.466 E14.82226
G1 X106.307 Y208.469 E14.82396
G1 X105.28 Y208.465 E14.85812
G1 X61.649 Y208.465 E16.30929
G1 X60.951 Y208.455 E16.33251
G1 X60.015 Y208.401 E16.36369
G1 X59.087 Y208.269 E16.39487
G1 X58.173 Y208.057 E16.42607
G1 X57.281 Y207.768 E16.45726
G1 X56.416 Y207.405 E16.48846
G1 X55.586 Y206.969 E16.51964
G1 X54.795 Y206.464 E16.55086
G1 X54.051 Y205.893 E16.58205
G1 X53.358 Y205.261 E16.61325
G1 X52.721 Y204.573 E16.64443
G1 X52.146 Y203.832 E16.67563
G1 X51.635 Y203.046 E16.70681
G1 X51.193 Y202.218 E16.73803
G1 X50.824 Y201.356 E16.76921
G1 X50.529 Y200.466 E16.8004
G1 X50.311 Y199.554 E16.83158
G1 X50.171 Y198.626 E16.8628
G1 X50.113 Y197.754 E16.89187
G1 X50.104 Y197.422 E16.90291
G1 X50.1 Y197.124 E16.91283
G1 X50.1 Y103.208 E20.03648
G1 X50.11 Y102.394 E20.06356
G1 X50.163 Y101.458 E20.09474
G1 X50.295 Y100.529 E20.12595
G1 X50.506 Y99.615 E20.15715
G1 X50.794 Y98.723 E20.18833
G1 X51.157 Y97.858 E20.21953
G1 X51.592 Y97.027 E20.25072
G1 X52.096 Y96.237 E20.28189
G1 X52.666 Y95.492 E20.31309
G1 X53.298 Y94.798 E20.34431
G1 X53.986 Y94.161 E20.37549
G1 X54.726 Y93.585 E20.40668
G1 X55.512 Y93.073 E20.43788
G0 F6000 X55.891 Y93.316
G1 F1200 X56.711 Y92.898 E20.4685
G1 X57.565 Y92.553 E20.49913
G1 X58.445 Y92.283 E20.52975
G1 X59.345 Y92.091 E20.56035
G1 X60.259 Y91.977 E20.59099
G1 X60.812 Y91.947 E20.60941
G1 X61.133 Y91.938 E20.62009
G1 X61.43 Y91.934 E20.62997
G1 X105.547 Y91.933 E22.09731
G1 X105.591 Y91.931 E22.09877
G1 X106.618 Y91.935 E22.13293
G1 X193.625 Y91.934 E25.02679
G1 X193.691 Y91.931 E25.02899
G1 X194.718 Y91.935 E25.06315
G1 X238.345 Y91.935 E26.51419
G1 X239.043 Y91.945 E26.53741
G1 X239.962 Y91.998 E26.56803
G1 X240.873 Y92.131 E26.59865
G1 X241.769 Y92.342 E26.62926
G1 X242.643 Y92.63 E26.65987
G1 X243.49 Y92.993 E26.69052
G1 X244.301 Y93.428 E26.72113
G1 X245.071 Y93.932 E26.75174
G1 X245.795 Y94.501 E26.78236
G1 X246.467 Y95.131 E26.813
G1 X247.082 Y95.816 E26.84362
G1 X247.635 Y96.552 E26.87424
G1 X248.122 Y97.333 E26.90485
G1 X248.539 Y98.154 E26.93548
G1 X248.884 Y99.008 E26.96611
G1 X249.153 Y99.888 E26.99672
G1 X249.345 Y100.789 E27.02736
G1 X249.458 Y101.702 E27.05796
G1 X249.487 Y102.246 E27.07608
G1 X249.496 Y102.566 E27.08672
G1 X249.5 Y102.864 E27.09664
G1 X249.5 Y196.73 E30.21863
G1 X249.49 Y197.588 E30.24717
G1 X249.439 Y198.507 E30.27778
G1 X249.308 Y199.419 E30.30843
G1 X249.098 Y200.315 E30.33904
G1 X248.812 Y201.19 E30.36965
G1 X248.451 Y202.037 E30.40028
G1 X248.017 Y202.849 E30.4309
G1 X247.515 Y203.621 E30.46153
G1 X246.947 Y204.346 E30.49216
G1 X246.319 Y205.019 E30.52278
G1 X245.635 Y205.635 E30.55339
G1 X244.9 Y206.189 E30.58401
G1 X244.12 Y206.678 E30.61463
G1 X243.3 Y207.097 E30.64525
G1 X242.447 Y207.443 E30.67587
G1 X241.567 Y207.714 E30.70649
G1 X240.667 Y207.907 E30.73711
G1 X239.753 Y208.022 E30.76775
G1 X239.188 Y208.053 E30.78657
G1 X238.867 Y208.062 E30.79725
G1 X238.57 Y208.066 E30.80713
G1 X194.453 Y208.067 E32.27447
G1 X194.409 Y208.069 E32.27593
G1 X193.382 Y208.065 E32.31009
G1 X106.375 Y208.066 E35.20395
G1 X106.309 Y208.069 E35.20615
G1 X105.282 Y208.065 E35.24031
G1 X61.655 Y208.065 E36.69135
G1 X60.957 Y208.055 E36.71457
G1 X60.038 Y208.002 E36.74518
G1 X59.127 Y207.869 E36.77581
G1 X58.231 Y207.658 E36.80642
G1 X57.357 Y207.37 E36.83703
G1 X56.51 Y207.007 E36.86768
G1 X55.699 Y206.572 E36.89829
G1 X54.929 Y206.068 E36.9289
G1 X54.205 Y205.499 E36.95952
G1 X53.533 Y204.869 E36.99016
G1 X52.918 Y204.184 E37.02078
G1 X52.365 Y203.448 E37.0514
G1 X51.878 Y202.667 E37.08201
G1 X51.461 Y201.846 E37.11264
G1 X51.116 Y200.992 E37.14327
G1 X50.847 Y200.112 E37.17388
G1 X50.655 Y199.211 E37.20452
G1 X50.542 Y198.298 E37.23512
G1 X50.513 Y197.743 E37.2536
G1 X50.504 Y197.411 E37.26465
G1 X50.5 Y197.124 E37.27419
G1 X50.5 Y103.208 E40.39785
G1 X50.51 Y102.4 E40.42473
G1 X50.562 Y101.48 E40.45538
G1 X50.694 Y100.569 E40.48599
G1 X50.905 Y99.673 E40.51661
G1 X51.192 Y98.798 E40.54724
G1 X51.555 Y97.952 E40.57786
G1 X51.989 Y97.14 E40.60848
G1 X52.492 Y96.369 E40.6391
G1 X53.061 Y95.645 E40.66973
G1 X53.689 Y94.973 E40.70032
G1 X54.374 Y94.357 E40.73096
G1 X55.11 Y93.804 E40.76158
G1 X55.891 Y93.316 E40.79221
G0 F6000 X56.269 Y93.565
G1 F1200 X57.082 Y93.172 E40.82224
G1 X57.927 Y92.852 E40.85229
G1 X58.796 Y92.609 E40.88231
G1 X59.684 Y92.443 E40.91235
G1 X60.823 Y92.347 E40.95037
G1 X61.144 Y92.338 E40.96105
G1 X61.43 Y92.334 E40.97056
G1 X105.526 Y92.333 E42.4372
G1 X105.59 Y92.331 E42.43933
G1 X106.617 Y92.335 E42.47349
G1 X193.594 Y92.334 E45.36636
G1 X193.69 Y92.331 E45.36955
G1 X194.717 Y92.335 E45.40371
G1 X238.339 Y92.335 E46.85458
G1 X239.037 Y92.345 E46.8778
G1 X239.939 Y92.398 E46.90785
G1 X240.832 Y92.53 E46.93788
G1 X241.71 Y92.741 E46.96791
G1 X242.566 Y93.029 E46.99795
G1 X243.393 Y93.391 E47.02798
G1 X244.185 Y93.826 E47.05803
G1 X244.936 Y94.328 E47.08808
G1 X245.639 Y94.895 E47.11811
G1 X246.289 Y95.522 E47.14815
G1 X246.881 Y96.204 E47.17819
G1 X247.411 Y96.935 E47.20822
G1 X247.873 Y97.711 E47.23826
G1 X248.266 Y98.524 E47.26829
G1 X248.584 Y99.369 E47.29832
G1 X248.827 Y100.239 E47.32837
G1 X248.992 Y101.127 E47.35841
G1 X249.087 Y102.257 E47.39612
G1 X249.096 Y102.577 E47.40677
G1 X249.1 Y102.864 E47.41632
G1 X249.1 Y196.73 E50.53831
G1 X249.09 Y197.583 E50.56669
G1 X249.039 Y198.485 E50.59673
G1 X248.908 Y199.379 E50.62679
G1 X248.699 Y200.257 E50.6568
G1 X248.413 Y201.114 E50.68685
G1 X248.052 Y201.942 E50.7169
G1 X247.62 Y202.734 E50.7469
G1 X247.119 Y203.486 E50.77696
G1 X246.553 Y204.19 E50.807
G1 X245.928 Y204.841 E50.83702
G1 X245.247 Y205.435 E50.86707
G1 X244.516 Y205.966 E50.89712
G1 X243.742 Y206.43 E50.92714
G1 X242.929 Y206.824 E50.95719
G1 X242.085 Y207.144 E50.98721
G1 X241.215 Y207.389 E51.01727
G1 X240.328 Y207.555 E51.04728
G1 X239.177 Y207.653 E51.0857
G1 X238.856 Y207.662 E51.09639
G1 X238.57 Y207.666 E51.1059
G1 X194.474 Y207.667 E52.57254
G1 X194.41 Y207.669 E52.57467
G1 X193.383 Y207.665 E52.60883
G1 X106.406 Y207.666 E55.50169
G1 X106.31 Y207.669 E55.50489
G1 X105.283 Y207.665 E55.53905
G1 X61.661 Y207.665 E56.98992
G1 X60.963 Y207.655 E57.01314
G1 X60.061 Y207.602 E57.04319
G1 X59.168 Y207.47 E57.07321
G1 X58.29 Y207.259 E57.10325
G1 X57.434 Y206.971 E57.13329
G1 X56.607 Y206.609 E57.16331
G1 X55.815 Y206.174 E57.19337
G1 X55.064 Y205.672 E57.22341
G1 X54.361 Y205.105 E57.25345
G1 X53.711 Y204.478 E57.28349
G1 X53.119 Y203.796 E57.31353
G1 X52.589 Y203.065 E57.34356
G1 X52.127 Y202.289 E57.37359
G1 X51.734 Y201.476 E57.40363
G1 X51.416 Y200.631 E57.43366
G1 X51.173 Y199.761 E57.4637
G1 X51.008 Y198.873 E57.49374
G1 X50.913 Y197.732 E57.53182
G1 X50.904 Y197.4 E57.54287
G1 X50.9 Y197.124 E57.55205
G1 X50.9 Y103.208 E60.67571
G1 X50.91 Y102.405 E60.70242
G1 X50.962 Y101.503 E60.73247
G1 X51.094 Y100.61 E60.76249
G1 X51.304 Y99.732 E60.79252
G1 X51.591 Y98.875 E60.82258
G1 X51.953 Y98.048 E60.85261
G1 X52.386 Y97.256 E60.88263
G1 X52.888 Y96.505 E60.91267
G1 X53.455 Y95.801 E60.94274
G1 X54.081 Y95.151 E60.97275
G1 X54.762 Y94.558 E61.00279
G1 X55.494 Y94.028 E61.03284
G1 X56.269 Y93.565 E61.06287
G1 F2700 E56.06287
G0 F6000 X105.707 Y101.873
G0 X107.35 Y103.534
G1 F2700 E61.06287
G1 F1200 X192.65 Y103.534 E63.89996
G1 X192.65 Y103.915 E63.91263
G1 X107.35 Y103.914 E66.74972
G1 X107.35 Y103.534 E66.76236
G0 F6000 X106.95 Y103.134
G1 F1200 X193.05 Y103.134 E69.62606
G1 X193.05 Y104.315 E69.66534
G1 X106.95 Y104.314 E72.52904
G1 X106.95 Y103.134 E72.56828
G0 F6000 X106.55 Y102.734
G1 F1200 X193.45 Y102.734 E75.45859
G1 X193.45 Y104.715 E75.52448
G1 X106.55 Y104.714 E78.41478
G1 X106.55 Y102.734 E78.48064
G1 F2700 E73.48064
G0 F6000 X106.55 Y195.285
G1 F2700 E78.48064
G1 F1200 X193.45 Y195.287 E81.37094
G1 X193.45 Y197.266 E81.43676
G1 X106.55 Y197.266 E84.32707
G1 X106.55 Y195.285 E84.39296
G0 F6000 X106.95 Y195.685
G1 F1200 X193.05 Y195.687 E87.25666
G1 X193.05 Y196.866 E87.29587
G1 X106.95 Y196.866 E90.15957
G1 X106.95 Y195.685 E90.19885
G0 F6000 X107.35 Y196.085
G1 F1200 X192.65 Y196.087 E93.03594
G1 X192.65 Y196.466 E93.04854
G1 X107.35 Y196.466 E95.88563
G1 X107.35 Y196.085 E95.8983
G1 F2700 E90.8983
;MESH:half-lap_wide-wide_cross.scad.stl
G0 F6000 X106.215 Y130.154
G0 X89.513 Y130.154
G0 X89.328 Y125.97
G0 X89.584 Y125.968
G0 X89.588 Y124.836
G0 X88.669 Y119.671
G0 X88.762 Y117.338
G0 X88.454 Y116.139
G0 X86.455 Y114.841
;TYPE:WALL-INNER
G1 F2700 E95.8983
G1 F1200 X86.234 Y114.802 E95.90577
G1 X85.885 Y114.74 E95.91756
G1 X85.084 Y114.87 E95.94455
G1 X84.388 Y115.311 E95.97195
G1 X83.949 Y116.016 E95.99958
G1 X83.826 Y116.802 E96.02604
G1 X83.896 Y117.402 E96.04613
G1 X84.053 Y117.787 E96.05996
G1 X83.948 Y117.958 E96.06663
G1 X83.856 Y118.563 E96.08698
G1 X83.88 Y118.879 E96.09753
G1 X83.899 Y118.94 E96.09965
G1 X83.906 Y119.023 E96.10242
G1 X83.912 Y119.041 E96.10305
G1 X83.912 Y124.072 E96.27038
G1 X84.284 Y124.072 E96.28276
G1 X84.358 Y124.072 E96.28522
G1 X84.721 Y124.072 E96.29729
G1 X84.358 Y124.391 E96.30545
G1 X84.317 Y124.452 E96.30768
G1 X84.033 Y124.876 E96.32465
G1 X83.895 Y125.442 E96.34403
G1 X83.863 Y125.933 E96.3604
G1 X83.861 Y125.953 E96.36106
G1 X83.87 Y126.235 E96.37045
G1 X83.89 Y126.43 E96.37697
G1 X83.911 Y126.723 E96.38674
G1 X83.966 Y127.081 E96.39879
G1 X83.912 Y127.081
G1 X83.912 Y132.51 E96.57935
G1 X83.949 Y132.51 E96.58059
G1 X83.996 Y132.51 E96.58215
G1 X83.973 Y132.547 E96.58234
G1 X83.949 Y132.586 E96.5827
G1 X83.826 Y133.371 E96.60912
G1 X83.896 Y133.974 E96.62931
G1 X84.053 Y134.356 E96.64305
G1 X83.949 Y134.524 E96.64962
G1 X83.856 Y135.13 E96.67001
G1 X83.878 Y135.441 E96.68038
G1 X83.9 Y135.513 E96.68289
G1 X83.907 Y135.595 E96.68563
G1 X83.912 Y135.61 E96.68615
G1 X83.912 Y140.642 E96.85352
G1 X86.878 Y140.642 E96.95217
G1 X87.229 Y140.642 E96.96384
G1 X88.822 Y140.212 E97.01872
G1 X89.442 Y138.713 E97.07267
G1 X89.348 Y137.952 E97.09818
G1 X89.341 Y137.936 E97.09876
G1 X89.341 Y135.569 E97.17748
G1 X89.214 Y135.569 E97.18171
G1 X89.213 Y135.569 E97.18174
G1 X88.861 Y135.569 E97.19345
G1 X89.043 Y135.267 E97.20007
G1 X89.297 Y134.845 E97.21645
G1 X89.435 Y133.87 E97.24921
G1 X89.028 Y132.278 E97.30386
G1 X88.779 Y132.131 E97.31348
G1 X88.83 Y132.08
G1 X89.264 Y131.646 E97.33389
G1 X89.432 Y130.855 E97.36079
G1 X89.341 Y130.24 E97.38146
G1 X89.286 Y130.141 E97.38523
G1 X89.331 Y130.076 E97.38786
G1 X89.43 Y129.452 E97.40887
G1 X89.341 Y128.899 E97.4275
G1 X89.341 Y126.64 E97.50264
G1 X90.256 Y126.64 E97.53307
G1 X90.256 Y124.341 E97.60954
G1 X89.341 Y124.061 E97.64136
G1 X89.341 Y123.218 E97.6694
G1 X88.998 Y123.218 E97.68081
G1 X89.048 Y123.097 E97.68101
G1 X89.442 Y122.144 E97.71531
G1 X89.348 Y121.383 E97.74082
G1 X89.341 Y121.367 E97.7414
G1 X89.341 Y118.999 E97.82016
G1 X89.213 Y118.999 E97.82441
G1 X88.861 Y118.999 E97.83612
G1 X89.042 Y118.697 E97.84274
G1 X89.297 Y118.273 E97.8592
G1 X89.435 Y117.3 E97.89188
G1 X89.028 Y115.708 E97.94654
G1 X86.77 Y114.374 E98.03377
G1 X86.488 Y114.208 E98.04465
G1 X86.472 Y114.535 E98.05088
G1 X86.471 Y114.536 E98.05092
G1 X86.466 Y114.616 E98.05359
G1 X86.465 Y114.617 E98.05364
G1 X86.455 Y114.841 E98.05829
G0 F6000 X86.853 Y114.888
G1 F1200 X86.853 Y114.891 E98.05839
G1 X86.837 Y115.196 E98.06855
G1 X86.833 Y115.282 E98.07141
G1 X86.833 Y115.286 E98.07154
G1 X86.827 Y115.383 E98.07478
G1 X86.824 Y115.442 E98.07674
G1 X86.587 Y115.27 E98.08409
G1 X86.529 Y115.261 E98.08604
G1 X86.503 Y115.256 E98.08692
G1 X85.882 Y115.146 E98.1079
G1 X85.229 Y115.252 E98.1299
G1 X84.679 Y115.6 E98.15155
G1 X84.332 Y116.158 E98.1734
G1 X84.23 Y116.81 E98.19535
G1 X84.287 Y117.302 E98.21183
G1 X84.473 Y117.759 E98.22824
G1 X84.513 Y117.802 E98.23019
G1 X84.331 Y118.098 E98.24175
G1 X84.258 Y118.578 E98.2579
G1 X84.275 Y118.802 E98.26537
G1 X84.295 Y118.865 E98.26757
G1 X84.301 Y118.943 E98.27017
G1 X84.312 Y118.976 E98.27132
G1 X84.312 Y119.103 E98.27555
G1 X84.408 Y119.391 E98.28565
G1 X84.419 Y119.424 E98.2868
G1 X84.312 Y119.424 E98.28711
G1 X84.312 Y121.514 E98.35663
G1 X86.732 Y121.514 E98.43711
G1 X86.85 Y121.529 E98.44107
G1 X86.965 Y121.545 E98.44493
G1 X87.015 Y121.57 E98.44679
G1 X86.968 Y121.573
G1 X86.843 Y121.584 E98.44738
G1 X86.732 Y121.584 E98.44786
G1 X84.312 Y121.584 E98.46198
G1 X84.312 Y123.672 E98.53142
G1 X87.157 Y123.672 E98.62605
G1 X87.157 Y124.151 E98.64198
G1 X85.954 Y124.151 E98.68199
G1 X85.475 Y124.192 E98.69798
G1 X85.013 Y124.348 E98.7142
G1 X84.661 Y124.657 E98.72978
G1 X84.405 Y125.04 E98.7451
G1 X84.292 Y125.503 E98.76095
G1 X84.261 Y125.96 E98.77619
G1 X84.269 Y126.208 E98.78444
G1 X84.289 Y126.401 E98.79089
G1 X84.309 Y126.679 E98.80016
G1 X84.36 Y127.021 E98.81167
G1 X84.428 Y127.463 E98.82654
G1 X84.431 Y127.481 E98.82715
G1 X84.312 Y127.481 E98.82936
G1 X84.312 Y132.11 E98.98332
G1 X84.679 Y132.11 E98.99553
G1 X84.774 Y132.11 E98.99869
G1 X84.679 Y132.17 E98.99935
G1 X84.604 Y132.291 E99.00031
G1 X84.332 Y132.728 E99.01743
G1 X84.23 Y133.379 E99.03935
G1 X84.287 Y133.873 E99.05588
G1 X84.474 Y134.328 E99.07225
G1 X84.514 Y134.371 E99.0742
G1 X84.332 Y134.665 E99.0857
G1 X84.258 Y135.146 E99.10189
G1 X84.274 Y135.368 E99.10929
G1 X84.294 Y135.434 E99.11158
G1 X84.297 Y135.477 E99.11302
G1 X84.301 Y135.513 E99.11422
G1 X84.312 Y135.546 E99.11538
G1 X84.312 Y135.674 E99.11964
G1 X84.408 Y135.961 E99.1297
