;FLAVOR:Marlin
;TIME:41919
;Filament used: 35.3068m
;Layer height: 0.16
;MINX:88.2
;MINY:120.744
;MINZ:0.2
;MAXX:211.8
;MAXY:180.844
;MAXZ:88.84
;Generated with Cura_SteamEngine master
M140 S70
M105
M190 S70
M104 S200
M105
M109 S200
M82 ;absolute extrusion mode
M201 X500.00 Y500.00 Z100.00 E5000.00 ;Setup machine max acceleration
M203 X500.00 Y500.00 Z10.00 E50.00 ;Setup machine max feedrate
M204 P500.00 R1000.00 T500.00 ;Setup Print/Retract/Travel acceleration
M205 X8.00 Y8.00 Z0.40 E5.00 ;Setup Jerk
M220 S100 ;Reset Feedrate
M221 S100 ;Reset Flowrate

G28 ;Home

G92 E0 ;Reset Extruder
G1 Z2.0 F3000 ;Move Z Axis up
G1 X10.1 Y20 Z0.28 F5000.0 ;Move to start position
G1 X10.1 Y200.0 Z0.28 F1500.0 E15 ;Draw the first line
G1 X10.4 Y200.0 Z0.28 F5000.0 ;Move to side a little
G1 X10.4 Y20 Z0.28 F1500.0 E30 ;Draw the second line
G92 E0 ;Reset Extruder
G1 Z2.0 F3000 ;Move Z Axis up

G92 E0
G92 E0
G1 F2700 E-5
;LAYER_COUNT:499
;LAYER:0
M107
G0 F6000 X92.826 Y122.795 Z0.2
;TYPE:SKIRT
G1 F2700 E0
G1 F1200 X93.612 Y122.283 E0.0312
G1 X94.439 Y121.841 E0.06239
G1 X95.301 Y121.471 E0.09359
G1 X96.191 Y121.175 E0.12478
G1 X97.103 Y120.957 E0.15597
G1 X98.03 Y120.816 E0.18716
G1 X98.901 Y120.757 E0.21619
G1 X99.222 Y120.748 E0.22687
G1 X99.53 Y120.744 E0.23712
G1 X200.093 Y120.744 E3.58186
G1 X200.251 Y120.745 E3.58711
G1 X200.949 Y120.755 E3.61033
G1 X201.885 Y120.809 E3.64152
G1 X202.813 Y120.941 E3.67269
G1 X203.727 Y121.153 E3.7039
G1 X204.619 Y121.442 E3.73508
G1 X205.484 Y121.805 E3.76628
G1 X206.314 Y122.241 E3.79747
G1 X207.105 Y122.746 E3.82868
G1 X207.849 Y123.317 E3.85987
G1 X208.542 Y123.949 E3.89107
G1 X209.179 Y124.637 E3.92225
G1 X209.754 Y125.378 E3.95345
G1 X210.265 Y126.164 E3.98463
G1 X210.707 Y126.992 E4.01585
G1 X211.076 Y127.854 E4.04704
G1 X211.371 Y128.744 E4.07822
G1 X211.589 Y129.656 E4.10941
G1 X211.729 Y130.584 E4.14062
G1 X211.787 Y131.445 E4.16933
G1 X211.796 Y131.765 E4.17997
G1 X211.8 Y132.074 E4.19025
G1 X211.799 Y169.244 E5.42653
G1 X211.79 Y169.971 E5.45071
G1 X211.739 Y170.908 E5.48192
G1 X211.607 Y171.836 E5.5131
G1 X211.398 Y172.75 E5.54428
G1 X211.111 Y173.643 E5.57548
G1 X210.749 Y174.509 E5.6067
G1 X210.315 Y175.34 E5.63788
G1 X209.811 Y176.131 E5.66908
G1 X209.242 Y176.876 E5.70026
G1 X208.611 Y177.571 E5.73148
G1 X207.924 Y178.209 E5.76266
G1 X207.185 Y178.786 E5.79384
G1 X206.399 Y179.298 E5.82504
G1 X205.573 Y179.741 E5.85622
G1 X204.711 Y180.113 E5.88745
G1 X203.822 Y180.409 E5.91861
G1 X202.91 Y180.629 E5.94981
G1 X201.983 Y180.77 E5.981
G1 X201.099 Y180.831 E6.01047
G1 X200.778 Y180.84 E6.02115
G1 X200.47 Y180.844 E6.0314
G1 X99.907 Y180.844 E9.37614
G1 X99.067 Y180.834 E9.40408
G1 X98.131 Y180.782 E9.43526
G1 X97.202 Y180.65 E9.46647
G1 X96.288 Y180.44 E9.49766
G1 X95.395 Y180.153 E9.52885
G1 X94.53 Y179.79 E9.56006
G1 X93.699 Y179.356 E9.59124
G1 X92.908 Y178.852 E9.62243
G1 X92.163 Y178.282 E9.65363
G1 X91.469 Y177.651 E9.68483
G1 X90.832 Y176.964 E9.71599
G1 X90.255 Y176.224 E9.7472
G1 X89.743 Y175.438 E9.7784
G1 X89.3 Y174.611 E9.8096
G1 X88.929 Y173.75 E9.84079
G1 X88.633 Y172.86 E9.87198
G1 X88.414 Y171.948 E9.90318
G1 X88.273 Y171.021 E9.93436
G1 X88.213 Y170.132 E9.964
G1 X88.204 Y169.799 E9.97508
G1 X88.2 Y169.502 E9.98496
G1 X88.201 Y132.269 E11.22333
G1 X88.21 Y131.604 E11.24545
G1 X88.263 Y130.668 E11.27663
G1 X88.395 Y129.739 E11.30784
G1 X88.606 Y128.825 E11.33904
G1 X88.894 Y127.933 E11.37022
G1 X89.257 Y127.068 E11.40142
G1 X89.692 Y126.237 E11.43262
G1 X90.196 Y125.447 E11.46378
G1 X90.766 Y124.702 E11.49498
G1 X91.398 Y124.008 E11.5262
G1 X92.086 Y123.371 E11.55739
G1 X92.826 Y122.795 E11.58858
G0 F6000 X93.21 Y123.014
G1 F1200 X93.991 Y122.526 E11.61921
G1 X94.811 Y122.108 E11.64982
G1 X95.665 Y121.763 E11.68045
G1 X96.545 Y121.493 E11.71107
G1 X97.445 Y121.301 E11.74168
G1 X98.359 Y121.187 E11.77231
G1 X98.912 Y121.157 E11.79073
G1 X99.233 Y121.148 E11.80141
G1 X99.53 Y121.144 E11.81129
G1 X200.093 Y121.144 E15.15603
G1 X200.943 Y121.155 E15.1843
G1 X201.862 Y121.208 E15.21492
G1 X202.773 Y121.341 E15.24554
G1 X203.669 Y121.552 E15.27616
G1 X204.543 Y121.84 E15.30677
G1 X205.39 Y122.203 E15.33742
G1 X206.201 Y122.638 E15.36802
G1 X206.971 Y123.142 E15.39863
G1 X207.695 Y123.711 E15.42926
G1 X208.367 Y124.341 E15.4599
G1 X208.982 Y125.026 E15.49052
G1 X209.535 Y125.762 E15.52114
G1 X210.022 Y126.543 E15.55175
G1 X210.439 Y127.364 E15.58237
G1 X210.784 Y128.218 E15.61301
G1 X211.053 Y129.098 E15.64361
G1 X211.245 Y129.999 E15.67425
G1 X211.358 Y130.912 E15.70485
G1 X211.387 Y131.456 E15.72297
G1 X211.396 Y131.776 E15.73362
G1 X211.4 Y132.074 E15.74353
G1 X211.399 Y169.239 E16.97965
G1 X211.39 Y169.966 E17.00383
G1 X211.339 Y170.885 E17.03444
G1 X211.208 Y171.797 E17.06508
G1 X210.998 Y172.693 E17.09569
G1 X210.712 Y173.568 E17.12631
G1 X210.351 Y174.415 E17.15693
G1 X209.917 Y175.227 E17.18756
G1 X209.415 Y175.999 E17.21819
G1 X208.847 Y176.724 E17.24882
G1 X208.219 Y177.397 E17.27943
G1 X207.535 Y178.013 E17.31005
G1 X206.8 Y178.567 E17.34066
G1 X206.02 Y179.056 E17.37128
G1 X205.2 Y179.475 E17.40191
G1 X204.347 Y179.821 E17.43253
G1 X203.467 Y180.092 E17.46315
G1 X202.567 Y180.285 E17.49377
G1 X201.653 Y180.4 E17.52441
G1 X201.088 Y180.431 E17.54323
G1 X200.767 Y180.44 E17.55391
G1 X200.47 Y180.444 E17.56379
G1 X99.907 Y180.444 E20.90852
G1 X99.072 Y180.434 E20.9363
G1 X98.153 Y180.382 E20.96691
G1 X97.242 Y180.251 E20.99752
G1 X96.346 Y180.041 E21.02813
G1 X95.471 Y179.754 E21.05876
G1 X94.624 Y179.392 E21.0894
G1 X93.812 Y178.958 E21.12002
G1 X93.041 Y178.456 E21.15062
G1 X92.316 Y177.888 E21.18125
G1 X91.643 Y177.259 E21.21189
G1 X91.028 Y176.575 E21.24249
G1 X90.474 Y175.84 E21.2731
G1 X89.986 Y175.059 E21.30373
G1 X89.567 Y174.239 E21.33436
G1 X89.221 Y173.386 E21.36497
G1 X88.951 Y172.506 E21.39559
G1 X88.758 Y171.605 E21.42624
G1 X88.644 Y170.692 E21.45684
G1 X88.613 Y170.121 E21.47586
G1 X88.604 Y169.788 E21.48694
G1 X88.6 Y169.502 E21.49645
G1 X88.601 Y132.275 E22.73462
G1 X88.61 Y131.61 E22.75674
G1 X88.662 Y130.69 E22.78739
G1 X88.794 Y129.779 E22.81801
G1 X89.005 Y128.883 E22.84863
G1 X89.292 Y128.008 E22.87925
G1 X89.655 Y127.162 E22.90987
G1 X90.089 Y126.35 E22.9405
G1 X90.592 Y125.579 E22.97111
G1 X91.161 Y124.855 E23.00174
G1 X91.789 Y124.183 E23.03233
G1 X92.474 Y123.567 E23.06297
G1 X93.21 Y123.014 E23.09359
G0 F6000 X93.594 Y123.238
G1 F1200 X94.369 Y122.775 E23.12362
G1 X95.182 Y122.382 E23.15365
G1 X96.027 Y122.062 E23.18371
G1 X96.896 Y121.819 E23.21372
G1 X97.784 Y121.653 E23.24376
G1 X98.923 Y121.557 E23.28178
G1 X99.244 Y121.548 E23.29246
G1 X99.53 Y121.544 E23.30198
G1 X200.093 Y121.544 E26.64671
G1 X200.937 Y121.555 E26.67479
G1 X201.839 Y121.608 E26.70484
G1 X202.732 Y121.74 E26.73486
G1 X203.61 Y121.951 E26.7649
G1 X204.466 Y122.239 E26.79494
G1 X205.293 Y122.601 E26.82496
G1 X206.085 Y123.036 E26.85502
G1 X206.836 Y123.538 E26.88506
G1 X207.539 Y124.105 E26.9151
G1 X208.189 Y124.732 E26.94514
G1 X208.781 Y125.414 E26.97518
G1 X209.311 Y126.145 E27.00521
G1 X209.773 Y126.921 E27.03525
G1 X210.166 Y127.734 E27.06528
G1 X210.484 Y128.579 E27.09531
G1 X210.727 Y129.449 E27.12535
G1 X210.892 Y130.337 E27.15539
G1 X210.987 Y131.467 E27.19311
G1 X210.996 Y131.787 E27.20376
G1 X211 Y132.074 E27.2133
G1 X210.999 Y169.234 E28.44925
G1 X210.99 Y169.961 E28.47343
G1 X210.939 Y170.863 E28.50348
G1 X210.808 Y171.757 E28.53353
G1 X210.599 Y172.635 E28.56355
G1 X210.313 Y173.492 E28.5936
G1 X209.952 Y174.32 E28.62364
G1 X209.52 Y175.112 E28.65365
G1 X209.019 Y175.864 E28.6837
G1 X208.453 Y176.568 E28.71375
G1 X207.828 Y177.219 E28.74376
G1 X207.147 Y177.813 E28.77382
G1 X206.416 Y178.344 E28.80387
G1 X205.642 Y178.808 E28.83388
G1 X204.829 Y179.202 E28.86393
G1 X203.985 Y179.522 E28.89395
G1 X203.115 Y179.767 E28.92402
G1 X202.228 Y179.933 E28.95403
G1 X201.077 Y180.031 E28.99245
G1 X200.756 Y180.04 E29.00313
G1 X200.47 Y180.044 E29.01265
G1 X99.907 Y180.044 E32.35738
G1 X99.077 Y180.034 E32.38499
G1 X98.176 Y179.983 E32.41501
G1 X97.282 Y179.851 E32.44506
G1 X96.404 Y179.642 E32.47508
G1 X95.547 Y179.355 E32.50514
G1 X94.72 Y178.994 E32.53516
G1 X93.927 Y178.561 E32.56521
G1 X93.176 Y178.06 E32.59523
G1 X92.472 Y177.494 E32.62528
G1 X91.821 Y176.868 E32.65532
G1 X91.228 Y176.187 E32.68535
G1 X90.698 Y175.456 E32.71538
G1 X90.234 Y174.681 E32.74542
G1 X89.84 Y173.868 E32.77547
G1 X89.52 Y173.024 E32.80549
G1 X89.276 Y172.154 E32.83555
G1 X89.11 Y171.266 E32.86559
G1 X89.013 Y170.111 E32.90414
G1 X89.004 Y169.778 E32.91522
G1 X89 Y169.502 E32.9244
G1 X89.001 Y132.28 E34.16241
G1 X89.01 Y131.615 E34.18453
G1 X89.062 Y130.713 E34.21458
G1 X89.194 Y129.82 E34.24461
G1 X89.404 Y128.942 E34.27463
G1 X89.691 Y128.085 E34.30469
G1 X90.053 Y127.258 E34.33472
G1 X90.486 Y126.466 E34.36474
G1 X90.988 Y125.715 E34.39479
G1 X91.555 Y125.011 E34.42485
G1 X92.181 Y124.361 E34.45487
G1 X92.862 Y123.768 E34.4849
G1 X93.594 Y123.238 E34.51496
G1 F2700 E29.51496
;MESH:depth_wide_face.scad.stl
G0 F6000 X99.62 Y131.079
G0 X99.62 Y132.164
G0 X199.618 Y132.926
G0 X199.8 Y168.844
;TYPE:WALL-INNER
G1 F2700 E34.51496
G1 F1200 X100.2 Y168.844 E37.82767
G1 X100.2 Y132.744 E39.02836
G1 X199.8 Y132.744 E42.34107
G1 X199.8 Y168.844 E43.54176
G0 F6000 X200.2 Y169.244
G1 F1200 X99.8 Y169.244 E46.88108
G1 X99.8 Y132.344 E48.10838
G1 X200.2 Y132.344 E51.44769
G1 X200.2 Y169.244 E52.67499
G0 F6000 X200.6 Y169.644
;TYPE:WALL-OUTER
G1 F1200 X99.4 Y169.644 E56.04092
G1 X99.4 Y131.944 E57.29483
G1 X200.6 Y131.944 E60.66075
G1 X200.6 Y169.644 E61.91466
G0 F6000 X200.33 Y169.374
G0 X199.69 Y168.454
G0 X199.41 Y168.454
;TYPE:SKIN
G1 F1200 X100.59 Y168.454 E65.20142
G1 X100.59 Y133.134 E66.37617
G1 X199.41 Y133.134 E69.66294
G1 X199.41 Y168.454 E70.83769
G1 F2700 E65.83769
G0 F6000 X199.69 Y168.454
G0 X199.69 Y133.629
G0 X199.249 Y133.629
G1 F2700 E70.83769
G1 F1200 X198.914 Y133.294 E70.85344
G0 F6000 X198.348 Y133.294
G1 F1200 X199.249 Y134.195 E70.89582
G0 F6000 X199.249 Y134.761
G1 F1200 X197.782 Y133.294 E70.96483
G0 F6000 X197.217 Y133.294
G1 F1200 X199.249 Y135.326 E71.06041
G0 F6000 X199.249 Y135.892
G1 F1200 X196.651 Y133.294 E71.18261
G0 F6000 X196.085 Y133.294
G1 F1200 X199.249 Y136.458 E71.33143
G0 F6000 X199.249 Y137.023
G1 F1200 X195.519 Y133.294 E71.50686
G0 F6000 X194.954 Y133.294
G1 F1200 X199.249 Y137.589 E71.70888
G0 F6000 X199.249 Y138.155
G1 F1200 X194.388 Y133.294 E71.93753
G0 F6000 X193.822 Y133.294
G1 F1200 X199.249 Y138.72 E72.19277
G0 F6000 X199.249 Y139.286
G1 F1200 X193.257 Y133.294 E72.47462
G0 F6000 X192.691 Y133.294
G1 F1200 X199.249 Y139.852 E72.78309
G0 F6000 X199.249 Y140.417
G1 F1200 X192.125 Y133.294 E73.11816
G0 F6000 X191.56 Y133.294
G1 F1200 X199.249 Y140.983 E73.47982
G0 F6000 X199.249 Y141.549
G1 F1200 X190.994 Y133.294 E73.86811
G0 F6000 X190.428 Y133.294
G1 F1200 X199.249 Y142.115 E74.28302
G0 F6000 X199.249 Y142.68
G1 F1200 X189.863 Y133.294 E74.72451
G0 F6000 X189.297 Y133.294
G1 F1200 X199.249 Y143.246 E75.19263
G0 F6000 X199.249 Y143.812
G1 F1200 X188.731 Y133.294 E75.68736
G0 F6000 X188.166 Y133.294
G1 F1200 X199.249 Y144.377 E76.20867
G0 F6000 X199.249 Y144.943
G1 F1200 X187.6 Y133.294 E76.7566
G0 F6000 X187.034 Y133.294
G1 F1200 X199.249 Y145.509 E77.33116
G0 F6000 X199.249 Y146.074
G1 F1200 X186.469 Y133.294 E77.93229
G0 F6000 X185.903 Y133.294
G1 F1200 X199.249 Y146.64 E78.56005
G0 F6000 X199.249 Y147.206
G1 F1200 X185.337 Y133.294 E79.21442
G0 F6000 X184.771 Y133.294
G1 F1200 X199.249 Y147.771 E79.8954
G0 F6000 X199.249 Y148.337
G1 F1200 X184.206 Y133.294 E80.60298
G0 F6000 X183.64 Y133.294
G1 F1200 X199.249 Y148.903 E81.33718
G0 F6000 X199.249 Y149.468
G1 F1200 X183.074 Y133.294 E82.09798
G0 F6000 X182.509 Y133.294
G1 F1200 X199.249 Y150.034 E82.88537
G0 F6000 X199.249 Y150.6
G1 F1200 X181.943 Y133.294 E83.6994
G0 F6000 X181.377 Y133.294
G1 F1200 X199.249 Y151.165 E84.54002
G0 F6000 X199.249 Y151.731
G1 F1200 X180.812 Y133.294 E85.40724
G0 F6000 X180.246 Y133.294
G1 F1200 X199.249 Y152.297 E86.30108
G0 F6000 X199.249 Y152.863
G1 F1200 X179.68 Y133.294 E87.22154
G0 F6000 X179.115 Y133.294
G1 F1200 X199.249 Y153.428 E88.16859
G0 F6000 X199.249 Y153.994
G1 F1200 X178.549 Y133.294 E89.14225
G0 F6000 X177.983 Y133.294
G1 F1200 X199.249 Y154.56 E90.14254
G0 F6000 X199.249 Y155.125
G1 F1200 X177.418 Y133.294 E91.1694
G0 F6000 X176.852 Y133.294
G1 F1200 X199.249 Y155.691 E92.22289
G0 F6000 X199.249 Y156.257
G1 F1200 X176.286 Y133.294 E93.303
G0 F6000 X175.72 Y133.294
G1 F1200 X199.249 Y156.822 E94.40971
G0 F6000 X199.249 Y157.388
G1 F1200 X175.155 Y133.294 E95.54301
G0 F6000 X174.589 Y133.294
G1 F1200 X199.249 Y157.954 E96.70294
G0 F6000 X199.249 Y158.519
G1 F1200 X174.023 Y133.294 E97.88947
G0 F6000 X173.458 Y133.294
G1 F1200 X199.249 Y159.085 E99.1026
G0 F6000 X199.249 Y159.651
G1 F1200 X172.892 Y133.294 E100.34236
G0 F6000 X172.326 Y133.294
G1 F1200 X199.249 Y160.216 E101.60871
G0 F6000 X199.249 Y160.782
G1 F1200 X171.761 Y133.294 E102.90166
G0 F6000 X171.195 Y133.294
G1 F1200 X199.249 Y161.348 E104.22123
G0 F6000 X199.249 Y161.914
G1 F1200 X170.629 Y133.294 E105.56743
G0 F6000 X170.064 Y133.294
G1 F1200 X199.249 Y162.479 E106.9402
G0 F6000 X199.249 Y163.045
G1 F1200 X169.498 Y133.294 E108.3396
G0 F6000 X168.932 Y133.294
G1 F1200 X199.249 Y163.611 E109.76562
G0 F6000 X199.249 Y164.176
G1 F1200 X168.367 Y133.294 E111.21821
G0 F6000 X167.801 Y133.294
G1 F1200 X199.249 Y164.742 E112.69743
G0 F6000 X199.249 Y165.308
G1 F1200 X167.235 Y133.294 E114.20327
G0 F6000 X166.67 Y133.294
G1 F1200 X199.249 Y165.873 E115.73569
G0 F6000 X199.249 Y166.439
G1 F1200 X166.104 Y133.294 E117.29473
G0 F6000 X165.538 Y133.294
G1 F1200 X199.249 Y167.005 E118.88039
G0 F6000 X199.249 Y167.57
G1 F1200 X164.972 Y133.294 E120.49265
G0 F6000 X164.407 Y133.294
G1 F1200 X199.249 Y168.136 E122.13151
G0 F6000 X198.839 Y168.292
G1 F1200 X163.841 Y133.294 E123.77771
G0 F6000 X163.275 Y133.294
G1 F1200 X198.274 Y168.292 E125.42393
G0 F6000 X197.708 Y168.292
G1 F1200 X162.71 Y133.294 E127.07013
G0 F6000 X162.144 Y133.294
G1 F1200 X197.142 Y168.292 E128.71633
G0 F6000 X196.577 Y168.292
G1 F1200 X161.578 Y133.294 E130.36255
G0 F6000 X161.013 Y133.294
G1 F1200 X196.011 Y168.292 E132.00875
G0 F6000 X195.445 Y168.292
G1 F1200 X160.447 Y133.294 E133.65495
G0 F6000 X159.881 Y133.294
G1 F1200 X194.88 Y168.292 E135.30117
G0 F6000 X194.314 Y168.292
G1 F1200 X159.316 Y133.294 E136.94737
G0 F6000 X158.75 Y133.294
G1 F1200 X193.748 Y168.292 E138.59357
G0 F6000 X193.182 Y168.292
G1 F1200 X158.184 Y133.294 E140.23977
G0 F6000 X157.619 Y133.294
G1 F1200 X192.617 Y168.292 E141.88596
G0 F6000 X192.051 Y168.292
G1 F1200 X157.053 Y133.294 E143.53216
G0 F6000 X156.487 Y133.294
G1 F1200 X191.485 Y168.292 E145.17836
G0 F6000 X190.92 Y168.292
G1 F1200 X155.921 Y133.294 E146.82458
G0 F6000 X155.356 Y133.294
G1 F1200 X190.354 Y168.292 E148.47078
G0 F6000 X189.788 Y168.292
G1 F1200 X154.79 Y133.294 E150.11698
G0 F6000 X154.224 Y133.294
G1 F1200 X189.223 Y168.292 E151.7632
G0 F6000 X188.657 Y168.292
G1 F1200 X153.659 Y133.294 E153.4094
G0 F6000 X153.093 Y133.294
G1 F1200 X188.091 Y168.292 E155.0556
G0 F6000 X187.526 Y168.292
G1 F1200 X152.527 Y133.294 E156.70182
G0 F6000 X151.962 Y133.294
G1 F1200 X186.96 Y168.292 E158.34802
G0 F6000 X186.394 Y168.292
G1 F1200 X151.396 Y133.294 E159.99422
G0 F6000 X150.83 Y133.294
G1 F1200 X185.829 Y168.292 E161.64044
G0 F6000 X185.263 Y168.292
G1 F1200 X150.265 Y133.294 E163.28664
G0 F6000 X149.699 Y133.294
G1 F1200 X184.697 Y168.292 E164.93284
G0 F6000 X184.132 Y168.292
G1 F1200 X149.133 Y133.294 E166.57906
G0 F6000 X148.568 Y133.294
G1 F1200 X183.566 Y168.292 E168.22526
G0 F6000 X183 Y168.292
G1 F1200 X148.002 Y133.294 E169.87146
G0 F6000 X147.436 Y133.294
G1 F1200 X182.434 Y168.292 E171.51766
G0 F6000 X181.869 Y168.292
G1 F1200 X146.871 Y133.294 E173.16386
G0 F6000 X146.305 Y133.294
G1 F1200 X181.303 Y168.292 E174.81005
G0 F6000 X180.737 Y168.292
G1 F1200 X145.739 Y133.294 E176.45625
G0 F6000 X145.173 Y133.294
G1 F1200 X180.172 Y168.292 E178.10248
G0 F6000 X179.606 Y168.292
G1 F1200 X144.608 Y133.294 E179.74867
G0 F6000 X144.042 Y133.294
