;FLAVOR:Marlin
;TIME:4860
;Filament used: 3.07753m
;Layer height: 0.2
;MINX:91.511
;MINY:118.01
;MINZ:0.2
;MAXX:181.495
;MAXY:181.99
;MAXZ:15
;Generated with Cura_SteamEngine master
M140 S55
M105
M190 S55
M104 S210
M105
M109 S210
M82 ;absolute extrusion mode
M201 X500.00 Y500.00 Z100.00 E5000.00 ;Setup machine max acceleration
M203 X500.00 Y500.00 Z10.00 E50.00 ;Setup machine max feedrate
M204 P500.00 R1000.00 T500.00 ;Setup Print/Retract/Travel acceleration
M205 X8.00 Y8.00 Z0.40 E5.00 ;Setup Jerk
M220 S100 ;Reset Feedrate
M221 S100 ;Reset Flowrate

G28 ;Home

G92 E0 ;Reset Extruder
G1 Z2.0 F3000 ;Move Z Axis up
G1 X10.1 Y20 Z0.28 F5000.0 ;Move to start position
G1 X10.1 Y200.0 Z0.28 F1500.0 E15 ;Draw the first line
G1 X10.4 Y200.0 Z0.28 F5000.0 ;Move to side a little
G1 X10.4 Y20 Z0.28 F1500.0 E30 ;Draw the second line
G92 E0 ;Reset Extruder
G1 Z2.0 F3000 ;Move Z Axis up

G92 E0
G92 E0
G1 F2700 E-5
;LAYER_COUNT:75
;LAYER:0
M107
G0 F6000 X98.306 Y122.177 Z0.2
;TYPE:SKIRT
G1 F2700 E0
G1 F1200 X98.74 Y121.833 E0.01842
G1 X99.007 Y121.632 E0.02953
G1 X99.407 Y121.344 E0.04593
G1 X99.718 Y121.131 E0.05847
G1 X100.198 Y120.821 E0.07747
G1 X100.486 Y120.645 E0.0887
G1 X100.931 Y120.387 E0.10581
G1 X101.281 Y120.195 E0.11908
G1 X101.778 Y119.938 E0.13769
G1 X102.094 Y119.785 E0.14937
G1 X102.558 Y119.574 E0.16632
G1 X102.913 Y119.422 E0.17917
G1 X103.428 Y119.217 E0.1976
G1 X103.693 Y119.119 E0.207
G1 X103.981 Y119.017 E0.21716
G1 X104.374 Y118.887 E0.23093
G1 X104.683 Y118.791 E0.24169
G1 X105.174 Y118.651 E0.25867
G1 X105.508 Y118.564 E0.27015
G1 X106.016 Y118.445 E0.28751
G1 X106.382 Y118.368 E0.29995
G1 X106.913 Y118.27 E0.31791
G1 X107.27 Y118.213 E0.32993
G1 X107.832 Y118.138 E0.34879
G1 X108.224 Y118.096 E0.3619
G1 X108.748 Y118.052 E0.37939
G1 X109.087 Y118.032 E0.39069
G1 X109.619 Y118.014 E0.40839
G1 X109.998 Y118.01 E0.421
G1 X110.539 Y118.017 E0.43899
G1 X110.901 Y118.031 E0.45104
G1 X111.474 Y118.068 E0.47014
G1 X111.869 Y118.104 E0.48333
G1 X112.393 Y118.165 E0.50088
G1 X112.708 Y118.209 E0.51146
G1 X113.179 Y118.285 E0.52732
G1 X113.559 Y118.355 E0.54018
G1 X114.167 Y118.485 E0.56085
G1 X114.541 Y118.576 E0.57366
G1 X115.04 Y118.71 E0.59084
G1 X115.377 Y118.809 E0.60252
G1 X115.845 Y118.958 E0.61886
G1 X116.192 Y119.077 E0.63106
G1 X116.481 Y119.18 E0.64126
G1 X117.253 Y119.469 E0.66868
G1 X118.388 Y119.909 E0.70917
G1 X120.786 Y120.763 E0.79383
G1 X123.19 Y121.542 E0.87788
G1 X125.583 Y122.245 E0.96084
G1 X128.005 Y122.881 E1.04413
G1 X130.453 Y123.452 E1.12773
G1 X132.928 Y123.956 E1.21174
G1 X135.426 Y124.39 E1.29607
G1 X137.907 Y124.75 E1.37945
G1 X140.419 Y125.041 E1.46356
G1 X142.917 Y125.26 E1.54696
G1 X145.433 Y125.409 E1.63079
G1 X147.973 Y125.487 E1.71531
G1 X149.523 Y125.5 E1.76687
G1 X169.962 Y125.501 E2.44667
G1 X170.66 Y125.512 E2.46989
G1 X171.597 Y125.567 E2.50111
G1 X172.525 Y125.701 E2.53229
G1 X173.438 Y125.914 E2.56348
G1 X174.33 Y126.204 E2.59467
G1 X175.194 Y126.569 E2.62587
G1 X176.024 Y127.006 E2.65707
G1 X176.813 Y127.512 E2.68824
G1 X177.557 Y128.084 E2.71946
G1 X178.249 Y128.717 E2.75065
G1 X178.885 Y129.406 E2.78184
G1 X179.46 Y130.148 E2.81306
G1 X179.969 Y130.935 E2.84423
G1 X180.41 Y131.763 E2.87543
G1 X180.778 Y132.625 E2.90661
G1 X181.071 Y133.516 E2.9378
G1 X181.288 Y134.429 E2.96901
G1 X181.426 Y135.356 E3.00019
G1 X181.484 Y136.245 E3.02982
G1 X181.492 Y136.576 E3.04083
G1 X181.495 Y136.857 E3.05018
G1 X181.488 Y141.923 E3.21867
G1 X181.495 Y145.906 E3.35115
G1 X181.476 Y147.526 E3.40503
G1 X181.473 Y147.69 E3.41049
G1 X181.442 Y148.847 E3.44898
G1 X181.474 Y152.777 E3.5797
G1 X181.49 Y153.303 E3.5972
G1 X181.495 Y153.649 E3.60871
G1 X181.488 Y158.757 E3.77861
G1 X181.495 Y162.743 E3.91118
G1 X181.486 Y163.611 E3.94005
G1 X181.436 Y164.547 E3.97123
G1 X181.306 Y165.476 E4.00243
G1 X181.098 Y166.391 E4.03364
G1 X180.812 Y167.284 E4.06482
G1 X180.451 Y168.15 E4.09603
G1 X180.018 Y168.982 E4.12723
G1 X179.516 Y169.773 E4.15839
G1 X178.948 Y170.52 E4.1896
G1 X178.318 Y171.215 E4.2208
G1 X177.632 Y171.854 E4.25198
G1 X176.893 Y172.432 E4.28318
G1 X176.108 Y172.945 E4.31437
G1 X175.282 Y173.39 E4.34558
G1 X174.422 Y173.762 E4.37674
G1 X173.532 Y174.06 E4.40796
G1 X172.621 Y174.281 E4.43914
G1 X171.694 Y174.424 E4.47034
G1 X170.839 Y174.484 E4.49884
G1 X170.527 Y174.494 E4.50923
G1 X170.175 Y174.5 E4.52094
G1 X149.522 Y174.5 E5.20786
G1 X146.914 Y174.537 E5.29461
G1 X144.393 Y174.644 E5.37853
G1 X141.898 Y174.821 E5.46173
G1 X139.398 Y175.069 E5.54528
G1 X136.905 Y175.388 E5.62888
G1 X134.412 Y175.779 E5.71281
G1 X131.922 Y176.242 E5.79705
G1 X129.458 Y176.772 E5.88087
G1 X127.056 Y177.361 E5.96313
G1 X124.6 Y178.037 E6.04786
G1 X122.19 Y178.775 E6.13169
G1 X119.843 Y179.566 E6.21406
G1 X117.718 Y180.365 E6.28957
G1 X117.544 Y180.422 E6.29566
G1 X116.327 Y180.874 E6.33884
G1 X116.046 Y180.974 E6.34876
G1 X115.914 Y181.019 E6.3534
G1 X115.631 Y181.111 E6.3633
G1 X115.319 Y181.208 E6.37416
G1 X114.826 Y181.349 E6.39122
G1 X114.492 Y181.436 E6.4027
G1 X113.984 Y181.555 E6.42005
G1 X113.618 Y181.632 E6.43249
G1 X113.087 Y181.73 E6.45045
G1 X112.73 Y181.787 E6.46247
G1 X112.168 Y181.862 E6.48133
G1 X111.776 Y181.904 E6.49445
G1 X111.252 Y181.948 E6.51193
G1 X110.913 Y181.968 E6.52323
G1 X110.381 Y181.986 E6.54093
G1 X110.002 Y181.99 E6.55354
G1 X109.461 Y181.983 E6.57154
G1 X109.099 Y181.969 E6.58358
G1 X108.526 Y181.932 E6.60268
G1 X108.131 Y181.896 E6.61587
G1 X107.607 Y181.835 E6.63342
G1 X107.292 Y181.791 E6.644
G1 X106.821 Y181.715 E6.65987
G1 X106.441 Y181.645 E6.67272
G1 X105.833 Y181.515 E6.6934
G1 X105.459 Y181.424 E6.7062
G1 X104.96 Y181.29 E6.72339
G1 X104.623 Y181.191 E6.73507
G1 X104.127 Y181.033 E6.75238
G1 X103.757 Y180.905 E6.7654
G1 X103.234 Y180.709 E6.78398
G1 X102.917 Y180.581 E6.79535
G1 X102.42 Y180.366 E6.81336
G1 X101.98 Y180.161 E6.82951
G1 X101.903 Y180.124 E6.83235
G1 X101.535 Y179.938 E6.84606
G1 X101.226 Y179.775 E6.85768
G1 X100.81 Y179.544 E6.87351
G1 X100.507 Y179.367 E6.88518
G1 X100.008 Y179.058 E6.9047
G1 X99.695 Y178.852 E6.91716
G1 X99.274 Y178.56 E6.9342
G1 X98.981 Y178.347 E6.94625
G1 X98.592 Y178.051 E6.96251
G1 X98.306 Y177.823 E6.97468
G1 X97.857 Y177.445 E6.9942
G1 X97.579 Y177.198 E7.00657
G1 X97.15 Y176.796 E7.02612
G1 X96.879 Y176.528 E7.0388
G1 X96.583 Y176.223 E7.05293
G1 X96.364 Y175.989 E7.06359
G1 X95.945 Y175.515 E7.08463
G1 X95.67 Y175.185 E7.09892
G1 X95.324 Y174.748 E7.11746
G1 X95.125 Y174.483 E7.12848
G1 X94.845 Y174.094 E7.14442
G1 X94.632 Y173.783 E7.15696
G1 X94.328 Y173.312 E7.17561
G1 X94.151 Y173.023 E7.18688
G1 X93.955 Y172.691 E7.1997
G1 X93.83 Y172.468 E7.2082
G1 X93.673 Y172.179 E7.21914
G1 X93.438 Y171.722 E7.23623
G1 X93.285 Y171.406 E7.24791
G1 X93.075 Y170.945 E7.26476
G1 X92.922 Y170.588 E7.27768
G1 X92.711 Y170.056 E7.29671
G1 X92.616 Y169.798 E7.30586
G1 X92.526 Y169.545 E7.31479
G1 X92.48 Y169.41 E7.31953
G1 X92.387 Y169.126 E7.32947
G1 X92.291 Y168.817 E7.34024
G1 X92.151 Y168.326 E7.35722
G1 X92.064 Y167.992 E7.3687
G1 X91.944 Y167.482 E7.38612
G1 X91.866 Y167.111 E7.39873
G1 X91.768 Y166.576 E7.41682
G1 X91.712 Y166.224 E7.42868
G1 X91.638 Y165.668 E7.44733
G1 X91.596 Y165.276 E7.46044
G1 X91.551 Y164.737 E7.47843
G1 X91.531 Y164.39 E7.48999
G1 X91.514 Y163.886 E7.50677
G1 X91.511 Y163.631 E7.51525
G1 X91.54 Y162.694 E7.54643
G1 X91.604 Y162.067 E7.56739
G1 X91.657 Y161.662 E7.58098
G1 X91.954 Y159.125 E7.66593
G1 X92.179 Y156.596 E7.75038
G1 X92.328 Y154.112 E7.83315
G1 X92.409 Y151.563 E7.91797
G1 X92.417 Y149.051 E8.00152
G1 X92.355 Y146.544 E8.08493
G1 X92.221 Y144.025 E8.16883
G1 X92.015 Y141.499 E8.25312
G1 X91.741 Y139.008 E8.33647
G1 X91.653 Y138.352 E8.35849
G1 X91.594 Y137.86 E8.37497
G1 X91.52 Y136.526 E8.41941
G1 X91.523 Y135.967 E8.438
G1 X91.568 Y135.033 E8.4691
G1 X91.604 Y134.636 E8.48236
G1 X91.666 Y134.102 E8.50024
G1 X91.711 Y133.781 E8.51102
G1 X91.787 Y133.312 E8.52682
G1 X91.856 Y132.938 E8.53947
G1 X91.985 Y132.333 E8.56005
G1 X92.076 Y131.959 E8.57285
G1 X92.218 Y131.432 E8.591
G1 X92.323 Y131.078 E8.60328
G1 X92.476 Y130.604 E8.61985
G1 X92.598 Y130.252 E8.63224
G1 X92.802 Y129.708 E8.65156
G1 X92.931 Y129.391 E8.66295
G1 X93.135 Y128.922 E8.67996
G1 X93.306 Y128.552 E8.69352
G1 X93.556 Y128.046 E8.71229
G1 X93.718 Y127.738 E8.72386
G1 X93.963 Y127.297 E8.74064
G1 X94.14 Y126.995 E8.75228
G1 X94.424 Y126.536 E8.77024
G1 X94.632 Y126.218 E8.78287
G1 X94.947 Y125.762 E8.80131
G1 X95.159 Y125.471 E8.81328
G1 X95.46 Y125.076 E8.8298
G1 X95.688 Y124.791 E8.84194
G1 X96.053 Y124.359 E8.86075
G1 X96.299 Y124.082 E8.87307
G1 X96.703 Y123.651 E8.89272
G1 X96.972 Y123.379 E8.90544
G1 X97.292 Y123.068 E8.92028
G1 X97.528 Y122.848 E8.93102
G1 X97.979 Y122.45 E8.95102
G1 X98.306 Y122.177 E8.96519
G0 F6000 X98.563 Y122.484
G1 F1200 X98.981 Y122.152 E8.98294
G1 X99.248 Y121.951 E8.99406
G1 X99.633 Y121.675 E9.00982
G1 X99.944 Y121.462 E9.02235
G1 X100.407 Y121.162 E9.0407
G1 X100.695 Y120.986 E9.05193
G1 X101.124 Y120.738 E9.06841
G1 X101.474 Y120.546 E9.08169
G1 X101.953 Y120.298 E9.09963
G1 X102.269 Y120.145 E9.1113
G1 X102.716 Y119.942 E9.12763
G1 X103.071 Y119.79 E9.14048
G1 X103.566 Y119.592 E9.15821
G1 X103.831 Y119.494 E9.16761
G1 X104.11 Y119.396 E9.17744
G1 X104.493 Y119.269 E9.19086
G1 X104.802 Y119.173 E9.20162
G1 X105.275 Y119.038 E9.21799
G1 X105.609 Y118.951 E9.22946
G1 X106.099 Y118.836 E9.2462
G1 X106.465 Y118.759 E9.25864
G1 X106.976 Y118.665 E9.27593
G1 X107.333 Y118.608 E9.28795
G1 X107.875 Y118.535 E9.30614
G1 X108.267 Y118.493 E9.31925
G1 X108.772 Y118.451 E9.33611
G1 X109.111 Y118.431 E9.3474
G1 X109.623 Y118.414 E9.36444
G1 X110.002 Y118.41 E9.37705
G1 X110.524 Y118.417 E9.39441
G1 X110.886 Y118.431 E9.40646
G1 X111.438 Y118.467 E9.42486
G1 X111.833 Y118.503 E9.43805
G1 X112.337 Y118.561 E9.45492
G1 X112.652 Y118.605 E9.4655
G1 X113.106 Y118.678 E9.4808
G1 X113.486 Y118.748 E9.49365
G1 X114.072 Y118.873 E9.51358
G1 X114.446 Y118.964 E9.52638
G1 X114.928 Y119.094 E9.54298
G1 X115.265 Y119.193 E9.55467
G1 X115.716 Y119.336 E9.5704
G1 X116.063 Y119.455 E9.5826
G1 X116.34 Y119.555 E9.5924
G1 X117.233 Y119.89 E9.62412
G1 X118.257 Y120.288 E9.66066
G1 X120.666 Y121.145 E9.7457
G1 X123.027 Y121.91 E9.82825
G1 X125.516 Y122.641 E9.91453
G1 X127.917 Y123.272 E9.9971
G1 X130.354 Y123.84 E10.08033
G1 X132.845 Y124.347 E10.16488
G1 X135.377 Y124.787 E10.25035
G1 X137.87 Y125.149 E10.33414
G1 X140.374 Y125.439 E10.41798
G1 X142.857 Y125.657 E10.50088
G1 X145.433 Y125.809 E10.58671
G1 X147.958 Y125.887 E10.67073
G1 X149.52 Y125.9 E10.72269
G1 X169.956 Y125.901 E11.40239
G1 X170.654 Y125.912 E11.42561
G1 X171.573 Y125.967 E11.45623
G1 X172.484 Y126.101 E11.48686
G1 X173.38 Y126.313 E11.51748
G1 X174.254 Y126.603 E11.54811
G1 X175.099 Y126.967 E11.57871
G1 X175.91 Y127.403 E11.60933
G1 X176.68 Y127.908 E11.63996
G1 X177.403 Y128.478 E11.67058
G1 X178.074 Y129.108 E11.7012
G1 X178.688 Y129.795 E11.73184
G1 X179.239 Y130.532 E11.76245
G1 X179.725 Y131.314 E11.79307
G1 X180.141 Y132.135 E11.82368
G1 X180.485 Y132.989 E11.8543
G1 X180.753 Y133.87 E11.88493
G1 X180.943 Y134.771 E11.91556
G1 X181.055 Y135.684 E11.94615
G1 X181.084 Y136.255 E11.96517
G1 X181.092 Y136.586 E11.97618
G1 X181.095 Y136.857 E11.9852
G1 X181.088 Y141.923 E12.15369
G1 X181.095 Y145.907 E12.2862
G1 X181.076 Y147.521 E12.33989
G1 X181.073 Y147.679 E12.34514
G1 X181.041 Y148.839 E12.38374
G1 X181.074 Y152.792 E12.51522
G1 X181.09 Y153.315 E12.53262
G1 X181.095 Y153.649 E12.54373
G1 X181.088 Y158.757 E12.71363
G1 X181.095 Y162.744 E12.84623
G1 X181.086 Y163.606 E12.87491
G1 X181.036 Y164.526 E12.90555
G1 X180.907 Y165.437 E12.93615
G1 X180.698 Y166.334 E12.96679
G1 X180.413 Y167.209 E12.99739
G1 X180.053 Y168.057 E13.02803
G1 X179.621 Y168.869 E13.05863
G1 X179.119 Y169.642 E13.08928
G1 X178.553 Y170.368 E13.1199
G1 X177.926 Y171.041 E13.15049
G1 X177.242 Y171.658 E13.18113
G1 X176.508 Y172.214 E13.21176
G1 X175.728 Y172.703 E13.24238
G1 X174.909 Y173.123 E13.27299
G1 X174.057 Y173.471 E13.3036
G1 X173.177 Y173.743 E13.33424
G1 X172.277 Y173.938 E13.36486
G1 X171.364 Y174.054 E13.39548
G1 X170.827 Y174.085 E13.41337
G1 X170.515 Y174.095 E13.42375
G1 X170.175 Y174.1 E13.43506
G1 X149.516 Y174.1 E14.12218
G1 X146.891 Y174.137 E14.2095
G1 X144.383 Y174.244 E14.29299
G1 X141.863 Y174.422 E14.37701
G1 X139.348 Y174.671 E14.46107
G1 X136.859 Y174.99 E14.54453
G1 X134.307 Y175.391 E14.63045
G1 X131.876 Y175.843 E14.71269
G1 X129.384 Y176.379 E14.79747
G1 X126.927 Y176.981 E14.88161
G1 X124.482 Y177.654 E14.96596
G1 X122.082 Y178.389 E15.04944
G1 X119.692 Y179.195 E15.13333
G1 X117.577 Y179.99 E15.20848
G1 X117.415 Y180.043 E15.21415
G1 X116.187 Y180.499 E15.25772
G1 X115.917 Y180.595 E15.26725
G1 X115.785 Y180.64 E15.27189
G1 X115.512 Y180.729 E15.28144
G1 X115.2 Y180.826 E15.29231
G1 X114.725 Y180.962 E15.30874
G1 X114.391 Y181.049 E15.32022
G1 X113.901 Y181.164 E15.33696
G1 X113.535 Y181.241 E15.3494
G1 X113.024 Y181.335 E15.36668
G1 X112.667 Y181.392 E15.3787
G1 X112.125 Y181.465 E15.39689
G1 X111.733 Y181.507 E15.41001
G1 X111.228 Y181.549 E15.42686
G1 X110.889 Y181.569 E15.43816
G1 X110.377 Y181.586 E15.45519
G1 X109.998 Y181.59 E15.4678
G1 X109.476 Y181.583 E15.48516
G1 X109.114 Y181.569 E15.49721
G1 X108.562 Y181.533 E15.51561
G1 X108.167 Y181.497 E15.5288
G1 X107.663 Y181.439 E15.54568
G1 X107.348 Y181.395 E15.55626
G1 X106.894 Y181.322 E15.57155
G1 X106.514 Y181.252 E15.5844
G1 X105.928 Y181.127 E15.60433
G1 X105.554 Y181.036 E15.61713
G1 X105.072 Y180.906 E15.63374
G1 X104.735 Y180.807 E15.64542
G1 X104.257 Y180.654 E15.66211
G1 X103.887 Y180.526 E15.67513
G1 X103.384 Y180.338 E15.69299
G1 X103.067 Y180.21 E15.70437
G1 X102.588 Y180.002 E15.72173
G1 X102.153 Y179.8 E15.73769
G1 X102.076 Y179.763 E15.74053
G1 X101.721 Y179.585 E15.75374
G1 X101.412 Y179.422 E15.76536
G1 X101.011 Y179.199 E15.78062
G1 X100.708 Y179.022 E15.79229
G1 X100.228 Y178.723 E15.8111
G1 X99.915 Y178.517 E15.82356
G1 X99.509 Y178.237 E15.83996
G1 X99.216 Y178.024 E15.85201
G1 X98.841 Y177.739 E15.86768
G1 X98.555 Y177.511 E15.87984
G1 X98.123 Y177.146 E15.89865
G1 X97.845 Y176.899 E15.91102
G1 X97.432 Y176.512 E15.92985
G1 X97.161 Y176.244 E15.94252
G1 X96.875 Y175.95 E15.95616
G1 X96.656 Y175.716 E15.96682
G1 X96.252 Y175.259 E15.98711
G1 X95.977 Y174.929 E16.0014
G1 X95.644 Y174.508 E16.01925
G1 X95.445 Y174.243 E16.03028
G1 X95.176 Y173.868 E16.04562
G1 X94.963 Y173.557 E16.05816
G1 X94.669 Y173.103 E16.07615
G1 X94.492 Y172.814 E16.08742
G1 X94.302 Y172.492 E16.09986
G1 X94.182 Y172.277 E16.10805
G1 X94.025 Y171.988 E16.11899
G1 X93.798 Y171.547 E16.13548
G1 X93.645 Y171.231 E16.14716
G1 X93.443 Y170.788 E16.16336
G1 X93.29 Y170.431 E16.17627
G1 X93.086 Y169.918 E16.19464
G1 X92.991 Y169.66 E16.20378
G1 X92.904 Y169.416 E16.2124
G1 X92.858 Y169.281 E16.21714
G1 X92.769 Y169.007 E16.22672
G1 X92.673 Y168.698 E16.23748
G1 X92.538 Y168.225 E16.25384
G1 X92.451 Y167.891 E16.26532
G1 X92.336 Y167.4 E16.2821
G1 X92.258 Y167.029 E16.29471
G1 X92.163 Y166.513 E16.31216
G1 X92.107 Y166.161 E16.32401
G1 X92.035 Y165.625 E16.342
G1 X91.993 Y165.233 E16.35511
G1 X91.951 Y164.714 E16.37243
G1 X91.931 Y164.367 E16.38399
G1 X91.914 Y163.882 E16.40013
G1 X91.911 Y163.627 E16.40861
G1 X91.94 Y162.707 E16.43923
G1 X92.001 Y162.119 E16.45889
G1 X92.048 Y161.762 E16.47087
G1 X92.351 Y159.17 E16.55766
G1 X92.578 Y156.619 E16.64284
G1 X92.729 Y154.114 E16.72631
G1 X92.809 Y151.576 E16.81077
G1 X92.817 Y149.06 E16.89445
G1 X92.754 Y146.514 E16.97916
G1 X92.621 Y144.008 E17.06262
G1 X92.416 Y141.491 E17.14662
G1 X92.132 Y138.91 E17.23298
G1 X92.026 Y138.113 E17.25972
G1 X91.991 Y137.813 E17.26977
G1 X91.92 Y136.528 E17.31257
G1 X91.923 Y135.969 E17.33117
G1 X91.966 Y135.069 E17.36113
G1 X92.002 Y134.672 E17.37439
G1 X92.062 Y134.157 E17.39164
G1 X92.107 Y133.836 E17.40242
G1 X92.18 Y133.385 E17.41761
G1 X92.249 Y133.011 E17.43026
G1 X92.373 Y132.428 E17.45009
G1 X92.464 Y132.054 E17.46289
G1 X92.602 Y131.546 E17.4804
G1 X92.707 Y131.192 E17.49268
G1 X92.854 Y130.735 E17.50865
G1 X92.976 Y130.383 E17.52104
G1 X93.173 Y129.859 E17.53966
