;FLAVOR:Marlin
;TIME:496
;Filament used: 0.404531m
;Layer height: 0.28
;MINX:138.782
;MINY:129.863
;MINZ:0.28
;MAXX:178.471
;MAXY:178.863
;MAXZ:1.96
;Generated with Cura_SteamEngine master
M140 S55
M105
M190 S55
M104 S210
M105
M109 S210
M82 ;absolute extrusion mode
M201 X500.00 Y500.00 Z100.00 E5000.00 ;Setup machine max acceleration
M203 X500.00 Y500.00 Z10.00 E50.00 ;Setup machine max feedrate
M204 P500.00 R1000.00 T500.00 ;Setup Print/Retract/Travel acceleration
M205 X8.00 Y8.00 Z0.40 E5.00 ;Setup Jerk
M220 S100 ;Reset Feedrate
M221 S100 ;Reset Flowrate

G28 ;Home

G92 E0 ;Reset Extruder
G1 Z2.0 F3000 ;Move Z Axis up
G1 X10.1 Y20 Z0.28 F5000.0 ;Move to start position
G1 X10.1 Y200.0 Z0.28 F1500.0 E15 ;Draw the first line
G1 X10.4 Y200.0 Z0.28 F5000.0 ;Move to side a little
G1 X10.4 Y20 Z0.28 F1500.0 E30 ;Draw the second line
G92 E0 ;Reset Extruder
G1 Z2.0 F3000 ;Move Z Axis up

G92 E0
G92 E0
G1 F2700 E-5
;LAYER_COUNT:7
;LAYER:0
M107
G0 F6000 X142.836 Y134.044 Z0.28
;TYPE:SKIRT
G1 F2700 E0
G1 F1200 X143.466 Y133.476 E0.0395
G1 X143.84 Y133.164 E0.06218
G1 X143.984 Y133.046 E0.07085
G1 X144.365 Y132.739 E0.09363
G1 X145.12 Y132.182 E0.13732
G1 X145.676 Y131.831 E0.16793
G1 X145.881 Y131.71 E0.17902
G1 X146.708 Y131.268 E0.22268
G1 X147.169 Y131.059 E0.24625
G1 X147.449 Y130.94 E0.26042
G1 X148.327 Y130.611 E0.30408
G1 X148.92 Y130.435 E0.33288
G1 X149.408 Y130.305 E0.3564
G1 X150.703 Y130.042 E0.41793
G1 X150.944 Y130.008 E0.42926
G1 X151.457 Y129.948 E0.45331
G1 X151.564 Y129.938 E0.45832
G1 X152.353 Y129.893 E0.49511
G1 X153.614 Y129.866 E0.55385
G1 X153.849 Y129.863 E0.56479
G1 X166.922 Y129.864 E1.17352
G1 X167.62 Y129.874 E1.20603
G1 X168.556 Y129.928 E1.24968
G1 X169.484 Y130.06 E1.29333
G1 X170.398 Y130.272 E1.33702
G1 X171.29 Y130.561 E1.38068
G1 X172.155 Y130.924 E1.42436
G1 X172.985 Y131.36 E1.46802
G1 X173.776 Y131.865 E1.51172
G1 X174.52 Y132.436 E1.55539
G1 X175.213 Y133.068 E1.59906
G1 X175.85 Y133.756 E1.64272
G1 X176.425 Y134.497 E1.68639
G1 X176.936 Y135.283 E1.73005
G1 X177.378 Y136.111 E1.77375
G1 X177.747 Y136.973 E1.81741
G1 X178.042 Y137.863 E1.86107
G1 X178.26 Y138.775 E1.90474
G1 X178.4 Y139.703 E1.94844
G1 X178.457 Y140.547 E1.98783
G1 X178.466 Y140.851 E2.00199
G1 X178.471 Y141.177 E2.01717
G1 X178.47 Y167.278 E3.23254
G1 X178.46 Y168.005 E3.2664
G1 X178.407 Y168.942 E3.3101
G1 X178.275 Y169.87 E3.35374
G1 X178.064 Y170.784 E3.39742
G1 X177.775 Y171.676 E3.44108
G1 X177.412 Y172.541 E3.48476
G1 X176.977 Y173.372 E3.52844
G1 X176.472 Y174.162 E3.5721
G1 X175.902 Y174.907 E3.61578
G1 X175.271 Y175.601 E3.65945
G1 X174.582 Y176.238 E3.70315
G1 X173.842 Y176.814 E3.74681
G1 X173.056 Y177.325 E3.79047
G1 X172.229 Y177.767 E3.83413
G1 X171.367 Y178.137 E3.87781
G1 X170.477 Y178.432 E3.92147
G1 X169.565 Y178.651 E3.96514
G1 X168.638 Y178.791 E4.0088
G1 X167.77 Y178.85 E4.04931
G1 X167.45 Y178.859 E4.06422
G1 X167.141 Y178.863 E4.07861
G1 X153.333 Y178.862 E4.72156
G1 X152.628 Y178.852 E4.75439
G1 X152.335 Y178.844 E4.76804
G1 X152.188 Y178.838 E4.77489
G1 X151.682 Y178.805 E4.79851
G1 X151.441 Y178.784 E4.80977
G1 X150.133 Y178.591 E4.87134
G1 X149.976 Y178.558 E4.87881
G1 X149.448 Y178.433 E4.90407
G1 X149.185 Y178.364 E4.91673
G1 X148.567 Y178.183 E4.94672
G1 X148.208 Y178.066 E4.9643
G1 X147.33 Y177.737 E5.00796
G1 X146.483 Y177.335 E5.05162
G1 X145.9 Y177.005 E5.08281
G1 X145.351 Y176.671 E5.11273
G1 X145.048 Y176.48 E5.12941
G1 X144.866 Y176.361 E5.13954
G1 X144.104 Y175.814 E5.18321
G1 X143.715 Y175.495 E5.20664
G1 X143.487 Y175.299 E5.22064
G1 X142.803 Y174.658 E5.26429
G1 X142.436 Y174.266 E5.28929
G1 X142.22 Y174.023 E5.30443
G1 X141.628 Y173.296 E5.34809
G1 X141.28 Y172.802 E5.37623
G1 X140.997 Y172.376 E5.40004
G1 X140.678 Y171.866 E5.42805
G1 X140.658 Y171.832 E5.42989
G1 X140.217 Y171.004 E5.47357
G1 X139.944 Y170.385 E5.50507
G1 X139.916 Y170.316 E5.50854
G1 X139.84 Y170.139 E5.51751
G1 X139.507 Y169.263 E5.56115
G1 X139.239 Y168.315 E5.60702
G1 X139.144 Y167.911 E5.62634
G1 X139.046 Y167.448 E5.64838
G1 X139.015 Y167.285 E5.65611
G1 X138.847 Y165.993 E5.71677
G1 X138.813 Y165.504 E5.7396
G1 X138.788 Y164.864 E5.76942
G1 X138.782 Y164.293 E5.79601
G1 X138.783 Y144.418 E6.72148
G1 X138.792 Y143.768 E6.75175
G1 X138.82 Y143.124 E6.78176
G1 X138.851 Y142.697 E6.8017
G1 X138.902 Y142.169 E6.8264
G1 X138.918 Y142.037 E6.83259
G1 X139.143 Y140.789 E6.89164
G1 X139.219 Y140.473 E6.90677
G1 X139.477 Y139.571 E6.95046
G1 X139.712 Y138.933 E6.98212
G1 X139.949 Y138.345 E7.01164
G1 X140.336 Y137.491 E7.05529
G1 X141.01 Y136.337 E7.11752
G1 X141.326 Y135.865 E7.14397
G1 X141.565 Y135.524 E7.16336
G1 X141.61 Y135.462 E7.16693
G1 X142.192 Y134.727 E7.21058
G1 X142.836 Y134.044 E7.2543
G0 F6000 X143.139 Y134.307
G1 F1200 X143.722 Y133.783 E7.2908
G1 X144.096 Y133.471 E7.31348
G1 X144.235 Y133.357 E7.32185
G1 X144.616 Y133.05 E7.34463
G1 X145.358 Y132.504 E7.38753
G1 X145.879 Y132.176 E7.41619
G1 X146.084 Y132.055 E7.42728
G1 X146.896 Y131.621 E7.47015
G1 X147.326 Y131.427 E7.49212
G1 X147.606 Y131.308 E7.50628
G1 X148.468 Y130.986 E7.54913
G1 X149.023 Y130.821 E7.57609
G1 X149.511 Y130.691 E7.59961
G1 X150.759 Y130.438 E7.6589
G1 X151 Y130.404 E7.67024
G1 X151.495 Y130.346 E7.69344
G1 X151.602 Y130.336 E7.69845
G1 X152.361 Y130.292 E7.73385
G1 X153.622 Y130.265 E7.79258
G1 X153.849 Y130.263 E7.80315
G1 X166.764 Y130.263 E8.40453
G1 X167.614 Y130.274 E8.44411
G1 X168.533 Y130.327 E8.48697
G1 X169.444 Y130.46 E8.52984
G1 X170.34 Y130.671 E8.5727
G1 X171.214 Y130.959 E8.61555
G1 X172.061 Y131.322 E8.65846
G1 X172.872 Y131.757 E8.70132
G1 X173.642 Y132.261 E8.74417
G1 X174.366 Y132.83 E8.78705
G1 X175.038 Y133.46 E8.82994
G1 X175.653 Y134.145 E8.8728
G1 X176.206 Y134.881 E8.91567
G1 X176.693 Y135.662 E8.95853
G1 X177.11 Y136.483 E9.00141
G1 X177.455 Y137.337 E9.04429
G1 X177.724 Y138.217 E9.08714
G1 X177.916 Y139.118 E9.13004
G1 X178.029 Y140.031 E9.17288
G1 X178.057 Y140.559 E9.1975
G1 X178.066 Y140.863 E9.21166
G1 X178.071 Y141.177 E9.22628
G1 X178.07 Y167.273 E10.44142
G1 X178.06 Y168 E10.47528
G1 X178.007 Y168.919 E10.51814
G1 X177.875 Y169.83 E10.561
G1 X177.664 Y170.726 E10.60387
G1 X177.377 Y171.601 E10.64674
G1 X177.014 Y172.447 E10.68961
G1 X176.58 Y173.259 E10.73248
G1 X176.076 Y174.03 E10.77537
G1 X175.508 Y174.754 E10.81822
G1 X174.879 Y175.426 E10.86108
G1 X174.194 Y176.041 E10.90395
G1 X173.458 Y176.594 E10.94682
G1 X172.677 Y177.082 E10.9897
G1 X171.857 Y177.5 E11.03256
G1 X171.003 Y177.845 E11.07544
G1 X170.123 Y178.114 E11.11829
G1 X169.222 Y178.307 E11.1612
G1 X168.309 Y178.42 E11.20404
G1 X167.759 Y178.45 E11.22968
G1 X167.439 Y178.459 E11.24459
G1 X167.141 Y178.463 E11.25847
G1 X153.339 Y178.462 E11.90115
G1 X152.634 Y178.452 E11.93398
G1 X152.352 Y178.444 E11.94711
G1 X152.205 Y178.438 E11.95396
G1 X151.717 Y178.407 E11.97673
G1 X151.476 Y178.386 E11.988
G1 X150.216 Y178.199 E12.04731
G1 X150.059 Y178.166 E12.05478
G1 X149.549 Y178.046 E12.07918
G1 X149.286 Y177.977 E12.09184
G1 X148.691 Y177.802 E12.12072
G1 X148.332 Y177.685 E12.1383
G1 X147.47 Y177.362 E12.18116
G1 X146.639 Y176.966 E12.22403
G1 X146.108 Y176.663 E12.2525
G1 X145.559 Y176.329 E12.28242
G1 X145.267 Y176.145 E12.29849
G1 X145.085 Y176.026 E12.30861
G1 X144.337 Y175.489 E12.35149
G1 X143.976 Y175.192 E12.37326
G1 X143.748 Y174.996 E12.38726
G1 X143.077 Y174.366 E12.43012
G1 X142.735 Y174 E12.45344
G1 X142.519 Y173.757 E12.46858
G1 X141.938 Y173.043 E12.51144
G1 X141.613 Y172.58 E12.53778
G1 X141.33 Y172.154 E12.5616
G1 X141.022 Y171.663 E12.58859
G1 X141.002 Y171.629 E12.59042
G1 X140.571 Y170.816 E12.63327
G1 X140.315 Y170.235 E12.66284
G1 X140.28 Y170.148 E12.6672
G1 X140.208 Y169.981 E12.67567
G1 X139.882 Y169.121 E12.7185
G1 X139.628 Y168.223 E12.76195
G1 X139.533 Y167.819 E12.78128
G1 X139.439 Y167.373 E12.8025
G1 X139.408 Y167.21 E12.81023
G1 X139.247 Y165.965 E12.86868
G1 X139.213 Y165.476 E12.89151
G1 X139.188 Y164.859 E12.92026
G1 X139.182 Y164.293 E12.94662
G1 X139.183 Y144.423 E13.87185
G1 X139.192 Y143.773 E13.90212
G1 X139.219 Y143.152 E13.93106
G1 X139.25 Y142.725 E13.951
G1 X139.299 Y142.217 E13.97476
G1 X139.315 Y142.085 E13.98095
G1 X139.532 Y140.882 E14.03787
G1 X139.608 Y140.566 E14.05301
G1 X139.862 Y139.681 E14.09588
G1 X140.083 Y139.082 E14.12561
G1 X140.32 Y138.494 E14.15513
G1 X140.7 Y137.656 E14.19797
G1 X141.343 Y136.56 E14.25714
G1 X141.659 Y136.088 E14.28359
G1 X141.888 Y135.759 E14.30226
G1 X141.933 Y135.697 E14.30582
G1 X142.506 Y134.976 E14.34871
G1 X143.139 Y134.307 E14.39159
G0 F6000 X143.442 Y134.571
G1 F1200 X143.978 Y134.091 E14.4251
G1 X144.352 Y133.779 E14.44778
G1 X144.486 Y133.669 E14.45585
G1 X144.867 Y133.362 E14.47863
G1 X145.595 Y132.827 E14.5207
G1 X146.082 Y132.52 E14.54751
G1 X146.287 Y132.399 E14.55859
G1 X147.482 Y131.796 E14.62092
G1 X147.762 Y131.677 E14.63509
G1 X148.608 Y131.361 E14.67714
G1 X149.126 Y131.208 E14.70229
G1 X149.614 Y131.078 E14.7258
G1 X150.815 Y130.834 E14.78287
G1 X151.056 Y130.8 E14.7942
G1 X151.532 Y130.744 E14.81652
G1 X151.639 Y130.734 E14.82152
G1 X152.37 Y130.692 E14.85562
G1 X153.631 Y130.665 E14.91435
G1 X153.849 Y130.663 E14.9245
G1 X166.764 Y130.663 E15.52588
G1 X167.608 Y130.674 E15.56518
G1 X168.51 Y130.727 E15.60725
G1 X169.403 Y130.859 E15.64929
G1 X170.281 Y131.07 E15.69134
G1 X171.137 Y131.358 E15.73339
G1 X171.964 Y131.72 E15.77543
G1 X172.756 Y132.155 E15.8175
G1 X173.507 Y132.657 E15.85956
G1 X174.21 Y133.224 E15.90162
G1 X174.86 Y133.851 E15.94367
G1 X175.452 Y134.533 E15.98572
G1 X175.982 Y135.264 E16.02777
G1 X176.444 Y136.04 E16.06982
G1 X176.837 Y136.853 E16.11187
G1 X177.155 Y137.698 E16.15391
G1 X177.398 Y138.568 E16.19597
G1 X177.563 Y139.456 E16.23803
G1 X177.658 Y140.571 E16.29013
G1 X177.667 Y140.875 E16.3043
G1 X177.671 Y141.177 E16.31836
G1 X177.67 Y167.267 E17.53322
G1 X177.66 Y167.994 E17.56708
G1 X177.608 Y168.896 E17.60915
G1 X177.476 Y169.789 E17.65118
G1 X177.265 Y170.668 E17.69327
G1 X176.978 Y171.524 E17.73531
G1 X176.616 Y172.351 E17.77735
G1 X176.182 Y173.143 E17.8194
G1 X175.68 Y173.894 E17.86146
G1 X175.114 Y174.597 E17.90349
G1 X174.487 Y175.248 E17.94558
G1 X173.806 Y175.84 E17.98759
G1 X173.075 Y176.37 E18.02964
G1 X172.299 Y176.833 E18.07171
G1 X171.486 Y177.226 E18.11376
G1 X170.641 Y177.546 E18.15583
G1 X169.772 Y177.789 E18.19785
G1 X168.884 Y177.954 E18.23991
G1 X167.748 Y178.05 E18.29299
G1 X167.428 Y178.059 E18.3079
G1 X167.141 Y178.063 E18.32127
G1 X153.344 Y178.062 E18.96371
G1 X152.639 Y178.052 E18.99654
G1 X152.368 Y178.045 E19.00917
G1 X152.221 Y178.039 E19.01602
G1 X151.752 Y178.008 E19.0379
G1 X151.511 Y177.987 E19.04917
G1 X150.298 Y177.808 E19.10626
G1 X150.141 Y177.775 E19.11373
G1 X149.651 Y177.659 E19.13718
G1 X149.388 Y177.59 E19.14984
G1 X148.815 Y177.422 E19.17764
G1 X148.456 Y177.305 E19.19523
G1 X147.611 Y176.987 E19.23727
G1 X146.797 Y176.596 E19.27932
G1 X146.316 Y176.321 E19.30512
G1 X145.767 Y175.987 E19.33504
G1 X145.486 Y175.81 E19.3505
G1 X145.304 Y175.691 E19.36063
G1 X144.237 Y174.889 E19.42278
G1 X144.009 Y174.693 E19.43678
G1 X143.351 Y174.074 E19.47885
G1 X143.034 Y173.735 E19.50046
G1 X142.818 Y173.492 E19.5156
G1 X142.249 Y172.791 E19.55764
G1 X141.946 Y172.359 E19.58221
G1 X141.663 Y171.933 E19.60602
G1 X141.367 Y171.461 E19.63197
G1 X141.347 Y171.427 E19.6338
G1 X140.924 Y170.629 E19.67586
G1 X140.685 Y170.085 E19.70353
G1 X140.65 Y169.998 E19.70789
G1 X140.575 Y169.824 E19.71672
G1 X140.256 Y168.979 E19.75877
G1 X140.018 Y168.132 E19.79974
G1 X139.923 Y167.728 E19.81907
G1 X139.832 Y167.299 E19.83949
G1 X139.801 Y167.136 E19.84721
G1 X139.646 Y165.937 E19.90351
G1 X139.612 Y165.448 E19.92633
G1 X139.588 Y164.855 E19.95397
G1 X139.582 Y164.293 E19.98014
G1 X139.583 Y144.429 E20.90509
G1 X139.592 Y143.779 E20.93536
G1 X139.618 Y143.181 E20.96323
G1 X139.649 Y142.754 E20.98317
G1 X139.696 Y142.266 E21.00599
G1 X139.712 Y142.134 E21.01219
G1 X139.921 Y140.976 E21.06698
G1 X139.997 Y140.66 E21.08211
G1 X140.247 Y139.792 E21.12417
G1 X140.454 Y139.232 E21.15197
G1 X140.691 Y138.644 E21.18149
G1 X141.065 Y137.822 E21.22354
G1 X141.675 Y136.782 E21.27969
G1 X141.991 Y136.31 E21.30614
G1 X142.212 Y135.994 E21.32409
G1 X142.257 Y135.932 E21.32766
G1 X142.819 Y135.225 E21.36971
G1 X143.442 Y134.571 E21.41177
G1 F2700 E16.41177
;MESH:camera-mount.stl
G0 F6000 X150.257 Y141.259
G0 X151.405 Y142.726
G0 X151.796 Y142.634
;TYPE:WALL-INNER
G1 F2700 E21.41177
G1 F1200 X151.549 Y142.854 E21.42717
G1 X151.405 Y143.059 E21.43884
G1 X151.337 Y143.181 E21.44534
G1 X151.232 Y143.467 E21.45953
G1 X151.212 Y143.692 E21.47005
G1 X151.187 Y143.864 E21.47814
G1 X151.195 Y144.068 E21.48765
G1 X151.243 Y144.264 E21.49704
G1 X151.266 Y144.337 E21.50061
G1 X151.319 Y144.447 E21.50629
G1 X151.423 Y144.712 E21.51955
G1 X151.524 Y144.842 E21.52721
G1 X151.727 Y145.06 E21.54109
G1 X151.851 Y145.16 E21.5485
G1 X152.166 Y145.341 E21.56542
G1 X152.4 Y145.395 E21.5766
G1 X152.709 Y145.441 E21.59115
G1 X152.828 Y145.481 E21.59699
G1 X153.274 Y145.375 E21.61834
G1 X153.351 Y145.363 E21.62197
G1 X153.675 Y145.197 E21.63892
G1 X154.112 Y144.757 E21.6678
G1 X154.276 Y144.447 E21.68413
G1 X154.301 Y144.321 E21.69011
G1 X154.386 Y143.987 E21.70616
G1 X154.345 Y143.808 E21.71471
G1 X154.313 Y143.383 E21.73455
G1 X154.138 Y143.019 E21.75336
G1 X154.032 Y142.874 E21.76172
G1 X153.777 Y142.617 E21.77858
G1 X153.616 Y142.506 E21.78769
G1 X153.544 Y142.479 E21.79127
G1 X153.172 Y142.304 E21.81041
G1 X152.911 Y142.286 E21.82259
G1 X152.872 Y142.291 E21.82442
G1 X152.446 Y142.291 E21.84426
G1 X152.04 Y142.451 E21.86458
G1 X152.022 Y142.433 E21.86577
G1 X151.972 Y142.477 E21.86887
G1 X151.958 Y142.483 E21.86958
G1 X151.796 Y142.634 E21.87989
G0 F6000 X152.007 Y142.984
;TYPE:WALL-OUTER
G1 F1200 X152.006 Y142.983 E21.87996
G1 X151.85 Y143.122 E21.88968
G1 X151.744 Y143.273 E21.89828
G1 X151.701 Y143.349 E21.90234
G1 X151.626 Y143.554 E21.91251
G1 X151.61 Y143.74 E21.9212
G1 X151.588 Y143.886 E21.92807
G1 X151.593 Y144.012 E21.93395
G1 X151.628 Y144.155 E21.9408
G1 X151.639 Y144.189 E21.94246
G1 X151.686 Y144.288 E21.94757
G1 X151.774 Y144.512 E21.95877
G1 X151.829 Y144.583 E21.96296
G1 X152 Y144.767 E21.97465
G1 X152.077 Y144.829 E21.97926
G1 X152.314 Y144.965 E21.99198
G1 X152.474 Y145.002 E21.99963
G1 X152.804 Y145.05 E22.01515
G1 X152.848 Y145.065 E22.01732
G1 X153.2 Y144.982 E22.03416
G1 X153.225 Y144.978 E22.03534
G1 X153.436 Y144.87 E22.04637
G1 X153.786 Y144.517 E22.06952
G1 X153.895 Y144.311 E22.08037
G1 X153.913 Y144.222 E22.0846
G1 X153.974 Y143.982 E22.09613
G1 X153.948 Y143.869 E22.10153
G1 X153.92 Y143.488 E22.11932
G1 X153.794 Y143.226 E22.13286
G1 X153.727 Y143.135 E22.13812
G1 X153.519 Y142.925 E22.15188
G1 X153.431 Y142.864 E22.15687
G1 X153.387 Y142.848 E22.15905
G1 X153.07 Y142.698 E22.17538
G1 X152.921 Y142.688 E22.18233
G1 X152.895 Y142.691 E22.18355
G1 X152.522 Y142.691 E22.20092
G1 X152.175 Y142.827 E22.21827
G1 X152.007 Y142.984 E22.22898
G0 F6000 X152.031 Y142.41
G1 F2700 E17.22898
G0 F6000 X153.106 Y142.561
G0 X154.5 Y143.333
G0 X153.071 Y143.715
G0 X164.986 Y143.987
G0 X163.67 Y144.718
G0 X164.899 Y145.419
;TYPE:WALL-INNER
G1 F2700 E22.22898
G1 F1200 X165.073 Y145.438 E22.23713
G1 X165.395 Y145.458 E22.25215
G1 X165.718 Y145.391 E22.26752
G1 X165.865 Y145.353 E22.27458
G1 X166.013 Y145.273 E22.28242
G1 X166.375 Y145.028 E22.30277
G1 X166.462 Y144.937 E22.30863
G1 X166.491 Y144.906 E22.31061
G1 X166.645 Y144.704 E22.32244
G1 X166.753 Y144.447 E22.33542
G1 X166.855 Y144.187 E22.34843
G1 X166.855 Y144.447 E22.34979
G1 X166.855 Y144.704 E22.35431
G1 X166.855 Y144.905 E22.36192
G1 X166.855 Y144.948 E22.36385
G1 X166.867 Y163.825 E23.24284
G1 X166.867 Y163.83 E23.24307
G1 X166.868 Y163.947 E23.24852
G1 X166.869 Y164.104 E23.25583
G1 X166.87 Y164.652 E23.28135
G1 X166.871 Y164.811 E23.28875
G1 X166.844 Y164.653 E23.28904
G1 X166.673 Y164.105 E23.29713
G1 X166.581 Y163.948 E23.30358
G1 X166.473 Y163.831 E23.31011
G1 X166.47 Y163.828 E23.31031
G1 X166.122 Y163.49 E23.3329
G1 X165.761 Y163.352 E23.35089
G1 X165.531 Y163.292 E23.36196
G1 X165.163 Y163.273 E23.37912
