;FLAVOR:Marlin
;TIME:2263
;Filament used: 1.7243m
;Layer height: 0.2
;MINX:100.893
;MINY:126.3
;MINZ:0.2
;MAXX:199.087
;MAXY:173.7
;MAXZ:6.2
;Generated with Cura_SteamEngine master
M140 S55
M105
M190 S55
M104 S210
M105
M109 S210
M82 ;absolute extrusion mode
M201 X500.00 Y500.00 Z100.00 E5000.00 ;Setup machine max acceleration
M203 X500.00 Y500.00 Z10.00 E50.00 ;Setup machine max feedrate
M204 P500.00 R1000.00 T500.00 ;Setup Print/Retract/Travel acceleration
M205 X8.00 Y8.00 Z0.40 E5.00 ;Setup Jerk
M220 S100 ;Reset Feedrate
M221 S100 ;Reset Flowrate

G28 ;Home

G92 E0 ;Reset Extruder
G1 Z2.0 F3000 ;Move Z Axis up
G1 X10.1 Y20 Z0.28 F5000.0 ;Move to start position
G1 X10.1 Y200.0 Z0.28 F1500.0 E15 ;Draw the first line
G1 X10.4 Y200.0 Z0.28 F5000.0 ;Move to side a little
G1 X10.4 Y20 Z0.28 F1500.0 E30 ;Draw the second line
G92 E0 ;Reset Extruder
G1 Z2.0 F3000 ;Move Z Axis up

G92 E0
G92 E0
G1 F2700 E-5
;LAYER_COUNT:31
;LAYER:0
M107
G0 F6000 X104.795 Y128.92 Z0.2
;TYPE:SKIRT
G1 F2700 E0
G1 F1200 X105.535 Y128.344 E0.03119
G1 X106.322 Y127.834 E0.06238
G1 X107.15 Y127.392 E0.0936
G1 X108.012 Y127.023 E0.12479
G1 X108.902 Y126.728 E0.15597
G1 X109.814 Y126.51 E0.18716
G1 X110.742 Y126.371 E0.21837
G1 X111.601 Y126.313 E0.247
G1 X111.921 Y126.304 E0.25765
G1 X112.23 Y126.3 E0.26793
G1 X174.693 Y126.3 E2.34546
G1 X175.53 Y126.311 E2.3733
G1 X176.158 Y126.339 E2.39421
G1 X177.12 Y126.409 E2.42629
G1 X178.041 Y126.49 E2.45704
G1 X178.683 Y126.555 E2.4785
G1 X179.611 Y126.689 E2.50969
G1 X180.252 Y126.83 E2.53152
G1 X181.279 Y127.089 E2.56674
G1 X182.065 Y127.301 E2.59382
G1 X182.688 Y127.476 E2.61534
G1 X183.579 Y127.768 E2.64653
G1 X184.212 Y128.028 E2.66929
G1 X185.144 Y128.447 E2.70328
G1 X185.872 Y128.787 E2.73
G1 X186.502 Y129.091 E2.75327
G1 X187.329 Y129.534 E2.78447
G1 X187.883 Y129.885 E2.80628
G1 X188.7 Y130.439 E2.83911
G1 X189.4 Y130.93 E2.86755
G1 X189.978 Y131.347 E2.89126
G1 X190.714 Y131.928 E2.92245
G1 X191.195 Y132.366 E2.94408
G1 X191.767 Y132.92 E2.97057
G1 X192.426 Y133.578 E3.00154
G1 X192.985 Y134.152 E3.02819
G1 X193.61 Y134.851 E3.05938
G1 X194.002 Y135.361 E3.08077
G1 X194.647 Y136.253 E3.11738
G1 X195.065 Y136.852 E3.14168
G1 X195.476 Y137.457 E3.166
G1 X195.969 Y138.254 E3.19717
G1 X196.268 Y138.825 E3.21861
G1 X196.708 Y139.732 E3.25214
G1 X197.061 Y140.49 E3.27995
G1 X197.345 Y141.121 E3.30297
G1 X197.693 Y141.992 E3.33416
G1 X197.89 Y142.611 E3.35577
G1 X198.175 Y143.613 E3.39042
G1 X198.376 Y144.369 E3.41644
G1 X198.554 Y145.072 E3.44056
G1 X198.746 Y145.99 E3.47175
G1 X198.832 Y146.636 E3.49342
G1 X198.939 Y147.676 E3.5282
G1 X199.007 Y148.462 E3.55444
G1 X199.059 Y149.172 E3.57812
G1 X199.087 Y150.109 E3.60929
G1 X199.06 Y150.753 E3.63073
G1 X198.988 Y151.758 E3.66424
G1 X198.91 Y152.641 E3.69373
G1 X198.845 Y153.283 E3.71519
G1 X198.711 Y154.211 E3.74638
G1 X198.57 Y154.855 E3.7683
G1 X198.362 Y155.683 E3.7967
G1 X198.097 Y156.672 E3.83075
G1 X197.921 Y157.297 E3.85235
G1 X197.629 Y158.188 E3.88353
G1 X197.375 Y158.804 E3.9057
G1 X196.97 Y159.708 E3.93864
G1 X196.605 Y160.487 E3.96725
G1 X196.312 Y161.095 E3.9897
G1 X195.87 Y161.922 E4.02089
G1 X195.513 Y162.484 E4.04304
G1 X194.934 Y163.338 E4.07735
G1 X194.474 Y163.992 E4.10395
G1 X194.056 Y164.572 E4.12772
G1 X193.476 Y165.309 E4.15892
G1 X193.039 Y165.788 E4.18048
G1 X192.351 Y166.497 E4.21334
G1 X191.726 Y167.121 E4.24272
G1 X191.246 Y167.588 E4.26499
G1 X190.546 Y168.213 E4.2962
G1 X190.033 Y168.609 E4.31776
G1 X189.367 Y169.092 E4.34512
G1 X188.617 Y169.619 E4.37561
G1 X187.952 Y170.072 E4.40237
G1 X187.154 Y170.565 E4.43357
G1 X186.597 Y170.857 E4.45449
G1 X185.779 Y171.256 E4.48476
G1 X185.048 Y171.598 E4.5116
G1 X184.264 Y171.951 E4.5402
G1 X183.393 Y172.298 E4.57138
G1 X182.783 Y172.492 E4.59267
G1 X181.791 Y172.774 E4.62697
G1 X181.028 Y172.977 E4.65323
G1 X180.324 Y173.155 E4.67738
G1 X179.406 Y173.346 E4.70857
G1 X178.764 Y173.432 E4.73011
G1 X177.724 Y173.539 E4.76489
G1 X177.098 Y173.594 E4.78579
G1 X176.209 Y173.659 E4.81544
G1 X175.59 Y173.687 E4.83605
G1 X174.83 Y173.699 E4.86133
G1 X112.607 Y173.7 E6.93087
G1 X111.751 Y173.689 E6.95934
G1 X110.815 Y173.635 E6.99053
G1 X109.887 Y173.503 E7.0217
G1 X108.973 Y173.291 E7.05291
G1 X108.081 Y173.002 E7.0841
G1 X107.216 Y172.639 E7.1153
G1 X106.386 Y172.203 E7.14648
G1 X105.595 Y171.698 E7.17769
G1 X104.851 Y171.127 E7.20889
G1 X104.158 Y170.495 E7.24008
G1 X103.521 Y169.807 E7.27127
G1 X102.946 Y169.066 E7.30246
G1 X102.435 Y168.28 E7.33364
G1 X101.993 Y167.452 E7.36486
G1 X101.624 Y166.59 E7.39605
G1 X101.329 Y165.7 E7.42723
G1 X101.111 Y164.788 E7.45842
G1 X100.971 Y163.86 E7.48964
G1 X100.913 Y162.985 E7.5188
G1 X100.904 Y162.65 E7.52995
G1 X100.9 Y162.355 E7.53976
G1 X100.9 Y150.635 E7.92957
G1 X100.893 Y149.426 E7.96978
G1 X100.9 Y149.238 E7.97604
G1 X100.901 Y137.838 E8.35521
G1 X100.911 Y137.149 E8.37812
G1 X100.965 Y136.213 E8.40931
G1 X101.098 Y135.285 E8.44049
G1 X101.31 Y134.371 E8.47169
G1 X101.598 Y133.479 E8.50287
G1 X101.962 Y132.614 E8.53408
G1 X102.398 Y131.784 E8.56527
G1 X102.903 Y130.994 E8.59645
G1 X103.474 Y130.25 E8.62765
G1 X104.106 Y129.557 E8.65884
G1 X104.795 Y128.92 E8.69005
G0 F6000 X105.183 Y129.117
G1 F1200 X105.92 Y128.564 E8.7207
G1 X106.701 Y128.077 E8.75131
G1 X107.522 Y127.66 E8.78194
G1 X108.376 Y127.316 E8.81256
G1 X109.256 Y127.047 E8.84316
G1 X110.157 Y126.855 E8.8738
G1 X111.07 Y126.742 E8.9044
G1 X111.612 Y126.713 E8.92245
G1 X111.932 Y126.704 E8.9331
G1 X112.23 Y126.7 E8.94301
G1 X174.693 Y126.7 E11.02054
G1 X175.524 Y126.711 E11.04818
G1 X176.13 Y126.737 E11.06836
G1 X176.934 Y126.795 E11.09517
G1 X178.001 Y126.888 E11.13079
G1 X178.643 Y126.953 E11.15225
G1 X179.554 Y127.085 E11.18287
G1 X180.154 Y127.218 E11.20331
G1 X181.175 Y127.475 E11.23833
G1 X181.957 Y127.686 E11.26527
G1 X182.58 Y127.861 E11.28679
G1 X183.454 Y128.148 E11.31739
G1 X184.049 Y128.393 E11.33879
G1 X184.841 Y128.748 E11.36766
G1 X185.699 Y129.147 E11.39913
G1 X186.329 Y129.451 E11.42239
G1 X187.14 Y129.887 E11.45302
G1 X187.659 Y130.217 E11.47348
G1 X188.471 Y130.767 E11.5061
G1 X189.166 Y131.255 E11.53434
G1 X189.744 Y131.672 E11.55805
G1 X190.466 Y132.242 E11.58864
G1 X190.917 Y132.654 E11.60896
G1 X191.489 Y133.208 E11.63544
G1 X192.25 Y133.968 E11.67121
G1 X192.699 Y134.43 E11.69264
G1 X193.311 Y135.118 E11.72327
G1 X193.679 Y135.596 E11.74333
G1 X194.217 Y136.338 E11.77382
G1 X194.651 Y136.956 E11.79893
G1 X195.145 Y137.681 E11.82811
G1 X195.629 Y138.465 E11.85876
G1 X195.908 Y139 E11.87883
G1 X196.346 Y139.902 E11.91218
G1 X196.696 Y140.654 E11.93976
G1 X196.98 Y141.285 E11.96278
G1 X197.321 Y142.141 E11.99343
G1 X197.505 Y142.721 E12.01366
G1 X197.788 Y143.716 E12.04807
G1 X197.989 Y144.467 E12.07393
G1 X198.167 Y145.17 E12.09805
G1 X198.354 Y146.072 E12.12869
G1 X198.434 Y146.678 E12.14902
G1 X198.54 Y147.711 E12.18355
G1 X198.608 Y148.491 E12.2096
G1 X198.66 Y149.201 E12.23327
G1 X198.687 Y150.121 E12.26389
G1 X198.661 Y150.725 E12.28399
G1 X198.589 Y151.723 E12.31727
G1 X198.512 Y152.601 E12.34659
G1 X198.447 Y153.243 E12.36805
G1 X198.315 Y154.154 E12.39867
G1 X198.182 Y154.758 E12.41924
G1 X197.974 Y155.586 E12.44763
G1 X197.712 Y156.563 E12.48128
G1 X197.536 Y157.188 E12.50287
G1 X197.248 Y158.063 E12.53351
G1 X197.01 Y158.641 E12.5543
G1 X196.607 Y159.539 E12.58704
G1 X196.245 Y160.314 E12.61549
G1 X195.952 Y160.922 E12.63794
G1 X195.517 Y161.733 E12.66855
G1 X195.182 Y162.26 E12.68931
G1 X194.607 Y163.108 E12.72339
G1 X194.149 Y163.759 E12.74987
G1 X193.731 Y164.339 E12.77364
G1 X193.161 Y165.061 E12.80424
G1 X192.752 Y165.51 E12.82444
G1 X192.193 Y166.088 E12.85118
G1 X191.447 Y166.835 E12.8863
G1 X190.967 Y167.302 E12.90857
G1 X190.28 Y167.914 E12.93917
G1 X189.798 Y168.285 E12.9594
G1 X188.993 Y168.867 E12.99244
G1 X188.256 Y169.382 E13.02235
G1 X187.727 Y169.741 E13.04361
G1 X186.944 Y170.224 E13.07421
G1 X186.422 Y170.497 E13.0938
G1 X185.431 Y170.979 E13.13046
G1 X184.746 Y171.296 E13.15556
G1 X184.1 Y171.586 E13.17911
G1 X183.245 Y171.927 E13.20973
G1 X182.673 Y172.108 E13.22968
G1 X181.688 Y172.388 E13.26374
G1 X180.93 Y172.59 E13.28983
G1 X180.226 Y172.768 E13.31398
G1 X179.325 Y172.954 E13.34458
G1 X178.722 Y173.034 E13.36482
G1 X177.689 Y173.14 E13.39935
G1 X176.9 Y173.208 E13.42569
G1 X176.181 Y173.26 E13.44967
G1 X175.583 Y173.287 E13.46958
G1 X174.656 Y173.3 E13.50041
G1 X112.455 Y173.299 E15.56923
G1 X111.757 Y173.289 E15.59245
G1 X110.838 Y173.236 E15.62306
G1 X109.927 Y173.103 E15.65368
G1 X109.031 Y172.892 E15.6843
G1 X108.157 Y172.604 E15.71491
G1 X107.31 Y172.241 E15.74556
G1 X106.499 Y171.806 E15.77617
G1 X105.729 Y171.302 E15.80677
G1 X105.005 Y170.733 E15.8374
G1 X104.333 Y170.103 E15.86804
G1 X103.718 Y169.418 E15.89866
G1 X103.165 Y168.682 E15.92928
G1 X102.678 Y167.901 E15.95989
G1 X102.261 Y167.08 E15.99052
G1 X101.916 Y166.226 E16.02115
G1 X101.647 Y165.346 E16.05176
G1 X101.455 Y164.445 E16.0824
G1 X101.342 Y163.532 E16.11299
G1 X101.313 Y162.975 E16.13155
G1 X101.304 Y162.64 E16.14269
G1 X101.3 Y162.355 E16.15217
G1 X101.3 Y150.635 E16.54198
G1 X101.293 Y149.423 E16.58229
G1 X101.3 Y149.239 E16.58842
G1 X101.301 Y137.844 E16.96742
G1 X101.311 Y137.155 E16.99033
G1 X101.364 Y136.236 E17.02095
G1 X101.497 Y135.325 E17.05157
G1 X101.709 Y134.429 E17.0822
G1 X101.997 Y133.555 E17.1128
G1 X102.36 Y132.709 E17.14342
G1 X102.795 Y131.897 E17.17406
G1 X103.299 Y131.127 E17.20467
G1 X103.868 Y130.403 E17.2353
G1 X104.498 Y129.731 E17.26593
G1 X105.183 Y129.117 E17.29653
G0 F6000 X105.571 Y129.318
G1 F1200 X106.303 Y128.788 E17.32659
G1 X107.079 Y128.326 E17.35663
G1 X107.892 Y127.934 E17.38664
G1 X108.737 Y127.615 E17.41669
G1 X109.607 Y127.372 E17.44673
G1 X110.495 Y127.208 E17.47676
G1 X111.623 Y127.113 E17.51441
G1 X111.943 Y127.104 E17.52506
G1 X112.23 Y127.1 E17.53461
G1 X174.693 Y127.1 E19.61214
G1 X175.518 Y127.111 E19.63958
G1 X176.101 Y127.136 E19.65899
G1 X177.051 Y127.206 E19.69067
G1 X177.96 Y127.286 E19.72102
G1 X178.602 Y127.351 E19.74248
G1 X179.496 Y127.482 E19.77253
G1 X180.057 Y127.606 E19.79164
G1 X181.071 Y127.862 E19.82643
G1 X181.848 Y128.071 E19.85319
G1 X182.471 Y128.246 E19.87471
G1 X183.329 Y128.529 E19.90476
G1 X183.885 Y128.758 E19.92476
G1 X184.806 Y129.172 E19.95835
G1 X185.525 Y129.508 E19.98474
G1 X186.155 Y129.812 E20.00801
G1 X186.95 Y130.24 E20.03804
G1 X187.435 Y130.548 E20.05715
G1 X188.108 Y131.003 E20.08417
G1 X188.932 Y131.579 E20.11761
G1 X189.51 Y131.996 E20.14131
G1 X190.218 Y132.556 E20.17134
G1 X190.638 Y132.941 E20.19029
G1 X191.21 Y133.495 E20.21677
G1 X191.963 Y134.247 E20.25217
G1 X192.412 Y134.709 E20.27359
G1 X193.012 Y135.384 E20.30363
G1 X193.355 Y135.831 E20.32237
G1 X193.992 Y136.712 E20.35853
G1 X194.403 Y137.301 E20.38242
G1 X194.814 Y137.906 E20.40675
G1 X195.288 Y138.675 E20.43679
G1 X195.549 Y139.175 E20.45555
G1 X195.913 Y139.923 E20.48322
G1 X196.272 Y140.69 E20.51138
G1 X196.615 Y141.45 E20.53912
G1 X196.949 Y142.289 E20.56915
G1 X197.121 Y142.831 E20.58807
G1 X197.357 Y143.656 E20.61661
G1 X197.565 Y144.428 E20.6432
G1 X197.779 Y145.268 E20.67203
G1 X197.962 Y146.153 E20.70209
G1 X198.036 Y146.719 E20.72107
G1 X198.142 Y147.746 E20.75541
G1 X198.209 Y148.52 E20.78125
G1 X198.261 Y149.23 E20.80493
G1 X198.287 Y150.133 E20.83498
G1 X198.262 Y150.697 E20.85375
G1 X198.191 Y151.689 E20.88683
G1 X198.114 Y152.56 E20.91591
G1 X198.049 Y153.202 E20.93738
G1 X197.918 Y154.096 E20.96743
G1 X197.794 Y154.66 E20.98664
G1 X197.546 Y155.642 E21.02032
G1 X197.327 Y156.455 E21.04833
G1 X197.151 Y157.08 E21.06992
G1 X196.868 Y157.937 E21.09994
G1 X196.645 Y158.477 E21.11937
G1 X196.245 Y159.37 E21.15192
G1 X195.885 Y160.14 E21.18019
G1 X195.592 Y160.748 E21.20264
G1 X195.164 Y161.544 E21.2327
G1 X194.851 Y162.036 E21.25209
G1 X194.279 Y162.879 E21.28597
G1 X193.825 Y163.525 E21.31224
G1 X193.407 Y164.105 E21.33601
G1 X192.847 Y164.813 E21.36604
G1 X192.464 Y165.232 E21.38492
G1 X191.905 Y165.81 E21.41166
G1 X191.168 Y166.548 E21.44635
G1 X190.688 Y167.015 E21.46863
G1 X190.013 Y167.615 E21.49866
G1 X189.563 Y167.961 E21.51754
G1 X188.763 Y168.54 E21.55039
G1 X188.032 Y169.051 E21.58005
G1 X187.503 Y169.41 E21.60132
G1 X186.734 Y169.884 E21.63136
G1 X186.247 Y170.138 E21.64963
G1 X185.429 Y170.537 E21.6799
G1 X184.71 Y170.873 E21.7063
G1 X183.936 Y171.221 E21.73453
G1 X183.097 Y171.554 E21.76455
G1 X182.563 Y171.723 E21.78318
G1 X181.748 Y171.956 E21.81137
G1 X180.832 Y172.202 E21.84292
G1 X180.128 Y172.38 E21.86707
G1 X179.244 Y172.562 E21.89709
G1 X178.681 Y172.636 E21.91597
G1 X177.654 Y172.742 E21.95031
G1 X177.028 Y172.797 E21.97121
G1 X176.152 Y172.861 E22.00043
G1 X175.577 Y172.887 E22.01957
G1 X174.656 Y172.9 E22.05021
G1 X112.461 Y172.899 E24.11882
G1 X111.763 Y172.889 E24.14204
G1 X110.861 Y172.836 E24.17209
G1 X109.968 Y172.704 E24.20212
G1 X109.09 Y172.493 E24.23215
G1 X108.234 Y172.205 E24.26219
G1 X107.407 Y171.843 E24.29221
G1 X106.615 Y171.408 E24.32227
G1 X105.864 Y170.906 E24.35231
G1 X105.161 Y170.339 E24.38235
G1 X104.511 Y169.712 E24.41239
G1 X103.919 Y169.03 E24.44243
G1 X103.389 Y168.299 E24.47246
G1 X102.927 Y167.523 E24.5025
G1 X102.534 Y166.71 E24.53253
G1 X102.216 Y165.865 E24.56256
G1 X101.973 Y164.995 E24.5926
G1 X101.808 Y164.107 E24.62264
G1 X101.713 Y162.964 E24.66079
G1 X101.704 Y162.629 E24.67194
G1 X101.7 Y162.355 E24.68105
G1 X101.7 Y150.635 E25.07086
G1 X101.693 Y149.421 E25.11124
G1 X101.7 Y149.23 E25.1176
G1 X101.701 Y137.85 E25.4961
G1 X101.711 Y137.161 E25.51901
G1 X101.764 Y136.259 E25.54907
G1 X101.897 Y135.366 E25.5791
G1 X102.108 Y134.488 E25.60913
G1 X102.396 Y133.632 E25.63917
G1 X102.758 Y132.805 E25.66919
G1 X103.193 Y132.013 E25.69925
G1 X103.695 Y131.263 E25.72927
G1 X104.262 Y130.56 E25.7593
G1 X104.889 Y129.91 E25.78934
G1 X105.571 Y129.318 E25.81938
G1 F2700 E20.81938
;MESH:offset_test.stl
G0 F6000 X111.858 Y149.968
G0 X112.317 Y150.968
G0 X112.5 Y162.1
;TYPE:WALL-INNER
G1 F2700 E25.81938
G1 F1200 X112.5 Y151.062 E26.18651
G1 X112.834 Y150.827 E26.20009
G1 X113.082 Y150.405 E26.21637
G1 X113.135 Y149.816 E26.23604
G1 X112.978 Y149.378 E26.25151
G1 X112.695 Y149.044 E26.26607
G1 X112.5 Y148.932 E26.27355
G1 X112.5 Y137.9 E26.64048
G1 X175.382 Y137.9 E28.73194
G1 X177.498 Y138.085 E28.80259
G1 X179.536 Y138.631 E28.87276
G1 X181.447 Y139.522 E28.94289
G1 X183.179 Y140.735 E29.01322
G1 X184.665 Y142.221 E29.08312
G1 X185.879 Y143.955 E29.15352
G1 X186.769 Y145.862 E29.22352
G1 X187.315 Y147.9 E29.29369
G1 X187.499 Y150 E29.36381
G1 X187.315 Y152.1 E29.43392
G1 X186.769 Y154.138 E29.50409
G1 X185.879 Y156.045 E29.57409
G1 X184.665 Y157.779 E29.64449
G1 X183.179 Y159.265 E29.71439
G1 X181.447 Y160.478 E29.78472
G1 X179.536 Y161.369 E29.85485
G1 X177.498 Y161.915 E29.92502
G1 X175.382 Y162.1 E29.99567
G1 X112.5 Y162.1 E32.08713
G0 F6000 X112.1 Y162.5
;TYPE:WALL-OUTER
G1 F1200 X112.1 Y150.803 E32.47618
G1 X112.199 Y150.785 E32.47952
G1 X112.533 Y150.55 E32.49311
G1 X112.692 Y150.28 E32.50353
G1 X112.729 Y149.868 E32.51729
G1 X112.626 Y149.581 E32.52743
G1 X112.435 Y149.356 E32.53724
G1 X112.183 Y149.211 E32.54691
G1 X112.1 Y149.197 E32.54971
G1 X112.1 Y137.5 E32.93876
G1 X175.394 Y137.5 E35.04392
G1 X177.569 Y137.69 E35.11654
G1 X179.677 Y138.255 E35.18913
G1 X181.646 Y139.173 E35.26138
G1 X183.438 Y140.428 E35.33415
G1 X184.972 Y141.962 E35.4063
G1 X186.225 Y143.752 E35.47898
G1 X187.146 Y145.725 E35.5514
G1 X187.71 Y147.831 E35.62391
G1 X187.9 Y150 E35.69633
G1 X187.71 Y152.169 E35.76875
G1 X187.146 Y154.275 E35.84126
G1 X186.225 Y156.248 E35.91368
G1 X184.972 Y158.038 E35.98635
G1 X183.438 Y159.572 E36.05851
G1 X181.646 Y160.827 E36.13127
G1 X179.677 Y161.745 E36.20353
G1 X177.569 Y162.31 E36.27612
G1 X175.394 Y162.5 E36.34873
G1 X112.1 Y162.5 E38.4539
G0 F6000 X112.37 Y162.23
G0 X112.61 Y161.71
G0 X112.89 Y161.71
;TYPE:SKIN
G1 F1200 X112.89 Y151.264 E38.80134
G1 X113.127 Y151.098 E38.81096
G1 X113.462 Y150.528 E38.83295
G1 X113.531 Y149.765 E38.85843
G1 X113.321 Y149.179 E38.87913
G1 X112.949 Y148.74 E38.89827
G1 X112.89 Y148.706 E38.90054
G1 X112.89 Y138.29 E39.24698
G1 X175.37 Y138.29 E41.32507
