;FLAVOR:Marlin
;TIME:2201
;Filament used: 1.40704m
;Layer height: 0.2
;MINX:111.235
;MINY:136.635
;MINZ:0.2
;MAXX:188.765
;MAXY:163.365
;MAXZ:2.4
;Generated with Cura_SteamEngine master
M140 S55
M105
M190 S55
M104 S210
M105
M109 S210
M82 ;absolute extrusion mode
M201 X500.00 Y500.00 Z100.00 E5000.00 ;Setup machine max acceleration
M203 X500.00 Y500.00 Z10.00 E50.00 ;Setup machine max feedrate
M204 P500.00 R1000.00 T500.00 ;Setup Print/Retract/Travel acceleration
M205 X8.00 Y8.00 Z0.40 E5.00 ;Setup Jerk
M220 S100 ;Reset Feedrate
M221 S100 ;Reset Flowrate

G28 ;Home

G92 E0 ;Reset Extruder
G1 Z2.0 F3000 ;Move Z Axis up
G1 X10.1 Y20 Z0.28 F5000.0 ;Move to start position
G1 X10.1 Y200.0 Z0.28 F1500.0 E15 ;Draw the first line
G1 X10.4 Y200.0 Z0.28 F5000.0 ;Move to side a little
G1 X10.4 Y20 Z0.28 F1500.0 E30 ;Draw the second line
G92 E0 ;Reset Extruder
G1 Z2.0 F3000 ;Move Z Axis up

G92 E0
G92 E0
G1 F2700 E-5
;LAYER_COUNT:12
;LAYER:0
M107
;MESH:holetest.stl
G0 F6000 X118.678 Y144.388 Z0.2
;TYPE:WALL-INNER
G1 F2700 E0
G1 F1200 X119.09 Y143.797 E0.02396
G1 X118.903 Y143.102 E0.0479
G1 X118.219 Y142.785 E0.07297
G1 X117.515 Y143.192 E0.10002
G1 X117.449 Y143.943 E0.1251
G1 X117.961 Y144.451 E0.14908
G1 X118.678 Y144.388 E0.17302
G0 F6000 X118.457 Y144.006
;TYPE:WALL-OUTER
G1 F1200 X118.655 Y143.721 E0.18457
G1 X118.565 Y143.386 E0.1961
G1 X118.239 Y143.235 E0.20805
G1 X117.895 Y143.434 E0.22127
G1 X117.864 Y143.791 E0.23319
G1 X118.111 Y144.036 E0.24476
G1 X118.457 Y144.006 E0.25631
G1 F2700 E-4.74369
G0 F6000 X118.703 Y144.178
G0 X119.299 Y143.834
G0 X123.571 Y143.834
G0 X124.754 Y144.529
;TYPE:WALL-INNER
G1 F2700 E0.25631
G1 F1200 X125.284 Y144.224 E0.27665
G1 X125.493 Y143.65 E0.29697
G1 X125.284 Y143.076 E0.31728
G1 X124.751 Y142.77 E0.33773
G1 X124.151 Y142.879 E0.35801
G1 X123.761 Y143.344 E0.37819
G1 X123.761 Y143.957 E0.39858
G1 X124.156 Y144.422 E0.41888
G1 X124.754 Y144.529 E0.43908
G0 F6000 X124.681 Y144.11
;TYPE:WALL-OUTER
G1 F1200 X124.958 Y143.95 E0.44972
G1 X125.067 Y143.65 E0.46034
G1 X124.958 Y143.35 E0.47095
G1 X124.679 Y143.19 E0.48165
G1 X124.365 Y143.247 E0.49226
G1 X124.161 Y143.49 E0.50282
G1 X124.161 Y143.81 E0.51346
G1 X124.368 Y144.054 E0.5241
G1 X124.681 Y144.11 E0.53468
G0 F6000 X124.756 Y144.543
G1 F2700 E-4.46532
G0 F6000 X125.696 Y143.65
G0 X129.831 Y143.452
G0 X130.295 Y144.031
G0 X130.619 Y144.298
G0 X131.272 Y144.523
;TYPE:WALL-INNER
G1 F2700 E0.53468
G1 F1200 X131.755 Y144.115 E0.55571
G1 X131.868 Y143.488 E0.5769
G1 X131.545 Y142.934 E0.59823
G1 X130.949 Y142.72 E0.61929
G1 X130.352 Y142.937 E0.64042
G1 X130.032 Y143.488 E0.66161
G1 X130.145 Y144.118 E0.6829
G1 X130.638 Y144.524 E0.70414
G1 X131.272 Y144.523 E0.72523
G0 F6000 X131.125 Y144.123
;TYPE:WALL-OUTER
G1 F1200 X131.387 Y143.902 E0.73663
G1 X131.448 Y143.562 E0.74812
G1 X131.273 Y143.261 E0.7597
G1 X130.95 Y143.145 E0.77111
G1 X130.625 Y143.263 E0.78261
G1 X130.452 Y143.562 E0.7941
G1 X130.513 Y143.903 E0.80562
G1 X130.781 Y144.124 E0.81718
G1 X131.125 Y144.123 E0.82862
G0 F6000 X131.276 Y144.536
G1 F2700 E-4.17138
G0 F6000 X132.039 Y143.614
G0 X136.211 Y143.621
G0 X136.837 Y144.256
G0 X137.471 Y144.593
;TYPE:WALL-INNER
G1 F2700 E0.82862
G1 F1200 X138.032 Y144.262 E0.85028
G1 X138.257 Y143.65 E0.87197
G1 X138.029 Y143.032 E0.89388
G1 X137.461 Y142.707 E0.91564
G1 X136.818 Y142.824 E0.93738
G1 X136.402 Y143.323 E0.95899
G1 X136.401 Y143.972 E0.98057
G1 X136.82 Y144.477 E1.0024
G1 X137.471 Y144.593 E1.02439
G0 F6000 X137.395 Y144.173
;TYPE:WALL-OUTER
G1 F1200 X137.706 Y143.99 E1.0364
G1 X137.831 Y143.65 E1.04844
G1 X137.704 Y143.307 E1.06061
G1 X137.389 Y143.127 E1.07268
G1 X137.032 Y143.192 E1.08474
G1 X136.802 Y143.468 E1.09669
G1 X136.801 Y143.828 E1.10867
G1 X137.034 Y144.109 E1.12081
G1 X137.395 Y144.173 E1.133
G0 F6000 X137.473 Y144.606
G1 F2700 E-3.867
G0 F6000 X138.461 Y143.65
G0 X142.468 Y143.859
G0 X142.978 Y144.185
G0 X143.827 Y144.637
;TYPE:WALL-INNER
G1 F2700 E1.133
G1 F1200 X144.294 Y144.417 E1.15017
G1 X144.592 Y143.993 E1.16741
G1 X144.637 Y143.476 E1.18467
G1 X144.417 Y143.004 E1.20199
G1 X143.988 Y142.708 E1.21933
G1 X143.476 Y142.663 E1.23642
G1 X143.006 Y142.881 E1.25365
G1 X142.708 Y143.308 E1.27097
G1 X142.663 Y143.824 E1.2882
G1 X142.883 Y144.296 E1.30552
G1 X143.312 Y144.592 E1.32285
G1 X143.827 Y144.637 E1.34005
G0 F6000 X143.754 Y144.229
;TYPE:WALL-OUTER
G1 F1200 X144.028 Y144.1 E1.35012
G1 X144.203 Y143.851 E1.36024
G1 X144.229 Y143.548 E1.37036
G1 X144.1 Y143.271 E1.38052
G1 X143.848 Y143.097 E1.39071
G1 X143.548 Y143.071 E1.40072
G1 X143.272 Y143.199 E1.41084
G1 X143.097 Y143.449 E1.42099
G1 X143.071 Y143.752 E1.43111
G1 X143.2 Y144.029 E1.44127
G1 X143.452 Y144.203 E1.45146
G1 X143.754 Y144.229 E1.46154
G0 F6000 X143.831 Y144.662
G1 F2700 E-3.53846
G0 F6000 X144.831 Y143.457
G0 X144.831 Y136.635
G0 X174.757 Y143.473
G0 X175.987 Y143.55
G0 X181.817 Y145.087
G0 X180.877 Y146.205
G0 X182.474 Y146.744
;TYPE:WALL-INNER
G1 F2700 E1.46154
G1 F1200 X183.02 Y146.793 E1.47977
G1 X183.566 Y146.744 E1.498
G1 X184.095 Y146.603 E1.51621
G1 X184.591 Y146.372 E1.53441
G1 X185.04 Y146.058 E1.55263
G1 X185.428 Y145.67 E1.57088
G1 X185.742 Y145.221 E1.58911
G1 X185.973 Y144.725 E1.60731
G1 X186.114 Y144.196 E1.62551
G1 X186.163 Y143.65 E1.64375
G1 X186.114 Y143.104 E1.66198
G1 X185.973 Y142.575 E1.68019
G1 X185.742 Y142.079 E1.69839
G1 X185.428 Y141.63 E1.71661
G1 X185.04 Y141.242 E1.73486
G1 X184.591 Y140.928 E1.75308
G1 X184.095 Y140.697 E1.77128
G1 X183.566 Y140.556 E1.78949
G1 X183.02 Y140.507 E1.80772
G1 X182.474 Y140.556 E1.82596
G1 X181.945 Y140.697 E1.84417
G1 X181.449 Y140.928 E1.86237
G1 X181 Y141.242 E1.88059
G1 X180.612 Y141.63 E1.89884
G1 X180.298 Y142.079 E1.91706
G1 X180.067 Y142.575 E1.93526
G1 X179.926 Y143.104 E1.95347
G1 X179.877 Y143.65 E1.9717
G1 X179.926 Y144.196 E1.98994
G1 X180.067 Y144.725 E2.00814
G1 X180.298 Y145.221 E2.02634
G1 X180.612 Y145.67 E2.04457
G1 X181 Y146.058 E2.06282
G1 X181.449 Y146.372 E2.08104
G1 X181.945 Y146.603 E2.09924
G1 X182.474 Y146.744 E2.11745
G0 F6000 X182.544 Y146.349
;TYPE:WALL-OUTER
G1 F1200 X183.02 Y146.391 E2.13334
G1 X183.496 Y146.349 E2.14923
G1 X183.958 Y146.226 E2.16514
G1 X184.39 Y146.024 E2.181
G1 X184.782 Y145.75 E2.1969
G1 X185.12 Y145.412 E2.2128
G1 X185.394 Y145.02 E2.22871
G1 X185.596 Y144.588 E2.24457
G1 X185.719 Y144.126 E2.26047
G1 X185.761 Y143.65 E2.27637
G1 X185.719 Y143.174 E2.29226
G1 X185.596 Y142.712 E2.30816
G1 X185.394 Y142.28 E2.32402
G1 X185.12 Y141.888 E2.33993
G1 X184.782 Y141.55 E2.35583
G1 X184.39 Y141.276 E2.37174
G1 X183.958 Y141.074 E2.3876
G1 X183.496 Y140.951 E2.4035
G1 X183.02 Y140.909 E2.41939
G1 X182.544 Y140.951 E2.43528
G1 X182.082 Y141.074 E2.45119
G1 X181.65 Y141.276 E2.46705
G1 X181.258 Y141.55 E2.48296
G1 X180.92 Y141.888 E2.49885
G1 X180.646 Y142.28 E2.51476
G1 X180.444 Y142.712 E2.53062
G1 X180.321 Y143.174 E2.54652
G1 X180.279 Y143.65 E2.56242
G1 X180.321 Y144.126 E2.57831
G1 X180.444 Y144.588 E2.59421
G1 X180.646 Y145.02 E2.61007
G1 X180.92 Y145.412 E2.62598
G1 X181.258 Y145.75 E2.64188
G1 X181.65 Y146.024 E2.65779
G1 X182.082 Y146.226 E2.67365
G1 X182.544 Y146.349 E2.68955
G0 F6000 X182.468 Y146.782
G1 F2700 E-2.31045
G0 F6000 X180.132 Y145.317
G0 X181.396 Y144.587
G0 X175.912 Y143.953
G0 X177.186 Y144.697
G0 X175.985 Y145.262
G0 X174.756 Y145.415
;TYPE:WALL-INNER
G1 F2700 E2.68955
G1 F1200 X175.4 Y145.529 E2.7113
G1 X176.042 Y145.416 E2.73298
G1 X176.607 Y145.09 E2.75468
G1 X177.019 Y144.6 E2.77597
G1 X177.247 Y143.991 E2.7976
G1 X177.253 Y143.336 E2.81939
G1 X177.033 Y142.722 E2.84108
G1 X176.609 Y142.211 E2.86316
G1 X176.042 Y141.884 E2.88493
G1 X175.4 Y141.771 E2.90662
G1 X174.758 Y141.884 E2.9283
G1 X174.193 Y142.21 E2.94999
G1 X173.781 Y142.7 E2.97129
G1 X173.553 Y143.309 E2.99291
G1 X173.547 Y143.964 E3.0147
G1 X173.766 Y144.576 E3.03632
G1 X174.182 Y145.081 E3.05808
G1 X174.756 Y145.415 E3.08017
G0 F6000 X174.896 Y145.034
;TYPE:WALL-OUTER
G1 F1200 X175.4 Y145.123 E3.09719
G1 X175.903 Y145.034 E3.11418
G1 X176.346 Y144.779 E3.13118
G1 X176.669 Y144.395 E3.14787
G1 X176.848 Y143.917 E3.16485
G1 X176.852 Y143.404 E3.18191
G1 X176.68 Y142.923 E3.1989
G1 X176.347 Y142.522 E3.21624
G1 X175.903 Y142.266 E3.23328
G1 X175.4 Y142.177 E3.25027
G1 X174.897 Y142.266 E3.26726
G1 X174.454 Y142.521 E3.28426
G1 X174.131 Y142.905 E3.30095
G1 X173.952 Y143.383 E3.31793
G1 X173.948 Y143.896 E3.33499
G1 X174.119 Y144.376 E3.35194
G1 X174.445 Y144.771 E3.36897
G1 X174.896 Y145.034 E3.38634
G0 F6000 X174.745 Y145.447
G1 F2700 E-1.61366
G0 F6000 X173.598 Y144.672
G0 X174.882 Y143.944
G0 X169.265 Y143.827
G0 X170.395 Y144.779
G0 X168.78 Y145.188
;TYPE:WALL-INNER
G1 F2700 E3.38634
G1 F1200 X169.32 Y145.188 E3.4043
G1 X169.83 Y145.003 E3.42234
G1 X170.247 Y144.654 E3.44043
G1 X170.512 Y144.193 E3.45812
G1 X170.611 Y143.663 E3.47605
G1 X170.521 Y143.127 E3.49413
G1 X170.253 Y142.655 E3.51218
G1 X169.832 Y142.297 E3.53056
G1 X169.32 Y142.112 E3.54867
G1 X168.78 Y142.112 E3.56663
G1 X168.27 Y142.297 E3.58467
G1 X167.86 Y142.64 E3.60245
G1 X167.589 Y143.104 E3.62032
G1 X167.489 Y143.637 E3.63836
G1 X167.579 Y144.173 E3.65644
G1 X167.847 Y144.645 E3.67449
G1 X168.268 Y145.003 E3.69287
G1 X168.78 Y145.188 E3.71098
G0 F6000 X168.85 Y144.788
;TYPE:WALL-OUTER
G1 F1200 X169.25 Y144.788 E3.72428
G1 X169.627 Y144.651 E3.73762
G1 X169.936 Y144.393 E3.75101
G1 X170.131 Y144.053 E3.76405
G1 X170.205 Y143.659 E3.77738
G1 X170.138 Y143.263 E3.79074
G1 X169.94 Y142.914 E3.80408
G1 X169.628 Y142.649 E3.8177
G1 X169.25 Y142.512 E3.83107
G1 X168.85 Y142.512 E3.84438
G1 X168.473 Y142.649 E3.85772
G1 X168.17 Y142.902 E3.87085
G1 X167.969 Y143.246 E3.8841
G1 X167.895 Y143.641 E3.89746
G1 X167.962 Y144.037 E3.91082
G1 X168.16 Y144.386 E3.92417
G1 X168.472 Y144.651 E3.93778
G1 X168.85 Y144.788 E3.95116
G0 F6000 X168.774 Y145.221
G1 F2700 E-1.04884
G0 F6000 X167.698 Y144.769
G0 X163.629 Y144.746
G0 X162.676 Y144.9
;TYPE:WALL-INNER
G1 F2700 E3.95116
G1 F1200 X163.134 Y144.816 E3.96664
G1 X163.504 Y144.598 E3.98093
G1 X163.795 Y144.253 E3.99594
G1 X163.947 Y143.685 E4.01549
G1 X163.87 Y143.226 E4.03097
G1 X163.648 Y142.846 E4.04561
G1 X163.296 Y142.552 E4.06087
G1 X162.693 Y142.394 E4.0816
G1 X162.072 Y142.563 E4.103
G1 X161.636 Y142.995 E4.12342
G1 X161.466 Y143.456 E4.13976
G1 X161.514 Y144.046 E4.15945
G1 X161.752 Y144.454 E4.17516
G1 X162.104 Y144.748 E4.19041
G1 X162.676 Y144.9 E4.2101
G0 F6000 X162.692 Y144.49
;TYPE:WALL-OUTER
G1 F1200 X162.992 Y144.435 E4.22024
G1 X163.242 Y144.288 E4.22989
G1 X163.432 Y144.063 E4.23968
G1 X163.538 Y143.665 E4.25338
G1 X163.488 Y143.364 E4.26353
G1 X163.338 Y143.108 E4.2734
G1 X163.108 Y142.916 E4.28336
G1 X162.695 Y142.808 E4.29756
G1 X162.279 Y142.921 E4.3119
G1 X161.981 Y143.217 E4.32587
G1 X161.872 Y143.512 E4.33633
G1 X161.905 Y143.923 E4.35004
G1 X162.062 Y144.192 E4.3604
G1 X162.292 Y144.384 E4.37037
G1 X162.692 Y144.49 E4.38413
G0 F6000 X162.675 Y144.929
G1 F2700 E-0.61587
G0 F6000 X161.604 Y144.58
G0 X157.651 Y143.893
G0 X156.863 Y144.427
G0 X156.152 Y144.762
;TYPE:WALL-INNER
G1 F2700 E4.38413
G1 F1200 X156.735 Y144.711 E4.4036
G1 X157.21 Y144.381 E4.42283
G1 X157.457 Y143.856 E4.44213
G1 X157.416 Y143.274 E4.46154
G1 X157.082 Y142.79 E4.4811
G1 X156.547 Y142.538 E4.50077
G1 X155.965 Y142.589 E4.5202
G1 X155.49 Y142.919 E4.53943
G1 X155.243 Y143.444 E4.55873
G1 X155.284 Y144.027 E4.57817
G1 X155.619 Y144.51 E4.59772
G1 X156.152 Y144.762 E4.61733
G0 F6000 X156.225 Y144.354
;TYPE:WALL-OUTER
G1 F1200 X156.594 Y144.322 E4.62965
G1 X156.894 Y144.114 E4.64179
G1 X157.051 Y143.78 E4.65407
G1 X157.025 Y143.411 E4.66637
G1 X156.814 Y143.106 E4.6787
G1 X156.474 Y142.946 E4.6912
G1 X156.106 Y142.978 E4.70349
G1 X155.806 Y143.186 E4.71563
G1 X155.649 Y143.52 E4.7279
G1 X155.675 Y143.889 E4.74021
G1 X155.887 Y144.194 E4.75256
G1 X156.225 Y144.354 E4.765
G0 F6000 X156.148 Y144.787
G1 F2700 E-0.235
G0 F6000 X155.097 Y144.093
G0 X151.262 Y143.65
G0 X150.606 Y144.278
G0 X150.006 Y144.716
;TYPE:WALL-INNER
G1 F2700 E4.765
G1 F1200 X150.536 Y144.571 E4.78328
G1 X150.924 Y144.181 E4.80157
G1 X151.065 Y143.65 E4.81985
G1 X150.922 Y143.116 E4.83823
G1 X150.526 Y142.724 E4.85677
G1 X149.994 Y142.585 E4.87505
G1 X149.464 Y142.729 E4.89332
G1 X149.076 Y143.119 E4.91162
G1 X148.935 Y143.649 E4.92986
G1 X149.074 Y144.178 E4.94805
G1 X149.472 Y144.574 E4.96673
G1 X150.006 Y144.716 E4.9851
G0 F6000 X150.004 Y144.302
;TYPE:WALL-OUTER
G1 F1200 X150.328 Y144.213 E4.99628
G1 X150.565 Y143.975 E5.00745
G1 X150.651 Y143.65 E5.01863
G1 X150.564 Y143.324 E5.02985
G1 X150.321 Y143.084 E5.04121
G1 X149.996 Y142.999 E5.05239
G1 X149.672 Y143.087 E5.06355
G1 X149.435 Y143.325 E5.07473
G1 X149.349 Y143.65 E5.08591
G1 X149.433 Y143.971 E5.09694
G1 X149.678 Y144.215 E5.10844
G1 X150.004 Y144.302 E5.11967
G0 F6000 X150.005 Y144.742
G1 F2700 E0.11967
G0 F6000 X150.635 Y144.742
G0 X150.635 Y136.635
G0 X188.753 Y136.647
G0 X188.753 Y163.353
G0 X150.635 Y163.365
G0 X150.635 Y161.89
G0 X187.5 Y162.1
;TYPE:WALL-INNER
G1 F2700 E5.11967
G1 F1200 X112.5 Y162.1 E7.61418
G1 X112.5 Y137.9 E8.41907
G1 X187.5 Y137.9 E10.91358
G1 X187.5 Y162.1 E11.71848
G0 F6000 X187.9 Y162.5
;TYPE:WALL-OUTER
G1 F1200 X112.1 Y162.5 E14.23959
G1 X112.1 Y137.5 E15.0711
G1 X187.9 Y137.5 E17.59222
G1 X187.9 Y162.5 E18.42372
G0 F6000 X187.63 Y162.23
G0 X187.39 Y161.71
G0 X187.11 Y161.71
;TYPE:SKIN
G1 F1200 X112.89 Y161.71 E20.89229
G1 X112.89 Y138.29 E21.67124
G1 X187.11 Y138.29 E24.13981
G1 X187.11 Y161.71 E24.91876
G1 F2700 E19.91876
G0 F6000 X187.39 Y161.71
G0 X187.29 Y146.853
G0 X185.163 Y146.205
G0 X183.587 Y146.853
G0 X183.634 Y147.13
G1 F2700 E24.91876
G1 F1200 X184.228 Y146.971 E24.93921
G1 X184.786 Y146.711 E24.95969
G1 X185.292 Y146.358 E24.98021
G1 X185.728 Y145.922 E25.00071
G1 X186.081 Y145.416 E25.02123
G1 X186.341 Y144.858 E25.04171
G1 X186.5 Y144.264 E25.06216
G1 X186.555 Y143.65 E25.08266
G1 X186.5 Y143.036 E25.10317
G1 X186.341 Y142.442 E25.12362
G1 X186.081 Y141.884 E25.1441
G1 X185.728 Y141.378 E25.16462
G1 X185.292 Y140.942 E25.18512
G1 X184.786 Y140.589 E25.20564
G1 X184.228 Y140.329 E25.22612
G1 X183.634 Y140.17 E25.24657
G1 X183.02 Y140.115 E25.26707
G1 X182.406 Y140.17 E25.28758
G1 X181.812 Y140.329 E25.30803
G1 X181.254 Y140.589 E25.32851
G1 X180.748 Y140.942 E25.34903
G1 X180.312 Y141.378 E25.36953
G1 X179.959 Y141.884 E25.39005
G1 X179.699 Y142.442 E25.41053
G1 X179.54 Y143.036 E25.43098
G1 X179.485 Y143.65 E25.45148
G1 X179.54 Y144.264 E25.47199
G1 X179.699 Y144.858 E25.49244
G1 X179.959 Y145.416 E25.51291
G1 X180.312 Y145.922 E25.53344
G1 X180.748 Y146.358 E25.55394
G1 X181.254 Y146.711 E25.57446
G1 X181.812 Y146.971 E25.59494
G1 X182.406 Y147.13 E25.61539
G1 X183.02 Y147.185 E25.63589
G1 X183.634 Y147.13 E25.6564
G1 F2700 E20.6564
G0 F6000 X183.587 Y146.853
G0 X182 Y146.452
G0 X181.734 Y146.328
G0 X180.132 Y145.317
G0 X181.396 Y144.587
G0 X175.912 Y143.953
G0 X177.186 Y144.697
G0 X176.679 Y145.175
G0 X176.861 Y145.394
G1 F2700 E25.6564
G1 F1200 X177.36 Y144.799 E25.68223
G1 X177.637 Y144.063 E25.70838
G1 X177.643 Y143.27 E25.73476
G1 X177.377 Y142.525 E25.76107
G1 X176.864 Y141.908 E25.78776
G1 X176.177 Y141.512 E25.81413
G1 X175.4 Y141.375 E25.84037
G1 X174.623 Y141.512 E25.86661
G1 X173.939 Y141.906 E25.89287
G1 X173.44 Y142.501 E25.9187
G1 X173.163 Y143.237 E25.94485
G1 X173.157 Y144.03 E25.97123
G1 X173.421 Y144.771 E25.99739
G1 X173.925 Y145.383 E26.02376
G1 X174.62 Y145.787 E26.0505
G1 X175.4 Y145.925 E26.07684
G1 X176.177 Y145.788 E26.10309
G1 X176.861 Y145.394 E26.12934
G1 F2700 E21.12934
G0 F6000 X176.679 Y145.175
G0 X175.4 Y145.366
G0 X174.925 Y145.283
G0 X173.598 Y144.672
G0 X170.717 Y144.135
G0 X170.333 Y144.725
G0 X170.551 Y144.909
G1 F2700 E26.12934
G1 F1200 X170.883 Y144.33 E26.15154
G1 X171.007 Y143.667 E26.17397
G1 X170.894 Y142.994 E26.19667
G1 X170.558 Y142.403 E26.21928
G1 X170.031 Y141.954 E26.24231
G1 X169.388 Y141.722 E26.26504
G1 X168.712 Y141.722 E26.28753
G1 X168.073 Y141.954 E26.31014
G1 X167.558 Y142.385 E26.33248
G1 X167.218 Y142.966 E26.35486
G1 X167.093 Y143.633 E26.37744
G1 X167.206 Y144.306 E26.40013
