;FLAVOR:Marlin
;TIME:2060
;Filament used: 0.662155m
;Layer height: 0.2
;MINX:145.12
;MINY:145.12
;MINZ:0.2
;MAXX:154.88
;MAXY:154.88
;MAXZ:33
;Generated with Cura_SteamEngine master
M140 S55
M105
M190 S55
M104 S210
M105
M109 S210
M82 ;absolute extrusion mode
M201 X500.00 Y500.00 Z100.00 E5000.00 ;Setup machine max acceleration
M203 X500.00 Y500.00 Z10.00 E50.00 ;Setup machine max feedrate
M204 P500.00 R1000.00 T500.00 ;Setup Print/Retract/Travel acceleration
M205 X8.00 Y8.00 Z0.40 E5.00 ;Setup Jerk
M220 S100 ;Reset Feedrate
M221 S100 ;Reset Flowrate

G28 ;Home

G92 E0 ;Reset Extruder
G1 Z2.0 F3000 ;Move Z Axis up
G1 X10.1 Y20 Z0.28 F5000.0 ;Move to start position
G1 X10.1 Y200.0 Z0.28 F1500.0 E15 ;Draw the first line
G1 X10.4 Y200.0 Z0.28 F5000.0 ;Move to side a little
G1 X10.4 Y20 Z0.28 F1500.0 E30 ;Draw the second line
G92 E0 ;Reset Extruder
G1 Z2.0 F3000 ;Move Z Axis up

G92 E0
G92 E0
G1 F2700 E-5
;LAYER_COUNT:165
;LAYER:0
M107
;MESH:sharpwriter_test_metric.stl
G0 F6000 X149.843 Y150.918 Z0.2
;TYPE:WALL-INNER
G1 F2700 E0
G1 F1200 X150.468 Y150.803 E0.02114
G1 X150.874 Y150.318 E0.04217
G1 X150.874 Y149.681 E0.06336
G1 X150.462 Y149.191 E0.08465
G1 X149.834 Y149.084 E0.10584
G1 X149.29 Y149.399 E0.12675
G1 X149.069 Y149.998 E0.14799
G1 X149.287 Y150.599 E0.16925
G1 X149.843 Y150.918 E0.19057
G0 F6000 X149.915 Y150.498
;TYPE:WALL-OUTER
G1 F1200 X150.254 Y150.436 E0.20203
G1 X150.474 Y150.173 E0.21344
G1 X150.474 Y149.827 E0.22494
G1 X150.25 Y149.561 E0.23651
G1 X149.909 Y149.503 E0.24801
G1 X149.615 Y149.673 E0.25931
G1 X149.495 Y149.999 E0.27086
G1 X149.613 Y150.325 E0.2824
G1 X149.915 Y150.498 E0.29397
G0 F6000 X149.841 Y150.931
G1 F2700 E-4.70603
G0 F6000 X150.57 Y150.979
G0 X150.57 Y154.27
G0 X154.48 Y154.48
;TYPE:WALL-INNER
G1 F2700 E0.29397
G1 F1200 X145.52 Y154.48 E0.59198
G1 X145.52 Y145.52 E0.88999
G1 X154.48 Y145.52 E1.188
G1 X154.48 Y154.48 E1.48601
G0 F6000 X154.88 Y154.88
;TYPE:WALL-OUTER
G1 F1200 X145.12 Y154.88 E1.81063
G1 X145.12 Y145.12 E2.13525
G1 X154.88 Y145.12 E2.45987
G1 X154.88 Y154.88 E2.78449
G0 F6000 X154.61 Y154.61
G0 X154.37 Y154.09
G0 X154.09 Y154.09
;TYPE:SKIN
G1 F1200 X145.91 Y154.09 E3.05656
G1 X145.91 Y145.91 E3.32863
G1 X154.09 Y145.91 E3.60069
G1 X154.09 Y154.09 E3.87276
G1 F2700 E-1.12724
G0 F6000 X154.37 Y154.09
G0 X150.873 Y154.274
G0 X150.529 Y154.27
G0 X149.951 Y151.111
G0 X150.529 Y150.904
G0 X150.677 Y151.162
G1 F2700 E3.87276
G1 F1200 X151.264 Y150.46 E3.9032
G1 X151.264 Y149.539 E3.93383
G1 X150.669 Y148.83 E3.96462
G1 X149.76 Y148.676 E3.99528
G1 X148.972 Y149.132 E4.02556
G1 X148.654 Y149.996 E4.05618
G1 X148.969 Y150.866 E4.08696
G1 X149.773 Y151.327 E4.11778
G1 X150.677 Y151.162 E4.14835
G1 F2700 E-0.85165
G0 F6000 X150.529 Y150.904
G0 X149.131 Y150.731
G0 X149.131 Y154.27
G0 X146.575 Y154.37
G0 X146.575 Y153.929
G1 F2700 E4.14835
G1 F1200 X146.069 Y153.423 E4.17215
G0 F6000 X146.069 Y152.858
G1 F1200 X147.141 Y153.929 E4.22255
G0 F6000 X147.706 Y153.929
G1 F1200 X146.069 Y152.292 E4.29955
G0 F6000 X146.069 Y151.726
G1 F1200 X148.272 Y153.929 E4.40317
G0 F6000 X148.838 Y153.929
G1 F1200 X146.069 Y151.161 E4.53339
G0 F6000 X146.069 Y150.595
G1 F1200 X149.403 Y153.929 E4.69021
G0 F6000 X149.969 Y153.929
G1 F1200 X146.069 Y150.029 E4.87365
G0 F6000 X146.069 Y149.463
G1 F1200 X150.535 Y153.929 E5.08372
G0 F6000 X151.1 Y153.929
G1 F1200 X146.069 Y148.898 E5.32036
G0 F6000 X146.069 Y148.332
G1 F1200 X151.666 Y153.929 E5.58363
G0 F6000 X152.232 Y153.929
G1 F1200 X149.789 Y151.486 E5.69854
G0 F6000 X150.267 Y151.399
G1 F1200 X152.797 Y153.929 E5.81754
G0 F6000 X153.363 Y153.929
G1 F1200 X150.746 Y151.312 E5.94064
G0 F6000 X151.011 Y151.011
G1 F1200 X153.929 Y153.929 E6.07789
G0 F6000 X153.929 Y153.363
G1 F1200 X151.268 Y150.702 E6.20306
G0 F6000 X151.422 Y150.291
G1 F1200 X153.929 Y152.797 E6.32096
G0 F6000 X153.929 Y152.232
G1 F1200 X151.422 Y149.725 E6.43888
G0 F6000 X150.984 Y149.725
G0 X150.227 Y149.038
G0 X150.301 Y148.604
G1 F1200 X147.767 Y146.07 E6.55807
G0 F6000 X147.201 Y146.07
G1 F1200 X149.672 Y148.541 E6.6743
G0 F6000 X149.314 Y148.748
G1 F1200 X146.636 Y146.07 E6.80026
G0 F6000 X146.069 Y146.069
G1 F1200 X148.955 Y148.955 E6.93601
G0 F6000 X148.738 Y149.304
G1 F1200 X146.069 Y146.635 E7.06155
G0 F6000 X146.069 Y147.201
G1 F1200 X148.586 Y149.717 E7.17992
G0 F6000 X148.59 Y150.287
G1 F1200 X146.069 Y147.766 E7.2985
G0 F6000 X145.63 Y147.766
G0 X145.702 Y145.702
G0 X148.333 Y145.63
G0 X148.333 Y146.07
G1 F1200 X153.929 Y151.666 E7.56172
G0 F6000 X153.929 Y151.1
G1 F1200 X148.899 Y146.07 E7.79832
G0 F6000 X149.464 Y146.07
G1 F1200 X153.929 Y150.535 E8.00834
G0 F6000 X153.929 Y149.969
G1 F1200 X150.03 Y146.07 E8.19173
G0 F6000 X150.596 Y146.07
G1 F1200 X153.929 Y149.403 E8.34851
G0 F6000 X153.929 Y148.838
G1 F1200 X151.161 Y146.07 E8.47871
G0 F6000 X151.727 Y146.07
G1 F1200 X153.929 Y148.272 E8.58228
G0 F6000 X153.929 Y147.706
G1 F1200 X152.293 Y146.07 E8.65923
G0 F6000 X152.858 Y146.07
G1 F1200 X153.929 Y147.141 E8.70961
G0 F6000 X153.929 Y146.575
G1 F1200 X153.424 Y146.07 E8.73336
G0 F6000 X153.424 Y145.72
G1 F2700 E3.73336
;MESH:NONMESH
G0 F300 X153.424 Y145.72 Z0.4
G0 F6000 X153.424 Y145.63
G0 X149.853 Y145.73
G0 X149.797 Y148.883
G0 X149.422 Y149.511
G0 X149.242 Y149.998
G0 X149.386 Y150.394
G0 X149.853 Y150.918
;TIME_ELAPSED:23.822873
;LAYER:1
M106 S85
;TYPE:WALL-INNER
;MESH:sharpwriter_test_metric.stl
G1 F2700 E8.73336
G1 F1350 X150.478 Y150.799 E8.75453
G1 X150.874 Y150.315 E8.77533
G1 X150.874 Y149.678 E8.79651
G1 X150.453 Y149.187 E8.81802
G1 X149.826 Y149.086 E8.83915
G1 X149.295 Y149.396 E8.8596
G1 X149.069 Y149.995 E8.88089
G1 X149.287 Y150.602 E8.90234
G1 X149.853 Y150.918 E8.9239
G0 F7500 X149.921 Y150.498
;TYPE:WALL-OUTER
G1 F1350 X150.26 Y150.433 E8.93538
G1 X150.474 Y150.172 E8.94661
G1 X150.474 Y149.826 E8.95812
G1 X150.245 Y149.559 E8.96982
G1 X149.904 Y149.504 E8.9813
G1 X149.619 Y149.67 E8.99227
G1 X149.495 Y149.998 E9.00394
G1 X149.613 Y150.326 E9.01553
G1 X149.921 Y150.498 E9.02726
G0 F7500 X149.851 Y150.932
G1 F2700 E4.02726
G0 F7500 X150.582 Y150.974
G0 X150.582 Y154.27
G0 X154.48 Y154.48
;TYPE:WALL-INNER
G1 F2700 E9.02726
G1 F1350 X145.52 Y154.48 E9.32528
G1 X145.52 Y145.52 E9.62329
G1 X154.48 Y145.52 E9.9213
G1 X154.48 Y154.48 E10.21931
G0 F7500 X154.88 Y154.88
;TYPE:WALL-OUTER
G1 F1350 X145.12 Y154.88 E10.54393
G1 X145.12 Y145.12 E10.86855
G1 X154.88 Y145.12 E11.19316
G1 X154.88 Y154.88 E11.51778
G0 F7500 X154.61 Y154.61
G0 X154.37 Y154.09
G0 X154.09 Y154.09
;TYPE:SKIN
G1 F1350 X145.91 Y154.09 E11.78985
G1 X145.91 Y145.91 E12.06192
G1 X154.09 Y145.91 E12.33399
G1 X154.09 Y154.09 E12.60606
G1 F2700 E7.60606
G0 F7500 X154.37 Y154.09
G0 X150.541 Y154.27
G0 X149.939 Y151.115
G0 X150.541 Y150.899
G0 X150.69 Y151.156
G1 F2700 E12.60606
G1 F1350 X151.264 Y150.454 E12.63622
G1 X151.264 Y149.534 E12.66681
G1 X150.656 Y148.824 E12.6979
G1 X149.75 Y148.679 E12.72842
G1 X148.979 Y149.129 E12.75811
G1 X148.654 Y149.991 E12.78875
G1 X148.969 Y150.871 E12.81984
G1 X149.787 Y151.328 E12.85101
G1 X150.69 Y151.156 E12.88158
G1 F2700 E7.88158
G0 F7500 X150.541 Y150.899
G0 X150.582 Y154.27
G0 X153.803 Y154.37
G0 X153.803 Y153.929
G1 F2700 E12.88158
G1 F1350 X153.929 Y153.803 E12.88751
G0 F7500 X153.929 Y153.237
G1 F1350 X153.237 Y153.929 E12.92006
G0 F7500 X152.672 Y153.929
G1 F1350 X153.929 Y152.672 E12.97918
G0 F7500 X153.929 Y152.106
G1 F1350 X152.106 Y153.929 E13.06493
G0 F7500 X151.54 Y153.929
G1 F1350 X153.929 Y151.54 E13.1773
G0 F7500 X153.929 Y150.975
G1 F1350 X150.975 Y153.929 E13.31625
G0 F7500 X150.409 Y153.929
G1 F1350 X153.929 Y150.409 E13.48182
G0 F7500 X153.929 Y149.843
G1 F1350 X149.843 Y153.929 E13.67401
G0 F7500 X149.278 Y153.929
G1 F1350 X153.929 Y149.278 E13.89278
G0 F7500 X153.929 Y148.712
G1 F1350 X148.712 Y153.929 E14.13817
G0 F7500 X148.146 Y153.929
G1 F1350 X150.774 Y151.301 E14.26178
G0 F7500 X150.789 Y151.286
G1 F1350 X153.929 Y148.146 E14.40948
G0 F7500 X153.929 Y147.58
G1 F1350 X151.423 Y150.086 E14.52736
G0 F7500 X151.423 Y149.521
G1 F1350 X153.929 Y147.015 E14.64523
G0 F7500 X153.929 Y146.449
G1 F1350 X151.184 Y149.194 E14.77435
G0 F7500 X150.923 Y148.889
G1 F1350 X153.743 Y146.069 E14.90699
G0 F7500 X153.177 Y146.069
G1 F1350 X150.595 Y148.652 E15.02846
G0 F7500 X150.107 Y148.574
G1 F1350 X152.612 Y146.069 E15.14629
G0 F7500 X152.046 Y146.069
G1 F1350 X149.443 Y148.672 E15.26873
G0 F7500 X149.664 Y149.053
G0 X149.109 Y149.574
G0 X148.698 Y149.418
G1 F1350 X146.07 Y152.045 E15.39232
G0 F7500 X146.07 Y151.479
G1 F1350 X151.48 Y146.069 E15.64679
G0 F7500 X150.914 Y146.069
G1 F1350 X146.07 Y150.914 E15.87466
G0 F7500 X146.07 Y150.348
G1 F1350 X150.349 Y146.069 E16.07593
G0 F7500 X149.783 Y146.069
G1 F1350 X146.07 Y149.782 E16.25058
G0 F7500 X146.07 Y149.217
G1 F1350 X149.217 Y146.069 E16.39863
G0 F7500 X148.652 Y146.069
G1 F1350 X146.07 Y148.651 E16.52008
G0 F7500 X146.07 Y148.085
G1 F1350 X148.086 Y146.069 E16.6149
G0 F7500 X147.52 Y146.069
G1 F1350 X146.07 Y147.52 E16.68313
G0 F7500 X146.07 Y146.954
G1 F1350 X146.955 Y146.069 E16.72476
G0 F7500 X146.389 Y146.069
G1 F1350 X146.07 Y146.388 E16.73976
G1 F2700 E11.73976
G0 F7500 X145.63 Y146.388
G0 X145.73 Y149.997
G0 X148.865 Y149.993
G0 X148.538 Y150.143
G1 F2700 E16.73976
G1 F1350 X146.07 Y152.611 E16.85585
G0 F7500 X146.07 Y153.177
G1 F1350 X148.687 Y150.56 E16.97894
G0 F7500 X148.836 Y150.976
G1 F1350 X146.07 Y153.742 E17.10905
G0 F7500 X146.449 Y153.929
G1 F1350 X149.198 Y151.18 E17.23835
G0 F7500 X149.561 Y151.383
G1 F1350 X147.015 Y153.929 E17.35811
G0 F7500 X147.58 Y153.929
G1 F1350 X150.075 Y151.434 E17.47547
G0 F7500 X150.01 Y151.092
;MESH:NONMESH
G0 F300 X150.01 Y151.092 Z0.6
G0 F7500 X149.864 Y150.922
;TIME_ELAPSED:42.027349
;LAYER:2
M106 S170
;TYPE:WALL-INNER
;MESH:sharpwriter_test_metric.stl
G1 F1500 X150.486 Y150.791 E17.49661
G1 X150.874 Y150.313 E17.51708
G1 X150.874 Y149.682 E17.53807
G1 X150.466 Y149.195 E17.5592
G1 X149.844 Y149.084 E17.58022
G1 X149.304 Y149.384 E17.60076
G1 X149.067 Y149.993 E17.6225
G1 X149.29 Y150.605 E17.64416
G1 X149.864 Y150.922 E17.66597
G0 F9000 X149.927 Y150.5
;TYPE:WALL-OUTER
G1 F1500 X150.265 Y150.429 E17.67746
G1 X150.474 Y150.171 E17.6885
G1 X150.474 Y149.827 E17.69994
G1 X150.253 Y149.563 E17.7114
G1 X149.914 Y149.503 E17.72285
G1 X149.624 Y149.664 E17.73388
G1 X149.494 Y149.998 E17.7458
G1 X149.614 Y150.327 E17.75745
G1 X149.927 Y150.5 E17.76934
G0 F9000 X149.862 Y150.935
G1 F2700 E12.76934
G0 F9000 X150.592 Y150.964
G0 X150.592 Y154.27
G0 X154.48 Y154.48
;TYPE:WALL-INNER
G1 F2700 E17.76934
G1 F1500 X145.52 Y154.48 E18.06735
G1 X145.52 Y145.52 E18.36536
G1 X154.48 Y145.52 E18.66337
G1 X154.48 Y154.48 E18.96138
G0 F9000 X154.88 Y154.88
;TYPE:WALL-OUTER
G1 F1500 X145.12 Y154.88 E19.286
G1 X145.12 Y145.12 E19.61062
G1 X154.88 Y145.12 E19.93524
G1 X154.88 Y154.88 E20.25986
G0 F9000 X154.61 Y154.61
G0 X154.37 Y154.09
G0 X154.09 Y154.09
;TYPE:SKIN
G1 F1500 X145.91 Y154.09 E20.53193
G1 X145.91 Y145.91 E20.804
G1 X154.09 Y145.91 E21.07606
G1 X154.09 Y154.09 E21.34813
G1 F2700 E16.34813
G0 F9000 X154.37 Y154.09
G0 X150.55 Y154.27
G0 X149.887 Y151.132
G0 X150.55 Y150.89
G0 X150.702 Y151.144
G1 F2700 E21.34813
G1 F1500 X151.264 Y150.451 E21.37781
G1 X151.264 Y149.54 E21.40811
G1 X150.674 Y148.836 E21.43866
G1 X149.776 Y148.676 E21.469
G1 X148.992 Y149.111 E21.49882
G1 X148.65 Y149.989 E21.53016
G1 X148.974 Y150.876 E21.56156
G1 X149.802 Y151.333 E21.59302
G1 X150.702 Y151.144 E21.62361
G1 F2700 E16.62361
G0 F9000 X150.55 Y150.89
G0 X149.135 Y150.738
G0 X149.135 Y154.27
G0 X146.575 Y154.37
G0 X146.575 Y153.929
G1 F2700 E21.62361
G1 F1500 X146.069 Y153.423 E21.64741
G0 F9000 X146.069 Y152.858
G1 F1500 X147.141 Y153.929 E21.69781
G0 F9000 X147.706 Y153.929
G1 F1500 X146.069 Y152.292 E21.77481
G0 F9000 X146.069 Y151.726
G1 F1500 X148.272 Y153.929 E21.87843
G0 F9000 X148.838 Y153.929
G1 F1500 X146.069 Y151.161 E22.00865
G0 F9000 X146.069 Y150.595
G1 F1500 X149.403 Y153.929 E22.16547
G0 F9000 X149.969 Y153.929
G1 F1500 X146.069 Y150.029 E22.34892
G0 F9000 X146.069 Y149.463
G1 F1500 X150.535 Y153.929 E22.55898
G0 F9000 X151.1 Y153.929
G1 F1500 X146.069 Y148.898 E22.79563
G0 F9000 X146.069 Y148.332
G1 F1500 X151.666 Y153.929 E23.05889
G0 F9000 X152.232 Y153.929
G1 F1500 X149.799 Y151.496 E23.17333
G0 F9000 X150.267 Y151.398
G1 F1500 X152.797 Y153.929 E23.29236
G0 F9000 X153.363 Y153.929
G1 F1500 X150.734 Y151.3 E23.41602
G0 F9000 X151.013 Y151.013
G1 F1500 X153.929 Y153.929 E23.55318
G0 F9000 X153.929 Y153.363
G1 F1500 X151.266 Y150.7 E23.67844
G0 F9000 X151.423 Y150.292
G1 F1500 X153.929 Y152.797 E23.79629
G0 F9000 X153.929 Y152.232
G1 F1500 X151.423 Y149.726 E23.91417
G0 F9000 X150.984 Y149.726
G0 X150.226 Y149.04
G0 X150.304 Y148.606
G1 F1500 X147.767 Y146.07 E24.03347
G0 F9000 X147.201 Y146.07
G1 F1500 X149.678 Y148.546 E24.14996
G0 F9000 X149.314 Y148.748
G1 F1500 X146.636 Y146.07 E24.27593
G0 F9000 X146.069 Y146.069
G1 F1500 X148.949 Y148.949 E24.41139
G0 F9000 X148.743 Y149.309
G1 F1500 X146.069 Y146.635 E24.53717
G0 F9000 X146.069 Y147.201
G1 F1500 X148.585 Y149.716 E24.65549
G0 F9000 X148.588 Y150.285
G1 F1500 X146.069 Y147.766 E24.77398
G0 F9000 X145.63 Y147.766
G0 X145.702 Y145.702
G0 X148.333 Y145.63
G0 X148.333 Y146.07
G1 F1500 X153.929 Y151.666 E25.0372
G0 F9000 X153.929 Y151.1
G1 F1500 X148.899 Y146.07 E25.27379
G0 F9000 X149.464 Y146.07
G1 F1500 X153.929 Y150.535 E25.48381
G0 F9000 X153.929 Y149.969
G1 F1500 X150.03 Y146.07 E25.66721
G0 F9000 X150.596 Y146.07
G1 F1500 X153.929 Y149.403 E25.82398
G0 F9000 X153.929 Y148.838
G1 F1500 X151.161 Y146.07 E25.95418
G0 F9000 X151.727 Y146.07
G1 F1500 X153.929 Y148.272 E26.05776
G0 F9000 X153.929 Y147.706
G1 F1500 X152.293 Y146.07 E26.13471
G0 F9000 X152.858 Y146.07
G1 F1500 X153.929 Y147.141 E26.18508
G0 F9000 X153.929 Y146.575
G1 F1500 X153.424 Y146.07 E26.20884
G0 F9000 X153.424 Y145.72
G1 F2700 E21.20884
;MESH:NONMESH
G0 F300 X153.424 Y145.72 Z0.8
G0 F9000 X153.424 Y145.63
G0 X149.739 Y145.73
G0 X149.81 Y148.883
G0 X149.434 Y149.498
G0 X149.241 Y149.996
G0 X149.386 Y150.397
G0 X149.739 Y150.887
;TIME_ELAPSED:59.237839
;LAYER:3
M106 S255
;TYPE:WALL-INNER
;MESH:sharpwriter_test_metric.stl
G1 F2700 E26.20884
G1 F1500 X150.348 Y150.857 E26.22912
G1 X150.807 Y150.461 E26.24928
G1 X150.917 Y149.838 E26.27032
G1 X150.598 Y149.287 E26.2915
G1 X150 Y149.07 E26.31266
G1 X149.38 Y149.294 E26.33458
G1 X149.068 Y149.932 E26.3582
G1 X149.252 Y150.548 E26.37959
G1 X149.739 Y150.887 E26.39932
G0 F9000 X149.855 Y150.481
;TYPE:WALL-OUTER
G1 F1500 X150.191 Y150.464 E26.41051
G1 X150.438 Y150.251 E26.42136
G1 X150.498 Y149.912 E26.43281
G1 X150.325 Y149.613 E26.4443
G1 X150 Y149.495 E26.4558
G1 X149.668 Y149.615 E26.46754
G1 X149.496 Y149.967 E26.48057
G1 X149.595 Y150.3 E26.49213
G1 X149.855 Y150.481 E26.50266
G0 F9000 X149.734 Y150.903
G1 F2700 E21.50266
G0 F9000 X150.423 Y151.045
G0 X150.423 Y154.27
G0 X154.48 Y154.48
;TYPE:WALL-INNER
G1 F2700 E26.50266
G1 F1500 X145.52 Y154.48 E26.80068
G1 X145.52 Y145.52 E27.09869
G1 X154.48 Y145.52 E27.3967
G1 X154.48 Y154.48 E27.69471
G0 F9000 X154.88 Y154.88
;TYPE:WALL-OUTER
G1 F1500 X145.12 Y154.88 E28.01933
G1 X145.12 Y145.12 E28.34395
G1 X154.88 Y145.12 E28.66856
G1 X154.88 Y154.88 E28.99318
G0 F9000 X154.61 Y154.61
G0 X154.37 Y154.09
G0 X154.09 Y154.09
;TYPE:SKIN
G1 F1500 X145.91 Y154.09 E29.26525
G1 X145.91 Y145.91 E29.53732
G1 X154.09 Y145.91 E29.80939
G1 X154.09 Y154.09 E30.08145
G1 F2700 E25.08145
G0 F9000 X154.37 Y154.09
G0 X154.27 Y150.517
G0 X151.09 Y149.956
G0 X150.911 Y150.517
G0 X151.167 Y150.666
G1 F2700 E30.08145
G1 F1500 X151.326 Y149.766 E30.11185
G1 X150.865 Y148.969 E30.14248
G1 X150 Y148.655 E30.17308
G1 X149.099 Y148.98 E30.20494
G1 X148.651 Y149.897 E30.23888
G1 X148.917 Y150.79 E30.26988
G1 X149.626 Y151.283 E30.2986
G1 X150.502 Y151.24 E30.32777
G1 X151.167 Y150.666 E30.35699
G1 F2700 E25.35699
G0 F9000 X150.911 Y150.517
G0 X150.718 Y150.788
G0 X150.718 Y154.27
G0 X153.803 Y154.37
G0 X153.803 Y153.929
G1 F2700 E30.35699
G1 F1500 X153.929 Y153.803 E30.36291
G0 F9000 X153.929 Y153.237
