;FLAVOR:Marlin
;TIME:4103
;Filament used: 1.58991m
;Layer height: 0.12
;MINX:100.9
;MINY:126.3
;MINZ:0.12
;MAXX:199.1
;MAXY:173.7
;MAXZ:2.52
;Generated with Cura_SteamEngine master
M140 S55
M105
M190 S55
M104 S210
M105
M109 S210
M82 ;absolute extrusion mode
M201 X500.00 Y500.00 Z100.00 E5000.00 ;Setup machine max acceleration
M203 X500.00 Y500.00 Z10.00 E50.00 ;Setup machine max feedrate
M204 P500.00 R1000.00 T500.00 ;Setup Print/Retract/Travel acceleration
M205 X8.00 Y8.00 Z0.40 E5.00 ;Setup Jerk
M220 S100 ;Reset Feedrate
M221 S100 ;Reset Flowrate

G28 ;Home

G92 E0 ;Reset Extruder
G1 Z2.0 F3000 ;Move Z Axis up
G1 X10.1 Y20 Z0.28 F5000.0 ;Move to start position
G1 X10.1 Y200.0 Z0.28 F1500.0 E15 ;Draw the first line
G1 X10.4 Y200.0 Z0.28 F5000.0 ;Move to side a little
G1 X10.4 Y20 Z0.28 F1500.0 E30 ;Draw the second line
G92 E0 ;Reset Extruder
G1 Z2.0 F3000 ;Move Z Axis up

G92 E0
G92 E0
G1 F2700 E-5
;LAYER_COUNT:21
;LAYER:0
M107
G0 F6000 X104.786 Y128.927 Z0.12
;TYPE:SKIRT
G1 F2700 E0
G1 F1200 X105.526 Y128.351 E0.01871
G1 X106.312 Y127.839 E0.03743
G1 X107.139 Y127.397 E0.05615
G1 X108.001 Y127.027 E0.07487
G1 X108.891 Y126.731 E0.09358
G1 X109.803 Y126.513 E0.1123
G1 X110.73 Y126.372 E0.13101
G1 X111.601 Y126.313 E0.14843
G1 X111.922 Y126.304 E0.15484
G1 X112.23 Y126.3 E0.16099
G1 X187.393 Y126.3 E1.66094
G1 X188.249 Y126.311 E1.67803
G1 X189.185 Y126.365 E1.69674
G1 X190.113 Y126.497 E1.71544
G1 X191.027 Y126.709 E1.73417
G1 X191.919 Y126.998 E1.75288
G1 X192.784 Y127.361 E1.7716
G1 X193.614 Y127.797 E1.79031
G1 X194.405 Y128.302 E1.80904
G1 X195.149 Y128.873 E1.82775
G1 X195.842 Y129.505 E1.84647
G1 X196.479 Y130.193 E1.86518
G1 X197.054 Y130.934 E1.8839
G1 X197.565 Y131.72 E1.90261
G1 X198.007 Y132.548 E1.92134
G1 X198.376 Y133.41 E1.94005
G1 X198.671 Y134.3 E1.95876
G1 X198.889 Y135.212 E1.97747
G1 X199.029 Y136.14 E1.9962
G1 X199.087 Y137.001 E2.01342
G1 X199.096 Y137.321 E2.01981
G1 X199.1 Y137.63 E2.02598
G1 X199.099 Y162.1 E2.51431
G1 X199.09 Y162.827 E2.52881
G1 X199.039 Y163.764 E2.54754
G1 X198.907 Y164.692 E2.56625
G1 X198.698 Y165.606 E2.58496
G1 X198.411 Y166.499 E2.60368
G1 X198.049 Y167.365 E2.62241
G1 X197.615 Y168.196 E2.64112
G1 X197.111 Y168.987 E2.65983
G1 X196.542 Y169.732 E2.67854
G1 X195.911 Y170.427 E2.69727
G1 X195.224 Y171.065 E2.71598
G1 X194.485 Y171.642 E2.73469
G1 X193.699 Y172.154 E2.75341
G1 X192.873 Y172.597 E2.77212
G1 X192.011 Y172.969 E2.79085
G1 X191.122 Y173.265 E2.80955
G1 X190.21 Y173.485 E2.82827
G1 X189.283 Y173.626 E2.84699
G1 X188.399 Y173.687 E2.86467
G1 X188.078 Y173.696 E2.87108
G1 X187.77 Y173.7 E2.87723
G1 X112.465 Y173.699 E4.38002
G1 X111.767 Y173.69 E4.39395
G1 X110.831 Y173.638 E4.41266
G1 X109.902 Y173.506 E4.43138
G1 X108.988 Y173.296 E4.4501
G1 X108.095 Y173.009 E4.46882
G1 X107.23 Y172.646 E4.48754
G1 X106.399 Y172.212 E4.50624
G1 X105.608 Y171.708 E4.52496
G1 X104.863 Y171.138 E4.54368
G1 X104.169 Y170.507 E4.5624
G1 X103.532 Y169.82 E4.5811
G1 X102.955 Y169.08 E4.59982
G1 X102.443 Y168.294 E4.61854
G1 X102 Y167.467 E4.63726
G1 X101.629 Y166.606 E4.65597
G1 X101.333 Y165.716 E4.67469
G1 X101.114 Y164.804 E4.69341
G1 X100.973 Y163.877 E4.71212
G1 X100.913 Y162.988 E4.7299
G1 X100.904 Y162.655 E4.73655
G1 X100.9 Y162.358 E4.74248
G1 X100.901 Y137.825 E5.23206
G1 X100.91 Y137.16 E5.24533
G1 X100.963 Y136.224 E5.26404
G1 X101.095 Y135.295 E5.28277
G1 X101.306 Y134.381 E5.30149
G1 X101.594 Y133.489 E5.32019
G1 X101.957 Y132.624 E5.33891
G1 X102.392 Y131.793 E5.35763
G1 X102.896 Y131.003 E5.37633
G1 X103.466 Y130.258 E5.39505
G1 X104.098 Y129.564 E5.41378
G1 X104.786 Y128.927 E5.43249
G0 F6000 X105.174 Y129.123
G1 F1200 X105.91 Y128.57 E5.45086
G1 X106.691 Y128.082 E5.46924
G1 X107.511 Y127.664 E5.48761
G1 X108.365 Y127.319 E5.50599
G1 X109.245 Y127.049 E5.52436
G1 X110.145 Y126.857 E5.54272
G1 X111.059 Y126.743 E5.56111
G1 X111.612 Y126.713 E5.57216
G1 X111.933 Y126.704 E5.57857
G1 X112.23 Y126.7 E5.58449
G1 X187.393 Y126.7 E7.08445
G1 X188.243 Y126.711 E7.10142
G1 X189.162 Y126.764 E7.11979
G1 X190.073 Y126.897 E7.13816
G1 X190.969 Y127.108 E7.15653
G1 X191.843 Y127.396 E7.17489
G1 X192.69 Y127.759 E7.19328
G1 X193.501 Y128.194 E7.21165
G1 X194.271 Y128.698 E7.23001
G1 X194.995 Y129.267 E7.24839
G1 X195.667 Y129.897 E7.26677
G1 X196.282 Y130.582 E7.28514
G1 X196.835 Y131.318 E7.30351
G1 X197.322 Y132.099 E7.32188
G1 X197.739 Y132.92 E7.34026
G1 X198.084 Y133.774 E7.35864
G1 X198.353 Y134.654 E7.377
G1 X198.545 Y135.555 E7.39539
G1 X198.658 Y136.468 E7.41375
G1 X198.687 Y137.012 E7.42462
G1 X198.696 Y137.332 E7.43101
G1 X198.7 Y137.63 E7.43695
G1 X198.699 Y162.095 E7.92518
G1 X198.69 Y162.822 E7.93969
G1 X198.639 Y163.741 E7.95806
G1 X198.508 Y164.653 E7.97644
G1 X198.298 Y165.549 E7.99481
G1 X198.012 Y166.424 E8.01318
G1 X197.651 Y167.271 E8.03155
G1 X197.217 Y168.083 E8.04993
G1 X196.715 Y168.855 E8.0683
G1 X196.147 Y169.58 E8.08668
G1 X195.519 Y170.253 E8.10505
G1 X194.835 Y170.869 E8.12342
G1 X194.1 Y171.423 E8.14179
G1 X193.32 Y171.912 E8.16016
G1 X192.5 Y172.331 E8.17854
G1 X191.647 Y172.677 E8.19691
G1 X190.767 Y172.948 E8.21528
G1 X189.867 Y173.141 E8.23365
G1 X188.953 Y173.256 E8.25203
G1 X188.388 Y173.287 E8.26333
G1 X188.067 Y173.296 E8.26974
G1 X187.77 Y173.3 E8.27566
G1 X112.47 Y173.299 E9.77836
G1 X111.772 Y173.29 E9.79229
G1 X110.853 Y173.238 E9.81065
G1 X109.942 Y173.107 E9.82902
G1 X109.046 Y172.897 E9.84739
G1 X108.171 Y172.61 E9.86576
G1 X107.324 Y172.248 E9.88415
G1 X106.512 Y171.814 E9.90252
G1 X105.741 Y171.312 E9.92088
G1 X105.016 Y170.744 E9.93926
G1 X104.343 Y170.115 E9.95764
G1 X103.728 Y169.431 E9.976
G1 X103.174 Y168.696 E9.99437
G1 X102.686 Y167.915 E10.01274
G1 X102.267 Y167.095 E10.03112
G1 X101.921 Y166.242 E10.04949
G1 X101.651 Y165.362 E10.06786
G1 X101.458 Y164.461 E10.08625
G1 X101.344 Y163.548 E10.10461
G1 X101.313 Y162.977 E10.11602
G1 X101.304 Y162.644 E10.12267
G1 X101.3 Y162.358 E10.12838
G1 X101.301 Y137.831 E10.61784
G1 X101.31 Y137.166 E10.63111
G1 X101.362 Y136.246 E10.6495
G1 X101.494 Y135.335 E10.66787
G1 X101.705 Y134.439 E10.68624
G1 X101.992 Y133.564 E10.70462
G1 X102.355 Y132.718 E10.72299
G1 X102.789 Y131.906 E10.74136
G1 X103.292 Y131.135 E10.75973
G1 X103.861 Y130.411 E10.77811
G1 X104.489 Y129.739 E10.79646
G1 X105.174 Y129.123 E10.81485
G0 F6000 X105.562 Y129.324
G1 F1200 X106.294 Y128.794 E10.83288
G1 X107.069 Y128.331 E10.8509
G1 X107.882 Y127.938 E10.86892
G1 X108.727 Y127.618 E10.88695
G1 X109.596 Y127.375 E10.90496
G1 X110.484 Y127.209 E10.92299
G1 X111.623 Y127.113 E10.9458
G1 X111.944 Y127.104 E10.95221
G1 X112.23 Y127.1 E10.95791
G1 X187.393 Y127.1 E12.45787
G1 X188.237 Y127.111 E12.47472
G1 X189.139 Y127.164 E12.49275
G1 X190.032 Y127.296 E12.51076
G1 X190.91 Y127.507 E12.52878
G1 X191.766 Y127.795 E12.54681
G1 X192.593 Y128.157 E12.56482
G1 X193.385 Y128.592 E12.58285
G1 X194.136 Y129.094 E12.60088
G1 X194.839 Y129.661 E12.6189
G1 X195.489 Y130.288 E12.63693
G1 X196.081 Y130.97 E12.65495
G1 X196.611 Y131.701 E12.67297
G1 X197.073 Y132.477 E12.69099
G1 X197.466 Y133.29 E12.70901
G1 X197.784 Y134.135 E12.72703
G1 X198.027 Y135.005 E12.74505
G1 X198.192 Y135.893 E12.76308
G1 X198.287 Y137.023 E12.78571
G1 X198.296 Y137.343 E12.7921
G1 X198.3 Y137.63 E12.79783
G1 X198.299 Y162.09 E13.28595
G1 X198.29 Y162.817 E13.30046
G1 X198.239 Y163.719 E13.31849
G1 X198.108 Y164.613 E13.33652
G1 X197.899 Y165.491 E13.35453
G1 X197.613 Y166.348 E13.37256
G1 X197.252 Y167.176 E13.39059
G1 X196.82 Y167.968 E13.40859
G1 X196.319 Y168.72 E13.42662
G1 X195.753 Y169.424 E13.44465
G1 X195.128 Y170.075 E13.46266
G1 X194.447 Y170.669 E13.48069
G1 X193.716 Y171.2 E13.49872
G1 X192.942 Y171.664 E13.51673
G1 X192.129 Y172.058 E13.53476
G1 X191.285 Y172.378 E13.55277
G1 X190.415 Y172.623 E13.57081
G1 X189.528 Y172.789 E13.58882
G1 X188.377 Y172.887 E13.61187
G1 X188.056 Y172.896 E13.61828
G1 X187.77 Y172.9 E13.62399
G1 X112.475 Y172.899 E15.12658
G1 X111.777 Y172.89 E15.14051
G1 X110.876 Y172.839 E15.15852
G1 X109.982 Y172.707 E15.17656
G1 X109.104 Y172.498 E15.19457
G1 X108.247 Y172.211 E15.2126
G1 X107.42 Y171.85 E15.23061
G1 X106.627 Y171.417 E15.24864
G1 X105.876 Y170.916 E15.26666
G1 X105.172 Y170.35 E15.28468
G1 X104.521 Y169.724 E15.30271
G1 X103.928 Y169.043 E15.32073
G1 X103.398 Y168.312 E15.33875
G1 X102.934 Y167.537 E15.35677
G1 X102.54 Y166.724 E15.3748
G1 X102.22 Y165.88 E15.39281
G1 X101.976 Y165.01 E15.41085
G1 X101.81 Y164.122 E15.42887
G1 X101.713 Y162.967 E15.452
G1 X101.704 Y162.634 E15.45865
G1 X101.7 Y162.358 E15.46416
G1 X101.701 Y137.836 E15.95352
G1 X101.71 Y137.171 E15.96679
G1 X101.762 Y136.269 E15.98483
G1 X101.894 Y135.376 E16.00284
G1 X102.104 Y134.498 E16.02086
G1 X102.391 Y133.641 E16.03889
G1 X102.753 Y132.814 E16.05691
G1 X103.186 Y132.022 E16.07492
G1 X103.688 Y131.271 E16.09295
G1 X104.255 Y130.567 E16.11099
G1 X104.881 Y129.917 E16.12899
G1 X105.562 Y129.324 E16.14701
G1 F2700 E11.14701
;MESH:holetest.stl
G0 F6000 X111.235 Y142.833
G0 X116.951 Y142.833
G0 X117.62 Y143.88
G0 X117.945 Y144.204
G0 X118.895 Y144.77
;TYPE:WALL-INNER
G1 F2700 E16.14701
G1 F1200 X119.526 Y143.875 E16.16887
G1 X119.239 Y142.816 E16.19076
G1 X118.199 Y142.335 E16.21363
G1 X117.135 Y142.95 E16.23816
G1 X117.034 Y144.095 E16.26109
G1 X117.811 Y144.866 E16.28294
G1 X118.895 Y144.77 E16.30466
G0 F6000 X118.675 Y144.388
G1 F1200 X119.091 Y143.798 E16.31906
G1 X118.902 Y143.101 E16.33347
G1 X118.219 Y142.785 E16.34849
G1 X117.515 Y143.192 E16.36472
G1 X117.449 Y143.943 E16.37976
G1 X117.961 Y144.451 E16.39416
G1 X118.675 Y144.388 E16.40846
G0 F6000 X118.455 Y144.006
;TYPE:WALL-OUTER
G1 F1200 X118.656 Y143.721 E16.41542
G1 X118.565 Y143.386 E16.42235
G1 X118.239 Y143.235 E16.42952
G1 X117.895 Y143.434 E16.43745
G1 X117.864 Y143.791 E16.4446
G1 X118.111 Y144.036 E16.45154
G1 X118.455 Y144.006 E16.45843
G1 F2700 E11.45843
G0 F6000 X118.699 Y144.179
G0 X119.736 Y143.912
G0 X123.171 Y143.912
G0 X124.827 Y144.948
;TYPE:WALL-INNER
G1 F2700 E16.45843
G1 F1200 X125.61 Y144.498 E16.47646
G1 X125.919 Y143.65 E16.49447
G1 X125.61 Y142.802 E16.51248
G1 X124.826 Y142.353 E16.53051
G1 X123.939 Y142.508 E16.54848
G1 X123.361 Y143.201 E16.56649
G1 X123.361 Y144.104 E16.58451
G1 X123.944 Y144.79 E16.60247
G1 X124.827 Y144.948 E16.62037
G0 F6000 X124.754 Y144.529
G1 F1200 X125.284 Y144.224 E16.63258
G1 X125.493 Y143.65 E16.64477
G1 X125.284 Y143.076 E16.65696
G1 X124.753 Y142.772 E16.66917
G1 X124.152 Y142.877 E16.68134
G1 X123.761 Y143.346 E16.69353
G1 X123.761 Y143.957 E16.70572
G1 X124.156 Y144.422 E16.7179
G1 X124.754 Y144.529 E16.73002
G0 F6000 X124.681 Y144.11
;TYPE:WALL-OUTER
G1 F1200 X124.958 Y143.95 E16.7364
G1 X125.067 Y143.65 E16.74277
G1 X124.958 Y143.35 E16.74914
G1 X124.68 Y143.191 E16.75554
G1 X124.365 Y143.246 E16.76192
G1 X124.161 Y143.491 E16.76828
G1 X124.161 Y143.81 E16.77464
G1 X124.368 Y144.054 E16.78103
G1 X124.681 Y144.11 E16.78738
G0 F6000 X124.756 Y144.543
G1 F2700 E11.78738
G0 F6000 X126.123 Y143.65
G0 X129.411 Y143.378
G0 X131.416 Y144.924
;TYPE:WALL-INNER
G1 F2700 E16.78738
G1 F1200 X132.123 Y144.328 E16.80583
G1 X132.288 Y143.412 E16.8244
G1 X131.817 Y142.611 E16.84295
G1 X130.95 Y142.293 E16.86138
G1 X130.079 Y142.611 E16.87988
G1 X129.612 Y143.414 E16.89842
G1 X129.777 Y144.331 E16.91701
G1 X130.491 Y144.924 E16.93553
G1 X131.416 Y144.924 E16.95399
G0 F6000 X131.27 Y144.524
G1 F1200 X131.755 Y144.115 E16.96665
G1 X131.868 Y143.487 E16.97939
G1 X131.545 Y142.937 E16.99212
G1 X130.95 Y142.719 E17.00476
G1 X130.352 Y142.937 E17.01746
G1 X130.032 Y143.488 E17.03018
G1 X130.145 Y144.117 E17.04293
G1 X130.635 Y144.524 E17.05564
G1 X131.27 Y144.524 E17.06832
G0 F6000 X131.124 Y144.124
;TYPE:WALL-OUTER
G1 F1200 X131.387 Y143.902 E17.07518
G1 X131.448 Y143.562 E17.08208
G1 X131.273 Y143.263 E17.08899
G1 X130.95 Y143.145 E17.09585
G1 X130.625 Y143.263 E17.10275
G1 X130.452 Y143.562 E17.10965
G1 X130.513 Y143.903 E17.11656
G1 X130.779 Y144.124 E17.12346
G1 X131.124 Y144.124 E17.13035
G0 F6000 X131.275 Y144.537
G1 F2700 E12.13035
G0 F6000 X132.362 Y144.08
G0 X135.809 Y144.189
G0 X137.541 Y145.013
;TYPE:WALL-INNER
G1 F2700 E17.13035
G1 F1200 X138.358 Y144.537 E17.14922
G1 X138.683 Y143.648 E17.16811
G1 X138.354 Y142.76 E17.187
G1 X137.536 Y142.287 E17.20586
G1 X136.605 Y142.456 E17.22474
G1 X136.002 Y143.176 E17.24348
G1 X136.001 Y144.119 E17.2623
G1 X136.61 Y144.845 E17.28121
G1 X137.541 Y145.013 E17.30009
G0 F6000 X137.467 Y144.593
G1 F1200 X138.032 Y144.264 E17.31314
G1 X138.257 Y143.649 E17.32621
G1 X138.029 Y143.034 E17.3393
G1 X137.463 Y142.707 E17.35234
G1 X136.819 Y142.824 E17.36541
G1 X136.402 Y143.322 E17.37837
G1 X136.401 Y143.974 E17.39138
G1 X136.823 Y144.477 E17.40448
G1 X137.467 Y144.593 E17.41754
G0 F6000 X137.393 Y144.173
;TYPE:WALL-OUTER
G1 F1200 X137.706 Y143.991 E17.42477
G1 X137.831 Y143.65 E17.43201
G1 X137.704 Y143.308 E17.43929
G1 X137.39 Y143.127 E17.44653
G1 X137.033 Y143.192 E17.45377
G1 X136.802 Y143.468 E17.46095
G1 X136.801 Y143.829 E17.46815
G1 X137.036 Y144.109 E17.47545
G1 X137.393 Y144.173 E17.48269
G0 F6000 X137.469 Y144.606
G1 F2700 E12.48269
G0 F6000 X138.887 Y143.648
G0 X142.06 Y143.931
G0 X143.897 Y145.045
;TYPE:WALL-INNER
G1 F2700 E17.48269
G1 F1200 X144.56 Y144.735 E17.49729
G1 X144.981 Y144.133 E17.51195
G1 X145.045 Y143.404 E17.52656
G1 X144.735 Y142.738 E17.54122
G1 X144.131 Y142.319 E17.55589
G1 X143.405 Y142.255 E17.57043
G1 X142.74 Y142.564 E17.58506
G1 X142.319 Y143.167 E17.59974
G1 X142.255 Y143.896 E17.61434
G1 X142.565 Y144.562 E17.629
G1 X143.169 Y144.981 E17.64367
G1 X143.897 Y145.045 E17.65826
G0 F6000 X143.825 Y144.637
G1 F1200 X144.294 Y144.418 E17.66859
G1 X144.592 Y143.992 E17.67896
G1 X144.637 Y143.476 E17.6893
G1 X144.418 Y143.005 E17.69966
G1 X143.99 Y142.708 E17.71006
G1 X143.476 Y142.663 E17.72036
G1 X143.006 Y142.881 E17.7307
G1 X142.708 Y143.308 E17.74109
G1 X142.663 Y143.824 E17.75142
G1 X142.882 Y144.295 E17.76179
G1 X143.31 Y144.592 E17.77219
G1 X143.825 Y144.637 E17.7825
G0 F6000 X143.753 Y144.229
;TYPE:WALL-OUTER
G1 F1200 X144.028 Y144.101 E17.78856
G1 X144.203 Y143.851 E17.79465
G1 X144.229 Y143.548 E17.80071
G1 X144.101 Y143.272 E17.80679
G1 X143.849 Y143.097 E17.81291
G1 X143.548 Y143.071 E17.81894
G1 X143.272 Y143.199 E17.82501
G1 X143.097 Y143.449 E17.8311
G1 X143.071 Y143.752 E17.83717
G1 X143.199 Y144.028 E17.84324
G1 X143.451 Y144.203 E17.84936
G1 X143.753 Y144.229 E17.85541
G0 F6000 X143.829 Y144.662
G1 F2700 E12.85541
G0 F6000 X145.206 Y143.76
G0 X145.206 Y136.635
G0 X174.812 Y143.322
G0 X175.987 Y143.546
G0 X181.583 Y144.853
G0 X180.16 Y146.053
G0 X181.811 Y146.982
;TYPE:WALL-INNER
G1 F2700 E17.85541
G1 F1200 X182.385 Y147.131 E17.86725
G1 X182.417 Y147.14 E17.86791
G1 X182.449 Y147.142 E17.86855
G1 X183.02 Y147.195 E17.87999
G1 X183.647 Y147.137 E17.89256
G1 X184.232 Y146.98 E17.90465
G1 X184.792 Y146.72 E17.91697
G1 X185.298 Y146.366 E17.92929
G1 X185.736 Y145.928 E17.94165
G1 X186.09 Y145.422 E17.95398
G1 X186.35 Y144.862 E17.9663
G1 X186.509 Y144.266 E17.97861
G1 X186.565 Y143.65 E17.99095
G1 X186.509 Y143.034 E18.00329
G1 X186.35 Y142.438 E18.0156
G1 X186.09 Y141.878 E18.02792
G1 X185.734 Y141.371 E18.04029
G1 X185.289 Y140.928 E18.05282
G1 X184.792 Y140.58 E18.06493
G1 X184.229 Y140.318 E18.07732
G1 X183.655 Y140.169 E18.08915
G1 X183.623 Y140.16 E18.08982
G1 X183.591 Y140.158 E18.09046
G1 X183.02 Y140.105 E18.1019
G1 X182.393 Y140.163 E18.11447
G1 X181.808 Y140.32 E18.12655
G1 X181.248 Y140.58 E18.13887
G1 X180.742 Y140.934 E18.1512
G1 X180.304 Y141.372 E18.16356
G1 X179.95 Y141.878 E18.17588
G1 X179.69 Y142.438 E18.1882
G1 X179.531 Y143.034 E18.20051
G1 X179.475 Y143.65 E18.21286
G1 X179.531 Y144.266 E18.2252
G1 X179.69 Y144.862 E18.23751
G1 X179.95 Y145.422 E18.24983
G1 X180.306 Y145.929 E18.2622
G1 X180.751 Y146.372 E18.27473
G1 X181.248 Y146.72 E18.28683
G1 X181.811 Y146.982 E18.29923
G0 F6000 X181.947 Y146.604
G1 F1200 X182.486 Y146.745 E18.31034
G1 X183.02 Y146.793 E18.32104
G1 X183.576 Y146.742 E18.33219
G1 X184.095 Y146.603 E18.34291
G1 X184.591 Y146.372 E18.35383
G1 X185.04 Y146.058 E18.36476
