;FLAVOR:Marlin
;TIME:2064
;Filament used: 0.66369m
;Layer height: 0.2
;MINX:145.12
;MINY:145.12
;MINZ:0.2
;MAXX:154.88
;MAXY:154.88
;MAXZ:33
;Generated with Cura_SteamEngine master
M140 S55
M105
M190 S55
M104 S210
M105
M109 S210
M82 ;absolute extrusion mode
M201 X500.00 Y500.00 Z100.00 E5000.00 ;Setup machine max acceleration
M203 X500.00 Y500.00 Z10.00 E50.00 ;Setup machine max feedrate
M204 P500.00 R1000.00 T500.00 ;Setup Print/Retract/Travel acceleration
M205 X8.00 Y8.00 Z0.40 E5.00 ;Setup Jerk
M220 S100 ;Reset Feedrate
M221 S100 ;Reset Flowrate

G28 ;Home

G92 E0 ;Reset Extruder
G1 Z2.0 F3000 ;Move Z Axis up
G1 X10.1 Y20 Z0.28 F5000.0 ;Move to start position
G1 X10.1 Y200.0 Z0.28 F1500.0 E15 ;Draw the first line
G1 X10.4 Y200.0 Z0.28 F5000.0 ;Move to side a little
G1 X10.4 Y20 Z0.28 F1500.0 E30 ;Draw the second line
G92 E0 ;Reset Extruder
G1 Z2.0 F3000 ;Move Z Axis up

G92 E0
G92 E0
G1 F2700 E-5
;LAYER_COUNT:165
;LAYER:0
M107
;MESH:sharpwriter_test_metric.stl
G0 F6000 X150.167 Y150.917 Z0.2
;TYPE:WALL-INNER
G1 F2700 E0
G1 F1200 X150.714 Y150.596 E0.02109
G1 X150.931 Y150 E0.04219
G1 X150.713 Y149.401 E0.06339
G1 X150.157 Y149.082 E0.08471
G1 X149.532 Y149.197 E0.10585
G1 X149.126 Y149.682 E0.12689
G1 X149.126 Y150.319 E0.14807
G1 X149.538 Y150.808 E0.16934
G1 X150.167 Y150.917 E0.19057
G0 F6000 X150.091 Y150.498
;TYPE:WALL-OUTER
G1 F1200 X150.387 Y150.324 E0.20199
G1 X150.505 Y150 E0.21346
G1 X150.387 Y149.675 E0.22496
G1 X150.085 Y149.502 E0.23654
G1 X149.746 Y149.564 E0.248
G1 X149.526 Y149.827 E0.2594
G1 X149.526 Y150.173 E0.27091
G1 X149.75 Y150.439 E0.28248
G1 X150.091 Y150.498 E0.29399
G0 F6000 X150.169 Y150.93
G1 F2700 E-4.70601
G0 F6000 X150.87 Y150.727
G0 X154.27 Y150.727
G0 X154.48 Y154.48
;TYPE:WALL-INNER
G1 F2700 E0.29399
G1 F1200 X145.52 Y154.48 E0.592
G1 X145.52 Y145.52 E0.89001
G1 X154.48 Y145.52 E1.18802
G1 X154.48 Y154.48 E1.48603
G0 F6000 X154.88 Y154.88
;TYPE:WALL-OUTER
G1 F1200 X145.12 Y154.88 E1.81065
G1 X145.12 Y145.12 E2.13527
G1 X154.88 Y145.12 E2.45989
G1 X154.88 Y154.88 E2.78451
G0 F6000 X154.61 Y154.61
G0 X154.37 Y154.09
G0 X154.09 Y154.09
;TYPE:SKIN
G1 F1200 X145.91 Y154.09 E3.05657
G1 X145.91 Y145.91 E3.32864
G1 X154.09 Y145.91 E3.60071
G1 X154.09 Y154.09 E3.87278
G1 F2700 E-1.12722
G0 F6000 X154.37 Y154.09
G0 X154.27 Y150.67
G0 X151.134 Y150
G0 X150.806 Y150.67
G0 X151.032 Y150.861
G1 F2700 E3.87278
G1 F1200 X151.346 Y150 E3.90326
G1 X151.031 Y149.134 E3.93391
G1 X150.227 Y148.673 E3.96474
G1 X149.323 Y148.838 E3.9953
G1 X148.736 Y149.54 E4.02573
G1 X148.736 Y150.461 E4.05637
G1 X149.331 Y151.168 E4.0871
G1 X150.241 Y151.326 E4.11782
G1 X151.032 Y150.861 E4.14834
G1 F2700 E-0.85166
G0 F6000 X150.806 Y150.67
G0 X150.869 Y149.269
G0 X154.27 Y149.269
G0 X154.37 Y146.575
G0 X153.929 Y146.575
G1 F2700 E4.14834
G1 F1200 X153.424 Y146.07 E4.17209
G0 F6000 X152.858 Y146.07
G1 F1200 X153.929 Y147.141 E4.22247
G0 F6000 X153.929 Y147.706
G1 F1200 X152.293 Y146.07 E4.29942
G0 F6000 X151.727 Y146.07
G1 F1200 X153.929 Y148.272 E4.403
G0 F6000 X153.929 Y148.838
G1 F1200 X151.161 Y146.07 E4.5332
G0 F6000 X150.596 Y146.07
G1 F1200 X153.929 Y149.403 E4.68997
G0 F6000 X153.929 Y149.969
G1 F1200 X150.03 Y146.07 E4.87337
G0 F6000 X149.464 Y146.07
G1 F1200 X153.929 Y150.535 E5.08339
G0 F6000 X153.929 Y151.1
G1 F1200 X148.899 Y146.07 E5.31998
G0 F6000 X148.333 Y146.07
G1 F1200 X153.929 Y151.666 E5.5832
G0 F6000 X153.929 Y152.232
G1 F1200 X151.41 Y149.713 E5.70169
G0 F6000 X151.412 Y150.28
G1 F1200 X153.929 Y152.797 E5.82008
G0 F6000 X153.929 Y153.363
G1 F1200 X151.26 Y150.695 E5.9456
G0 F6000 X151.041 Y151.041
G1 F1200 X153.929 Y153.929 E6.08144
G0 F6000 X153.363 Y153.929
G1 F1200 X150.685 Y151.25 E6.20743
G0 F6000 X150.329 Y151.46
G1 F1200 X152.797 Y153.929 E6.32354
G0 F6000 X152.232 Y153.929
G1 F1200 X149.697 Y151.394 E6.44278
G0 F6000 X149.773 Y150.961
G0 X149.016 Y150.273
G0 X148.576 Y150.273
G1 F1200 X146.069 Y147.766 E6.5607
G0 F6000 X146.069 Y147.201
G1 F1200 X148.576 Y149.707 E6.6786
G0 F6000 X148.73 Y149.296
G1 F1200 X146.069 Y146.635 E6.80376
G0 F6000 X146.069 Y146.069
G1 F1200 X148.988 Y148.988 E6.94106
G0 F6000 X149.252 Y148.686
G1 F1200 X146.636 Y146.07 E7.06411
G0 F6000 X147.201 Y146.07
G1 F1200 X149.731 Y148.599 E7.18309
G0 F6000 X150.209 Y148.512
G1 F1200 X147.767 Y146.07 E7.29796
G0 F6000 X147.767 Y145.63
G0 X145.702 Y145.702
G0 X145.63 Y148.332
G0 X146.069 Y148.332
G1 F1200 X151.666 Y153.929 E7.56122
G0 F6000 X151.1 Y153.929
G1 F1200 X146.069 Y148.898 E7.79786
G0 F6000 X146.069 Y149.463
G1 F1200 X150.535 Y153.929 E8.00793
G0 F6000 X149.969 Y153.929
G1 F1200 X146.069 Y150.029 E8.19138
G0 F6000 X146.069 Y150.595
G1 F1200 X149.403 Y153.929 E8.3482
G0 F6000 X148.838 Y153.929
G1 F1200 X146.069 Y151.161 E8.47842
G0 F6000 X146.069 Y151.726
G1 F1200 X148.272 Y153.929 E8.58204
G0 F6000 X147.706 Y153.929
G1 F1200 X146.069 Y152.292 E8.65904
G0 F6000 X146.069 Y152.858
G1 F1200 X147.141 Y153.929 E8.70944
G0 F6000 X146.575 Y153.929
G1 F1200 X146.069 Y153.423 E8.73324
G0 F6000 X145.72 Y153.423
G1 F2700 E3.73324
;MESH:NONMESH
G0 F300 X145.72 Y153.423 Z0.4
G0 F6000 X145.63 Y153.423
G0 X145.73 Y150.914
G0 X148.934 Y150.39
G0 X150.177 Y150.914
;TIME_ELAPSED:23.703149
;LAYER:1
M106 S85
;TYPE:WALL-INNER
;MESH:sharpwriter_test_metric.stl
G1 F2700 E8.73324
G1 F1350 X150.715 Y150.594 E8.75406
G1 X150.93 Y150 E8.77507
G1 X150.712 Y149.398 E8.79637
G1 X150.147 Y149.082 E8.8179
G1 X149.522 Y149.201 E8.83906
G1 X149.126 Y149.685 E8.85986
G1 X149.126 Y150.322 E8.88105
G1 X149.547 Y150.813 E8.90256
G1 X150.177 Y150.914 E8.92378
G0 F7500 X150.097 Y150.496
;TYPE:WALL-OUTER
G1 F1350 X150.388 Y150.323 E8.93504
G1 X150.505 Y150 E8.94646
G1 X150.387 Y149.674 E8.958
G1 X150.079 Y149.502 E8.96973
G1 X149.74 Y149.567 E8.98121
G1 X149.526 Y149.828 E8.99244
G1 X149.526 Y150.174 E9.00394
G1 X149.755 Y150.441 E9.01564
G1 X150.097 Y150.496 E9.02716
G0 F7500 X150.179 Y150.928
G1 F2700 E4.02716
G0 F7500 X150.872 Y150.724
G0 X154.27 Y150.724
G0 X154.48 Y154.48
;TYPE:WALL-INNER
G1 F2700 E9.02716
G1 F1350 X145.52 Y154.48 E9.32517
G1 X145.52 Y145.52 E9.62319
G1 X154.48 Y145.52 E9.9212
G1 X154.48 Y154.48 E10.21921
G0 F7500 X154.88 Y154.88
;TYPE:WALL-OUTER
G1 F1350 X145.12 Y154.88 E10.54383
G1 X145.12 Y145.12 E10.86844
G1 X154.88 Y145.12 E11.19306
G1 X154.88 Y154.88 E11.51768
G0 F7500 X154.61 Y154.61
G0 X154.37 Y154.09
G0 X154.09 Y154.09
;TYPE:SKIN
G1 F1350 X145.91 Y154.09 E11.78975
G1 X145.91 Y145.91 E12.06182
G1 X154.09 Y145.91 E12.33389
G1 X154.09 Y154.09 E12.60595
G1 F2700 E7.60595
G0 F7500 X154.37 Y154.09
G0 X154.27 Y150.668
G0 X151.133 Y150
G0 X150.807 Y150.668
G0 X151.035 Y150.858
G1 F2700 E12.60595
G1 F1350 X151.345 Y150 E12.6363
G1 X151.03 Y149.129 E12.6671
G1 X150.213 Y148.672 E12.69824
G1 X149.31 Y148.844 E12.72881
G1 X148.736 Y149.546 E12.75897
G1 X148.736 Y150.466 E12.78957
G1 X149.344 Y151.176 E12.82066
G1 X150.255 Y151.322 E12.85135
G1 X151.035 Y150.858 E12.88153
G1 F2700 E7.88153
G0 F7500 X150.807 Y150.668
G0 X154.27 Y150.724
G0 X154.298 Y154.298
G0 X153.803 Y154.37
G0 X153.803 Y153.929
G1 F2700 E12.88153
G1 F1350 X153.929 Y153.803 E12.88746
G0 F7500 X153.929 Y153.237
G1 F1350 X153.237 Y153.929 E12.92001
G0 F7500 X152.672 Y153.929
G1 F1350 X153.929 Y152.672 E12.97914
G0 F7500 X153.929 Y152.106
G1 F1350 X152.106 Y153.929 E13.06488
G0 F7500 X151.54 Y153.929
G1 F1350 X153.929 Y151.54 E13.17726
G0 F7500 X153.929 Y150.975
G1 F1350 X150.975 Y153.929 E13.3162
G0 F7500 X150.409 Y153.929
G1 F1350 X153.929 Y150.409 E13.48177
G0 F7500 X153.929 Y149.843
G1 F1350 X149.843 Y153.929 E13.67397
G0 F7500 X149.278 Y153.929
G1 F1350 X153.929 Y149.278 E13.89273
G0 F7500 X153.929 Y148.712
G1 F1350 X148.712 Y153.929 E14.13813
G0 F7500 X148.146 Y153.929
G1 F1350 X151.028 Y151.047 E14.27369
G0 F7500 X151.196 Y150.879
G1 F1350 X153.929 Y148.146 E14.40224
G0 F7500 X153.929 Y147.58
G1 F1350 X151.513 Y149.996 E14.51588
G0 F7500 X151.363 Y149.581
G1 F1350 X153.929 Y147.015 E14.63658
G0 F7500 X153.929 Y146.449
G1 F1350 X151.212 Y149.166 E14.76438
G0 F7500 X150.924 Y148.888
G1 F1350 X153.743 Y146.069 E14.89697
G0 F7500 X153.177 Y146.069
G1 F1350 X150.561 Y148.686 E15.02005
G0 F7500 X150.162 Y148.519
G1 F1350 X152.612 Y146.069 E15.13529
G0 F7500 X152.046 Y146.069
G1 F1350 X149.464 Y148.651 E15.25674
G0 F7500 X149.545 Y149.085
G0 X149.01 Y149.643
G0 X148.575 Y149.54
G1 F1350 X146.07 Y152.045 E15.37456
G0 F7500 X146.07 Y151.479
G1 F1350 X151.48 Y146.069 E15.62903
G0 F7500 X150.914 Y146.069
G1 F1350 X146.07 Y150.914 E15.8569
G0 F7500 X146.07 Y150.348
G1 F1350 X150.349 Y146.069 E16.05817
G0 F7500 X149.783 Y146.069
G1 F1350 X146.07 Y149.782 E16.23282
G0 F7500 X146.07 Y149.217
G1 F1350 X149.217 Y146.069 E16.38087
G0 F7500 X148.652 Y146.069
G1 F1350 X146.07 Y148.651 E16.50232
G0 F7500 X146.07 Y148.085
G1 F1350 X148.086 Y146.069 E16.59715
G0 F7500 X147.52 Y146.069
G1 F1350 X146.07 Y147.52 E16.66537
G0 F7500 X146.07 Y146.954
G1 F1350 X146.955 Y146.069 E16.707
G0 F7500 X146.389 Y146.069
G1 F1350 X146.07 Y146.388 E16.72201
G1 F2700 E11.72201
G0 F7500 X145.63 Y146.388
G0 X145.73 Y150.106
G0 X148.936 Y150.106
G0 X148.575 Y150.106
G1 F2700 E16.72201
G1 F1350 X146.07 Y152.611 E16.83983
G0 F7500 X146.07 Y153.177
G1 F1350 X148.643 Y150.603 E16.96088
G0 F7500 X148.904 Y150.908
G1 F1350 X146.07 Y153.742 E17.09419
G0 F7500 X146.449 Y153.929
G1 F1350 X149.165 Y151.213 E17.22194
G0 F7500 X149.57 Y151.373
G1 F1350 X147.015 Y153.929 E17.34214
G0 F7500 X147.58 Y153.929
G1 F1350 X150.058 Y151.451 E17.4587
G0 F7500 X150.362 Y151.037
;MESH:NONMESH
G0 F300 X150.362 Y151.037 Z0.6
G0 F7500 X150.162 Y150.918
;TIME_ELAPSED:41.890004
;LAYER:2
M106 S170
;TYPE:WALL-INNER
;MESH:sharpwriter_test_metric.stl
G1 F1500 X150.713 Y150.598 E17.47989
G1 X150.931 Y150 E17.50106
G1 X150.711 Y149.395 E17.52247
G1 X150.136 Y149.078 E17.54431
G1 X149.514 Y149.209 E17.56545
G1 X149.126 Y149.687 E17.58593
G1 X149.126 Y150.318 E17.60692
G1 X149.534 Y150.805 E17.62805
G1 X150.162 Y150.918 E17.64927
G0 F9000 X150.088 Y150.498
;TYPE:WALL-OUTER
G1 F1500 X150.387 Y150.325 E17.66076
G1 X150.505 Y150 E17.67226
G1 X150.386 Y149.673 E17.68383
G1 X150.073 Y149.5 E17.69573
G1 X149.735 Y149.571 E17.70722
G1 X149.526 Y149.829 E17.71826
G1 X149.526 Y150.173 E17.7297
G1 X149.747 Y150.437 E17.74115
G1 X150.088 Y150.498 E17.75267
G0 F9000 X150.164 Y150.931
G1 F2700 E12.75267
G0 F9000 X150.869 Y150.729
G0 X154.27 Y150.729
G0 X154.48 Y154.48
;TYPE:WALL-INNER
G1 F2700 E17.75267
G1 F1500 X145.52 Y154.48 E18.05068
G1 X145.52 Y145.52 E18.3487
G1 X154.48 Y145.52 E18.64671
G1 X154.48 Y154.48 E18.94472
G0 F9000 X154.88 Y154.88
;TYPE:WALL-OUTER
G1 F1500 X145.12 Y154.88 E19.26934
G1 X145.12 Y145.12 E19.59396
G1 X154.88 Y145.12 E19.91857
G1 X154.88 Y154.88 E20.24319
G0 F9000 X154.61 Y154.61
G0 X154.37 Y154.09
G0 X154.09 Y154.09
;TYPE:SKIN
G1 F1500 X145.91 Y154.09 E20.51526
G1 X145.91 Y145.91 E20.78733
G1 X154.09 Y145.91 E21.0594
G1 X154.09 Y154.09 E21.33146
G1 F2700 E16.33146
G0 F9000 X154.37 Y154.09
G0 X154.27 Y150.671
G0 X151.134 Y150
G0 X150.805 Y150.671
G0 X151.031 Y150.865
G1 F2700 E21.33146
G1 F1500 X151.346 Y150 E21.36208
G1 X151.027 Y149.124 E21.39309
G1 X150.197 Y148.667 E21.4246
G1 X149.298 Y148.856 E21.45516
G1 X148.736 Y149.549 E21.48483
G1 X148.736 Y150.46 E21.51513
G1 X149.326 Y151.164 E21.54569
G1 X150.234 Y151.327 E21.57637
G1 X151.031 Y150.865 E21.60701
G1 F2700 E16.60701
G0 F9000 X150.805 Y150.671
G0 X150.866 Y149.262
G0 X154.27 Y149.262
G0 X154.37 Y146.575
G0 X153.929 Y146.575
G1 F2700 E21.60701
G1 F1500 X153.424 Y146.07 E21.63076
G0 F9000 X152.858 Y146.07
G1 F1500 X153.929 Y147.141 E21.68114
G0 F9000 X153.929 Y147.706
G1 F1500 X152.293 Y146.07 E21.75809
G0 F9000 X151.727 Y146.07
G1 F1500 X153.929 Y148.272 E21.86167
G0 F9000 X153.929 Y148.838
G1 F1500 X151.161 Y146.07 E21.99186
G0 F9000 X150.596 Y146.07
G1 F1500 X153.929 Y149.403 E22.14864
G0 F9000 X153.929 Y149.969
G1 F1500 X150.03 Y146.07 E22.33204
G0 F9000 X149.464 Y146.07
G1 F1500 X153.929 Y150.535 E22.54206
G0 F9000 X153.929 Y151.1
G1 F1500 X148.899 Y146.07 E22.77865
G0 F9000 X148.333 Y146.07
G1 F1500 X153.929 Y151.666 E23.04187
G0 F9000 X153.929 Y152.232
G1 F1500 X151.41 Y149.713 E23.16036
G0 F9000 X151.412 Y150.281
G1 F1500 X153.929 Y152.797 E23.27872
G0 F9000 X153.929 Y153.363
G1 F1500 X151.261 Y150.695 E23.40422
G0 F9000 X151.043 Y151.043
G1 F1500 X153.929 Y153.929 E23.53997
G0 F9000 X153.363 Y153.929
G1 F1500 X150.685 Y151.25 E23.66596
G0 F9000 X150.326 Y151.458
G1 F1500 X152.797 Y153.929 E23.78218
G0 F9000 X152.232 Y153.929
G1 F1500 X149.696 Y151.393 E23.90147
G0 F9000 X149.774 Y150.961
G0 X149.016 Y150.272
G0 X148.575 Y150.272
G1 F1500 X146.069 Y147.766 E24.01934
G0 F9000 X146.069 Y147.201
G1 F1500 X148.575 Y149.707 E24.13722
G0 F9000 X148.732 Y149.298
G1 F1500 X146.069 Y146.635 E24.26248
G0 F9000 X146.069 Y146.069
G1 F1500 X148.985 Y148.985 E24.39964
G0 F9000 X149.264 Y148.698
G1 F1500 X146.636 Y146.07 E24.52325
G0 F9000 X147.201 Y146.07
G1 F1500 X149.731 Y148.599 E24.64223
G0 F9000 X150.198 Y148.501
G1 F1500 X147.767 Y146.07 E24.75658
G0 F9000 X147.767 Y145.63
G0 X145.702 Y145.702
G0 X145.63 Y148.332
G0 X146.069 Y148.332
G1 F1500 X151.666 Y153.929 E25.01984
G0 F9000 X151.1 Y153.929
G1 F1500 X146.069 Y148.898 E25.25649
G0 F9000 X146.069 Y149.463
G1 F1500 X150.535 Y153.929 E25.46655
G0 F9000 X149.969 Y153.929
G1 F1500 X146.069 Y150.029 E25.65
G0 F9000 X146.069 Y150.595
G1 F1500 X149.403 Y153.929 E25.80682
G0 F9000 X148.838 Y153.929
G1 F1500 X146.069 Y151.161 E25.93704
G0 F9000 X146.069 Y151.726
G1 F1500 X148.272 Y153.929 E26.04066
G0 F9000 X147.706 Y153.929
G1 F1500 X146.069 Y152.292 E26.11766
G0 F9000 X146.069 Y152.858
G1 F1500 X147.141 Y153.929 E26.16806
G0 F9000 X146.575 Y153.929
G1 F1500 X146.069 Y153.423 E26.19186
G0 F9000 X145.72 Y153.423
G1 F2700 E21.19186
;MESH:NONMESH
G0 F300 X145.72 Y153.423 Z0.8
G0 F9000 X145.63 Y153.423
G0 X145.73 Y150.918
G0 X148.934 Y150.388
G0 X150.162 Y150.918
;TIME_ELAPSED:58.970362
;LAYER:3
M106 S255
;TYPE:WALL-INNER
;MESH:sharpwriter_test_metric.stl
G1 F2700 E26.19186
G1 F1500 X150.713 Y150.598 E26.21306
G1 X150.931 Y150 E26.23423
G1 X150.713 Y149.402 E26.2554
G1 X150.162 Y149.082 E26.27659
G1 X149.534 Y149.195 E26.29781
G1 X149.126 Y149.682 E26.31894
G1 X149.126 Y150.318 E26.3401
G1 X149.534 Y150.805 E26.36123
G1 X150.162 Y150.918 E26.38245
G0 F9000 X150.088 Y150.498
;TYPE:WALL-OUTER
G1 F1500 X150.387 Y150.325 E26.39394
G1 X150.505 Y150 E26.40544
G1 X150.387 Y149.675 E26.41694
G1 X150.088 Y149.502 E26.42843
G1 X149.747 Y149.563 E26.43995
G1 X149.526 Y149.827 E26.4514
G1 X149.526 Y150.173 E26.46291
G1 X149.747 Y150.437 E26.47436
G1 X150.088 Y150.498 E26.48588
G0 F9000 X150.164 Y150.931
G1 F2700 E21.48588
G0 F9000 X150.869 Y150.729
G0 X154.27 Y150.729
G0 X154.48 Y154.48
;TYPE:WALL-INNER
G1 F2700 E26.48588
G1 F1500 X145.52 Y154.48 E26.78389
G1 X145.52 Y145.52 E27.0819
G1 X154.48 Y145.52 E27.37991
G1 X154.48 Y154.48 E27.67793
G0 F9000 X154.88 Y154.88
;TYPE:WALL-OUTER
G1 F1500 X145.12 Y154.88 E28.00254
G1 X145.12 Y145.12 E28.32716
G1 X154.88 Y145.12 E28.65178
G1 X154.88 Y154.88 E28.9764
G0 F9000 X154.61 Y154.61
G0 X154.37 Y154.09
G0 X154.09 Y154.09
;TYPE:SKIN
G1 F1500 X145.91 Y154.09 E29.24847
G1 X145.91 Y145.91 E29.52054
G1 X154.09 Y145.91 E29.7926
G1 X154.09 Y154.09 E30.06467
G1 F2700 E25.06467
G0 F9000 X154.37 Y154.09
G0 X154.27 Y150.671
G0 X151.135 Y150
G0 X150.805 Y150.671
G0 X151.031 Y150.865
G1 F2700 E30.06467
G1 F1500 X151.346 Y150 E30.09529
G1 X151.031 Y149.135 E30.12591
G1 X150.234 Y148.673 E30.15655
G1 X149.326 Y148.836 E30.18723
G1 X148.736 Y149.54 E30.21778
G1 X148.736 Y150.46 E30.24838
G1 X149.326 Y151.164 E30.27893
G1 X150.234 Y151.327 E30.30962
G1 X151.031 Y150.865 E30.34026
G1 F2700 E25.34026
G0 F9000 X150.805 Y150.671
G0 X154.27 Y150.729
G0 X154.298 Y154.298
G0 X153.803 Y154.37
G0 X153.803 Y153.929
G1 F2700 E30.34026
G1 F1500 X153.929 Y153.803 E30.34618
G0 F9000 X153.929 Y153.237
G1 F1500 X153.237 Y153.929 E30.37873
G0 F9000 X152.672 Y153.929
G1 F1500 X153.929 Y152.672 E30.43786
G0 F9000 X153.929 Y152.106
G1 F1500 X152.106 Y153.929 E30.52361
G0 F9000 X151.54 Y153.929
