;FLAVOR:Marlin
;TIME:3603
;Filament used: 0.837519m
;Layer height: 0.12
;MINX:133.92
;MINY:133.92
;MINZ:0.12
;MAXX:166.08
;MAXY:166.08
;MAXZ:33.12
;Generated with Cura_SteamEngine master
M140 S55
M105
M190 S55
M104 S210
M105
M109 S210
M82 ;absolute extrusion mode
M201 X500.00 Y500.00 Z100.00 E5000.00 ;Setup machine max acceleration
M203 X500.00 Y500.00 Z10.00 E50.00 ;Setup machine max feedrate
M204 P500.00 R1000.00 T500.00 ;Setup Print/Retract/Travel acceleration
M205 X8.00 Y8.00 Z0.40 E5.00 ;Setup Jerk
M220 S100 ;Reset Feedrate
M221 S100 ;Reset Flowrate

G28 ;Home

G92 E0 ;Reset Extruder
G1 Z2.0 F3000 ;Move Z Axis up
G1 X10.1 Y20 Z0.28 F5000.0 ;Move to start position
G1 X10.1 Y200.0 Z0.28 F1500.0 E15 ;Draw the first line
G1 X10.4 Y200.0 Z0.28 F5000.0 ;Move to side a little
G1 X10.4 Y20 Z0.28 F1500.0 E30 ;Draw the second line
G92 E0 ;Reset Extruder
G1 Z2.0 F3000 ;Move Z Axis up

G92 E0
G92 E0
G1 F2700 E-5
;LAYER_COUNT:276
;LAYER:0
M107
G0 F6000 X137.13 Y137.172 Z0.12
;TYPE:SKIRT
G1 F2700 E0
G1 F1200 X137.819 Y136.536 E0.01871
G1 X138.56 Y135.961 E0.03743
G1 X139.347 Y135.451 E0.05614
G1 X140.175 Y135.01 E0.07487
G1 X141.037 Y134.641 E0.09358
G1 X141.928 Y134.347 E0.1123
G1 X142.84 Y134.129 E0.13101
G1 X143.767 Y133.991 E0.14972
G1 X144.621 Y133.933 E0.1668
G1 X144.941 Y133.924 E0.17319
G1 X145.25 Y133.92 E0.17935
G1 X154.373 Y133.92 E0.36141
G1 X155.229 Y133.931 E0.3785
G1 X156.165 Y133.985 E0.39721
G1 X157.093 Y134.117 E0.41591
G1 X158.007 Y134.329 E0.43464
G1 X158.899 Y134.618 E0.45335
G1 X159.764 Y134.981 E0.47207
G1 X160.594 Y135.417 E0.49078
G1 X161.385 Y135.922 E0.50951
G1 X162.129 Y136.493 E0.52822
G1 X162.822 Y137.125 E0.54694
G1 X163.459 Y137.813 E0.56565
G1 X164.034 Y138.554 E0.58437
G1 X164.545 Y139.34 E0.60308
G1 X164.987 Y140.168 E0.62181
G1 X165.356 Y141.03 E0.64052
G1 X165.651 Y141.92 E0.65923
G1 X165.869 Y142.832 E0.67794
G1 X166.009 Y143.76 E0.69667
G1 X166.067 Y144.621 E0.71389
G1 X166.076 Y144.941 E0.72028
G1 X166.08 Y145.25 E0.72645
G1 X166.079 Y154.48 E0.91064
G1 X166.069 Y155.208 E0.92517
G1 X166.016 Y156.144 E0.94388
G1 X165.884 Y157.073 E0.96261
G1 X165.673 Y157.987 E0.98133
G1 X165.385 Y158.879 E1.00003
G1 X165.021 Y159.744 E1.01876
G1 X164.586 Y160.575 E1.03748
G1 X164.081 Y161.365 E1.05619
G1 X163.511 Y162.11 E1.07491
G1 X162.88 Y162.803 E1.09361
G1 X162.192 Y163.44 E1.11232
G1 X161.452 Y164.017 E1.13105
G1 X160.665 Y164.528 E1.14978
G1 X159.838 Y164.97 E1.16849
G1 X158.976 Y165.34 E1.18721
G1 X158.086 Y165.635 E1.20592
G1 X157.174 Y165.854 E1.22464
G1 X156.121 Y166.007 E1.24587
G1 X155.923 Y166.026 E1.24984
G1 X154.998 Y166.075 E1.26833
G1 X154.522 Y166.08 E1.27783
G1 X145.485 Y166.079 E1.45817
G1 X144.787 Y166.07 E1.4721
G1 X143.851 Y166.018 E1.49081
G1 X142.922 Y165.886 E1.50953
G1 X142.008 Y165.676 E1.52825
G1 X141.115 Y165.389 E1.54697
G1 X140.25 Y165.026 E1.56569
G1 X139.419 Y164.592 E1.5844
G1 X138.628 Y164.088 E1.60311
G1 X137.883 Y163.518 E1.62183
G1 X137.189 Y162.887 E1.64055
G1 X136.552 Y162.2 E1.65925
G1 X135.975 Y161.46 E1.67797
G1 X135.463 Y160.674 E1.69669
G1 X135.02 Y159.847 E1.71542
G1 X134.649 Y158.986 E1.73412
G1 X134.353 Y158.096 E1.75284
G1 X134.134 Y157.184 E1.77156
G1 X133.993 Y156.257 E1.79027
G1 X133.933 Y155.368 E1.80805
G1 X133.924 Y155.035 E1.8147
G1 X133.92 Y154.738 E1.82063
G1 X133.921 Y145.429 E2.0064
G1 X133.931 Y144.764 E2.01967
G1 X133.985 Y143.827 E2.0384
G1 X134.119 Y142.899 E2.05711
G1 X134.331 Y141.985 E2.07584
G1 X134.62 Y141.093 E2.09455
G1 X134.985 Y140.229 E2.11327
G1 X135.421 Y139.399 E2.13198
G1 X135.927 Y138.609 E2.1507
G1 X136.498 Y137.865 E2.16941
G1 X137.13 Y137.172 E2.18813
G0 F6000 X137.522 Y137.347
G1 F1200 X138.208 Y136.733 E2.2065
G1 X138.944 Y136.181 E2.22486
G1 X139.726 Y135.694 E2.24325
G1 X140.547 Y135.278 E2.26161
G1 X141.401 Y134.934 E2.27999
G1 X142.281 Y134.665 E2.29835
G1 X143.182 Y134.474 E2.31673
G1 X144.096 Y134.362 E2.33511
G1 X144.632 Y134.333 E2.34582
G1 X144.952 Y134.324 E2.35221
G1 X145.25 Y134.32 E2.35816
G1 X154.373 Y134.32 E2.54022
G1 X155.223 Y134.331 E2.55718
G1 X156.142 Y134.384 E2.57555
G1 X157.053 Y134.517 E2.59392
G1 X157.949 Y134.728 E2.61229
G1 X158.823 Y135.016 E2.63066
G1 X159.67 Y135.379 E2.64905
G1 X160.481 Y135.814 E2.66741
G1 X161.251 Y136.318 E2.68578
G1 X161.975 Y136.887 E2.70415
G1 X162.647 Y137.517 E2.72253
G1 X163.262 Y138.202 E2.74091
G1 X163.815 Y138.938 E2.75928
G1 X164.302 Y139.719 E2.77764
G1 X164.719 Y140.54 E2.79602
G1 X165.064 Y141.394 E2.8144
G1 X165.333 Y142.274 E2.83277
G1 X165.525 Y143.175 E2.85115
G1 X165.638 Y144.088 E2.86951
G1 X165.667 Y144.632 E2.88038
G1 X165.676 Y144.952 E2.88677
G1 X165.68 Y145.25 E2.89272
G1 X165.679 Y154.475 E3.07681
G1 X165.669 Y155.203 E3.09134
G1 X165.616 Y156.122 E3.10971
G1 X165.484 Y157.033 E3.12808
G1 X165.273 Y157.929 E3.14645
G1 X164.986 Y158.804 E3.16483
G1 X164.623 Y159.65 E3.1832
G1 X164.189 Y160.462 E3.20157
G1 X163.685 Y161.232 E3.21994
G1 X163.117 Y161.957 E3.23832
G1 X162.488 Y162.629 E3.25668
G1 X161.803 Y163.244 E3.27506
G1 X161.067 Y163.797 E3.29343
G1 X160.286 Y164.285 E3.31181
G1 X159.466 Y164.703 E3.33017
G1 X158.612 Y165.048 E3.34855
G1 X157.732 Y165.317 E3.36692
G1 X156.832 Y165.51 E3.38529
G1 X156.083 Y165.609 E3.40036
G1 X155.885 Y165.628 E3.40433
G1 X154.993 Y165.675 E3.42216
G1 X154.522 Y165.68 E3.43156
G1 X145.49 Y165.679 E3.6118
G1 X144.792 Y165.67 E3.62573
G1 X143.873 Y165.618 E3.6441
G1 X142.962 Y165.487 E3.66247
G1 X142.066 Y165.277 E3.68083
G1 X141.191 Y164.99 E3.69921
G1 X140.344 Y164.628 E3.71759
G1 X139.532 Y164.194 E3.73597
G1 X138.761 Y163.692 E3.75433
G1 X138.036 Y163.124 E3.7727
G1 X137.363 Y162.495 E3.79109
G1 X136.748 Y161.811 E3.80944
G1 X136.194 Y161.076 E3.82781
G1 X135.706 Y160.295 E3.84619
G1 X135.287 Y159.475 E3.86457
G1 X134.941 Y158.622 E3.88294
G1 X134.671 Y157.742 E3.90131
G1 X134.478 Y156.841 E3.91969
G1 X134.364 Y155.928 E3.93806
G1 X134.333 Y155.357 E3.94947
G1 X134.324 Y155.024 E3.95611
G1 X134.32 Y154.738 E3.96182
G1 X134.321 Y145.435 E4.14747
G1 X134.331 Y144.77 E4.16075
G1 X134.385 Y143.851 E4.17912
G1 X134.518 Y142.94 E4.19749
G1 X134.73 Y142.044 E4.21586
G1 X135.019 Y141.169 E4.23425
G1 X135.383 Y140.324 E4.25261
G1 X135.818 Y139.513 E4.27098
G1 X136.323 Y138.742 E4.28937
G1 X136.892 Y138.019 E4.30773
G1 X137.522 Y137.347 E4.32612
G0 F6000 X137.913 Y137.526
G1 F1200 X138.595 Y136.934 E4.34414
G1 X139.327 Y136.405 E4.36216
G1 X140.103 Y135.943 E4.38018
G1 X140.917 Y135.552 E4.39821
G1 X141.762 Y135.233 E4.41623
G1 X142.632 Y134.991 E4.43425
G1 X143.52 Y134.827 E4.45227
G1 X144.643 Y134.733 E4.47476
G1 X144.963 Y134.724 E4.48115
G1 X145.25 Y134.72 E4.48688
G1 X154.373 Y134.72 E4.66894
G1 X155.217 Y134.731 E4.68578
G1 X156.119 Y134.784 E4.70381
G1 X157.012 Y134.916 E4.72183
G1 X157.89 Y135.127 E4.73985
G1 X158.746 Y135.415 E4.75787
G1 X159.573 Y135.777 E4.77589
G1 X160.365 Y136.212 E4.79392
G1 X161.116 Y136.714 E4.81194
G1 X161.819 Y137.281 E4.82997
G1 X162.469 Y137.908 E4.84799
G1 X163.061 Y138.59 E4.86601
G1 X163.591 Y139.321 E4.88403
G1 X164.053 Y140.097 E4.90205
G1 X164.446 Y140.91 E4.92008
G1 X164.764 Y141.755 E4.93809
G1 X165.007 Y142.625 E4.95612
G1 X165.172 Y143.513 E4.97414
G1 X165.267 Y144.643 E4.99677
G1 X165.276 Y144.963 E5.00316
G1 X165.28 Y145.25 E5.00889
G1 X165.279 Y154.469 E5.19286
G1 X165.269 Y155.197 E5.20739
G1 X165.217 Y156.099 E5.22542
G1 X165.085 Y156.992 E5.24344
G1 X164.874 Y157.87 E5.26146
G1 X164.587 Y158.727 E5.2795
G1 X164.225 Y159.554 E5.29751
G1 X163.792 Y160.346 E5.31552
G1 X163.289 Y161.097 E5.33356
G1 X162.723 Y161.8 E5.35157
G1 X162.097 Y162.451 E5.3696
G1 X161.415 Y163.043 E5.38762
G1 X160.684 Y163.573 E5.40564
G1 X159.908 Y164.036 E5.42367
G1 X159.095 Y164.429 E5.44169
G1 X158.25 Y164.748 E5.45971
G1 X157.381 Y164.992 E5.47773
G1 X156.493 Y165.157 E5.49575
G1 X156.044 Y165.21 E5.50477
G1 X155.846 Y165.229 E5.50874
G1 X154.989 Y165.275 E5.52587
G1 X154.522 Y165.28 E5.53519
G1 X145.495 Y165.279 E5.71533
G1 X144.797 Y165.27 E5.72926
G1 X143.896 Y165.219 E5.74727
G1 X143.002 Y165.087 E5.76531
G1 X142.124 Y164.878 E5.78332
G1 X141.267 Y164.591 E5.80135
G1 X140.44 Y164.23 E5.81936
G1 X139.647 Y163.797 E5.83739
G1 X138.896 Y163.296 E5.85541
G1 X138.192 Y162.73 E5.87344
G1 X137.541 Y162.104 E5.89146
G1 X136.948 Y161.423 E5.90948
G1 X136.418 Y160.692 E5.9275
G1 X135.954 Y159.917 E5.94552
G1 X135.56 Y159.104 E5.96355
G1 X135.24 Y158.26 E5.98157
G1 X134.996 Y157.39 E5.9996
G1 X134.83 Y156.502 E6.01763
G1 X134.733 Y155.347 E6.04076
G1 X134.724 Y155.014 E6.0474
G1 X134.72 Y154.738 E6.05291
G1 X134.721 Y145.441 E6.23844
G1 X134.731 Y144.776 E6.25172
G1 X134.785 Y143.874 E6.26975
G1 X134.918 Y142.981 E6.28777
G1 X135.129 Y142.103 E6.30579
G1 X135.418 Y141.247 E6.32382
G1 X135.781 Y140.42 E6.34184
G1 X136.215 Y139.629 E6.35984
G1 X136.718 Y138.878 E6.37788
G1 X137.286 Y138.176 E6.3959
G1 X137.913 Y137.526 E6.41393
G1 F2700 E1.41393
;MESH:sharpwriter_test_metric.stl
G0 F6000 X144.255 Y148.761
G0 X148.621 Y148.761
G0 X148.929 Y150.164
G0 X149.064 Y150.541
G0 X149.262 Y150.774
G0 X150.613 Y151.541
;TYPE:WALL-INNER
G1 F2700 E6.41393
G1 F1200 X151.235 Y151.106 E6.42907
G1 X151.572 Y150.53 E6.44239
G1 X151.641 Y149.763 E6.45776
G1 X151.43 Y149.174 E6.47024
G1 X151.056 Y148.733 E6.48178
G1 X150.56 Y148.448 E6.4932
G1 X149.996 Y148.35 E6.50462
G1 X149.388 Y148.459 E6.51695
G1 X148.765 Y148.894 E6.53211
G1 X148.428 Y149.47 E6.54543
G1 X148.359 Y150.237 E6.5608
G1 X148.57 Y150.826 E6.57328
G1 X148.942 Y151.265 E6.58477
G1 X149.435 Y151.552 E6.59615
G1 X150.005 Y151.65 E6.60769
G1 X150.613 Y151.541 E6.62002
G0 F6000 X150.456 Y151.163
G1 F1200 X150.934 Y150.828 E6.63167
G1 X151.182 Y150.405 E6.64145
G1 X151.235 Y149.815 E6.65328
G1 X151.078 Y149.377 E6.66256
G1 X150.796 Y149.045 E6.67125
G1 X150.422 Y148.83 E6.67986
G1 X149.997 Y148.756 E6.68847
G1 X149.545 Y148.837 E6.69764
G1 X149.066 Y149.172 E6.7093
G1 X148.818 Y149.595 E6.71909
G1 X148.765 Y150.185 E6.73091
G1 X148.922 Y150.623 E6.74019
G1 X149.203 Y150.954 E6.74886
G1 X149.574 Y151.17 E6.75742
G1 X150.004 Y151.244 E6.76613
G1 X150.456 Y151.163 E6.7753
G0 F6000 X150.298 Y150.785
;TYPE:WALL-OUTER
G1 F1200 X150.633 Y150.55 E6.78346
G1 X150.792 Y150.28 E6.78971
G1 X150.829 Y149.867 E6.79799
G1 X150.726 Y149.581 E6.80406
G1 X150.536 Y149.357 E6.80992
G1 X150.284 Y149.212 E6.81572
G1 X149.998 Y149.162 E6.82151
G1 X149.702 Y149.215 E6.82751
G1 X149.367 Y149.45 E6.83568
G1 X149.208 Y149.72 E6.84193
G1 X149.171 Y150.133 E6.85021
G1 X149.274 Y150.419 E6.85627
G1 X149.464 Y150.643 E6.86214
G1 X149.713 Y150.788 E6.86789
G1 X150.003 Y150.838 E6.87376
G1 X150.298 Y150.785 E6.87974
G0 F6000 X150.467 Y151.191
G1 F2700 E1.87974
G0 F6000 X151.379 Y151.239
G0 X153.87 Y151.239
G0 X154.08 Y154.08
;TYPE:WALL-INNER
G1 F2700 E6.87974
G1 F1200 X145.92 Y154.08 E7.04258
G1 X145.92 Y145.92 E7.20542
G1 X154.08 Y145.92 E7.36827
G1 X154.08 Y154.08 E7.53111
G0 F6000 X154.48 Y154.48
G1 F1200 X145.52 Y154.48 E7.70991
G1 X145.52 Y145.52 E7.88872
G1 X154.48 Y145.52 E8.06753
G1 X154.48 Y154.48 E8.24633
G0 F6000 X154.88 Y154.88
;TYPE:WALL-OUTER
G1 F1200 X145.12 Y154.88 E8.4411
G1 X145.12 Y145.12 E8.63588
G1 X154.88 Y145.12 E8.83065
G1 X154.88 Y154.88 E9.02542
G0 F6000 X154.61 Y154.61
G0 X153.97 Y153.69
G0 X153.69 Y153.69
;TYPE:SKIN
G1 F1200 X146.31 Y153.69 E9.17269
G1 X146.31 Y146.31 E9.31997
G1 X153.69 Y146.31 E9.46725
G1 X153.69 Y153.69 E9.61452
G1 F2700 E4.61452
G0 F6000 X153.97 Y153.69
G0 X153.87 Y151.183
G0 X151.758 Y150.59
G0 X151.318 Y151.183
G0 X151.529 Y151.377
G1 F2700 E9.61452
G1 F1200 X151.952 Y150.651 E9.63129
G1 X152.037 Y149.712 E9.65011
G1 X151.773 Y148.975 E9.66573
G1 X151.309 Y148.429 E9.68003
G1 X150.695 Y148.076 E9.69416
G1 X149.994 Y147.954 E9.70836
G1 X149.234 Y148.09 E9.72377
G1 X148.472 Y148.623 E9.74233
G1 X148.048 Y149.349 E9.7591
G1 X147.963 Y150.288 E9.77792
G1 X148.227 Y151.025 E9.79354
G1 X148.688 Y151.569 E9.80777
G1 X149.3 Y151.924 E9.82189
G1 X150.007 Y152.046 E9.83621
G1 X150.767 Y151.91 E9.85162
G1 X151.529 Y151.377 E9.87017
G1 F2700 E4.87017
G0 F6000 X151.318 Y151.183
G0 X151.598 Y149.077
G0 X153.87 Y149.077
G0 X153.97 Y146.741
G0 X153.529 Y146.741
G1 F2700 E9.87017
G1 F1200 X153.258 Y146.47 E9.87782
G0 F6000 X152.692 Y146.47
G1 F1200 X153.529 Y147.307 E9.90144
G0 F6000 X153.529 Y147.872
G1 F1200 X152.126 Y146.47 E9.94102
G0 F6000 X151.561 Y146.47
G1 F1200 X153.529 Y148.438 E9.99657
G0 F6000 X153.529 Y149.004
G1 F1200 X150.995 Y146.47 E10.06808
G0 F6000 X150.429 Y146.47
G1 F1200 X153.529 Y149.57 E10.15557
G0 F6000 X153.529 Y150.135
G1 F1200 X149.864 Y146.47 E10.259
G0 F6000 X149.298 Y146.47
G1 F1200 X150.753 Y147.925 E10.30007
G0 F6000 X150.066 Y147.803
G1 F1200 X148.732 Y146.47 E10.3377
G0 F6000 X148.167 Y146.47
G1 F1200 X149.564 Y147.867 E10.37713
G0 F6000 X149.111 Y147.979
G1 F1200 X147.601 Y146.47 E10.41973
G0 F6000 X147.035 Y146.47
G1 F1200 X148.778 Y148.212 E10.46891
G0 F6000 X148.445 Y148.445
G1 F1200 X146.469 Y146.469 E10.52467
G0 F6000 X146.469 Y147.035
G1 F1200 X148.201 Y148.767 E10.57355
G0 F6000 X147.993 Y149.125
G1 F1200 X146.469 Y147.6 E10.61658
G0 F6000 X146.469 Y148.166
G1 F1200 X147.868 Y149.565 E10.65606
G0 F6000 X147.821 Y150.084
G1 F1200 X146.469 Y148.732 E10.69422
G0 F6000 X146.469 Y149.297
G1 F1200 X147.979 Y150.808 E10.73685
G1 F2700 E5.73685
G0 F6000 X148.394 Y150.662
G0 X148.165 Y150.262
G0 X146.13 Y150.262
G0 X146.03 Y150.994
G0 X146.469 Y150.994
G1 F2700 E10.73685
G1 F1200 X149.004 Y153.529 E10.80839
G0 F6000 X149.57 Y153.529
G1 F1200 X146.469 Y150.429 E10.89589
G0 F6000 X146.469 Y149.863
G1 F1200 X150.135 Y153.529 E10.99936
G0 F6000 X150.701 Y153.529
G1 F1200 X149.249 Y152.077 E11.04033
G0 F6000 X149.932 Y152.195
G1 F1200 X151.267 Y153.529 E11.078
G0 F6000 X151.832 Y153.529
G1 F1200 X150.434 Y152.131 E11.11745
G0 F6000 X150.888 Y152.02
G1 F1200 X152.398 Y153.529 E11.16005
G0 F6000 X152.964 Y153.529
G1 F1200 X151.221 Y151.787 E11.20923
G0 F6000 X151.554 Y151.554
G1 F1200 X153.529 Y153.529 E11.26497
G0 F6000 X153.529 Y152.964
G1 F1200 X151.797 Y151.231 E11.31386
G0 F6000 X152.005 Y150.873
G1 F1200 X153.529 Y152.398 E11.35689
G0 F6000 X153.529 Y151.832
G1 F1200 X152.13 Y150.433 E11.39637
G0 F6000 X152.177 Y149.915
G1 F1200 X153.529 Y151.267 E11.43453
G0 F6000 X153.529 Y150.701
G1 F1200 X152.019 Y149.191 E11.47714
G1 F2700 E6.47714
G0 F6000 X151.605 Y149.336
G0 X150.812 Y150.716
G0 X149.368 Y151.735
G0 X149.368 Y153.87
G0 X148.438 Y153.97
G0 X148.438 Y153.529
G1 F2700 E11.47714
G1 F1200 X146.469 Y151.56 E11.53271
G0 F6000 X146.469 Y152.126
G1 F1200 X147.872 Y153.529 E11.57231
G0 F6000 X147.307 Y153.529
G1 F1200 X146.469 Y152.691 E11.59596
G0 F6000 X146.469 Y153.257
G1 F1200 X146.741 Y153.529 E11.60363
G0 F6000 X146.741 Y154.27
G1 F2700 E6.60363
;MESH:NONMESH
G0 F300 X146.741 Y154.27 Z0.24
G0 F6000 X150.835 Y153.87
G0 X150.463 Y151.781
G0 X150.835 Y151.445
;TIME_ELAPSED:41.689774
;LAYER:1
M106 S85
;TYPE:WALL-INNER
;MESH:sharpwriter_test_metric.stl
G1 F2700 E11.60363
G1 F1350 X151.405 Y150.879 E11.61966
G1 X151.64 Y150.253 E11.63301
G1 X151.58 Y149.489 E11.6483
G1 X151.263 Y148.937 E11.661
G1 X150.777 Y148.537 E11.67357
G1 X150.04 Y148.34 E11.68879
G1 X149.381 Y148.461 E11.70216
G1 X148.77 Y148.891 E11.71707
G1 X148.428 Y149.468 E11.73046
G1 X148.359 Y150.226 E11.74565
G1 X148.568 Y150.825 E11.75831
G1 X148.95 Y151.27 E11.77001
G1 X149.438 Y151.552 E11.78126
G1 X150.058 Y151.658 E11.79381
G1 X150.835 Y151.445 E11.80989
G0 F7500 X150.628 Y151.087
G1 F1350 X151.061 Y150.657 E11.82207
G1 X151.234 Y150.196 E11.83189
G1 X151.188 Y149.61 E11.84362
G1 X150.952 Y149.199 E11.85308
G1 X150.59 Y148.901 E11.86244
G1 X150.024 Y148.75 E11.87413
G1 X149.539 Y148.839 E11.88397
G1 X149.07 Y149.169 E11.89541
G1 X148.818 Y149.594 E11.90527
G1 X148.765 Y150.176 E11.91693
G1 X148.921 Y150.622 E11.92636
G1 X149.209 Y150.958 E11.93519
G1 X149.576 Y151.17 E11.94365
G1 X150.038 Y151.249 E11.95301
G1 X150.628 Y151.087 E11.96522
G0 F7500 X150.421 Y150.729
;TYPE:WALL-OUTER
G1 F1350 X150.717 Y150.435 E11.97354
G1 X150.828 Y150.139 E11.97985
G1 X150.796 Y149.731 E11.98802
G1 X150.641 Y149.461 E11.99423
