;FLAVOR:Marlin
;TIME:9529
;Filament used: 6.15961m
;Layer height: 0.2
;MINX:91.458
;MINY:97.641
;MINZ:0.2
;MAXX:208.538
;MAXY:202.36
;MAXZ:9.4
;Generated with Cura_SteamEngine 5.4.0
M140 S60
M105
M190 S60
M104 S210
M105
M109 S210
M82 ;absolute extrusion mode
M220 S100 ;Reset Feedrate
M221 S100 ;Reset Flowrate

M280 P0 S160 ;reset bltouch
G28 ;Home
G29 A ; enable UBL
G92 E0 ;Reset Extruder
G1 Z2.0 F3000 ;Move Z Axis up
G1 X10.1 Y20 Z0.28 F5000.0 ;Move to start position
G1 X10.1 Y200.0 Z0.28 F1500.0 E15 ;Draw the first line
G1 X10.4 Y200.0 Z0.28 F5000.0 ;Move to side a little
G1 X10.4 Y20 Z0.28 F1500.0 E30 ;Draw the second line
G92 E0 ;Reset Extruder
G1 Z2.0 F3000 ;Move Z Axis up
G92 E0
G92 E0
G1 F2100 E-1.5
;LAYER_COUNT:47
;LAYER:0
M107
G0 F6000 X95.185 Y99.937 Z0.2
;TYPE:SKIRT
G1 F2100 E0
G1 F1200 X97.299 Y98.587 E0.08343
G1 X99.782 Y97.75 E0.17058
G1 X101.82 Y97.641 E0.23846
G1 X199.149 Y97.644 E3.47563
G1 X201.433 Y98.077 E3.55295
G1 X203.869 Y99.249 E3.64286
G1 X205.706 Y100.762 E3.72202
G1 X207.288 Y102.898 E3.81043
G1 X208.293 Y105.398 E3.90004
G1 X208.538 Y107.897 E3.98356
G1 X208.459 Y193.179 E6.82005
G1 X208.242 Y194.703 E6.87125
G1 X207.311 Y197.068 E6.95579
G1 X205.832 Y199.111 E7.03967
G1 X203.868 Y200.747 E7.12469
G1 X201.476 Y201.917 E7.21326
G1 X199.142 Y202.357 E7.29225
G1 X101.821 Y202.36 E10.52916
G1 X99.873 Y202.252 E10.59405
G1 X97.367 Y201.453 E10.68154
G1 X95.177 Y200.053 E10.76799
G1 X93.335 Y198.124 E10.8567
G1 X92.146 Y195.931 E10.93967
G1 X91.458 Y193.414 E11.02646
G1 X91.465 Y106.654 E13.91211
G1 X92.071 Y104.243 E13.99479
G1 X93.393 Y101.781 E14.08774
G1 X95.185 Y99.937 E14.17326
G0 F6000 X95.441 Y100.248
G1 F1200 X97.472 Y98.951 E14.25341
G1 X99.86 Y98.146 E14.33722
G1 X101.82 Y98.041 E14.40251
G1 X199.111 Y98.044 E17.63842
G1 X201.309 Y98.461 E17.71283
G1 X203.65 Y99.587 E17.79923
G1 X205.415 Y101.041 E17.87529
G1 X206.936 Y103.094 E17.96027
G1 X207.901 Y105.494 E18.0463
G1 X208.138 Y107.897 E18.12662
G1 X208.063 Y193.123 E20.96125
G1 X207.853 Y194.6 E21.01087
G1 X206.958 Y196.873 E21.09211
G1 X205.536 Y198.837 E21.17276
G1 X203.649 Y200.409 E21.25445
G1 X201.349 Y201.534 E21.33961
G1 X199.105 Y201.957 E21.41556
G1 X101.821 Y201.96 E24.65124
G1 X99.946 Y201.856 E24.7137
G1 X97.54 Y201.089 E24.79769
G1 X95.431 Y199.74 E24.88096
G1 X93.663 Y197.889 E24.96609
G1 X92.52 Y195.78 E25.04588
G1 X91.858 Y193.359 E25.12936
G1 X91.865 Y106.703 E28.01155
G1 X92.447 Y104.387 E28.09097
G1 X93.717 Y102.022 E28.18026
G1 X95.441 Y100.248 E28.26253
G0 F6000 X95.697 Y100.559
G1 F1200 X97.645 Y99.315 E28.33941
G1 X99.938 Y98.542 E28.41989
G1 X101.82 Y98.441 E28.48257
G1 X199.073 Y98.444 E31.71722
G1 X201.185 Y98.845 E31.78872
G1 X203.431 Y99.925 E31.87161
G1 X205.124 Y101.32 E31.94458
G1 X206.584 Y103.29 E32.02613
G1 X207.508 Y105.589 E32.10854
G1 X207.738 Y107.897 E32.18568
G1 X207.667 Y193.067 E35.01845
G1 X207.464 Y194.497 E35.06649
G1 X206.605 Y196.678 E35.14445
G1 X205.24 Y198.563 E35.22186
G1 X203.43 Y200.071 E35.30022
G1 X201.222 Y201.151 E35.38197
G1 X199.068 Y201.557 E35.45487
G1 X101.821 Y201.56 E38.68932
G1 X100.021 Y201.46 E38.74928
G1 X97.71 Y200.723 E38.82996
G1 X95.686 Y199.429 E38.90986
G1 X93.991 Y197.654 E38.99149
G1 X92.893 Y195.628 E39.06814
G1 X92.258 Y193.305 E39.14824
G1 X92.265 Y106.752 E42.027
G1 X92.823 Y104.531 E42.10317
G1 X94.041 Y102.263 E42.18879
G1 X95.697 Y100.559 E42.26782
G0 F6000 X95.953 Y100.87
G1 F1200 X97.818 Y99.679 E42.34142
G1 X100.016 Y98.938 E42.41857
G1 X101.82 Y98.841 E42.47866
G1 X199.035 Y98.844 E45.71204
G1 X201.058 Y99.228 E45.78053
G1 X203.215 Y100.265 E45.86013
G1 X204.833 Y101.599 E45.92988
G1 X206.232 Y103.486 E46.00801
G1 X207.116 Y105.685 E46.08683
G1 X207.338 Y107.897 E46.16077
G1 X207.271 Y193.011 E48.99168
G1 X207.075 Y194.394 E49.03814
G1 X206.252 Y196.483 E49.11282
G1 X204.944 Y198.289 E49.18698
G1 X203.211 Y199.733 E49.26201
G1 X201.095 Y200.768 E49.34036
G1 X199.031 Y201.157 E49.41021
G1 X101.821 Y201.16 E52.64343
G1 X100.096 Y201.064 E52.70089
G1 X97.882 Y200.358 E52.77818
G1 X95.94 Y199.116 E52.85486
G1 X94.319 Y197.419 E52.93291
G1 X93.266 Y195.476 E53.00641
G1 X92.658 Y193.251 E53.08313
G1 X92.665 Y106.801 E55.95847
G1 X93.199 Y104.675 E56.03138
G1 X94.365 Y102.504 E56.11334
G1 X95.953 Y100.87 E56.18913
G0 F6000 X96.209 Y101.181
G1 F1200 X97.991 Y100.043 E56.25945
G1 X100.094 Y99.334 E56.33326
G1 X101.82 Y99.241 E56.39075
G1 X198.998 Y99.244 E59.62291
G1 X200.934 Y99.611 E59.68845
G1 X202.996 Y100.603 E59.76455
G1 X204.542 Y101.878 E59.8312
G1 X205.88 Y103.682 E59.90591
G1 X206.724 Y105.781 E59.98115
G1 X206.938 Y107.897 E60.05189
G1 X206.875 Y192.955 E62.88093
G1 X206.686 Y194.291 E62.92581
G1 X205.899 Y196.288 E62.9972
G1 X204.648 Y198.015 E63.06813
G1 X202.992 Y199.395 E63.13982
G1 X200.968 Y200.385 E63.21476
G1 X198.994 Y200.757 E63.28158
G1 X101.821 Y200.76 E66.51356
G1 X100.171 Y200.668 E66.56853
G1 X98.052 Y199.992 E66.6425
G1 X96.195 Y198.805 E66.71581
G1 X94.647 Y197.184 E66.79036
G1 X93.639 Y195.324 E66.86072
G1 X93.058 Y193.197 E66.93406
G1 X93.065 Y106.851 E69.80594
G1 X93.576 Y104.818 E69.87566
G1 X94.689 Y102.745 E69.95392
G1 X96.209 Y101.181 E70.02646
G0 F6000 X96.465 Y101.492
G1 F1200 X98.164 Y100.407 E70.0935
G1 X100.172 Y99.73 E70.16398
G1 X101.82 Y99.641 E70.21888
G1 X198.96 Y99.644 E73.44977
G1 X200.81 Y99.995 E73.5124
G1 X202.775 Y100.94 E73.58492
G1 X204.253 Y102.159 E73.64864
G1 X205.528 Y103.878 E73.71982
G1 X206.332 Y105.877 E73.79149
G1 X206.538 Y107.897 E73.85902
G1 X206.479 Y192.899 E76.6862
G1 X206.297 Y194.188 E76.7295
G1 X205.546 Y196.093 E76.7976
G1 X204.352 Y197.741 E76.86529
G1 X202.773 Y199.057 E76.93366
G1 X200.841 Y200.002 E77.00519
G1 X198.957 Y200.357 E77.06895
G1 X101.821 Y200.36 E80.29971
G1 X100.245 Y200.272 E80.35221
G1 X98.225 Y199.628 E80.42273
G1 X96.449 Y198.492 E80.49285
G1 X94.975 Y196.949 E80.56382
G1 X94.012 Y195.172 E80.63105
G1 X93.458 Y193.143 E80.701
G1 X93.465 Y106.9 E83.56945
G1 X93.952 Y104.962 E83.63592
G1 X95.013 Y102.986 E83.71051
G1 X96.465 Y101.492 E83.77981
G0 F6000 X96.721 Y101.803
G1 F1200 X98.337 Y100.771 E83.84358
G1 X100.25 Y100.126 E83.91073
G1 X101.82 Y100.041 E83.96302
G1 X198.923 Y100.044 E87.19268
G1 X200.686 Y100.378 E87.25236
G1 X202.554 Y101.277 E87.32131
G1 X203.964 Y102.44 E87.3821
G1 X205.176 Y104.074 E87.44977
G1 X205.94 Y105.973 E87.51785
G1 X206.138 Y107.897 E87.58218
G1 X206.083 Y192.843 E90.40749
G1 X205.908 Y194.085 E90.44921
G1 X205.193 Y195.898 E90.51403
G1 X204.056 Y197.467 E90.57848
G1 X202.554 Y198.719 E90.64351
G1 X200.714 Y199.619 E90.71164
G1 X198.92 Y199.957 E90.77236
G1 X101.821 Y199.96 E94.00189
G1 X100.319 Y199.876 E94.05192
G1 X98.396 Y199.263 E94.11905
G1 X96.704 Y198.181 E94.18585
G1 X95.303 Y196.714 E94.25332
G1 X94.385 Y195.02 E94.3174
G1 X93.858 Y193.089 E94.38398
G1 X93.865 Y106.949 E97.24901
G1 X94.328 Y105.106 E97.31221
G1 X95.337 Y103.227 E97.38315
G1 X96.721 Y101.803 E97.44919
G0 F6000 X96.977 Y102.114
G1 F1200 X98.51 Y101.135 E97.50969
G1 X100.328 Y100.522 E97.5735
G1 X101.82 Y100.441 E97.6232
G1 X198.885 Y100.444 E100.85159
G1 X200.562 Y100.762 E100.90836
G1 X202.333 Y101.614 E100.97373
G1 X203.675 Y102.721 E101.03159
G1 X204.824 Y104.27 E101.09574
G1 X205.548 Y106.069 E101.16024
G1 X205.738 Y107.897 E101.22136
G1 X205.687 Y192.787 E104.04482
G1 X205.519 Y193.982 E104.08495
G1 X204.84 Y195.703 E104.14649
G1 X203.76 Y197.193 E104.2077
G1 X202.335 Y198.381 E104.2694
G1 X200.587 Y199.236 E104.33412
G1 X198.883 Y199.557 E104.39179
G1 X101.821 Y199.56 E107.62009
G1 X100.394 Y199.48 E107.66763
G1 X98.566 Y198.897 E107.73144
G1 X96.959 Y197.87 E107.79488
G1 X95.631 Y196.479 E107.85884
G1 X94.758 Y194.868 E107.91978
G1 X94.258 Y193.035 E107.98298
G1 X94.265 Y106.998 E110.84458
G1 X94.704 Y105.25 E110.90452
G1 X95.661 Y103.468 E110.9718
G1 X96.977 Y102.114 E111.0346
G0 F6000 X97.233 Y102.425
G1 F1200 X98.683 Y101.499 E111.09182
G1 X100.406 Y100.918 E111.1523
G1 X101.82 Y100.841 E111.1994
G1 X198.847 Y100.844 E114.42653
G1 X200.438 Y101.146 E114.48039
G1 X202.112 Y101.951 E114.54217
G1 X203.386 Y103.002 E114.5971
G1 X204.472 Y104.466 E114.65773
G1 X205.156 Y106.165 E114.71865
G1 X205.338 Y107.897 E114.77657
G1 X205.291 Y192.731 E117.59816
G1 X205.13 Y193.879 E117.63672
G1 X204.487 Y195.508 E117.69497
G1 X203.464 Y196.919 E117.75293
G1 X202.116 Y198.043 E117.81131
G1 X200.46 Y198.853 E117.87262
G1 X198.846 Y199.157 E117.92725
G1 X101.821 Y199.16 E121.15431
G1 X100.468 Y199.084 E121.19939
G1 X98.739 Y198.533 E121.25974
G1 X97.213 Y197.557 E121.31999
G1 X95.959 Y196.244 E121.38038
G1 X95.131 Y194.716 E121.43818
G1 X94.658 Y192.981 E121.49799
G1 X94.665 Y107.048 E124.35614
G1 X95.081 Y105.393 E124.4129
G1 X95.985 Y103.709 E124.47647
G1 X97.233 Y102.425 E124.53602
G0 F6000 X97.489 Y102.736
G1 F1200 X98.856 Y101.863 E124.58997
G1 X100.484 Y101.314 E124.64711
G1 X101.82 Y101.241 E124.69161
G1 X198.81 Y101.244 E127.91751
G1 X200.314 Y101.529 E127.96843
G1 X201.891 Y102.288 E128.02664
G1 X203.097 Y103.283 E128.07864
G1 X204.12 Y104.662 E128.13575
G1 X204.764 Y106.261 E128.19308
G1 X204.938 Y107.897 E128.2478
G1 X204.895 Y192.676 E131.06756
G1 X204.741 Y193.776 E131.10451
G1 X204.134 Y195.313 E131.15947
G1 X203.168 Y196.645 E131.2142
G1 X201.897 Y197.705 E131.26924
G1 X200.333 Y198.47 E131.32715
G1 X198.809 Y198.757 E131.37873
G1 X101.821 Y198.76 E134.60456
G1 X100.542 Y198.688 E134.64717
G1 X98.91 Y198.168 E134.70414
G1 X97.468 Y197.246 E134.76107
G1 X96.287 Y196.009 E134.81795
G1 X95.504 Y194.564 E134.87261
G1 X95.058 Y192.927 E134.92904
G1 X95.065 Y107.097 E137.78376
G1 X95.457 Y105.537 E137.83726
G1 X96.309 Y103.95 E137.89717
G1 X97.489 Y102.736 E137.95348
G0 F6000 X97.745 Y103.047
G1 F1200 X99.029 Y102.227 E138.00415
G1 X100.562 Y101.71 E138.05796
G1 X101.82 Y101.641 E138.09986
G1 X198.773 Y101.644 E141.32453
G1 X200.188 Y101.912 E141.37243
G1 X201.671 Y102.626 E141.42718
G1 X202.808 Y103.564 E141.4762
G1 X203.768 Y104.858 E141.52979
G1 X204.372 Y106.357 E141.58354
G1 X204.538 Y107.897 E141.63506
G1 X204.499 Y192.621 E144.45299
G1 X204.352 Y193.673 E144.48832
G1 X203.781 Y195.118 E144.54
G1 X202.872 Y196.371 E144.59149
G1 X201.678 Y197.367 E144.6432
G1 X200.206 Y198.087 E144.6977
G1 X198.772 Y198.357 E144.74624
G1 X101.821 Y198.36 E147.97084
G1 X100.615 Y198.292 E148.01102
G1 X99.081 Y197.803 E148.06457
G1 X97.723 Y196.935 E148.11817
G1 X96.615 Y195.774 E148.17155
G1 X95.877 Y194.412 E148.22307
G1 X95.458 Y192.873 E148.27612
G1 X95.465 Y107.146 E151.12741
G1 X95.833 Y105.681 E151.17765
G1 X96.633 Y104.191 E151.2339
G1 X97.745 Y103.047 E151.28697
G0 F6000 X98.001 Y103.358
G1 F1200 X99.202 Y102.591 E151.33436
G1 X100.64 Y102.106 E151.38484
G1 X101.82 Y102.041 E151.42414
G1 X198.735 Y102.044 E154.64755
G1 X200.064 Y102.296 E154.69254
G1 X201.45 Y102.963 E154.7437
G1 X202.519 Y103.845 E154.78979
G1 X203.415 Y105.053 E154.83982
G1 X203.98 Y106.454 E154.89006
G1 X204.138 Y107.897 E154.93834
G1 X204.103 Y192.566 E157.75445
G1 X203.963 Y193.57 E157.78816
G1 X203.428 Y194.923 E157.83655
G1 X202.576 Y196.097 E157.8848
G1 X201.459 Y197.029 E157.93319
G1 X200.079 Y197.704 E157.98428
G1 X198.735 Y197.957 E158.02977
G1 X101.821 Y197.96 E161.25314
G1 X100.688 Y197.896 E161.29088
G1 X99.254 Y197.439 E161.34094
G1 X97.977 Y196.622 E161.39136
G1 X96.943 Y195.539 E161.44117
G1 X96.25 Y194.26 E161.48955
G1 X95.858 Y192.819 E161.53922
G1 X95.865 Y107.195 E164.38708
G1 X96.209 Y105.825 E164.43407
G1 X96.957 Y104.432 E164.48665
G1 X98.001 Y103.358 E164.53647
G0 F6000 X98.257 Y103.669
G1 F1200 X99.375 Y102.955 E164.58059
G1 X100.718 Y102.502 E164.62773
G1 X101.82 Y102.441 E164.66444
G1 X198.698 Y102.444 E167.88662
G1 X199.938 Y102.679 E167.92859
G1 X201.23 Y103.301 E167.97629
G1 X202.23 Y104.126 E168.0194
G1 X203.062 Y105.248 E168.06586
G1 X203.588 Y106.552 E168.11263
G1 X203.738 Y107.897 E168.15764
G1 X203.707 Y192.511 E170.97192
G1 X203.574 Y193.467 E171.00402
G1 X203.075 Y194.728 E171.04912
G1 X202.28 Y195.823 E171.09413
G1 X201.24 Y196.691 E171.13919
G1 X199.952 Y197.321 E171.18687
G1 X198.698 Y197.557 E171.22931
G1 X101.821 Y197.56 E174.45146
G1 X100.763 Y197.5 E174.4867
G1 X99.424 Y197.073 E174.53345
G1 X98.232 Y196.311 E174.5805
G1 X97.271 Y195.304 E174.6268
G1 X96.623 Y194.108 E174.67204
G1 X96.258 Y192.765 E174.71833
G1 X96.265 Y107.245 E177.56274
G1 X96.586 Y105.968 E177.60653
G1 X97.281 Y104.673 E177.65541
G1 X98.257 Y103.669 E177.70199
G0 F6000 X98.513 Y103.98
G1 F1200 X99.548 Y103.319 E177.74283
G1 X100.796 Y102.898 E177.78664
G1 X101.82 Y102.841 E177.82075
G1 X198.661 Y102.844 E181.04169
G1 X199.812 Y103.062 E181.08066
G1 X201.01 Y103.639 E181.12488
G1 X201.941 Y104.407 E181.16503
G1 X202.709 Y105.443 E181.20792
G1 X203.197 Y106.653 E181.25131
G1 X203.338 Y107.897 E181.29295
G1 X203.311 Y192.456 E184.1054
G1 X203.185 Y193.364 E184.13589
G1 X202.722 Y194.533 E184.17771
G1 X201.984 Y195.549 E184.21947
G1 X201.021 Y196.353 E184.2612
G1 X199.825 Y196.938 E184.30548
G1 X198.661 Y197.157 E184.34487
G1 X101.821 Y197.16 E187.56579
G1 X100.836 Y197.104 E187.5986
G1 X99.597 Y196.709 E187.64185
G1 X98.486 Y195.998 E187.68572
G1 X97.598 Y195.068 E187.72849
G1 X96.997 Y193.958 E187.77047
G1 X96.658 Y192.712 E187.81342
G1 X96.665 Y107.294 E190.65444
G1 X96.962 Y106.112 E190.69497
G1 X97.605 Y104.914 E190.7402
G1 X98.513 Y103.98 E190.78352
G0 F6000 X98.769 Y104.291
G1 F1200 X99.721 Y103.683 E190.82109
G1 X100.874 Y103.294 E190.86156
G1 X101.82 Y103.241 E190.89308
G1 X198.623 Y103.244 E194.11276
G1 X199.688 Y103.446 E194.14881
G1 X200.789 Y103.976 E194.18945
G1 X201.652 Y104.688 E194.22666
G1 X202.356 Y105.638 E194.26599
G1 X202.806 Y106.754 E194.30601
G1 X202.938 Y107.897 E194.34428
G1 X202.915 Y192.401 E197.1549
G1 X202.796 Y193.261 E197.18377
G1 X202.369 Y194.338 E197.22231
G1 X201.688 Y195.275 E197.26083
G1 X200.802 Y196.015 E197.29923
G1 X199.698 Y196.555 E197.34011
G1 X198.624 Y196.757 E197.37645
G1 X101.821 Y196.76 E200.59613
G1 X100.911 Y196.708 E200.62645
G1 X99.767 Y196.343 E200.66639
G1 X98.741 Y195.687 E200.70689
G1 X97.925 Y194.832 E200.7462
G1 X97.371 Y193.808 E200.78493
G1 X97.058 Y192.658 E200.82457
G1 X97.065 Y107.343 E203.66216
G1 X97.338 Y106.256 E203.69943
G1 X97.929 Y105.155 E203.74099
G1 X98.769 Y104.291 E203.78107
G0 F6000 X99.025 Y104.602
G1 F1200 X99.894 Y104.047 E203.81537
G1 X100.952 Y103.69 E203.85251
G1 X101.82 Y103.641 E203.88142
G1 X198.586 Y103.644 E207.09987
G1 X199.562 Y103.829 E207.13291
G1 X200.571 Y104.315 E207.17016
G1 X201.361 Y104.966 E207.20421
G1 X202.003 Y105.833 E207.24009
G1 X202.415 Y106.855 E207.27674
G1 X202.538 Y107.897 E207.31164
G1 X202.519 Y192.346 E210.12042
G1 X202.407 Y193.156 E210.14762
G1 X202.015 Y194.144 E210.18297
G1 X201.392 Y195.001 E210.21821
G1 X200.583 Y195.677 E210.25328
G1 X199.571 Y196.172 E210.29075
G1 X198.587 Y196.357 E210.32405
G1 X101.821 Y196.36 E213.5425
G1 X100.986 Y196.312 E213.57032
G1 X99.939 Y195.978 E213.60687
G1 X98.995 Y195.374 E213.64414
G1 X98.252 Y194.596 E213.67993
G1 X97.745 Y193.658 E213.71539
G1 X97.458 Y192.604 E213.75172
G1 X97.465 Y107.393 E216.58585
G1 X97.715 Y106.399 E216.61994
G1 X98.253 Y105.396 E216.6578
G1 X99.025 Y104.602 E216.69463
G0 F6000 X99.281 Y104.913
G1 F1200 X100.067 Y104.411 E216.72565
G1 X101.03 Y104.086 E216.75945
G1 X101.82 Y104.041 E216.78577
G1 X198.549 Y104.044 E220.00299
G1 X199.436 Y104.212 E220.03302
G1 X200.353 Y104.654 E220.06688
G1 X201.067 Y105.242 E220.09764
G1 X201.651 Y106.031 E220.13029
G1 X202.024 Y106.956 E220.16346
G1 X202.138 Y107.897 E220.19499
G1 X202.123 Y192.291 E223.00194
G1 X202.018 Y193.051 E223.02746
G1 X201.66 Y193.953 E223.05974
G1 X201.1 Y194.723 E223.09141
G1 X200.362 Y195.34 E223.1234
G1 X199.444 Y195.789 E223.15739
G1 X198.55 Y195.957 E223.18765
G1 X101.821 Y195.96 E226.40486
G1 X101.061 Y195.916 E226.43018
G1 X100.109 Y195.612 E226.46342
G1 X99.253 Y195.065 E226.49721
G1 X98.578 Y194.357 E226.52975
G1 X98.119 Y193.508 E226.56185
G1 X97.858 Y192.55 E226.59487
G1 X97.865 Y107.443 E229.42554
G1 X98.091 Y106.546 E229.45631
G1 X98.58 Y105.634 E229.49073
G1 X99.281 Y104.913 E229.52417
