;FLAVOR:Marlin
;TIME:2993
;Filament used: 2.05701m
;Layer height: 0.2
;MINX:110.704
;MINY:107.553
;MINZ:0.2
;MAXX:189.296
;MAXY:192.447
;MAXZ:5.4
;Generated with Cura_SteamEngine 5.4.0
M140 S60
M105
M190 S60
M104 S210
M105
M109 S210
M82 ;absolute extrusion mode
M220 S100 ;Reset Feedrate
M221 S100 ;Reset Flowrate

M280 P0 S160 ;reset bltouch
G28 ;Home
G29 A ; enable UBL
G92 E0 ;Reset Extruder
G1 Z2.0 F3000 ;Move Z Axis up
G1 X10.1 Y20 Z0.28 F5000.0 ;Move to start position
G1 X10.1 Y200.0 Z0.28 F1500.0 E15 ;Draw the first line
G1 X10.4 Y200.0 Z0.28 F5000.0 ;Move to side a little
G1 X10.4 Y20 Z0.28 F1500.0 E30 ;Draw the second line
G92 E0 ;Reset Extruder
G1 Z2.0 F3000 ;Move Z Axis up
G92 E0
G92 E0
G1 F2100 E-1.5
;LAYER_COUNT:27
;LAYER:0
M107
G0 F6000 X112.223 Y110.576 Z0.2
;TYPE:SKIRT
G1 F2100 E0
G1 F1200 X113.784 Y109.117 E0.07107
G1 X115.807 Y107.91 E0.14942
G1 X117.525 Y107.628 E0.20732
G1 X182.349 Y107.553 E2.36338
G1 X184.245 Y108.019 E2.42832
G1 X186.273 Y109.072 E2.50432
G1 X187.732 Y110.633 E2.57539
G1 X188.939 Y112.656 E2.65374
G1 X189.221 Y114.374 E2.71164
G1 X189.296 Y185.5 E5.0773
G1 X188.83 Y187.396 E5.14224
G1 X187.777 Y189.424 E5.21824
G1 X186.216 Y190.883 E5.28931
G1 X184.193 Y192.09 E5.36766
G1 X182.475 Y192.372 E5.42557
G1 X117.651 Y192.447 E7.58162
G1 X115.755 Y191.981 E7.64656
G1 X113.727 Y190.928 E7.72256
G1 X112.268 Y189.367 E7.79363
G1 X111.061 Y187.344 E7.87198
G1 X110.779 Y185.626 E7.92989
G1 X110.704 Y114.5 E10.29555
G1 X111.17 Y112.604 E10.36049
G1 X112.223 Y110.576 E10.43649
G0 F6000 X112.546 Y110.821
G1 F1200 X114.023 Y109.441 E10.50372
G1 X115.947 Y108.293 E10.57824
G1 X117.59 Y108.023 E10.63362
G1 X182.303 Y107.953 E12.78598
G1 X184.102 Y108.395 E12.8476
G1 X186.028 Y109.395 E12.91978
G1 X187.408 Y110.872 E12.98701
G1 X188.556 Y112.796 E13.06152
G1 X188.826 Y114.439 E13.1169
G1 X188.896 Y185.454 E15.47887
G1 X188.454 Y187.253 E15.54049
G1 X187.454 Y189.179 E15.61267
G1 X185.977 Y190.559 E15.6799
G1 X184.053 Y191.707 E15.75442
G1 X182.41 Y191.977 E15.8098
G1 X117.697 Y192.047 E17.96216
G1 X115.898 Y191.605 E18.02377
G1 X113.972 Y190.605 E18.09595
G1 X112.592 Y189.128 E18.16318
G1 X111.444 Y187.204 E18.2377
G1 X111.174 Y185.561 E18.29308
G1 X111.104 Y114.546 E20.65505
G1 X111.546 Y112.747 E20.71667
G1 X112.546 Y110.821 E20.78884
G0 F6000 X112.869 Y111.066
G1 F1200 X114.265 Y109.762 E20.85238
G1 X116.085 Y108.676 E20.92287
G1 X117.655 Y108.418 E20.97579
G1 X182.256 Y108.353 E23.12443
G1 X183.96 Y108.772 E23.18279
G1 X185.783 Y109.718 E23.2511
G1 X187.087 Y111.114 E23.31464
G1 X188.173 Y112.934 E23.38513
G1 X188.431 Y114.504 E23.43805
G1 X188.496 Y185.407 E25.7963
G1 X188.077 Y187.111 E25.85466
G1 X187.131 Y188.934 E25.92297
G1 X185.735 Y190.238 E25.98651
G1 X183.915 Y191.324 E26.057
G1 X182.345 Y191.582 E26.10992
G1 X117.744 Y191.647 E28.25856
G1 X116.04 Y191.228 E28.31692
G1 X114.217 Y190.282 E28.38523
G1 X112.913 Y188.886 E28.44877
G1 X111.827 Y187.066 E28.51926
G1 X111.569 Y185.496 E28.57218
G1 X111.504 Y114.593 E30.93042
G1 X111.923 Y112.889 E30.98878
G1 X112.869 Y111.066 E31.0571
G0 F6000 X113.192 Y111.311
G1 F1200 X114.507 Y110.083 E31.11694
G1 X116.223 Y109.059 E31.1834
G1 X117.72 Y108.813 E31.23386
G1 X182.21 Y108.753 E33.37881
G1 X183.817 Y109.148 E33.43385
G1 X185.538 Y110.041 E33.49833
G1 X186.766 Y111.356 E33.55818
G1 X187.79 Y113.072 E33.62464
G1 X188.036 Y114.569 E33.6751
G1 X188.096 Y185.361 E36.02965
G1 X187.701 Y186.968 E36.08469
G1 X186.808 Y188.689 E36.14918
G1 X185.493 Y189.917 E36.20902
G1 X183.777 Y190.941 E36.27549
G1 X182.28 Y191.187 E36.32594
G1 X117.79 Y191.247 E38.47089
G1 X116.183 Y190.852 E38.52593
G1 X114.462 Y189.959 E38.59042
G1 X113.234 Y188.644 E38.65026
G1 X112.21 Y186.928 E38.71673
G1 X111.964 Y185.431 E38.76718
G1 X111.904 Y114.639 E41.12174
G1 X112.299 Y113.032 E41.17678
G1 X113.192 Y111.311 E41.24126
G0 F6000 X113.515 Y111.556
G1 F1200 X114.749 Y110.404 E41.29741
G1 X116.361 Y109.442 E41.35985
G1 X117.785 Y109.208 E41.40785
G1 X182.164 Y109.153 E43.5491
G1 X183.674 Y109.524 E43.60082
G1 X185.293 Y110.364 E43.66148
G1 X186.445 Y111.598 E43.71763
G1 X187.407 Y113.21 E43.78007
G1 X187.641 Y114.634 E43.82806
G1 X187.696 Y185.315 E46.17893
G1 X187.325 Y186.825 E46.23064
G1 X186.485 Y188.444 E46.29131
G1 X185.251 Y189.596 E46.34745
G1 X183.639 Y190.558 E46.40989
G1 X182.215 Y190.792 E46.45789
G1 X117.836 Y190.847 E48.59914
G1 X116.326 Y190.476 E48.65086
G1 X114.707 Y189.636 E48.71152
G1 X113.555 Y188.402 E48.76767
G1 X112.593 Y186.79 E48.83011
G1 X112.359 Y185.366 E48.87811
G1 X112.304 Y114.685 E51.22897
G1 X112.675 Y113.175 E51.28068
G1 X113.515 Y111.556 E51.34135
G0 F6000 X113.838 Y111.801
G1 F1200 X114.991 Y110.725 E51.3938
G1 X116.499 Y109.825 E51.45221
G1 X117.85 Y109.603 E51.49775
G1 X182.117 Y109.553 E53.63528
G1 X183.532 Y109.901 E53.68374
G1 X185.048 Y110.687 E53.74054
G1 X186.124 Y111.84 E53.793
G1 X187.024 Y113.348 E53.85141
G1 X187.246 Y114.699 E53.89694
G1 X187.296 Y185.268 E56.24408
G1 X186.948 Y186.683 E56.29254
G1 X186.162 Y188.199 E56.34934
G1 X185.009 Y189.275 E56.40179
G1 X183.501 Y190.175 E56.4602
G1 X182.15 Y190.397 E56.50574
G1 X117.883 Y190.447 E58.64327
G1 X116.468 Y190.099 E58.69174
G1 X114.952 Y189.313 E58.74853
G1 X113.876 Y188.16 E58.80099
G1 X112.976 Y186.652 E58.8594
G1 X112.754 Y185.301 E58.90493
G1 X112.704 Y114.732 E61.25207
G1 X113.052 Y113.317 E61.30053
G1 X113.838 Y111.801 E61.35733
G0 F6000 X114.161 Y112.046
G1 F1200 X115.233 Y111.046 E61.40609
G1 X116.637 Y110.208 E61.46047
G1 X117.915 Y109.998 E61.50355
G1 X182.071 Y109.953 E63.63739
G1 X183.389 Y110.277 E63.68253
G1 X184.803 Y111.01 E63.7355
G1 X185.803 Y112.082 E63.78426
G1 X186.641 Y113.486 E63.83864
G1 X186.851 Y114.764 E63.88172
G1 X186.896 Y185.222 E66.22516
G1 X186.572 Y186.54 E66.27031
G1 X185.839 Y187.954 E66.32328
G1 X184.767 Y188.954 E66.37204
G1 X183.363 Y189.792 E66.42642
G1 X182.085 Y190.002 E66.4695
G1 X117.929 Y190.047 E68.60334
G1 X116.611 Y189.723 E68.64848
G1 X115.197 Y188.99 E68.70145
G1 X114.197 Y187.918 E68.75021
G1 X113.359 Y186.514 E68.80459
G1 X113.149 Y185.236 E68.84767
G1 X113.104 Y114.778 E71.19111
G1 X113.428 Y113.46 E71.23625
G1 X114.161 Y112.046 E71.28923
G0 F6000 X114.483 Y112.293
G1 F1200 X115.478 Y111.365 E71.33448
G1 X116.775 Y110.591 E71.38472
G1 X117.98 Y110.393 E71.42533
G1 X182.025 Y110.353 E73.55548
G1 X183.246 Y110.653 E73.5973
G1 X184.556 Y111.332 E73.64637
G1 X185.484 Y112.327 E73.69163
G1 X186.258 Y113.624 E73.74186
G1 X186.456 Y114.829 E73.78248
G1 X186.496 Y185.176 E76.12223
G1 X186.196 Y186.397 E76.16405
G1 X185.517 Y187.707 E76.21312
G1 X184.522 Y188.635 E76.25838
G1 X183.225 Y189.409 E76.30861
G1 X182.02 Y189.607 E76.34923
G1 X117.975 Y189.647 E78.47937
G1 X116.754 Y189.347 E78.52119
G1 X115.444 Y188.668 E78.57027
G1 X114.516 Y187.673 E78.61552
G1 X113.742 Y186.376 E78.66576
G1 X113.544 Y185.171 E78.70637
G1 X113.504 Y114.824 E81.04613
G1 X113.804 Y113.603 E81.08794
G1 X114.483 Y112.293 E81.13702
G0 F6000 X114.805 Y112.54
G1 F1200 X115.72 Y111.687 E81.17863
G1 X116.915 Y110.974 E81.22491
G1 X118.045 Y110.788 E81.263
G1 X181.979 Y110.753 E83.38945
G1 X183.103 Y111.029 E83.42795
G1 X184.309 Y111.654 E83.47313
G1 X185.162 Y112.569 E83.51473
G1 X185.875 Y113.764 E83.56101
G1 X186.061 Y114.894 E83.5991
G1 X186.096 Y185.13 E85.93516
G1 X185.82 Y186.254 E85.97366
G1 X185.195 Y187.46 E86.01884
G1 X184.28 Y188.313 E86.06044
G1 X183.085 Y189.026 E86.10673
G1 X181.955 Y189.212 E86.14482
G1 X118.021 Y189.247 E88.27127
G1 X116.897 Y188.971 E88.30976
G1 X115.691 Y188.346 E88.35494
G1 X114.838 Y187.431 E88.39655
G1 X114.125 Y186.236 E88.44283
G1 X113.939 Y185.106 E88.48092
G1 X113.904 Y114.87 E90.81698
G1 X114.18 Y113.746 E90.85548
G1 X114.805 Y112.54 E90.90065
G0 F6000 X115.127 Y112.787
G1 F1200 X115.962 Y112.009 E90.93861
G1 X117.055 Y111.357 E90.98094
G1 X118.11 Y111.183 E91.01651
G1 X181.932 Y111.153 E93.13923
G1 X182.961 Y111.406 E93.17448
G1 X184.062 Y111.976 E93.21571
G1 X184.84 Y112.811 E93.25367
G1 X185.492 Y113.904 E93.296
G1 X185.666 Y114.959 E93.33157
G1 X185.696 Y185.083 E95.6639
G1 X185.443 Y186.112 E95.69914
G1 X184.873 Y187.213 E95.74038
G1 X184.038 Y187.991 E95.77834
G1 X182.945 Y188.643 E95.82067
G1 X181.89 Y188.817 E95.85623
G1 X118.068 Y188.847 E97.97896
G1 X117.039 Y188.594 E98.01421
G1 X115.938 Y188.024 E98.05544
G1 X115.16 Y187.189 E98.0934
G1 X114.508 Y186.096 E98.13573
G1 X114.334 Y185.041 E98.17129
G1 X114.304 Y114.917 E100.50363
G1 X114.557 Y113.888 E100.53887
G1 X115.127 Y112.787 E100.58011
G0 F6000 X115.449 Y113.034
G1 F1200 X116.204 Y112.331 E100.61442
G1 X117.195 Y111.74 E100.6528
G1 X118.175 Y111.578 E100.68583
G1 X181.886 Y111.553 E102.80487
G1 X182.818 Y111.782 E102.83679
G1 X183.815 Y112.298 E102.87413
G1 X184.518 Y113.053 E102.90844
G1 X185.109 Y114.044 E102.94682
G1 X185.271 Y115.024 E102.97986
G1 X185.296 Y185.037 E105.3085
G1 X185.067 Y185.969 E105.34042
G1 X184.551 Y186.966 E105.37776
G1 X183.796 Y187.669 E105.41207
G1 X182.805 Y188.26 E105.45045
G1 X181.825 Y188.422 E105.48348
G1 X118.114 Y188.447 E107.60252
G1 X117.182 Y188.218 E107.63444
G1 X116.185 Y187.702 E107.67178
G1 X115.482 Y186.947 E107.70609
G1 X114.891 Y185.956 E107.74447
G1 X114.729 Y184.976 E107.7775
G1 X114.704 Y114.963 E110.10615
G1 X114.933 Y114.031 E110.13807
G1 X115.449 Y113.034 E110.1754
G0 F6000 X115.772 Y113.279
G1 F1200 X116.443 Y112.655 E110.20588
G1 X117.335 Y112.123 E110.24042
G1 X118.24 Y111.973 E110.27094
G1 X181.84 Y111.953 E112.38628
G1 X182.675 Y112.158 E112.41488
G1 X183.57 Y112.621 E112.44839
G1 X184.194 Y113.292 E112.47887
G1 X184.726 Y114.184 E112.51341
G1 X184.876 Y115.089 E112.54392
G1 X184.896 Y184.991 E114.86887
G1 X184.691 Y185.826 E114.89747
G1 X184.228 Y186.721 E114.93099
G1 X183.557 Y187.345 E114.96146
G1 X182.665 Y187.877 E114.99601
G1 X181.76 Y188.027 E115.02652
G1 X118.16 Y188.047 E117.14186
G1 X117.325 Y187.842 E117.17046
G1 X116.43 Y187.379 E117.20397
G1 X115.806 Y186.708 E117.23445
G1 X115.274 Y185.816 E117.269
G1 X115.124 Y184.911 E117.29951
G1 X115.104 Y115.009 E119.62446
G1 X115.309 Y114.174 E119.65305
G1 X115.772 Y113.279 E119.68657
G0 F6000 X116.095 Y113.524
G1 F1200 X116.682 Y112.979 E119.71321
G1 X117.475 Y112.506 E119.74392
G1 X118.306 Y112.368 E119.77194
G1 X181.794 Y112.353 E121.88356
G1 X182.532 Y112.534 E121.90883
G1 X183.325 Y112.944 E121.93852
G1 X183.87 Y113.531 E121.96516
G1 X184.343 Y114.324 E121.99588
G1 X184.481 Y115.155 E122.02389
G1 X184.496 Y184.945 E124.34512
G1 X184.315 Y185.683 E124.37039
G1 X183.905 Y186.476 E124.40008
G1 X183.318 Y187.021 E124.42672
G1 X182.525 Y187.494 E124.45744
G1 X181.694 Y187.632 E124.48545
G1 X118.206 Y187.647 E126.59707
G1 X117.468 Y187.466 E126.62235
G1 X116.675 Y187.056 E126.65204
G1 X116.13 Y186.469 E126.67868
G1 X115.657 Y185.676 E126.70939
G1 X115.519 Y184.845 E126.73741
G1 X115.504 Y115.055 E129.05863
G1 X115.685 Y114.317 E129.08391
G1 X116.095 Y113.524 E129.1136
G0 F6000 X116.418 Y113.769
G1 F1200 X116.921 Y113.303 E129.1364
G1 X117.615 Y112.889 E129.16328
G1 X118.372 Y112.763 E129.18881
G1 X181.744 Y112.753 E131.29657
G1 X182.393 Y112.912 E131.31879
G1 X183.08 Y113.267 E131.34451
G1 X183.546 Y113.77 E131.36732
G1 X183.96 Y114.464 E131.39419
G1 X184.086 Y115.221 E131.41972
G1 X184.096 Y184.895 E133.73709
G1 X183.937 Y185.544 E133.75931
G1 X183.582 Y186.231 E133.78503
G1 X183.079 Y186.697 E133.80784
G1 X182.385 Y187.111 E133.83471
G1 X181.628 Y187.237 E133.86024
G1 X118.256 Y187.247 E135.968
G1 X117.607 Y187.088 E135.99022
G1 X116.92 Y186.733 E136.01594
G1 X116.454 Y186.23 E136.03875
G1 X116.04 Y185.536 E136.06563
G1 X115.914 Y184.779 E136.09115
G1 X115.904 Y115.105 E138.40852
G1 X116.063 Y114.456 E138.43074
G1 X116.418 Y113.769 E138.45646
G0 F6000 X116.741 Y114.015
G1 F1200 X117.16 Y113.627 E138.47546
G1 X117.755 Y113.272 E138.4985
G1 X118.438 Y113.158 E138.52153
G1 X181.694 Y113.153 E140.62543
G1 X182.254 Y113.29 E140.64461
G1 X182.834 Y113.59 E140.66633
G1 X183.222 Y114.009 E140.68532
G1 X183.577 Y114.604 E140.70837
G1 X183.691 Y115.287 E140.7314
G1 X183.696 Y184.845 E143.04491
G1 X183.559 Y185.405 E143.06408
G1 X183.259 Y185.985 E143.0858
G1 X182.84 Y186.373 E143.10479
G1 X182.245 Y186.728 E143.12784
G1 X181.562 Y186.842 E143.15087
G1 X118.306 Y186.847 E145.25477
G1 X117.746 Y186.71 E145.27395
G1 X117.166 Y186.41 E145.29566
G1 X116.778 Y185.991 E145.31466
G1 X116.423 Y185.396 E145.3377
G1 X116.309 Y184.713 E145.36073
G1 X116.304 Y115.155 E147.67424
G1 X116.441 Y114.595 E147.69342
G1 X116.741 Y114.015 E147.71514
G0 F6000 X117.064 Y114.261
G1 F1200 X117.402 Y113.948 E147.73046
G1 X117.893 Y113.655 E147.74947
G1 X118.504 Y113.553 E147.77008
G1 X181.644 Y113.553 E149.87012
G1 X182.115 Y113.668 E149.88625
G1 X182.588 Y113.913 E149.90397
G1 X182.901 Y114.251 E149.91929
G1 X183.194 Y114.742 E149.9383
G1 X183.296 Y115.353 E149.95891
G1 X183.296 Y184.795 E152.26856
G1 X183.181 Y185.266 E152.28468
G1 X182.936 Y185.739 E152.3024
G1 X182.598 Y186.052 E152.31772
G1 X182.107 Y186.345 E152.33674
G1 X181.496 Y186.447 E152.35734
G1 X118.356 Y186.447 E154.45739
G1 X117.885 Y186.332 E154.47351
G1 X117.412 Y186.087 E154.49123
G1 X117.099 Y185.749 E154.50655
G1 X116.806 Y185.258 E154.52557
G1 X116.704 Y184.647 E154.54617
G1 X116.704 Y115.205 E156.85582
G1 X116.819 Y114.734 E156.87195
G1 X117.064 Y114.261 E156.88967
G0 F6000 X117.387 Y114.507
G1 F1200 X117.644 Y114.269 E156.90132
G1 X118.031 Y114.038 E156.91631
G1 X118.504 Y113.953 E156.93229
G1 X181.594 Y113.953 E159.03067
G1 X181.976 Y114.046 E159.04375
G1 X182.342 Y114.236 E159.05747
G1 X182.58 Y114.493 E159.06912
G1 X182.811 Y114.88 E159.08411
G1 X182.896 Y115.353 E159.10009
G1 X182.896 Y184.745 E161.40808
G1 X182.803 Y185.127 E161.42115
G1 X182.613 Y185.493 E161.43487
G1 X182.356 Y185.731 E161.44652
G1 X181.969 Y185.962 E161.46151
G1 X181.496 Y186.047 E161.47749
G1 X118.406 Y186.047 E163.57588
G1 X118.024 Y185.954 E163.58895
G1 X117.658 Y185.764 E163.60267
G1 X117.42 Y185.507 E163.61432
G1 X117.189 Y185.12 E163.62931
G1 X117.104 Y184.647 E163.64529
G1 X117.104 Y115.255 E165.95328
G1 X117.197 Y114.873 E165.96636
G1 X117.387 Y114.507 E165.98007
G0 F6000 X117.711 Y114.752
G1 F1200 X117.849 Y114.613 E165.98659
G1 X118.176 Y114.418 E165.99925
G1 X118.504 Y114.353 E166.01037
G1 X181.545 Y114.353 E168.10712
G1 X181.834 Y114.423 E168.11701
G1 X182.097 Y114.56 E168.12688
G1 X182.236 Y114.698 E168.13339
G1 X182.431 Y115.025 E168.14606
G1 X182.496 Y115.353 E168.15718
G1 X182.496 Y184.696 E170.46353
G1 X182.426 Y184.985 E170.47342
G1 X182.289 Y185.248 E170.48329
G1 X182.151 Y185.387 E170.4898
G1 X181.824 Y185.582 E170.50247
G1 X181.496 Y185.647 E170.51359
G1 X118.455 Y185.647 E172.61034
G1 X118.166 Y185.577 E172.62023
G1 X117.903 Y185.44 E172.63009
G1 X117.764 Y185.302 E172.63661
G1 X117.569 Y184.975 E172.64927
G1 X117.504 Y184.647 E172.66039
G1 X117.504 Y115.304 E174.96675
G1 X117.574 Y115.015 E174.97664
G1 X117.711 Y114.752 E174.9865
G0 F6000 X118.343 Y115.234
G1 F1200 X118.504 Y115.153 E174.9925
G1 X181.496 Y115.153 E177.08762
G1 X181.615 Y115.192 E177.09178
G1 X181.696 Y115.353 E177.09778
G1 X181.696 Y184.647 E179.40251
G1 X181.657 Y184.766 E179.40667
G1 X181.496 Y184.847 E179.41267
G1 X118.504 Y184.847 E181.50779
G1 X118.385 Y184.808 E181.51195
G1 X118.304 Y184.647 E181.51795
G1 X118.304 Y115.353 E183.82268
G1 X118.343 Y115.234 E183.82684
G0 F6000 X118.054 Y114.957
G1 F1200 X118.324 Y114.796 E183.8373
G1 X118.504 Y114.753 E183.84345
G1 X181.496 Y114.753 E185.93857
G1 X181.74 Y114.812 E185.94692
G1 X181.892 Y114.903 E185.95282
G1 X182.053 Y115.173 E185.96327
G1 X182.096 Y115.353 E185.96943
G1 X182.096 Y184.647 E188.27415
G1 X182.037 Y184.891 E188.2825
G1 X181.946 Y185.043 E188.2884
G1 X181.676 Y185.204 E188.29885
G1 X181.496 Y185.247 E188.30501
G1 X118.504 Y185.247 E190.40013
G1 X118.26 Y185.188 E190.40848
G1 X118.108 Y185.097 E190.41437
G1 X117.947 Y184.827 E190.42483
G1 X117.904 Y184.647 E190.43098
G1 X117.904 Y115.353 E192.73571
G1 X117.963 Y115.109 E192.74406
G1 X118.054 Y114.957 E192.74995
G1 F2100 E191.24995
;MESH:30pin-breakout-board_base.stl
G0 F6000 X119.304 Y116.153
