;FLAVOR:Marlin
;TIME:13363
;Filament used: 9.48493m
;Layer height: 0.2
;MINX:91.458
;MINY:97.62
;MINZ:0.2
;MAXX:208.538
;MAXY:202.336
;MAXZ:10.2
;Generated with Cura_SteamEngine 5.4.0
M140 S60
M105
M190 S60
M104 S210
M105
M109 S210
M82 ;absolute extrusion mode
M220 S100 ;Reset Feedrate
M221 S100 ;Reset Flowrate

M280 P0 S160 ;reset bltouch
G28 ;Home
G29 A ; enable UBL
G92 E0 ;Reset Extruder
G1 Z2.0 F3000 ;Move Z Axis up
G1 X10.1 Y20 Z0.28 F5000.0 ;Move to start position
G1 X10.1 Y200.0 Z0.28 F1500.0 E15 ;Draw the first line
G1 X10.4 Y200.0 Z0.28 F5000.0 ;Move to side a little
G1 X10.4 Y20 Z0.28 F1500.0 E30 ;Draw the second line
G92 E0 ;Reset Extruder
G1 Z2.0 F3000 ;Move Z Axis up
G92 E0
G92 E0
G1 F2100 E-1.5
;LAYER_COUNT:51
;LAYER:0
M107
G0 F6000 X95.229 Y99.888 Z0.2
;TYPE:SKIRT
G1 F2100 E0
G1 F1200 X97.284 Y98.574 E0.08113
G1 X99.776 Y97.731 E0.16863
G1 X101.821 Y97.62 E0.23674
G1 X199.164 Y97.62 E3.47438
G1 X201.493 Y98.072 E3.55329
G1 X203.863 Y99.226 E3.64097
G1 X205.791 Y100.837 E3.72453
G1 X207.286 Y102.874 E3.80857
G1 X208.293 Y105.391 E3.89874
G1 X208.538 Y107.876 E3.98179
G1 X208.459 Y193.141 E6.81772
G1 X208.242 Y194.689 E6.86971
G1 X207.312 Y197.047 E6.95401
G1 X205.836 Y199.086 E7.03774
G1 X203.834 Y200.757 E7.12447
G1 X201.383 Y201.942 E7.21502
G1 X199.438 Y202.26 E7.28057
G1 X101.725 Y202.336 E10.53052
G1 X99.784 Y202.229 E10.59517
G1 X97.263 Y201.367 E10.68379
G1 X95.188 Y200.044 E10.76564
G1 X93.374 Y198.155 E10.85274
G1 X92.072 Y195.727 E10.94438
G1 X91.458 Y193.284 E11.02816
G1 X91.465 Y106.628 E13.91035
G1 X92.068 Y104.221 E13.99288
G1 X93.367 Y101.808 E14.08403
G1 X95.229 Y99.888 E14.17298
G0 F6000 X95.481 Y100.202
G1 F1200 X97.459 Y98.937 E14.25108
G1 X99.854 Y98.127 E14.33517
G1 X101.821 Y98.02 E14.40069
G1 X199.124 Y98.02 E17.637
G1 X201.365 Y98.455 E17.71292
G1 X203.646 Y99.566 E17.79731
G1 X205.497 Y101.112 E17.87752
G1 X206.934 Y103.07 E17.9583
G1 X207.901 Y105.486 E18.04486
G1 X208.138 Y107.876 E18.12474
G1 X208.063 Y193.086 E20.95884
G1 X207.853 Y194.586 E21.00921
G1 X206.959 Y196.852 E21.09023
G1 X205.54 Y198.812 E21.17072
G1 X203.616 Y200.418 E21.25407
G1 X201.263 Y201.556 E21.34101
G1 X199.373 Y201.865 E21.4047
G1 X101.725 Y201.936 E24.65249
G1 X99.86 Y201.833 E24.71461
G1 X97.439 Y201.005 E24.79972
G1 X95.445 Y199.734 E24.87836
G1 X93.699 Y197.915 E24.96222
G1 X92.448 Y195.583 E25.05024
G1 X91.858 Y193.235 E25.13076
G1 X91.865 Y106.677 E28.0097
G1 X92.444 Y104.367 E28.0889
G1 X93.694 Y102.045 E28.17661
G1 X95.481 Y100.202 E28.26199
G0 F6000 X95.735 Y100.514
G1 F1200 X97.632 Y99.301 E28.33689
G1 X99.932 Y98.523 E28.41764
G1 X101.821 Y98.42 E28.48056
G1 X199.084 Y98.42 E31.71554
G1 X201.237 Y98.838 E31.78849
G1 X203.427 Y99.904 E31.8695
G1 X205.205 Y101.39 E31.94657
G1 X206.582 Y103.266 E32.02397
G1 X207.508 Y105.581 E32.1069
G1 X207.738 Y107.876 E32.18361
G1 X207.667 Y193.031 E35.01588
G1 X207.464 Y194.483 E35.06465
G1 X206.606 Y196.657 E35.14238
G1 X205.244 Y198.538 E35.21962
G1 X203.398 Y200.079 E35.2996
G1 X201.143 Y201.17 E35.38292
G1 X199.308 Y201.47 E35.44476
G1 X101.725 Y201.536 E38.69039
G1 X99.94 Y201.437 E38.74985
G1 X97.611 Y200.641 E38.83171
G1 X95.7 Y199.422 E38.9071
G1 X94.025 Y197.678 E38.98753
G1 X92.824 Y195.439 E39.07203
G1 X92.258 Y193.186 E39.1493
G1 X92.265 Y106.726 E42.02497
G1 X92.82 Y104.513 E42.10085
G1 X94.021 Y102.282 E42.18512
G1 X95.735 Y100.514 E42.26702
G0 F6000 X95.987 Y100.828
G1 F1200 X97.807 Y99.664 E42.33888
G1 X100.01 Y98.919 E42.41623
G1 X101.821 Y98.82 E42.47655
G1 X199.044 Y98.82 E45.7102
G1 X201.109 Y99.221 E45.78017
G1 X203.21 Y100.244 E45.85789
G1 X204.911 Y101.665 E45.93161
G1 X206.23 Y103.462 E46.00575
G1 X207.116 Y105.676 E46.08507
G1 X207.338 Y107.876 E46.15861
G1 X207.271 Y192.976 E48.98905
G1 X207.075 Y194.38 E49.0362
G1 X206.253 Y196.462 E49.11065
G1 X204.948 Y198.264 E49.18465
G1 X203.18 Y199.74 E49.26125
G1 X201.023 Y200.784 E49.34095
G1 X199.243 Y201.075 E49.40094
G1 X101.725 Y201.136 E52.64441
G1 X100.016 Y201.041 E52.70134
G1 X97.787 Y200.279 E52.77968
G1 X95.957 Y199.112 E52.85187
G1 X94.35 Y197.438 E52.92905
G1 X93.2 Y195.295 E53.00994
G1 X92.658 Y193.137 E53.08395
G1 X92.665 Y106.775 E55.95636
G1 X93.196 Y104.659 E56.02892
G1 X94.348 Y102.519 E56.10976
G1 X95.987 Y100.828 E56.18808
G0 F6000 X96.241 Y101.14
G1 F1200 X97.98 Y100.028 E56.25674
G1 X100.088 Y99.315 E56.33075
G1 X101.821 Y99.22 E56.38848
G1 X199.004 Y99.22 E59.6208
G1 X200.981 Y99.604 E59.68778
G1 X202.991 Y100.582 E59.76213
G1 X204.619 Y101.943 E59.8327
G1 X205.878 Y103.658 E59.90346
G1 X206.724 Y105.772 E59.9792
G1 X206.938 Y107.876 E60.04954
G1 X206.875 Y192.921 E62.87815
G1 X206.686 Y194.277 E62.92368
G1 X205.9 Y196.267 E62.99485
G1 X204.652 Y197.99 E63.06561
G1 X202.962 Y199.401 E63.13883
G1 X200.903 Y200.398 E63.21492
G1 X199.178 Y200.68 E63.27306
G1 X101.725 Y200.736 E66.51436
G1 X100.092 Y200.645 E66.56876
G1 X97.963 Y199.917 E66.64359
G1 X96.212 Y198.8 E66.71267
G1 X94.676 Y197.201 E66.78642
G1 X93.577 Y195.152 E66.86375
G1 X93.058 Y193.087 E66.93457
G1 X93.065 Y106.824 E69.80369
G1 X93.572 Y104.805 E69.87293
G1 X94.675 Y102.756 E69.95032
G1 X96.241 Y101.14 E70.02517
G0 F6000 X96.493 Y101.454
G1 F1200 X98.155 Y100.391 E70.09078
G1 X100.166 Y99.711 E70.16139
G1 X101.821 Y99.62 E70.21652
G1 X198.964 Y99.62 E73.44751
G1 X200.853 Y99.987 E73.51151
G1 X202.774 Y100.922 E73.58257
G1 X204.323 Y102.216 E73.6497
G1 X205.527 Y103.857 E73.7174
G1 X206.332 Y105.867 E73.78941
G1 X206.538 Y107.876 E73.85658
G1 X206.479 Y192.866 E76.68336
G1 X206.297 Y194.174 E76.72729
G1 X205.547 Y196.072 E76.79516
G1 X204.356 Y197.716 E76.86268
G1 X202.744 Y199.062 E76.93253
G1 X200.783 Y200.012 E77.00501
G1 X199.113 Y200.285 E77.06129
G1 X101.725 Y200.336 E80.30043
G1 X100.168 Y200.249 E80.35229
G1 X98.139 Y199.555 E80.42362
G1 X96.469 Y198.49 E80.48949
G1 X95.001 Y196.961 E80.55999
G1 X93.953 Y195.008 E80.63371
G1 X93.458 Y193.038 E80.70127
G1 X93.465 Y106.873 E83.56713
G1 X93.948 Y104.951 E83.63304
G1 X95.002 Y102.993 E83.707
G1 X96.493 Y101.454 E83.77827
G0 F6000 X96.747 Y101.766
G1 F1200 X98.328 Y100.755 E83.84069
G1 X100.244 Y100.107 E83.90796
G1 X101.821 Y100.02 E83.96049
G1 X198.924 Y100.02 E87.19015
G1 X200.725 Y100.37 E87.25117
G1 X202.555 Y101.26 E87.31886
G1 X204.031 Y102.494 E87.38285
G1 X205.175 Y104.053 E87.44716
G1 X205.94 Y105.963 E87.51559
G1 X206.138 Y107.876 E87.57956
G1 X206.083 Y192.811 E90.40451
G1 X205.908 Y194.071 E90.44682
G1 X205.194 Y195.877 E90.51141
G1 X204.06 Y197.442 E90.57569
G1 X202.526 Y198.723 E90.64216
G1 X200.663 Y199.626 E90.71102
G1 X199.048 Y199.89 E90.76545
G1 X101.725 Y199.936 E94.00243
G1 X100.248 Y199.853 E94.05163
G1 X98.311 Y199.191 E94.11971
G1 X96.724 Y198.178 E94.18233
G1 X95.327 Y196.724 E94.2494
G1 X94.329 Y194.864 E94.31961
G1 X93.858 Y192.989 E94.38391
G1 X93.865 Y106.923 E97.24647
G1 X94.325 Y105.094 E97.3092
G1 X95.327 Y103.231 E97.37956
G1 X96.747 Y101.766 E97.44742
G0 F6000 X97.001 Y102.078
G1 F1200 X98.501 Y101.119 E97.50663
G1 X100.322 Y100.503 E97.57057
G1 X101.821 Y100.42 E97.6205
G1 X198.884 Y100.42 E100.84883
G1 X200.597 Y100.753 E100.90687
G1 X202.338 Y101.6 E100.97127
G1 X203.735 Y102.767 E101.03181
G1 X204.824 Y104.252 E101.09306
G1 X205.548 Y106.058 E101.15777
G1 X205.738 Y107.876 E101.21857
G1 X205.687 Y192.756 E104.04169
G1 X205.519 Y193.968 E104.08239
G1 X204.841 Y195.682 E104.14369
G1 X203.764 Y197.168 E104.20473
G1 X202.308 Y198.384 E104.26783
G1 X200.542 Y199.24 E104.3331
G1 X198.983 Y199.495 E104.38564
G1 X101.725 Y199.536 E107.62046
G1 X100.324 Y199.457 E107.66713
G1 X98.487 Y198.829 E107.7317
G1 X96.981 Y197.868 E107.79112
G1 X95.652 Y196.484 E107.85494
G1 X94.705 Y194.72 E107.92153
G1 X94.258 Y192.94 E107.98257
G1 X94.265 Y106.973 E110.84184
G1 X94.701 Y105.239 E110.90131
G1 X95.654 Y103.468 E110.9682
G1 X97.001 Y102.078 E111.03258
G0 F6000 X97.253 Y102.392
G1 F1200 X98.676 Y101.482 E111.08876
G1 X100.4 Y100.899 E111.14929
G1 X101.821 Y100.82 E111.19663
G1 X198.844 Y100.82 E114.42362
G1 X200.469 Y101.136 E114.47868
G1 X202.119 Y101.938 E114.5397
G1 X203.442 Y103.044 E114.59706
G1 X204.472 Y104.449 E114.655
G1 X205.156 Y106.154 E114.7161
G1 X205.338 Y107.876 E114.77369
G1 X205.291 Y192.701 E117.59499
G1 X205.13 Y193.865 E117.63407
G1 X204.488 Y195.487 E117.69209
G1 X203.468 Y196.894 E117.74989
G1 X202.091 Y198.044 E117.80956
G1 X200.419 Y198.855 E117.87137
G1 X198.919 Y199.1 E117.92192
G1 X101.725 Y199.136 E121.15461
G1 X100.4 Y199.061 E121.19875
G1 X98.663 Y198.467 E121.2598
G1 X97.238 Y197.558 E121.31602
G1 X95.977 Y196.244 E121.37659
G1 X95.082 Y194.577 E121.43952
G1 X94.658 Y192.89 E121.49738
G1 X94.665 Y107.023 E124.35333
G1 X95.077 Y105.384 E124.40954
G1 X95.981 Y103.705 E124.47296
G1 X97.253 Y102.392 E124.53376
G0 F6000 X97.507 Y102.704
G1 F1200 X98.849 Y101.846 E124.58674
G1 X100.478 Y101.295 E124.64394
G1 X101.821 Y101.22 E124.68867
G1 X198.804 Y101.22 E127.91434
G1 X200.341 Y101.519 E127.96642
G1 X201.9 Y102.276 E128.02406
G1 X203.149 Y103.321 E128.07823
G1 X204.12 Y104.646 E128.13286
G1 X204.764 Y106.25 E128.19035
G1 X204.938 Y107.876 E128.24474
G1 X204.895 Y192.646 E131.0642
G1 X204.741 Y193.762 E131.10167
G1 X204.135 Y195.292 E131.15641
G1 X203.172 Y196.62 E131.21097
G1 X201.874 Y197.704 E131.26722
G1 X200.297 Y198.469 E131.32551
G1 X198.854 Y198.705 E131.37414
G1 X101.725 Y198.736 E134.60467
G1 X100.476 Y198.665 E134.64628
G1 X98.839 Y198.105 E134.70382
G1 X97.493 Y197.246 E134.75693
G1 X96.303 Y196.007 E134.81407
G1 X95.458 Y194.433 E134.87349
G1 X95.058 Y192.841 E134.92808
G1 X95.065 Y107.073 E137.78074
G1 X95.454 Y105.527 E137.83376
G1 X96.306 Y103.943 E137.89358
G1 X97.507 Y102.704 E137.95097
G0 F6000 X97.759 Y103.018
G1 F1200 X99.024 Y102.209 E138.00092
G1 X100.556 Y101.691 E138.05471
G1 X101.821 Y101.62 E138.09685
G1 X198.764 Y101.62 E141.32118
G1 X200.213 Y101.902 E141.37028
G1 X201.681 Y102.614 E141.42455
G1 X202.856 Y103.598 E141.47552
G1 X203.768 Y104.843 E141.52685
G1 X204.372 Y106.346 E141.58073
G1 X204.538 Y107.876 E141.63191
G1 X204.499 Y192.591 E144.44955
G1 X204.352 Y193.659 E144.4854
G1 X203.782 Y195.097 E144.53685
G1 X202.876 Y196.346 E144.58817
G1 X201.657 Y197.364 E144.64099
G1 X200.174 Y198.084 E144.69583
G1 X198.79 Y198.31 E144.74247
G1 X101.725 Y198.336 E147.97086
G1 X100.554 Y198.269 E148.00987
G1 X99.014 Y197.742 E148.06401
G1 X97.75 Y196.936 E148.11387
G1 X96.628 Y195.767 E148.16776
G1 X95.834 Y194.289 E148.22357
G1 X95.458 Y192.792 E148.2749
G1 X95.465 Y107.123 E151.12427
G1 X95.83 Y105.672 E151.17403
G1 X96.633 Y104.18 E151.23038
G1 X97.759 Y103.018 E151.2842
G0 F6000 X98.013 Y103.33
G1 F1200 X99.197 Y102.573 E151.33094
G1 X100.634 Y102.087 E151.3814
G1 X101.821 Y102.02 E151.42094
G1 X198.723 Y102.02 E154.64391
G1 X200.088 Y102.286 E154.69017
G1 X201.46 Y102.951 E154.74088
G1 X202.563 Y103.875 E154.78873
G1 X203.416 Y105.04 E154.83676
G1 X203.98 Y106.442 E154.88702
G1 X204.138 Y107.876 E154.935
G1 X204.103 Y192.537 E157.75084
G1 X203.963 Y193.555 E157.78502
G1 X203.429 Y194.902 E157.83321
G1 X202.58 Y196.072 E157.88129
G1 X201.44 Y197.024 E157.93069
G1 X200.052 Y197.698 E157.98201
G1 X198.725 Y197.915 E158.02673
G1 X101.725 Y197.936 E161.25297
G1 X100.631 Y197.873 E161.28941
G1 X99.19 Y197.38 E161.34007
G1 X98.005 Y196.624 E161.38682
G1 X96.954 Y195.53 E161.43728
G1 X96.21 Y194.145 E161.48957
G1 X95.858 Y192.743 E161.53765
G1 X95.865 Y107.173 E164.38372
G1 X96.206 Y105.817 E164.43022
G1 X96.96 Y104.417 E164.48311
G1 X98.013 Y103.33 E164.53344
G0 F6000 X98.265 Y103.644
G1 F1200 X99.372 Y102.936 E164.57715
G1 X100.712 Y102.483 E164.6242
G1 X101.821 Y102.42 E164.66114
G1 X198.683 Y102.42 E167.88278
G1 X199.962 Y102.669 E167.92612
G1 X201.239 Y103.288 E167.97332
G1 X202.27 Y104.152 E168.01806
G1 X203.064 Y105.237 E168.06278
G1 X203.588 Y106.538 E168.10943
G1 X203.738 Y107.876 E168.15421
G1 X203.707 Y192.483 E170.96825
G1 X203.574 Y193.451 E171.00075
G1 X203.076 Y194.707 E171.04569
G1 X202.284 Y195.798 E171.09053
G1 X201.223 Y196.684 E171.1365
G1 X199.929 Y197.313 E171.18436
G1 X198.661 Y197.52 E171.22709
G1 X101.725 Y197.536 E174.45119
G1 X100.709 Y197.477 E174.48504
G1 X99.365 Y197.017 E174.53229
G1 X98.262 Y196.314 E174.57579
G1 X97.279 Y195.29 E174.62301
G1 X96.587 Y194.002 E174.67164
G1 X96.258 Y192.693 E174.71653
G1 X96.265 Y107.223 E177.55927
G1 X96.583 Y105.96 E177.60259
G1 X97.285 Y104.655 E177.65188
G1 X98.265 Y103.644 E177.69871
G0 F6000 X98.519 Y103.956
G1 F1200 X99.545 Y103.3 E177.73921
G1 X100.79 Y102.879 E177.78292
G1 X101.821 Y102.82 E177.81727
G1 X198.642 Y102.82 E181.03755
G1 X199.837 Y103.053 E181.07804
G1 X201.018 Y103.625 E181.12169
G1 X201.977 Y104.429 E181.16331
G1 X202.712 Y105.434 E181.20472
G1 X203.197 Y106.638 E181.2479
G1 X203.338 Y107.876 E181.28934
G1 X203.311 Y192.429 E184.10158
G1 X203.185 Y193.347 E184.1324
G1 X202.723 Y194.512 E184.17409
G1 X201.988 Y195.524 E184.21569
G1 X201.006 Y196.344 E184.25824
G1 X199.807 Y196.927 E184.30258
G1 X198.596 Y197.125 E184.34339
G1 X101.725 Y197.136 E187.56534
G1 X100.786 Y197.081 E187.59662
G1 X99.541 Y196.655 E187.64039
G1 X98.517 Y196.002 E187.68078
G1 X97.605 Y195.053 E187.72456
G1 X96.963 Y193.858 E187.76968
G1 X96.658 Y192.644 E187.81131
G1 X96.665 Y107.273 E190.65076
G1 X96.959 Y106.105 E190.69082
G1 X97.612 Y104.892 E190.73664
G1 X98.519 Y103.956 E190.77999
G0 F6000 X98.773 Y104.268
G1 F1200 X99.718 Y103.664 E190.81729
G1 X100.868 Y103.275 E190.85767
G1 X101.821 Y103.22 E190.88942
G1 X198.602 Y103.22 E194.10837
G1 X199.711 Y103.436 E194.14595
G1 X200.797 Y103.962 E194.18608
G1 X201.684 Y104.705 E194.22456
G1 X202.36 Y105.631 E194.2627
G1 X202.806 Y106.738 E194.30239
G1 X202.938 Y107.876 E194.3405
G1 X202.915 Y192.375 E197.15094
G1 X202.796 Y193.242 E197.18005
G1 X202.369 Y194.318 E197.21855
G1 X201.692 Y195.25 E197.25687
G1 X200.789 Y196.004 E197.29599
G1 X199.684 Y196.542 E197.33687
G1 X198.532 Y196.73 E197.37569
G1 X101.725 Y196.736 E200.59551
G1 X100.863 Y196.685 E200.62423
G1 X99.717 Y196.293 E200.66451
G1 X98.772 Y195.69 E200.7018
G1 X97.931 Y194.815 E200.74216
G1 X97.34 Y193.715 E200.7837
G1 X97.058 Y192.594 E200.82214
G1 X97.065 Y107.323 E203.65827
G1 X97.336 Y106.248 E203.69514
G1 X97.937 Y105.13 E203.73736
G1 X98.773 Y104.268 E203.7773
G0 F6000 X99.027 Y104.58
G1 F1200 X99.891 Y104.028 E203.8114
G1 X100.946 Y103.671 E203.84844
G1 X101.821 Y103.62 E203.87759
G1 X198.562 Y103.62 E207.09521
G1 X199.585 Y103.819 E207.12987
G1 X200.576 Y104.299 E207.1665
G1 X201.391 Y104.981 E207.20184
G1 X202.008 Y105.827 E207.23667
G1 X202.415 Y106.838 E207.27292
G1 X202.538 Y107.876 E207.30768
G1 X202.519 Y192.321 E210.11634
G1 X202.407 Y193.137 E210.14373
G1 X202.015 Y194.124 E210.17905
G1 X201.396 Y194.976 E210.21408
G1 X200.572 Y195.664 E210.24978
G1 X199.562 Y196.156 E210.28715
G1 X198.467 Y196.335 E210.32405
G1 X101.725 Y196.336 E213.54171
G1 X100.941 Y196.289 E213.56783
G1 X99.892 Y195.93 E213.60471
G1 X99.029 Y195.38 E213.63874
G1 X98.256 Y194.575 E213.67586
G1 X97.717 Y193.572 E213.71373
G1 X97.458 Y192.544 E213.74899
G1 X97.465 Y107.373 E216.58179
G1 X97.712 Y106.393 E216.61541
G1 X98.264 Y105.367 E216.65416
G1 X99.027 Y104.58 E216.69062
G0 F6000 X99.281 Y104.892
G1 F1200 X100.064 Y104.392 E216.72151
G1 X101.024 Y104.067 E216.75522
G1 X101.821 Y104.02 E216.78178
G1 X198.521 Y104.02 E219.99803
G1 X199.46 Y104.203 E220.02985
G1 X200.355 Y104.636 E220.06292
G1 X201.098 Y105.257 E220.09513
G1 X201.656 Y106.023 E220.12665
G1 X202.024 Y106.938 E220.15945
G1 X202.138 Y107.876 E220.19088
G1 X202.123 Y192.267 E222.99773
G1 X202.018 Y193.032 E223.02342
G1 X201.661 Y193.93 E223.05556
G1 X201.1 Y194.702 E223.0873
G1 X200.355 Y195.324 E223.11958
G1 X199.44 Y195.77 E223.15343
G1 X198.402 Y195.94 E223.18842
G1 X101.749 Y195.937 E226.40311
G1 X101.018 Y195.893 E226.42747
G1 X100.068 Y195.568 E226.46086
G1 X99.286 Y195.07 E226.4917
G1 X98.581 Y194.335 E226.52557
G1 X98.094 Y193.429 E226.55978
G1 X97.858 Y192.494 E226.59186
G1 X97.865 Y107.423 E229.42133
G1 X98.088 Y106.538 E229.45169
G1 X98.591 Y105.604 E229.48697
G1 X99.281 Y104.892 E229.51995
G0 F6000 X99.537 Y105.203
