;FLAVOR:Marlin
;TIME:16215
;Filament used: 10.0366m
;Layer height: 0.2
;MINX:75.964
;MINY:92.196
;MINZ:0.2
;MAXX:224.032
;MAXY:209.668
;MAXZ:13.6
;Generated with Cura_SteamEngine 5.4.0
M140 S60
M105
M190 S60
M104 S210
M105
M109 S210
M82 ;absolute extrusion mode
M220 S100 ;Reset Feedrate
M221 S100 ;Reset Flowrate

M280 P0 S160 ;reset bltouch
G28 ;Home
G29 A ; enable UBL
G92 E0 ;Reset Extruder
G1 Z2.0 F3000 ;Move Z Axis up
G1 X10.1 Y20 Z0.28 F5000.0 ;Move to start position
G1 X10.1 Y200.0 Z0.28 F1500.0 E15 ;Draw the first line
G1 X10.4 Y200.0 Z0.28 F5000.0 ;Move to side a little
G1 X10.4 Y20 Z0.28 F1500.0 E30 ;Draw the second line
G92 E0 ;Reset Extruder
G1 Z2.0 F3000 ;Move Z Axis up
G92 E0
G92 E0
G1 F2100 E-1.5
;LAYER_COUNT:68
;LAYER:0
M107
G0 F6000 X79.727 Y94.928 Z0.2
;TYPE:SKIRT
G1 F2100 E0
G1 F1200 X81.895 Y93.577 E0.08496
G1 X84.304 Y92.781 E0.16935
G1 X86.327 Y92.67 E0.23673
G1 X95.782 Y92.67 E0.55121
G1 X96.111 Y92.523 E0.56319
G1 X97.96 Y92.244 E0.62539
G1 X105.749 Y92.196 E0.88446
G1 X107.332 Y92.582 E0.93865
G1 X107.567 Y92.67 E0.947
G1 X120.782 Y92.67 E1.38653
G1 X121.111 Y92.523 E1.39851
G1 X122.96 Y92.244 E1.46071
G1 X130.749 Y92.196 E1.71978
G1 X132.332 Y92.582 E1.77397
G1 X132.567 Y92.67 E1.78232
G1 X167.21 Y92.67 E2.93455
G1 X167.539 Y92.523 E2.94653
G1 X169.388 Y92.244 E3.00873
G1 X177.177 Y92.196 E3.26779
G1 X178.76 Y92.582 E3.32199
G1 X178.995 Y92.67 E3.33033
G1 X192.21 Y92.67 E3.76987
G1 X192.539 Y92.523 E3.78185
G1 X194.388 Y92.244 E3.84405
G1 X202.177 Y92.196 E4.10311
G1 X203.76 Y92.582 E4.15731
G1 X203.995 Y92.67 E4.16565
G1 X214.658 Y92.67 E4.52031
G1 X216.987 Y93.122 E4.59921
G1 X219.357 Y94.276 E4.68689
G1 X221.285 Y95.887 E4.77045
G1 X222.78 Y97.924 E4.85449
G1 X223.787 Y100.441 E4.94466
G1 X224.032 Y102.926 E5.02771
G1 X223.953 Y198.107 E8.19345
G1 X223.741 Y199.619 E8.24423
G1 X222.783 Y202.016 E8.33008
G1 X221.296 Y204.073 E8.4145
G1 X219.384 Y205.671 E8.49738
G1 X216.97 Y206.852 E8.58677
G1 X214.636 Y207.292 E8.66576
G1 X204 Y207.295 E9.01952
G1 X203.891 Y207.334 E9.02337
G1 X202.991 Y207.574 E9.05435
G1 X202.014 Y207.72 E9.08721
G1 X194.229 Y207.768 E9.34614
G1 X192.649 Y207.386 E9.40021
G1 X192.405 Y207.295 E9.40887
G1 X180.649 Y207.295 E9.79987
G1 X178.676 Y208.682 E9.88009
G1 X177.022 Y209.342 E9.93932
G1 X175.82 Y209.668 E9.98074
G1 X170.955 Y209.668 E10.14255
G1 X169.024 Y209.273 E10.20811
G1 X166.715 Y208.056 E10.29492
G1 X165.971 Y207.296 E10.33029
G1 X134.221 Y207.295 E11.3863
G1 X132.248 Y208.682 E11.46652
G1 X130.594 Y209.342 E11.52575
G1 X129.392 Y209.668 E11.56717
G1 X124.527 Y209.668 E11.72898
G1 X122.596 Y209.273 E11.79454
G1 X120.287 Y208.056 E11.88135
G1 X119.543 Y207.296 E11.91672
G1 X109.221 Y207.295 E12.26003
G1 X107.248 Y208.682 E12.34025
G1 X105.594 Y209.342 E12.39948
G1 X104.392 Y209.668 E12.4409
G1 X99.526 Y209.668 E12.60274
G1 X97.588 Y209.27 E12.66855
G1 X95.298 Y208.061 E12.75468
G1 X94.543 Y207.296 E12.79043
G1 X85.805 Y207.274 E13.08105
G1 X84.342 Y207.186 E13.1298
G1 X81.926 Y206.409 E13.21421
G1 X79.721 Y205.033 E13.30066
G1 X77.875 Y203.103 E13.38949
G1 X76.654 Y200.879 E13.47387
G1 X75.964 Y198.32 E13.56202
G1 X75.971 Y101.65 E16.77728
G1 X76.577 Y99.263 E16.85919
G1 X77.885 Y96.832 E16.95101
G1 X79.727 Y94.928 E17.03912
G0 F6000 X79.982 Y95.24
G1 F1200 X82.065 Y93.942 E17.12075
G1 X84.381 Y93.177 E17.20187
G1 X86.327 Y93.07 E17.2667
G1 X95.879 Y93.07 E17.5844
G1 X96.171 Y92.919 E17.59533
G1 X98.02 Y92.64 E17.65753
G1 X105.7 Y92.596 E17.91297
G1 X107.237 Y92.971 E17.96559
G1 X107.492 Y93.07 E17.97469
G1 X120.879 Y93.07 E18.41994
G1 X121.171 Y92.919 E18.43087
G1 X123.02 Y92.64 E18.49307
G1 X130.7 Y92.596 E18.74851
G1 X132.237 Y92.971 E18.80113
G1 X132.492 Y93.07 E18.81023
G1 X167.307 Y93.07 E19.96818
G1 X167.599 Y92.919 E19.97911
G1 X169.448 Y92.64 E20.04131
G1 X177.128 Y92.596 E20.29675
G1 X178.665 Y92.971 E20.34937
G1 X178.92 Y93.07 E20.35847
G1 X192.307 Y93.07 E20.80372
G1 X192.599 Y92.919 E20.81465
G1 X194.448 Y92.64 E20.87685
G1 X202.128 Y92.596 E21.13229
G1 X203.665 Y92.971 E21.18491
G1 X203.92 Y93.07 E21.19401
G1 X214.618 Y93.07 E21.54983
G1 X216.859 Y93.505 E21.62575
G1 X219.14 Y94.616 E21.71014
G1 X220.991 Y96.162 E21.79035
G1 X222.428 Y98.12 E21.87113
G1 X223.395 Y100.536 E21.95769
G1 X223.632 Y102.926 E22.03757
G1 X223.557 Y198.052 E25.20147
G1 X223.352 Y199.516 E25.25064
G1 X222.43 Y201.822 E25.33324
G1 X221.002 Y203.798 E25.41433
G1 X219.165 Y205.333 E25.49395
G1 X216.843 Y206.469 E25.57993
G1 X214.599 Y206.892 E25.65588
G1 X203.928 Y206.895 E26.0108
G1 X203.787 Y206.948 E26.01581
G1 X202.932 Y207.178 E26.04526
G1 X201.955 Y207.324 E26.07811
G1 X194.276 Y207.368 E26.33352
G1 X192.743 Y206.997 E26.38598
G1 X192.48 Y206.895 E26.39536
G1 X180.452 Y206.895 E26.79542
G1 X180.312 Y207.043 E26.80219
G1 X178.486 Y208.327 E26.87644
G1 X176.874 Y208.97 E26.93416
G1 X175.768 Y209.268 E26.97226
G1 X170.996 Y209.268 E27.13098
G1 X169.159 Y208.892 E27.19334
G1 X166.958 Y207.732 E27.27609
G1 X166.139 Y206.896 E27.31502
G1 X134.024 Y206.895 E28.38317
G1 X133.884 Y207.043 E28.38994
G1 X132.058 Y208.327 E28.46419
G1 X130.446 Y208.97 E28.52191
G1 X129.34 Y209.268 E28.56001
G1 X124.568 Y209.268 E28.71872
G1 X122.731 Y208.892 E28.78109
G1 X120.53 Y207.732 E28.86384
G1 X119.711 Y206.896 E28.90277
G1 X109.024 Y206.895 E29.25822
G1 X108.884 Y207.043 E29.26499
G1 X107.058 Y208.327 E29.33924
G1 X105.446 Y208.97 E29.39696
G1 X104.34 Y209.268 E29.43506
G1 X99.567 Y209.268 E29.59381
G1 X97.725 Y208.89 E29.65635
G1 X95.539 Y207.736 E29.73857
G1 X94.711 Y206.896 E29.7778
G1 X85.829 Y206.875 E30.07321
G1 X84.419 Y206.79 E30.1202
G1 X82.094 Y206.042 E30.20143
G1 X79.975 Y204.72 E30.2845
G1 X78.203 Y202.867 E30.36977
G1 X77.027 Y200.725 E30.45105
G1 X76.364 Y198.268 E30.53569
G1 X76.371 Y101.701 E33.74752
G1 X76.953 Y99.409 E33.82617
G1 X78.211 Y97.071 E33.91448
G1 X79.982 Y95.24 E33.9992
G0 F6000 X80.237 Y95.552
G1 F1200 X82.235 Y94.307 E34.0775
G1 X84.458 Y93.573 E34.15537
G1 X86.327 Y93.47 E34.21762
G1 X95.976 Y93.47 E34.53855
G1 X96.294 Y93.305 E34.55047
G1 X98.08 Y93.036 E34.61054
G1 X105.651 Y92.996 E34.86236
G1 X107.142 Y93.36 E34.9134
G1 X107.413 Y93.47 E34.92313
G1 X120.976 Y93.47 E35.37424
G1 X121.294 Y93.305 E35.38615
G1 X123.08 Y93.036 E35.44623
G1 X130.651 Y92.996 E35.69804
G1 X132.142 Y93.36 E35.74909
G1 X132.413 Y93.47 E35.75882
G1 X167.404 Y93.47 E36.92262
G1 X167.722 Y93.305 E36.93454
G1 X169.508 Y93.036 E36.99461
G1 X177.079 Y92.996 E37.24643
G1 X178.57 Y93.36 E37.29747
G1 X178.841 Y93.47 E37.3072
G1 X192.404 Y93.47 E37.75831
G1 X192.722 Y93.305 E37.77023
G1 X194.508 Y93.036 E37.8303
G1 X202.079 Y92.996 E38.08211
G1 X203.57 Y93.36 E38.13316
G1 X203.841 Y93.47 E38.14289
G1 X214.578 Y93.47 E38.5
G1 X216.731 Y93.888 E38.57295
G1 X218.921 Y94.954 E38.65396
G1 X220.699 Y96.44 E38.73103
G1 X222.076 Y98.316 E38.80843
G1 X223.002 Y100.631 E38.89136
G1 X223.232 Y102.926 E38.96807
G1 X223.161 Y197.996 E42.13012
G1 X222.962 Y199.415 E42.17777
G1 X222.078 Y201.627 E42.257
G1 X220.709 Y203.521 E42.33473
G1 X218.944 Y204.996 E42.41123
G1 X216.716 Y206.086 E42.49373
G1 X214.562 Y206.492 E42.56663
G1 X203.852 Y206.495 E42.92285
G1 X203.682 Y206.562 E42.92893
G1 X202.873 Y206.782 E42.95681
G1 X201.896 Y206.928 E42.98967
G1 X194.323 Y206.968 E43.24155
G1 X192.837 Y206.608 E43.29241
G1 X192.558 Y206.495 E43.30242
G1 X180.261 Y206.495 E43.71142
G1 X180.082 Y206.716 E43.72088
G1 X178.296 Y207.972 E43.7935
G1 X176.726 Y208.598 E43.84971
G1 X175.717 Y208.868 E43.88445
G1 X171.037 Y208.868 E44.04011
G1 X169.294 Y208.511 E44.09929
G1 X167.201 Y207.408 E44.17798
G1 X166.307 Y206.496 E44.22045
G1 X133.833 Y206.495 E45.30054
G1 X133.654 Y206.716 E45.31
G1 X131.868 Y207.972 E45.38262
G1 X130.298 Y208.598 E45.43884
G1 X129.289 Y208.868 E45.47358
G1 X124.609 Y208.868 E45.62924
G1 X122.866 Y208.511 E45.68841
G1 X120.773 Y207.408 E45.7671
G1 X119.879 Y206.496 E45.80958
G1 X108.833 Y206.495 E46.17697
G1 X108.654 Y206.716 E46.18643
G1 X106.868 Y207.972 E46.25905
G1 X105.298 Y208.598 E46.31526
G1 X104.289 Y208.868 E46.35
G1 X99.609 Y208.868 E46.50566
G1 X97.862 Y208.509 E46.56498
G1 X95.78 Y207.411 E46.64327
G1 X94.879 Y206.496 E46.68598
G1 X85.853 Y206.476 E46.98619
G1 X84.495 Y206.394 E47.03144
G1 X82.263 Y205.676 E47.10942
G1 X80.229 Y204.407 E47.18916
G1 X78.531 Y202.631 E47.27088
G1 X77.4 Y200.571 E47.34904
G1 X76.764 Y198.216 E47.43018
G1 X76.771 Y101.752 E50.63858
G1 X77.329 Y99.555 E50.71398
G1 X78.537 Y97.31 E50.79877
G1 X80.237 Y95.552 E50.88011
G0 F6000 X80.492 Y95.864
G1 F1200 X82.405 Y94.672 E50.95507
G1 X84.535 Y93.969 E51.02968
G1 X86.327 Y93.87 E51.08937
G1 X96.075 Y93.87 E51.41359
G1 X96.419 Y93.691 E51.42649
G1 X98.14 Y93.432 E51.48437
G1 X105.602 Y93.396 E51.73256
G1 X107.047 Y93.749 E51.78204
G1 X107.332 Y93.87 E51.79234
G1 X121.075 Y93.87 E52.24943
G1 X121.419 Y93.691 E52.26233
G1 X123.14 Y93.432 E52.32021
G1 X130.602 Y93.396 E52.5684
G1 X132.047 Y93.749 E52.61788
G1 X132.332 Y93.87 E52.62818
G1 X167.503 Y93.87 E53.79797
G1 X167.847 Y93.691 E53.81087
G1 X169.568 Y93.432 E53.86875
G1 X177.03 Y93.396 E54.11694
G1 X178.475 Y93.749 E54.16641
G1 X178.76 Y93.87 E54.17671
G1 X192.503 Y93.87 E54.63381
G1 X192.847 Y93.691 E54.6467
G1 X194.568 Y93.432 E54.70459
G1 X202.03 Y93.396 E54.95278
G1 X203.475 Y93.749 E55.00225
G1 X203.76 Y93.87 E55.01255
G1 X214.538 Y93.87 E55.37103
G1 X216.603 Y94.271 E55.44099
G1 X218.704 Y95.294 E55.51872
G1 X220.405 Y96.715 E55.59244
G1 X221.724 Y98.512 E55.66658
G1 X222.61 Y100.726 E55.74589
G1 X222.832 Y102.926 E55.81944
G1 X222.765 Y197.941 E58.97965
G1 X222.573 Y199.313 E59.02573
G1 X221.726 Y201.432 E59.10163
G1 X220.416 Y203.244 E59.176
G1 X218.723 Y204.659 E59.24938
G1 X216.589 Y205.703 E59.3284
G1 X214.525 Y206.092 E59.39826
G1 X203.774 Y206.095 E59.75584
G1 X203.576 Y206.176 E59.76295
G1 X202.814 Y206.386 E59.78924
G1 X201.837 Y206.532 E59.8221
G1 X194.371 Y206.568 E60.07042
G1 X192.931 Y206.219 E60.1197
G1 X192.639 Y206.095 E60.13025
G1 X180.045 Y206.095 E60.54913
G1 X179.852 Y206.389 E60.56083
G1 X178.106 Y207.617 E60.63182
G1 X176.578 Y208.226 E60.68653
G1 X175.664 Y208.468 E60.71798
G1 X171.078 Y208.468 E60.87051
G1 X169.429 Y208.13 E60.9265
G1 X167.444 Y207.084 E61.00112
G1 X166.475 Y206.096 E61.04715
G1 X133.617 Y206.095 E62.14001
G1 X133.424 Y206.389 E62.15171
G1 X131.678 Y207.617 E62.22271
G1 X130.15 Y208.226 E62.27742
G1 X129.236 Y208.468 E62.30886
G1 X124.65 Y208.468 E62.4614
G1 X123.001 Y208.13 E62.51738
G1 X121.016 Y207.084 E62.59201
G1 X120.047 Y206.096 E62.63804
G1 X108.617 Y206.095 E63.0182
G1 X108.424 Y206.389 E63.0299
G1 X106.678 Y207.617 E63.10089
G1 X105.15 Y208.226 E63.1556
G1 X104.236 Y208.468 E63.18705
G1 X99.65 Y208.468 E63.33958
G1 X97.999 Y208.129 E63.39564
G1 X96.021 Y207.086 E63.47001
G1 X95.047 Y206.096 E63.51621
G1 X85.877 Y206.077 E63.8212
G1 X84.571 Y205.998 E63.86472
G1 X82.432 Y205.31 E63.93945
G1 X80.483 Y204.094 E64.01586
G1 X78.859 Y202.395 E64.09403
G1 X77.773 Y200.417 E64.16908
G1 X77.164 Y198.164 E64.24671
G1 X77.171 Y101.803 E67.45169
G1 X77.705 Y99.701 E67.52382
G1 X78.863 Y97.549 E67.6051
G1 X80.492 Y95.864 E67.68305
G0 F6000 X80.747 Y96.176
G1 F1200 X82.575 Y95.037 E67.75469
G1 X84.612 Y94.365 E67.82603
G1 X86.327 Y94.27 E67.88316
G1 X96.193 Y94.27 E68.2113
G1 X96.479 Y94.087 E68.2226
G1 X98.2 Y93.828 E68.28048
G1 X105.553 Y93.796 E68.52505
G1 X106.952 Y94.138 E68.57295
G1 X107.247 Y94.27 E68.5837
G1 X121.193 Y94.27 E69.04754
G1 X121.479 Y94.087 E69.05883
G1 X123.2 Y93.828 E69.11672
G1 X130.553 Y93.796 E69.36128
G1 X131.952 Y94.138 E69.40919
G1 X132.247 Y94.27 E69.41993
G1 X167.621 Y94.27 E70.59648
G1 X167.907 Y94.087 E70.60777
G1 X169.628 Y93.828 E70.66566
G1 X176.981 Y93.796 E70.91022
G1 X178.38 Y94.138 E70.95812
G1 X178.675 Y94.27 E70.96887
G1 X192.621 Y94.27 E71.43272
G1 X192.907 Y94.087 E71.44401
G1 X194.628 Y93.828 E71.5019
G1 X201.981 Y93.796 E71.74646
G1 X203.38 Y94.138 E71.79436
G1 X203.675 Y94.27 E71.80511
G1 X214.498 Y94.27 E72.16508
G1 X216.475 Y94.654 E72.23207
G1 X218.485 Y95.632 E72.30641
G1 X220.113 Y96.993 E72.37699
G1 X221.372 Y98.708 E72.44775
G1 X222.218 Y100.822 E72.52349
G1 X222.432 Y102.926 E72.59383
G1 X222.369 Y197.885 E75.75218
G1 X222.183 Y199.212 E75.79674
G1 X221.374 Y201.237 E75.86927
G1 X220.122 Y202.969 E75.94035
G1 X218.504 Y204.321 E76.01048
G1 X216.462 Y205.32 E76.08609
G1 X214.488 Y205.692 E76.1529
G1 X203.691 Y205.695 E76.51201
G1 X203.469 Y205.791 E76.52006
G1 X202.755 Y205.99 E76.54471
G1 X201.778 Y206.136 E76.57757
G1 X194.419 Y206.168 E76.82233
G1 X193.025 Y205.83 E76.87004
G1 X192.726 Y205.695 E76.88095
G1 X179.829 Y205.695 E77.3099
G1 X179.559 Y206.106 E77.32626
G1 X177.914 Y207.263 E77.39315
G1 X176.476 Y207.839 E77.44467
G1 X175.611 Y208.068 E77.47443
G1 X171.119 Y208.068 E77.62384
G1 X169.564 Y207.749 E77.67664
G1 X167.687 Y206.76 E77.7472
G1 X166.643 Y205.696 E77.79678
G1 X133.401 Y205.695 E78.90241
G1 X133.131 Y206.106 E78.91877
G1 X131.486 Y207.263 E78.98566
G1 X130.048 Y207.839 E79.03718
G1 X129.183 Y208.068 E79.06694
G1 X124.691 Y208.068 E79.21635
G1 X123.136 Y207.749 E79.26914
G1 X121.259 Y206.76 E79.33971
G1 X120.215 Y205.696 E79.38929
G1 X108.401 Y205.695 E79.78222
G1 X108.131 Y206.106 E79.79858
G1 X106.486 Y207.263 E79.86547
G1 X105.048 Y207.839 E79.91699
G1 X104.183 Y208.068 E79.94675
G1 X99.691 Y208.068 E80.09616
G1 X98.136 Y207.749 E80.14896
G1 X96.26 Y206.76 E80.21949
G1 X95.214 Y205.696 E80.26912
G1 X85.901 Y205.678 E80.57887
G1 X84.647 Y205.602 E80.62065
G1 X82.601 Y204.944 E80.69214
G1 X80.737 Y203.781 E80.76521
G1 X79.185 Y202.158 E80.8399
G1 X78.146 Y200.265 E80.91172
G1 X77.564 Y198.112 E80.9859
G1 X77.571 Y101.854 E84.18746
G1 X78.081 Y99.845 E84.25639
G1 X79.187 Y97.789 E84.33404
G1 X80.747 Y96.176 E84.40868
G0 F6000 X81.002 Y96.488
G1 F1200 X82.745 Y95.402 E84.47698
G1 X84.689 Y94.761 E84.54507
G1 X86.327 Y94.67 E84.59963
G1 X96.311 Y94.67 E84.9317
G1 X96.623 Y94.47 E84.94402
G1 X98.259 Y94.224 E84.99905
G1 X105.504 Y94.196 E85.24002
G1 X106.857 Y94.527 E85.28635
G1 X107.157 Y94.67 E85.2974
G1 X121.311 Y94.67 E85.76817
G1 X121.623 Y94.47 E85.78049
G1 X123.259 Y94.224 E85.83552
G1 X130.504 Y94.196 E86.07649
G1 X131.857 Y94.527 E86.12282
G1 X132.157 Y94.67 E86.13387
G1 X167.739 Y94.67 E87.31733
G1 X168.051 Y94.47 E87.32966
G1 X169.687 Y94.224 E87.38469
G1 X176.932 Y94.196 E87.62566
G1 X178.285 Y94.527 E87.67198
G1 X178.585 Y94.67 E87.68304
G1 X192.739 Y94.67 E88.1538
G1 X193.051 Y94.47 E88.16613
G1 X194.687 Y94.224 E88.22115
G1 X201.932 Y94.196 E88.46213
G1 X203.285 Y94.527 E88.50845
G1 X203.585 Y94.67 E88.51951
G1 X214.458 Y94.67 E88.88114
G1 X216.347 Y95.037 E88.94515
G1 X218.268 Y95.972 E89.01621
G1 X219.817 Y97.266 E89.08334
G1 X221.021 Y98.907 E89.15103
G1 X221.826 Y100.917 E89.22305
G1 X222.032 Y102.926 E89.29022
G1 X221.973 Y197.83 E92.44674
G1 X221.794 Y199.11 E92.48973
G1 X221.022 Y201.042 E92.55892
G1 X219.829 Y202.692 E92.62665
G1 X218.283 Y203.984 E92.69366
G1 X216.335 Y204.937 E92.76579
G1 X214.451 Y205.292 E92.82955
G1 X203.604 Y205.295 E93.19032
G1 X203.36 Y205.406 E93.19924
G1 X202.696 Y205.594 E93.22219
G1 X201.719 Y205.74 E93.25505
G1 X194.467 Y205.768 E93.49625
G1 X193.119 Y205.441 E93.54239
G1 X192.819 Y205.295 E93.55348
G1 X179.613 Y205.295 E93.99272
G1 X179.266 Y205.823 E94.01373
G1 X177.722 Y206.909 E94.07652
G1 X176.374 Y207.452 E94.12485
G1 X175.558 Y207.668 E94.15293
G1 X171.16 Y207.668 E94.29921
G1 X169.701 Y207.369 E94.34874
G1 X167.927 Y206.434 E94.41544
G1 X166.81 Y205.296 E94.46847
G1 X133.185 Y205.295 E95.58685
G1 X132.838 Y205.823 E95.60786
G1 X131.294 Y206.909 E95.67064
G1 X129.946 Y207.452 E95.71898
G1 X129.13 Y207.668 E95.74706
G1 X124.732 Y207.668 E95.89333
G1 X123.273 Y207.369 E95.94287
G1 X121.499 Y206.434 E96.00957
G1 X120.382 Y205.296 E96.0626
G1 X108.185 Y205.295 E96.46828
G1 X107.838 Y205.823 E96.48929
G1 X106.294 Y206.909 E96.55207
G1 X104.946 Y207.452 E96.60041
G1 X104.13 Y207.668 E96.62849
G1 X99.732 Y207.668 E96.77476
G1 X98.273 Y207.369 E96.8243
G1 X96.499 Y206.434 E96.891
G1 X95.382 Y205.296 E96.94403
G1 X85.925 Y205.279 E97.25857
G1 X84.724 Y205.206 E97.29859
