;FLAVOR:Marlin
;TIME:7274
;Filament used: 4.55605m
;Layer height: 0.2
;MINX:176.841
;MINY:64.181
;MINZ:0.2
;MAXX:217.841
;MAXY:107.097
;MAXZ:48.8
;Generated with Cura_SteamEngine 5.4.0
M140 S60
M105
M190 S60
M104 S210
M105
M109 S210
M82 ;absolute extrusion mode
M220 S100 ;Reset Feedrate
M221 S100 ;Reset Flowrate

M280 P0 S160 ;reset bltouch
G28 ;Home
G29 A ; enable UBL
G92 E0 ;Reset Extruder
G1 Z2.0 F3000 ;Move Z Axis up
G1 X10.1 Y20 Z0.28 F5000.0 ;Move to start position
G1 X10.1 Y200.0 Z0.28 F1500.0 E15 ;Draw the first line
G1 X10.4 Y200.0 Z0.28 F5000.0 ;Move to side a little
G1 X10.4 Y20 Z0.28 F1500.0 E30 ;Draw the second line
G92 E0 ;Reset Extruder
G1 Z2.0 F3000 ;Move Z Axis up
G92 E0
G92 E0
G1 F2100 E-1.5
;LAYER_COUNT:244
;LAYER:0
M107
G0 F6000 X177.309 Y69.23 Z0.2
;TYPE:SKIRT
G1 F2100 E0
G1 F1200 X178.36 Y67.204 E0.07591
G1 X179.921 Y65.745 E0.14698
G1 X181.944 Y64.538 E0.22533
G1 X183.662 Y64.256 E0.28324
G1 X210.894 Y64.181 E1.18898
G1 X212.79 Y64.647 E1.25392
G1 X214.818 Y65.7 E1.32992
G1 X216.277 Y67.261 E1.40099
G1 X217.484 Y69.284 E1.47934
G1 X217.771 Y71.064 E1.5393
G1 X217.841 Y82.222 E1.91043
G1 X217.373 Y84.13 E1.97577
G1 X216.322 Y86.156 E2.05168
G1 X214.743 Y87.633 E2.12359
G1 X213.492 Y88.378 E2.17202
G1 X213.459 Y88.759 E2.18474
G1 X213.196 Y90.553 E2.24505
G1 X212.51 Y92.209 E2.30467
G1 X211.5 Y94.142 E2.3772
G1 X209.919 Y95.975 E2.45772
G1 X208.729 Y96.826 E2.50637
G1 X208.729 Y100.139 E2.61657
G1 X208.263 Y102.035 E2.6815
G1 X207.21 Y104.063 E2.75751
G1 X205.635 Y105.535 E2.82921
G1 X203.918 Y106.533 E2.89526
G1 X203.252 Y106.793 E2.91904
G1 X201.402 Y107.054 E2.98118
G1 X198.296 Y107.092 E3.08449
G1 X197.774 Y106.965 E3.10236
G1 X197.043 Y107.057 E3.12687
G1 X193.99 Y107.097 E3.22842
G1 X192.091 Y106.628 E3.29348
G1 X190.059 Y105.57 E3.36968
G1 X188.582 Y103.991 E3.44159
G1 X187.56 Y102.267 E3.50825
G1 X187.357 Y101.785 E3.52564
G1 X187.081 Y99.943 E3.58759
G1 X187.053 Y96.805 E3.69196
G1 X186.166 Y96.271 E3.7264
G1 X184.199 Y94.158 E3.82242
G1 X183.285 Y92.196 E3.89441
G1 X182.658 Y90.941 E3.94107
G1 X182.312 Y88.816 E4.01268
G1 X181.891 Y88.712 E4.0271
G1 X179.864 Y87.66 E4.10306
G1 X178.405 Y86.099 E4.17412
G1 X177.198 Y84.076 E4.25247
G1 X176.911 Y82.296 E4.31244
G1 X176.841 Y71.138 E4.68357
G1 X177.309 Y69.23 E4.74891
G0 F6000 X177.685 Y69.373
G1 F1200 X178.683 Y67.449 E4.821
G1 X180.16 Y66.069 E4.88823
G1 X182.084 Y64.921 E4.96275
G1 X183.727 Y64.651 E5.01813
G1 X210.848 Y64.581 E5.92018
G1 X212.647 Y65.023 E5.98179
G1 X214.573 Y66.023 E6.05397
G1 X215.953 Y67.5 E6.1212
G1 X217.101 Y69.424 E6.19572
G1 X217.371 Y71.067 E6.2511
G1 X217.441 Y82.177 E6.62063
G1 X216.997 Y83.987 E6.68261
G1 X215.999 Y85.911 E6.7547
G1 X214.504 Y87.309 E6.82278
G1 X213.112 Y88.138 E6.87666
G1 X213.063 Y88.701 E6.89546
G1 X212.807 Y90.445 E6.95409
G1 X212.155 Y92.024 E7.01091
G1 X211.166 Y93.917 E7.08194
G1 X209.647 Y95.678 E7.15929
G1 X208.329 Y96.62 E7.21318
G1 X208.329 Y100.093 E7.32869
G1 X207.887 Y101.892 E7.3903
G1 X206.887 Y103.818 E7.46248
G1 X205.395 Y105.212 E7.5304
G1 X203.772 Y106.16 E7.59291
G1 X203.148 Y106.404 E7.61519
G1 X201.397 Y106.654 E7.67402
G1 X198.343 Y106.691 E7.77561
G1 X197.796 Y106.558 E7.79433
G1 X197.038 Y106.657 E7.81976
G1 X194.035 Y106.696 E7.91965
G1 X192.236 Y106.252 E7.98128
G1 X190.303 Y105.246 E8.05375
G1 X188.906 Y103.752 E8.12178
G1 X187.929 Y102.112 E8.18528
G1 X187.746 Y101.677 E8.20097
G1 X187.477 Y99.884 E8.26127
G1 X187.451 Y96.578 E8.37124
G1 X186.422 Y95.958 E8.41119
G1 X184.535 Y93.931 E8.5033
G1 X183.648 Y92.027 E8.57317
G1 X183.043 Y90.816 E8.61819
G1 X182.709 Y88.77 E8.68714
G1 X182.685 Y88.496 E8.69629
G1 X182.034 Y88.336 E8.71859
G1 X180.109 Y87.337 E8.79072
G1 X178.729 Y85.86 E8.85795
G1 X177.581 Y83.936 E8.93247
G1 X177.311 Y82.293 E8.98785
G1 X177.241 Y71.183 E9.35738
G1 X177.685 Y69.373 E9.41936
G0 F6000 X178.061 Y69.516
G1 F1200 X179.006 Y67.694 E9.48763
G1 X180.402 Y66.39 E9.55116
G1 X182.222 Y65.304 E9.62166
G1 X183.792 Y65.046 E9.67457
G1 X210.801 Y64.981 E10.5729
G1 X212.505 Y65.4 E10.63126
G1 X214.328 Y66.346 E10.69957
G1 X215.632 Y67.742 E10.76311
G1 X216.718 Y69.562 E10.8336
G1 X216.976 Y71.132 E10.88652
G1 X217.041 Y82.132 E11.25239
G1 X216.621 Y83.844 E11.31102
G1 X215.676 Y85.666 E11.37928
G1 X214.265 Y86.985 E11.44353
G1 X212.731 Y87.899 E11.50292
G1 X212.667 Y88.643 E11.52775
G1 X212.418 Y90.339 E11.58477
G1 X211.8 Y91.839 E11.63873
G1 X210.832 Y93.692 E11.70826
G1 X209.375 Y95.381 E11.78245
G1 X207.929 Y96.414 E11.84156
G1 X207.929 Y100.046 E11.96236
G1 X207.51 Y101.75 E12.02072
G1 X206.564 Y103.573 E12.08903
G1 X205.157 Y104.888 E12.15309
G1 X203.626 Y105.787 E12.21214
G1 X203.043 Y106.015 E12.23296
G1 X201.392 Y106.254 E12.28844
G1 X198.389 Y106.29 E12.38833
G1 X197.819 Y106.152 E12.40784
G1 X197.033 Y106.257 E12.43421
G1 X194.08 Y106.295 E12.53244
G1 X192.381 Y105.876 E12.59064
G1 X190.547 Y104.922 E12.6594
G1 X189.23 Y103.513 E12.72354
G1 X188.273 Y101.907 E12.78572
G1 X188.135 Y101.57 E12.79784
G1 X187.873 Y99.825 E12.85653
G1 X187.85 Y96.351 E12.97207
G1 X186.678 Y95.645 E13.01758
G1 X184.871 Y93.704 E13.10578
G1 X184.011 Y91.858 E13.17352
G1 X183.428 Y90.692 E13.21688
G1 X183.108 Y88.736 E13.2828
G1 X183.06 Y88.177 E13.30146
G1 X182.177 Y87.96 E13.3317
G1 X180.354 Y87.014 E13.40001
G1 X179.05 Y85.618 E13.46355
G1 X177.964 Y83.798 E13.53404
G1 X177.706 Y82.228 E13.58696
G1 X177.641 Y71.228 E13.95283
G1 X178.061 Y69.516 E14.01146
G0 F6000 X178.437 Y69.659
G1 F1200 X179.329 Y67.939 E14.0759
G1 X180.644 Y66.711 E14.13574
G1 X182.36 Y65.687 E14.20221
G1 X183.857 Y65.441 E14.25267
G1 X210.755 Y65.381 E15.1473
G1 X212.362 Y65.776 E15.20234
G1 X214.083 Y66.669 E15.26683
G1 X215.311 Y67.984 E15.32667
G1 X216.335 Y69.7 E15.39313
G1 X216.581 Y71.197 E15.44359
G1 X216.641 Y82.087 E15.8058
G1 X216.245 Y83.701 E15.86107
G1 X215.353 Y85.421 E15.92552
G1 X214.026 Y86.661 E15.98592
G1 X212.349 Y87.66 E16.05085
G1 X212.271 Y88.585 E16.08172
G1 X212.029 Y90.233 E16.13712
G1 X211.445 Y91.654 E16.18822
G1 X210.498 Y93.467 E16.25625
G1 X209.104 Y95.083 E16.32723
G1 X207.778 Y96.03 E16.38143
G1 X207.529 Y96.14 E16.39048
G1 X207.529 Y100 E16.51887
G1 X207.134 Y101.607 E16.57391
G1 X206.241 Y103.328 E16.6384
G1 X204.915 Y104.567 E16.69876
G1 X203.481 Y105.414 E16.75415
G1 X202.94 Y105.625 E16.77346
G1 X201.387 Y105.854 E16.82567
G1 X198.435 Y105.889 E16.92386
G1 X197.841 Y105.745 E16.94419
G1 X197.028 Y105.857 E16.97149
G1 X194.125 Y105.894 E17.06805
G1 X192.526 Y105.5 E17.12283
G1 X190.791 Y104.598 E17.18786
G1 X189.554 Y103.274 E17.24813
G1 X188.617 Y101.702 E17.309
G1 X188.522 Y101.459 E17.31768
G1 X188.273 Y99.822 E17.37275
G1 X188.248 Y96.083 E17.49711
G1 X187.955 Y95.947 E17.50786
G1 X186.934 Y95.332 E17.5475
G1 X185.207 Y93.477 E17.6318
G1 X184.374 Y91.689 E17.6974
G1 X183.813 Y90.568 E17.73909
G1 X183.507 Y88.702 E17.80199
G1 X183.435 Y87.858 E17.83016
G1 X182.32 Y87.584 E17.86835
G1 X180.599 Y86.691 E17.93284
G1 X179.371 Y85.376 E17.99268
G1 X178.347 Y83.66 E18.05914
G1 X178.101 Y82.163 E18.1096
G1 X178.041 Y71.273 E18.47181
G1 X178.437 Y69.659 E18.52708
G0 F6000 X178.813 Y69.802
G1 F1200 X179.652 Y68.184 E18.5877
G1 X180.886 Y67.032 E18.64385
G1 X182.498 Y66.07 E18.70629
G1 X183.922 Y65.836 E18.75429
G1 X210.709 Y65.781 E19.64523
G1 X212.219 Y66.152 E19.69694
G1 X213.838 Y66.992 E19.75761
G1 X214.99 Y68.226 E19.81376
G1 X215.952 Y69.838 E19.87619
G1 X216.186 Y71.262 E19.92419
G1 X216.241 Y82.042 E20.28274
G1 X215.869 Y83.558 E20.33466
G1 X215.03 Y85.176 E20.39528
G1 X213.787 Y86.337 E20.45185
G1 X212.254 Y87.251 E20.51121
G1 X211.976 Y87.324 E20.52077
G1 X211.875 Y88.527 E20.56092
G1 X211.64 Y90.127 E20.61471
G1 X211.09 Y91.469 E20.66295
G1 X210.164 Y93.242 E20.72948
G1 X208.833 Y94.785 E20.79725
G1 X207.546 Y95.704 E20.84985
G1 X207.129 Y95.868 E20.86476
G1 X207.129 Y99.954 E21.00066
G1 X206.758 Y101.464 E21.05237
G1 X205.918 Y103.083 E21.11304
G1 X204.675 Y104.244 E21.16961
G1 X203.335 Y105.041 E21.22147
G1 X202.836 Y105.236 E21.23928
G1 X201.382 Y105.454 E21.28818
G1 X198.481 Y105.488 E21.38468
G1 X197.861 Y105.338 E21.4059
G1 X197.023 Y105.457 E21.43405
G1 X194.17 Y105.493 E21.52895
G1 X192.669 Y105.123 E21.58036
G1 X191.036 Y104.275 E21.64156
G1 X189.878 Y103.035 E21.69799
G1 X188.961 Y101.497 E21.75755
G1 X188.91 Y101.354 E21.7626
G1 X188.673 Y99.819 E21.81426
G1 X188.646 Y95.825 E21.9471
G1 X188.161 Y95.604 E21.96483
G1 X187.19 Y95.019 E22.00253
G1 X185.543 Y93.25 E22.08292
G1 X184.737 Y91.52 E22.1464
G1 X184.198 Y90.443 E22.18646
G1 X183.906 Y88.668 E22.24629
G1 X183.81 Y87.539 E22.28398
G1 X182.463 Y87.208 E22.33011
G1 X180.844 Y86.368 E22.39078
G1 X179.692 Y85.134 E22.44692
G1 X178.73 Y83.522 E22.50936
G1 X178.496 Y82.098 E22.55736
G1 X178.441 Y71.318 E22.91591
G1 X178.813 Y69.802 E22.96782
G0 F6000 X179.189 Y69.945
G1 F1200 X179.975 Y68.429 E23.02462
G1 X181.128 Y67.353 E23.07708
G1 X182.636 Y66.453 E23.13549
G1 X183.987 Y66.231 E23.18102
G1 X210.662 Y66.181 E24.06824
G1 X212.077 Y66.529 E24.1167
G1 X213.593 Y67.315 E24.1735
G1 X214.669 Y68.468 E24.22595
G1 X215.569 Y69.976 E24.28436
G1 X215.791 Y71.327 E24.3299
G1 X215.841 Y81.997 E24.68479
G1 X215.493 Y83.415 E24.73335
G1 X214.707 Y84.931 E24.79015
G1 X213.548 Y86.013 E24.84289
G1 X212.049 Y86.907 E24.90094
G1 X211.564 Y86.984 E24.91727
G1 X211.563 Y87.453 E24.93287
G1 X211.479 Y88.469 E24.96678
G1 X211.251 Y90.023 E25.01901
G1 X210.735 Y91.284 E25.06433
G1 X209.83 Y93.017 E25.12936
G1 X208.562 Y94.487 E25.19393
G1 X207.352 Y95.351 E25.24338
G1 X206.729 Y95.596 E25.26564
G1 X206.729 Y99.907 E25.40903
G1 X206.381 Y101.322 E25.45749
G1 X205.595 Y102.838 E25.51429
G1 X204.436 Y103.92 E25.56703
G1 X203.13 Y104.697 E25.61757
G1 X202.735 Y104.846 E25.63161
G1 X201.323 Y105.058 E25.6791
G1 X198.527 Y105.087 E25.7721
G1 X197.88 Y104.931 E25.79424
G1 X197.018 Y105.057 E25.82321
G1 X194.215 Y105.092 E25.91645
G1 X192.811 Y104.746 E25.96454
G1 X191.281 Y103.952 E26.02187
G1 X190.202 Y102.796 E26.07447
G1 X189.305 Y101.292 E26.13271
G1 X189.073 Y99.816 E26.18241
G1 X189.044 Y95.566 E26.32377
G1 X188.367 Y95.261 E26.34846
G1 X187.446 Y94.706 E26.38423
G1 X185.879 Y93.023 E26.46071
G1 X185.1 Y91.351 E26.52206
G1 X184.583 Y90.318 E26.56048
G1 X184.305 Y88.634 E26.61725
G1 X184.181 Y87.178 E26.66585
G1 X183.971 Y87.167 E26.67285
G1 X182.605 Y86.831 E26.71964
G1 X181.089 Y86.045 E26.77643
G1 X180.013 Y84.892 E26.82889
G1 X179.113 Y83.384 E26.8873
G1 X178.891 Y82.033 E26.93283
G1 X178.841 Y71.363 E27.28772
G1 X179.189 Y69.945 E27.33628
G0 F6000 X179.565 Y70.088
G1 F1200 X180.298 Y68.674 E27.38926
G1 X181.37 Y67.674 E27.43802
G1 X182.774 Y66.836 E27.4924
G1 X184.052 Y66.626 E27.53548
G1 X210.616 Y66.581 E28.419
G1 X211.934 Y66.905 E28.46414
G1 X213.348 Y67.638 E28.51712
G1 X214.348 Y68.71 E28.56588
G1 X215.186 Y70.114 E28.62026
G1 X215.396 Y71.392 E28.66333
G1 X215.441 Y81.952 E29.01456
G1 X215.117 Y83.272 E29.05977
G1 X214.384 Y84.686 E29.11274
G1 X213.309 Y85.689 E29.16165
G1 X211.909 Y86.524 E29.21586
G1 X211.164 Y86.642 E29.24095
G1 X211.164 Y87.42 E29.26683
G1 X211.083 Y88.411 E29.2999
G1 X210.862 Y89.919 E29.35059
G1 X210.38 Y91.099 E29.39298
G1 X209.496 Y92.792 E29.45651
G1 X208.291 Y94.189 E29.51787
G1 X207.158 Y94.998 E29.56417
G1 X206.329 Y95.324 E29.5938
G1 X206.329 Y99.861 E29.7447
G1 X206.005 Y101.179 E29.78984
G1 X205.272 Y102.593 E29.84282
G1 X204.197 Y103.596 E29.89172
G1 X202.925 Y104.353 E29.94095
G1 X202.635 Y104.456 E29.95119
G1 X201.264 Y104.662 E29.9973
G1 X198.572 Y104.686 E30.08684
G1 X197.896 Y104.524 E30.10996
G1 X197.013 Y104.657 E30.13966
G1 X194.26 Y104.691 E30.23123
G1 X192.953 Y104.369 E30.276
G1 X191.526 Y103.629 E30.32947
G1 X190.526 Y102.557 E30.37823
G1 X189.688 Y101.152 E30.43264
G1 X189.473 Y99.813 E30.47774
G1 X189.442 Y95.306 E30.62765
G1 X188.531 Y94.896 E30.66088
G1 X187.703 Y94.394 E30.69308
G1 X186.215 Y92.796 E30.76571
G1 X185.463 Y91.182 E30.82493
G1 X184.968 Y90.193 E30.86171
G1 X184.704 Y88.6 E30.91542
G1 X184.594 Y87.305 E30.95865
G1 X184.595 Y86.779 E30.97614
G1 X184.066 Y86.779 E30.99374
G1 X182.748 Y86.455 E31.03888
G1 X181.334 Y85.722 E31.09185
G1 X180.334 Y84.65 E31.14061
G1 X179.496 Y83.246 E31.19499
G1 X179.286 Y81.968 E31.23807
G1 X179.241 Y71.408 E31.5893
G1 X179.565 Y70.088 E31.63451
G0 F6000 X179.941 Y70.231
G1 F1200 X180.62 Y68.921 E31.68358
G1 X181.615 Y67.993 E31.72884
G1 X182.912 Y67.219 E31.77907
G1 X184.117 Y67.021 E31.81969
G1 X210.57 Y66.981 E32.69952
G1 X211.791 Y67.281 E32.74134
G1 X213.101 Y67.96 E32.79041
G1 X214.029 Y68.955 E32.83567
G1 X214.803 Y70.252 E32.8859
G1 X215.001 Y71.457 E32.92652
G1 X215.041 Y81.907 E33.27409
G1 X214.741 Y83.129 E33.31594
G1 X214.062 Y84.439 E33.36502
G1 X213.067 Y85.367 E33.41027
G1 X211.769 Y86.141 E33.46053
G1 X210.764 Y86.301 E33.49438
G1 X210.765 Y87.388 E33.53053
G1 X210.687 Y88.353 E33.56274
G1 X210.473 Y89.815 E33.61188
G1 X210.025 Y90.914 E33.65135
G1 X209.162 Y92.567 E33.71337
G1 X208.018 Y93.893 E33.77162
G1 X206.968 Y94.643 E33.81454
G1 X205.929 Y95.052 E33.85168
G1 X205.929 Y99.815 E34.0101
G1 X205.629 Y101.036 E34.05191
G1 X204.95 Y102.346 E34.10099
G1 X203.955 Y103.274 E34.14624
G1 X202.72 Y104.009 E34.19404
G1 X202.576 Y104.06 E34.19912
G1 X201.205 Y104.266 E34.24524
G1 X198.618 Y104.286 E34.33128
G1 X197.913 Y104.116 E34.3554
G1 X196.953 Y104.261 E34.3877
G1 X194.305 Y104.29 E34.47577
G1 X193.095 Y103.992 E34.51722
G1 X191.773 Y103.307 E34.56674
G1 X190.845 Y102.312 E34.612
G1 X190.071 Y101.015 E34.66223
G1 X189.873 Y99.81 E34.70285
G1 X189.84 Y95.046 E34.8613
G1 X188.738 Y94.554 E34.90144
G1 X187.96 Y94.082 E34.93171
G1 X186.551 Y92.569 E35.00047
G1 X185.826 Y91.013 E35.05757
G1 X185.353 Y90.069 E35.09269
G1 X185.103 Y88.566 E35.14336
G1 X184.994 Y87.305 E35.18546
G1 X184.995 Y86.379 E35.21626
G1 X184.112 Y86.379 E35.24563
G1 X182.891 Y86.079 E35.28745
G1 X181.581 Y85.4 E35.33652
G1 X180.653 Y84.405 E35.38178
G1 X179.879 Y83.108 E35.43201
G1 X179.681 Y81.903 E35.47263
G1 X179.641 Y71.453 E35.8202
G1 X179.941 Y70.231 E35.86205
G0 F6000 X180.317 Y70.374
G1 F1200 X180.942 Y69.168 E35.90723
G1 X181.857 Y68.315 E35.94883
G1 X183.052 Y67.602 E35.99512
G1 X184.182 Y67.416 E36.03321
G1 X210.524 Y67.381 E36.90935
G1 X211.648 Y67.657 E36.94784
G1 X212.854 Y68.282 E36.99302
G1 X213.707 Y69.197 E37.03463
G1 X214.42 Y70.392 E37.08091
G1 X214.606 Y71.522 E37.119
G1 X214.641 Y81.862 E37.46291
G1 X214.365 Y82.986 E37.5014
G1 X213.74 Y84.192 E37.54658
G1 X212.825 Y85.045 E37.58819
G1 X211.629 Y85.758 E37.6345
G1 X210.335 Y85.965 E37.67809
G1 X210.365 Y86.321 E37.68997
G1 X210.366 Y87.356 E37.72439
G1 X210.291 Y88.295 E37.75572
G1 X210.084 Y89.709 E37.80326
G1 X209.67 Y90.729 E37.83987
G1 X208.828 Y92.342 E37.90039
G1 X207.747 Y93.595 E37.95543
G1 X206.775 Y94.289 E37.99515
G1 X205.797 Y94.676 E38.03013
G1 X205.529 Y94.73 E38.03923
G1 X205.529 Y99.769 E38.20682
G1 X205.253 Y100.893 E38.24532
G1 X204.628 Y102.099 E38.2905
G1 X203.713 Y102.952 E38.3321
G1 X202.515 Y103.665 E38.37847
G1 X201.202 Y103.866 E38.42265
G1 X198.665 Y103.886 E38.50704
G1 X197.931 Y103.709 E38.53215
G1 X196.949 Y103.861 E38.5652
G1 X194.35 Y103.889 E38.65165
G1 X193.237 Y103.615 E38.68977
G1 X192.02 Y102.985 E38.73535
G1 X191.167 Y102.07 E38.77696
G1 X190.454 Y100.875 E38.82324
G1 X190.268 Y99.745 E38.86133
G1 X190.238 Y94.726 E39.02826
G1 X190.008 Y94.683 E39.03605
G1 X188.946 Y94.212 E39.07469
G1 X188.216 Y93.769 E39.10309
G1 X186.887 Y92.342 E39.16795
G1 X186.189 Y90.844 E39.22291
G1 X185.738 Y89.944 E39.25639
G1 X185.502 Y88.532 E39.30401
G1 X185.393 Y87.271 E39.34611
G1 X185.392 Y86.44 E39.37375
G1 X185.422 Y85.979 E39.38911
G1 X184.158 Y85.979 E39.43115
G1 X183.034 Y85.703 E39.46965
G1 X181.828 Y85.078 E39.51483
G1 X180.975 Y84.163 E39.55643
G1 X180.262 Y82.968 E39.60271
G1 X180.076 Y81.838 E39.6408
G1 X180.041 Y71.498 E39.98472
G1 X180.317 Y70.374 E40.02321
G0 F6000 X180.694 Y70.516
G1 F1200 X181.264 Y69.415 E40.06445
G1 X182.099 Y68.637 E40.10241
G1 X183.192 Y67.985 E40.14474
G1 X184.247 Y67.811 E40.1803
G1 X210.477 Y67.781 E41.05271
G1 X211.506 Y68.034 E41.08796
G1 X212.607 Y68.604 E41.12919
