;FLAVOR:Marlin
;TIME:8159
;Filament used: 5.40917m
;Layer height: 0.2
;MINX:129.5
;MINY:127.272
;MINZ:0.2
;MAXX:170.5
;MAXY:172.722
;MAXZ:48.8
;Generated with Cura_SteamEngine 5.4.0
M140 S60
M105
M190 S60
M104 S210
M105
M109 S210
M82 ;absolute extrusion mode
M220 S100 ;Reset Feedrate
M221 S100 ;Reset Flowrate

M280 P0 S160 ;reset bltouch
G28 ;Home
G29 A ; enable UBL
G92 E0 ;Reset Extruder
G1 Z2.0 F3000 ;Move Z Axis up
G1 X10.1 Y20 Z0.28 F5000.0 ;Move to start position
G1 X10.1 Y200.0 Z0.28 F1500.0 E15 ;Draw the first line
G1 X10.4 Y200.0 Z0.28 F5000.0 ;Move to side a little
G1 X10.4 Y20 Z0.28 F1500.0 E30 ;Draw the second line
G92 E0 ;Reset Extruder
G1 Z2.0 F3000 ;Move Z Axis up
G92 E0
G92 E0
G1 F2100 E-1.5
;LAYER_COUNT:244
;LAYER:0
M107
G0 F6000 X139.496 Y130.301 Z0.2
;TYPE:SKIRT
G1 F2100 E0
G1 F1200 X141.071 Y128.829 E0.0717
G1 X142.787 Y127.831 E0.13773
G1 X143.451 Y127.572 E0.16143
G1 X145.142 Y127.322 E0.21829
G1 X149.046 Y127.274 E0.34814
G1 X149.558 Y127.399 E0.36567
G1 X150.184 Y127.316 E0.38668
G1 X154.005 Y127.272 E0.51377
G1 X155.856 Y127.728 E0.57718
G1 X157.925 Y128.795 E0.6546
G1 X159.389 Y130.366 E0.72603
G1 X160.402 Y132.082 E0.7923
G1 X160.625 Y132.611 E0.8114
G1 X160.896 Y134.427 E0.87247
G1 X160.931 Y138.243 E0.99939
G1 X161.245 Y138.609 E1.01543
G1 X161.729 Y139.236 E1.04178
G1 X162.05 Y139.694 E1.06038
G1 X162.506 Y140.427 E1.08909
G1 X163.218 Y141.771 E1.13968
G1 X163.458 Y142.316 E1.15948
G1 X163.805 Y143.248 E1.19256
G1 X164.174 Y144.49 E1.23566
G1 X164.347 Y145.261 E1.26194
G1 X164.503 Y146.222 E1.29432
G1 X164.557 Y146.705 E1.31048
G1 X164.622 Y147.986 E1.35314
G1 X165.441 Y148.185 E1.38118
G1 X167.477 Y149.243 E1.45749
G1 X168.936 Y150.804 E1.52856
G1 X170.143 Y152.827 E1.60691
G1 X170.43 Y154.607 E1.66688
G1 X170.5 Y165.765 E2.038
G1 X170.032 Y167.673 E2.10334
G1 X168.981 Y169.699 E2.17925
G1 X167.42 Y171.158 E2.25032
G1 X165.397 Y172.365 E2.32867
G1 X163.679 Y172.647 E2.38658
G1 X136.447 Y172.722 E3.29232
G1 X134.551 Y172.256 E3.35726
G1 X132.523 Y171.203 E3.43326
G1 X131.064 Y169.642 E3.50433
G1 X129.857 Y167.619 E3.58268
G1 X129.57 Y165.839 E3.64265
G1 X129.5 Y154.681 E4.01377
G1 X129.968 Y152.773 E4.07911
G1 X131.019 Y150.747 E4.15502
G1 X132.598 Y149.27 E4.22694
G1 X134.31 Y148.25 E4.29322
G1 X134.317 Y147.263 E4.32605
G1 X134.379 Y146.533 E4.35041
G1 X134.523 Y145.53 E4.38412
G1 X134.736 Y144.512 E4.41871
G1 X134.982 Y143.639 E4.44888
G1 X135.203 Y142.998 E4.47143
G1 X135.502 Y142.226 E4.49896
G1 X135.745 Y141.684 E4.51872
G1 X136.362 Y140.52 E4.56254
G1 X136.882 Y139.684 E4.59528
G1 X137.443 Y138.907 E4.62716
G1 X137.977 Y138.251 E4.65529
G1 X137.977 Y134.225 E4.78919
G1 X138.443 Y132.329 E4.85413
G1 X139.496 Y130.301 E4.93013
G0 F6000 X139.819 Y130.546
G1 F1200 X141.311 Y129.152 E4.99805
G1 X142.933 Y128.204 E5.06053
G1 X143.555 Y127.961 E5.08275
G1 X145.147 Y127.722 E5.13629
G1 X149 Y127.675 E5.26445
G1 X149.536 Y127.805 E5.28279
G1 X150.189 Y127.716 E5.30471
G1 X153.96 Y127.673 E5.43015
G1 X155.716 Y128.105 E5.49029
G1 X157.677 Y129.117 E5.56369
G1 X159.068 Y130.609 E5.63153
G1 X160.033 Y132.237 E5.69448
G1 X160.236 Y132.719 E5.71187
G1 X160.5 Y134.486 E5.7713
G1 X160.532 Y138.393 E5.90125
G1 X160.928 Y138.853 E5.92144
G1 X161.401 Y139.466 E5.94719
G1 X161.722 Y139.924 E5.96579
G1 X162.166 Y140.638 E5.99376
G1 X162.852 Y141.932 E6.04247
G1 X163.083 Y142.456 E6.06152
G1 X163.43 Y143.388 E6.09459
G1 X163.784 Y144.578 E6.13589
G1 X163.952 Y145.325 E6.16135
G1 X164.105 Y146.266 E6.19306
G1 X164.159 Y146.749 E6.20923
G1 X164.222 Y147.896 E6.24743
G1 X164.223 Y148.301 E6.2609
G1 X165.301 Y148.563 E6.2978
G1 X167.232 Y149.566 E6.37017
G1 X168.612 Y151.043 E6.4374
G1 X169.76 Y152.967 E6.51192
G1 X170.03 Y154.61 E6.5673
G1 X170.1 Y165.72 E6.93683
G1 X169.656 Y167.53 E6.99881
G1 X168.658 Y169.454 E7.0709
G1 X167.181 Y170.834 E7.13814
G1 X165.257 Y171.982 E7.21265
G1 X163.614 Y172.252 E7.26803
G1 X136.493 Y172.322 E8.17008
G1 X134.694 Y171.88 E8.2317
G1 X132.768 Y170.88 E8.30388
G1 X131.388 Y169.403 E8.37111
G1 X130.24 Y167.479 E8.44563
G1 X129.97 Y165.836 E8.50101
G1 X129.9 Y154.726 E8.87053
G1 X130.344 Y152.916 E8.93252
G1 X131.342 Y150.992 E9.00461
G1 X132.837 Y149.594 E9.07269
G1 X134.709 Y148.479 E9.14516
G1 X134.716 Y147.297 E9.18447
G1 X134.778 Y146.567 E9.20884
G1 X134.915 Y145.612 E9.24093
G1 X135.128 Y144.594 E9.27552
G1 X135.36 Y143.769 E9.30402
G1 X135.576 Y143.142 E9.32608
G1 X135.867 Y142.39 E9.3529
G1 X136.11 Y141.848 E9.37265
G1 X136.715 Y140.708 E9.41558
G1 X137.221 Y139.896 E9.4474
G1 X137.753 Y139.159 E9.47763
G1 X138.377 Y138.392 E9.51052
G1 X138.377 Y134.271 E9.64758
G1 X138.819 Y132.472 E9.7092
G1 X139.819 Y130.546 E9.78138
G0 F6000 X140.142 Y130.791
G1 F1200 X141.549 Y129.476 E9.84543
G1 X143.079 Y128.577 E9.90445
G1 X143.66 Y128.35 E9.9252
G1 X145.206 Y128.118 E9.9772
G1 X148.954 Y128.076 E10.10186
G1 X149.515 Y128.212 E10.12106
G1 X150.194 Y128.116 E10.14387
G1 X153.916 Y128.074 E10.26767
G1 X155.573 Y128.481 E10.32442
G1 X157.43 Y129.44 E10.39394
G1 X158.746 Y130.851 E10.45811
G1 X159.664 Y132.392 E10.51777
G1 X159.847 Y132.827 E10.53347
G1 X160.104 Y134.545 E10.59124
G1 X160.133 Y138.543 E10.72422
G1 X160.611 Y139.098 E10.74858
G1 X161.073 Y139.696 E10.77372
G1 X161.394 Y140.154 E10.79232
G1 X161.826 Y140.849 E10.81954
G1 X162.486 Y142.094 E10.8664
G1 X162.708 Y142.596 E10.88466
G1 X163.055 Y143.528 E10.91774
G1 X163.394 Y144.666 E10.95723
G1 X163.557 Y145.389 E10.98188
G1 X163.707 Y146.31 E11.01292
G1 X163.761 Y146.793 E11.02908
G1 X163.822 Y147.897 E11.06586
G1 X163.823 Y148.616 E11.08977
G1 X165.161 Y148.941 E11.13557
G1 X166.987 Y149.889 E11.204
G1 X168.291 Y151.285 E11.26753
G1 X169.377 Y153.105 E11.33803
G1 X169.635 Y154.675 E11.39094
G1 X169.7 Y165.675 E11.75681
G1 X169.28 Y167.387 E11.81544
G1 X168.335 Y169.209 E11.88371
G1 X166.939 Y170.513 E11.94724
G1 X165.119 Y171.599 E12.01774
G1 X163.549 Y171.857 E12.07065
G1 X136.54 Y171.922 E12.96898
G1 X134.836 Y171.503 E13.02734
G1 X133.013 Y170.557 E13.09565
G1 X131.709 Y169.161 E13.15919
G1 X130.623 Y167.341 E13.22968
G1 X130.365 Y165.771 E13.2826
G1 X130.3 Y154.771 E13.64847
G1 X130.72 Y153.059 E13.7071
G1 X131.665 Y151.237 E13.77536
G1 X133.076 Y149.918 E13.83961
G1 X134.809 Y148.886 E13.90669
G1 X135.108 Y148.812 E13.91694
G1 X135.115 Y147.331 E13.9662
G1 X135.177 Y146.601 E13.99056
G1 X135.307 Y145.694 E14.02104
G1 X135.52 Y144.676 E14.05563
G1 X135.738 Y143.899 E14.08247
G1 X135.949 Y143.286 E14.10403
G1 X136.232 Y142.554 E14.13014
G1 X136.475 Y142.012 E14.14989
G1 X137.054 Y140.92 E14.191
G1 X137.56 Y140.108 E14.22282
G1 X138.063 Y139.411 E14.25141
G1 X138.556 Y138.805 E14.2774
G1 X138.777 Y138.562 E14.28832
G1 X138.777 Y134.318 E14.42948
G1 X139.196 Y132.614 E14.48784
G1 X140.142 Y130.791 E14.55615
G0 F6000 X140.465 Y131.036
G1 F1200 X141.791 Y129.797 E14.61651
G1 X143.225 Y128.95 E14.6719
G1 X143.765 Y128.739 E14.69119
G1 X145.265 Y128.514 E14.74164
G1 X148.908 Y128.477 E14.86281
G1 X149.496 Y128.619 E14.88293
G1 X150.198 Y128.516 E14.90653
G1 X153.872 Y128.475 E15.02873
G1 X155.43 Y128.857 E15.08209
G1 X157.185 Y129.764 E15.14779
G1 X158.422 Y131.09 E15.20811
G1 X159.32 Y132.597 E15.26645
G1 X159.458 Y132.934 E15.27856
G1 X159.708 Y134.604 E15.33473
G1 X159.734 Y138.692 E15.4707
G1 X160.294 Y139.342 E15.49923
G1 X160.745 Y139.926 E15.52378
G1 X161.066 Y140.384 E15.54238
G1 X161.486 Y141.06 E15.56885
G1 X162.12 Y142.256 E15.61387
G1 X162.333 Y142.736 E15.63134
G1 X162.68 Y143.668 E15.66441
G1 X163.004 Y144.754 E15.70211
G1 X163.162 Y145.453 E15.72594
G1 X163.309 Y146.354 E15.75631
G1 X163.363 Y146.837 E15.77247
G1 X163.422 Y147.897 E15.80778
G1 X163.423 Y148.931 E15.84217
G1 X165.021 Y149.319 E15.89687
G1 X166.742 Y150.212 E15.96135
G1 X167.97 Y151.527 E16.0212
G1 X168.994 Y153.243 E16.08766
G1 X169.24 Y154.74 E16.13812
G1 X169.3 Y165.63 E16.50033
G1 X168.904 Y167.244 E16.5556
G1 X168.012 Y168.964 E16.62004
G1 X166.697 Y170.192 E16.67989
G1 X164.981 Y171.216 E16.74635
G1 X163.484 Y171.462 E16.79681
G1 X136.586 Y171.522 E17.69144
G1 X134.979 Y171.127 E17.74648
G1 X133.258 Y170.234 E17.81097
G1 X132.03 Y168.919 E17.87081
G1 X131.006 Y167.203 E17.93728
G1 X130.76 Y165.706 E17.98773
G1 X130.7 Y154.816 E18.34994
G1 X131.096 Y153.202 E18.40522
G1 X131.988 Y151.482 E18.46966
G1 X133.315 Y150.242 E18.53007
G1 X135.014 Y149.23 E18.59584
G1 X135.506 Y149.155 E18.61239
G1 X135.514 Y147.365 E18.67193
G1 X135.576 Y146.635 E18.6963
G1 X135.699 Y145.776 E18.72516
G1 X135.912 Y144.758 E18.75975
G1 X136.116 Y144.029 E18.78493
G1 X136.322 Y143.43 E18.806
G1 X136.597 Y142.718 E18.83138
G1 X136.84 Y142.176 E18.85114
G1 X137.394 Y141.131 E18.89048
G1 X137.885 Y140.342 E18.92139
G1 X138.374 Y139.663 E18.94922
G1 X138.852 Y139.074 E18.97445
G1 X139.177 Y138.716 E18.99053
G1 X139.177 Y134.364 E19.13528
G1 X139.572 Y132.757 E19.19032
G1 X140.465 Y131.036 E19.25481
G0 F6000 X140.788 Y131.281
G1 F1200 X142.031 Y130.12 E19.31138
G1 X143.371 Y129.323 E19.36323
G1 X143.87 Y129.128 E19.38105
G1 X145.324 Y128.91 E19.42995
G1 X148.862 Y128.878 E19.54763
G1 X149.477 Y129.026 E19.56867
G1 X150.202 Y128.916 E19.59306
G1 X153.824 Y128.876 E19.71354
G1 X155.291 Y129.235 E19.76377
G1 X156.94 Y130.088 E19.82552
G1 X158.098 Y131.329 E19.88197
G1 X158.976 Y132.802 E19.93901
G1 X159.071 Y133.045 E19.94768
G1 X159.308 Y134.607 E20.00023
G1 X159.335 Y138.842 E20.14109
G1 X159.977 Y139.586 E20.17378
G1 X160.417 Y140.156 E20.19773
G1 X160.738 Y140.614 E20.21633
G1 X161.133 Y141.248 E20.24117
G1 X161.754 Y142.418 E20.28523
G1 X161.967 Y142.898 E20.30269
G1 X162.305 Y143.807 E20.33495
G1 X162.614 Y144.842 E20.37088
G1 X162.767 Y145.518 E20.39393
G1 X162.911 Y146.398 E20.42359
G1 X162.965 Y146.881 E20.43975
G1 X163.022 Y147.898 E20.47363
G1 X163.024 Y149.324 E20.52106
G1 X163.368 Y149.324 E20.5325
G1 X164.878 Y149.695 E20.58422
G1 X166.497 Y150.535 E20.64488
G1 X167.649 Y151.769 E20.70103
G1 X168.611 Y153.381 E20.76347
G1 X168.845 Y154.805 E20.81146
G1 X168.9 Y165.585 E21.17001
G1 X168.528 Y167.101 E21.22193
G1 X167.689 Y168.719 E21.28255
G1 X166.455 Y169.871 E21.3387
G1 X164.843 Y170.833 E21.40114
G1 X163.419 Y171.067 E21.44913
G1 X136.632 Y171.122 E22.34008
G1 X135.122 Y170.751 E22.39179
G1 X133.503 Y169.911 E22.45246
G1 X132.351 Y168.677 E22.5086
G1 X131.389 Y167.065 E22.57104
G1 X131.155 Y165.641 E22.61904
G1 X131.1 Y154.861 E22.97759
G1 X131.472 Y153.345 E23.02951
G1 X132.311 Y151.727 E23.09013
G1 X133.554 Y150.566 E23.1467
G1 X135.154 Y149.613 E23.20864
G1 X135.905 Y149.499 E23.2339
G1 X135.913 Y147.399 E23.30375
G1 X135.975 Y146.669 E23.32812
G1 X136.091 Y145.858 E23.35536
G1 X136.304 Y144.84 E23.38996
G1 X136.494 Y144.159 E23.41347
G1 X136.695 Y143.574 E23.43405
G1 X136.962 Y142.882 E23.45872
G1 X137.205 Y142.34 E23.47847
G1 X137.734 Y141.342 E23.51604
G1 X138.225 Y140.553 E23.54695
G1 X138.685 Y139.915 E23.57311
G1 X139.148 Y139.343 E23.59759
G1 X139.577 Y138.87 E23.61882
G1 X139.577 Y134.41 E23.76716
G1 X139.948 Y132.9 E23.81888
G1 X140.788 Y131.281 E23.87955
G0 F6000 X141.111 Y131.526
G1 F1200 X142.27 Y130.444 E23.93228
G1 X143.576 Y129.667 E23.98283
G1 X143.971 Y129.518 E23.99687
G1 X145.383 Y129.306 E24.04436
G1 X148.816 Y129.278 E24.15854
G1 X149.461 Y129.433 E24.18061
G1 X150.262 Y129.312 E24.20755
G1 X153.776 Y129.277 E24.32443
G1 X155.152 Y129.613 E24.37154
G1 X156.695 Y130.412 E24.42933
G1 X157.774 Y131.568 E24.48193
G1 X158.632 Y133.007 E24.53765
G1 X158.683 Y133.15 E24.5427
G1 X158.908 Y134.61 E24.59184
G1 X158.936 Y139.025 E24.73868
G1 X159.163 Y139.254 E24.74941
G1 X159.66 Y139.83 E24.77471
G1 X160.089 Y140.386 E24.79807
G1 X160.41 Y140.844 E24.81667
G1 X160.793 Y141.459 E24.84077
G1 X161.388 Y142.58 E24.88298
G1 X161.601 Y143.06 E24.90044
G1 X161.93 Y143.946 E24.93188
G1 X162.224 Y144.931 E24.96607
G1 X162.372 Y145.583 E24.98831
G1 X162.513 Y146.442 E25.01726
G1 X162.567 Y146.925 E25.03342
G1 X162.622 Y147.898 E25.06584
G1 X162.624 Y149.724 E25.12657
G1 X163.321 Y149.724 E25.14975
G1 X164.736 Y150.072 E25.19822
G1 X166.252 Y150.858 E25.25501
G1 X167.328 Y152.011 E25.30747
G1 X168.228 Y153.519 E25.36588
G1 X168.45 Y154.87 E25.41141
G1 X168.5 Y165.54 E25.7663
G1 X168.152 Y166.958 E25.81487
G1 X167.366 Y168.474 E25.87166
G1 X166.213 Y169.55 E25.92412
G1 X164.705 Y170.45 E25.98253
G1 X163.354 Y170.672 E26.02806
G1 X136.679 Y170.722 E26.91528
G1 X135.264 Y170.374 E26.96375
G1 X133.748 Y169.588 E27.02054
G1 X132.672 Y168.435 E27.073
G1 X131.772 Y166.927 E27.13141
G1 X131.55 Y165.576 E27.17694
G1 X131.5 Y154.906 E27.53183
G1 X131.848 Y153.488 E27.58039
G1 X132.634 Y151.972 E27.63719
G1 X133.793 Y150.89 E27.68993
G1 X135.294 Y149.996 E27.74803
G1 X136.304 Y149.842 E27.78202
G1 X136.312 Y147.433 E27.86214
G1 X136.374 Y146.703 E27.88651
G1 X136.483 Y145.94 E27.91214
G1 X136.696 Y144.922 E27.94673
G1 X136.872 Y144.289 E27.96859
G1 X137.068 Y143.718 E27.98867
G1 X137.327 Y143.046 E28.01262
G1 X137.57 Y142.504 E28.03238
G1 X138.074 Y141.553 E28.06817
G1 X138.565 Y140.764 E28.09908
G1 X138.996 Y140.167 E28.12357
G1 X139.448 Y139.608 E28.14748
G1 X139.762 Y139.253 E28.16325
G1 X139.977 Y139.033 E28.17348
G1 X139.977 Y134.457 E28.32567
G1 X140.325 Y133.042 E28.37414
G1 X141.111 Y131.526 E28.43094
G0 F6000 X141.434 Y131.771
G1 F1200 X142.509 Y130.768 E28.47984
G1 X143.781 Y130.011 E28.52907
G1 X144.071 Y129.908 E28.53931
G1 X145.442 Y129.702 E28.58542
G1 X148.77 Y129.678 E28.69611
G1 X149.445 Y129.84 E28.7192
G1 X150.322 Y129.708 E28.7487
G1 X153.728 Y129.678 E28.86198
G1 X155.013 Y129.991 E28.90597
G1 X156.45 Y130.735 E28.95979
G1 X157.45 Y131.807 E29.00855
G1 X158.288 Y133.212 E29.06296
G1 X158.508 Y134.613 E29.11013
G1 X158.537 Y139.191 E29.2624
G1 X158.86 Y139.516 E29.27764
G1 X159.343 Y140.075 E29.30221
G1 X159.761 Y140.616 E29.32495
G1 X160.082 Y141.074 E29.34355
G1 X160.454 Y141.671 E29.36695
G1 X161.022 Y142.742 E29.40727
G1 X161.235 Y143.222 E29.42474
G1 X161.555 Y144.085 E29.45535
G1 X161.834 Y145.02 E29.4878
G1 X161.977 Y145.648 E29.50922
G1 X162.115 Y146.486 E29.53747
G1 X162.169 Y146.969 E29.55364
G1 X162.222 Y147.899 E29.58462
G1 X162.225 Y150.124 E29.65862
G1 X163.275 Y150.124 E29.69355
G1 X164.593 Y150.448 E29.73869
G1 X166.007 Y151.181 E29.79166
G1 X167.007 Y152.253 E29.84042
G1 X167.845 Y153.657 E29.8948
G1 X168.055 Y154.935 E29.93788
G1 X168.1 Y165.495 E30.28911
G1 X167.776 Y166.815 E30.33432
G1 X167.043 Y168.229 E30.38729
G1 X165.971 Y169.229 E30.43605
G1 X164.567 Y170.067 E30.49043
G1 X163.289 Y170.277 E30.53351
G1 X136.725 Y170.322 E31.41703
G1 X135.407 Y169.998 E31.46217
G1 X133.993 Y169.265 E31.51515
G1 X132.993 Y168.193 E31.56391
G1 X132.155 Y166.789 E31.61829
G1 X131.945 Y165.511 E31.66137
G1 X131.9 Y154.951 E32.0126
G1 X132.224 Y153.631 E32.0578
G1 X132.957 Y152.217 E32.11078
G1 X134.032 Y151.214 E32.15968
G1 X135.434 Y150.379 E32.21395
G1 X136.703 Y150.185 E32.25665
G1 X136.711 Y147.467 E32.34705
G1 X136.773 Y146.737 E32.37142
G1 X136.875 Y146.022 E32.39544
G1 X137.088 Y145.004 E32.43003
G1 X137.251 Y144.418 E32.45026
G1 X137.441 Y143.862 E32.4698
G1 X137.692 Y143.21 E32.49304
G1 X137.935 Y142.668 E32.5128
G1 X138.414 Y141.764 E32.54683
G1 X138.905 Y140.975 E32.57773
G1 X139.307 Y140.418 E32.60058
G1 X139.747 Y139.873 E32.62388
G1 X140.048 Y139.533 E32.63898
G1 X140.377 Y139.197 E32.65462
G1 X140.377 Y134.503 E32.81074
G1 X140.701 Y133.185 E32.85589
G1 X141.434 Y131.771 E32.90886
G0 F6000 X141.756 Y132.018
G1 F1200 X142.751 Y131.09 E32.95411
G1 X143.986 Y130.355 E33.00191
G1 X144.13 Y130.304 E33.00699
G1 X145.501 Y130.098 E33.05311
G1 X148.724 Y130.078 E33.16031
G1 X149.427 Y130.247 E33.18435
G1 X150.326 Y130.108 E33.21461
G1 X153.68 Y130.078 E33.32617
G1 X154.874 Y130.369 E33.36704
G1 X156.203 Y131.057 E33.41682
G1 X157.131 Y132.052 E33.46207
G1 X157.905 Y133.349 E33.51231
G1 X158.108 Y134.616 E33.55499
G1 X158.138 Y139.357 E33.71268
G1 X158.557 Y139.778 E33.73243
G1 X159.04 Y140.337 E33.757
G1 X159.433 Y140.846 E33.77839
G1 X159.754 Y141.304 E33.79699
G1 X160.114 Y141.882 E33.81964
G1 X160.656 Y142.904 E33.85812
G1 X160.869 Y143.384 E33.87558
G1 X161.18 Y144.224 E33.90538
