;FLAVOR:Marlin
;TIME:7142
;Filament used: 4.93889m
;Layer height: 0.2
;MINX:129.5
;MINY:128.508
;MINZ:0.2
;MAXX:170.5
;MAXY:171.484
;MAXZ:48.8
;Generated with Cura_SteamEngine 5.4.0
M140 S60
M105
M190 S60
M104 S210
M105
M109 S210
M82 ;absolute extrusion mode
M220 S100 ;Reset Feedrate
M221 S100 ;Reset Flowrate

M280 P0 S160 ;reset bltouch
G28 ;Home
G29 A ; enable UBL
G92 E0 ;Reset Extruder
G1 Z2.0 F3000 ;Move Z Axis up
G1 X10.1 Y20 Z0.28 F5000.0 ;Move to start position
G1 X10.1 Y200.0 Z0.28 F1500.0 E15 ;Draw the first line
G1 X10.4 Y200.0 Z0.28 F5000.0 ;Move to side a little
G1 X10.4 Y20 Z0.28 F1500.0 E30 ;Draw the second line
G92 E0 ;Reset Extruder
G1 Z2.0 F3000 ;Move Z Axis up
G92 E0
G92 E0
G1 F2100 E-1.5
;LAYER_COUNT:244
;LAYER:0
M107
G0 F6000 X140.322 Y131.539 Z0.2
;TYPE:SKIRT
G1 F2100 E0
G1 F1200 X141.895 Y130.068 E0.07163
G1 X143.492 Y129.13 E0.13323
G1 X144.285 Y128.808 E0.1617
G1 X146.067 Y128.552 E0.22158
G1 X149.041 Y128.51 E0.3205
G1 X149.564 Y128.639 E0.33842
G1 X150.306 Y128.544 E0.3633
G1 X153.171 Y128.508 E0.4586
G1 X155.038 Y128.968 E0.52255
G1 X157.094 Y130.031 E0.59953
G1 X158.568 Y131.611 E0.6714
G1 X159.59 Y133.335 E0.73806
G1 X159.793 Y133.817 E0.75545
G1 X160.069 Y135.659 E0.8174
G1 X160.097 Y138.654 E0.91702
G1 X161.603 Y139.842 E0.98082
G1 X163.316 Y141.632 E1.06323
G1 X164.543 Y144.299 E1.16087
G1 X164.864 Y146.807 E1.24496
G1 X165.446 Y146.95 E1.2649
G1 X167.477 Y148.005 E1.34102
G1 X168.936 Y149.566 E1.41209
G1 X170.143 Y151.589 E1.49044
G1 X170.43 Y153.369 E1.5504
G1 X170.5 Y164.527 E1.92153
G1 X170.032 Y166.435 E1.98687
G1 X168.981 Y168.461 E2.06278
G1 X167.42 Y169.92 E2.13385
G1 X165.397 Y171.127 E2.2122
G1 X163.679 Y171.409 E2.27011
G1 X136.447 Y171.484 E3.17585
G1 X134.551 Y171.018 E3.24079
G1 X132.523 Y169.965 E3.31679
G1 X131.064 Y168.404 E3.38786
G1 X129.857 Y166.381 E3.46621
G1 X129.57 Y164.601 E3.52617
G1 X129.5 Y153.443 E3.8973
G1 X129.968 Y151.535 E3.96264
G1 X131.019 Y149.509 E4.03855
G1 X132.591 Y148.039 E4.11014
G1 X134.007 Y147.207 E4.16476
G1 X134.044 Y146.775 E4.17918
G1 X134.39 Y144.272 E4.26322
G1 X135.632 Y141.537 E4.36313
G1 X138.004 Y139.169 E4.47461
G1 X138.803 Y138.693 E4.50554
G1 X138.803 Y135.463 E4.61297
G1 X139.269 Y133.567 E4.67791
G1 X140.322 Y131.539 E4.75391
G0 F6000 X140.645 Y131.784
G1 F1200 X142.134 Y130.392 E4.82171
G1 X143.695 Y129.475 E4.88192
G1 X144.389 Y129.197 E4.90679
G1 X146.073 Y128.952 E4.96339
G1 X148.998 Y128.911 E5.06068
G1 X149.544 Y129.045 E5.07938
G1 X150.311 Y128.944 E5.10511
G1 X153.126 Y128.909 E5.19875
G1 X154.896 Y129.345 E5.25938
G1 X156.849 Y130.355 E5.3325
G1 X158.244 Y131.85 E5.40051
G1 X159.221 Y133.49 E5.46401
G1 X159.404 Y133.925 E5.4797
G1 X159.673 Y135.718 E5.54
G1 X159.699 Y138.849 E5.64415
G1 X161.314 Y140.119 E5.71248
G1 X162.982 Y141.862 E5.79272
G1 X164.153 Y144.408 E5.88593
G1 X164.502 Y147.131 E5.97724
G1 X165.306 Y147.328 E6.00477
G1 X167.232 Y148.328 E6.07695
G1 X168.612 Y149.805 E6.14418
G1 X169.76 Y151.729 E6.2187
G1 X170.03 Y153.372 E6.27408
G1 X170.1 Y164.482 E6.6436
G1 X169.656 Y166.292 E6.70559
G1 X168.658 Y168.216 E6.77768
G1 X167.181 Y169.596 E6.84491
G1 X165.257 Y170.744 E6.91943
G1 X163.614 Y171.014 E6.97481
G1 X136.493 Y171.084 E7.87686
G1 X134.694 Y170.642 E7.93847
G1 X132.768 Y169.642 E8.01065
G1 X131.388 Y168.165 E8.07788
G1 X130.24 Y166.241 E8.1524
G1 X129.97 Y164.598 E8.20778
G1 X129.9 Y153.488 E8.57731
G1 X130.344 Y151.678 E8.63929
G1 X131.342 Y149.754 E8.71138
G1 X132.832 Y148.361 E8.77922
G1 X134.389 Y147.447 E8.83927
G1 X134.443 Y146.809 E8.86057
G1 X134.778 Y144.384 E8.94199
G1 X135.965 Y141.77 E9.03748
G1 X138.251 Y139.488 E9.14491
G1 X139.203 Y138.921 E9.18176
G1 X139.203 Y135.509 E9.29525
G1 X139.645 Y133.71 E9.35686
G1 X140.645 Y131.784 E9.42904
G0 F6000 X140.968 Y132.029
G1 F1200 X142.376 Y130.713 E9.49314
G1 X143.844 Y129.846 E9.54985
G1 X144.491 Y129.587 E9.57303
G1 X146.079 Y129.352 E9.62642
G1 X148.951 Y129.312 E9.72195
G1 X149.52 Y129.451 E9.74143
G1 X150.316 Y129.344 E9.76815
G1 X153.081 Y129.31 E9.86012
G1 X154.754 Y129.722 E9.91742
G1 X156.604 Y130.679 E9.9867
G1 X157.92 Y132.089 E10.05085
G1 X158.877 Y133.695 E10.11303
G1 X159.015 Y134.032 E10.12514
G1 X159.277 Y135.777 E10.18383
G1 X159.3 Y139.045 E10.29253
G1 X161.025 Y140.396 E10.3654
G1 X162.648 Y142.092 E10.44348
G1 X163.763 Y144.517 E10.53225
G1 X164.103 Y147.155 E10.62072
G1 X164.124 Y147.449 E10.63052
G1 X165.163 Y147.704 E10.66611
G1 X166.987 Y148.651 E10.73446
G1 X168.291 Y150.047 E10.798
G1 X169.377 Y151.867 E10.86849
G1 X169.635 Y153.437 E10.92141
G1 X169.7 Y164.437 E11.28728
G1 X169.28 Y166.149 E11.34591
G1 X168.335 Y167.971 E11.41417
G1 X166.939 Y169.275 E11.47771
G1 X165.119 Y170.361 E11.5482
G1 X163.549 Y170.619 E11.60112
G1 X136.54 Y170.684 E12.49944
G1 X134.836 Y170.265 E12.55781
G1 X133.013 Y169.319 E12.62612
G1 X131.709 Y167.923 E12.68966
G1 X130.623 Y166.103 E12.76015
G1 X130.365 Y164.533 E12.81307
G1 X130.3 Y153.533 E13.17893
G1 X130.72 Y151.821 E13.23756
G1 X131.665 Y149.999 E13.30583
G1 X133.071 Y148.685 E13.36984
G1 X134.554 Y147.811 E13.42709
G1 X134.768 Y147.721 E13.43481
G1 X134.842 Y146.843 E13.46412
G1 X135.166 Y144.496 E13.54292
G1 X136.298 Y142.003 E13.63398
G1 X138.498 Y139.807 E13.73737
G1 X139.603 Y139.149 E13.78015
G1 X139.603 Y135.556 E13.89965
G1 X140.022 Y133.852 E13.95801
G1 X140.968 Y132.029 E14.02632
G0 F6000 X141.291 Y132.274
G1 F1200 X142.616 Y131.036 E14.08664
G1 X143.993 Y130.217 E14.13992
G1 X144.593 Y129.977 E14.16142
G1 X146.085 Y129.752 E14.2116
G1 X148.905 Y129.713 E14.30541
G1 X149.498 Y129.857 E14.3257
G1 X150.321 Y129.744 E14.35333
G1 X153.036 Y129.711 E14.44364
G1 X154.612 Y130.099 E14.49762
G1 X156.359 Y131.003 E14.56305
G1 X157.596 Y132.328 E14.62334
G1 X158.533 Y133.9 E14.68421
G1 X158.628 Y134.143 E14.69288
G1 X158.877 Y135.78 E14.74796
G1 X158.902 Y139.341 E14.8664
G1 X159.165 Y139.447 E14.87583
G1 X160.736 Y140.673 E14.94211
G1 X162.314 Y142.322 E15.01802
G1 X163.374 Y144.626 E15.10237
G1 X163.704 Y147.183 E15.18813
G1 X163.745 Y147.767 E15.2076
G1 X165.02 Y148.08 E15.25126
G1 X166.742 Y148.974 E15.3158
G1 X167.97 Y150.289 E15.37564
G1 X168.994 Y152.005 E15.4421
G1 X169.24 Y153.502 E15.49256
G1 X169.3 Y164.392 E15.85477
G1 X168.904 Y166.006 E15.91004
G1 X168.012 Y167.726 E15.97449
G1 X166.697 Y168.954 E16.03433
G1 X164.981 Y169.978 E16.10079
G1 X163.484 Y170.224 E16.15125
G1 X136.586 Y170.284 E17.04588
G1 X134.979 Y169.889 E17.10092
G1 X133.258 Y168.996 E17.16541
G1 X132.03 Y167.681 E17.22525
G1 X131.006 Y165.965 E17.29172
G1 X130.76 Y164.468 E17.34218
G1 X130.7 Y153.578 E17.70438
G1 X131.096 Y151.964 E17.75966
G1 X131.988 Y150.244 E17.8241
G1 X133.31 Y149.009 E17.88427
G1 X134.757 Y148.156 E17.94014
G1 X135.155 Y147.998 E17.95438
G1 X135.17 Y147.697 E17.96441
G1 X135.241 Y146.878 E17.99175
G1 X135.554 Y144.608 E18.06796
G1 X136.631 Y142.236 E18.15461
G1 X138.745 Y140.126 E18.25395
G1 X140.003 Y139.377 E18.30265
G1 X140.003 Y135.602 E18.4282
G1 X140.398 Y133.995 E18.48324
G1 X141.291 Y132.274 E18.54773
G0 F6000 X141.614 Y132.519
G1 F1200 X142.857 Y131.358 E18.6043
G1 X144.197 Y130.561 E18.65616
G1 X144.697 Y130.366 E18.67401
G1 X146.145 Y130.148 E18.72271
G1 X148.859 Y130.114 E18.81299
G1 X149.477 Y130.264 E18.83414
G1 X150.326 Y130.144 E18.86266
G1 X152.992 Y130.112 E18.95133
G1 X154.469 Y130.475 E19.00192
G1 X156.114 Y131.327 E19.06354
G1 X157.272 Y132.567 E19.11997
G1 X158.189 Y134.105 E19.17952
G1 X158.24 Y134.248 E19.18457
G1 X158.477 Y135.783 E19.23623
G1 X158.504 Y139.642 E19.36459
G1 X158.92 Y139.763 E19.379
G1 X160.447 Y140.95 E19.44332
G1 X161.98 Y142.552 E19.51707
G1 X162.985 Y144.736 E19.59704
G1 X163.305 Y147.211 E19.68004
G1 X163.366 Y148.085 E19.70918
G1 X164.878 Y148.457 E19.76097
G1 X166.497 Y149.297 E19.82163
G1 X167.649 Y150.531 E19.87778
G1 X168.611 Y152.143 E19.94022
G1 X168.845 Y153.567 E19.98822
G1 X168.9 Y164.347 E20.34676
G1 X168.528 Y165.863 E20.39868
G1 X167.689 Y167.481 E20.4593
G1 X166.455 Y168.633 E20.51545
G1 X164.843 Y169.595 E20.57789
G1 X163.419 Y169.829 E20.62588
G1 X136.632 Y169.884 E21.51683
G1 X135.122 Y169.513 E21.56854
G1 X133.503 Y168.673 E21.62921
G1 X132.351 Y167.439 E21.68536
G1 X131.389 Y165.827 E21.74779
G1 X131.155 Y164.403 E21.79579
G1 X131.1 Y153.623 E22.15434
G1 X131.472 Y152.107 E22.20626
G1 X132.311 Y150.489 E22.26688
G1 X133.549 Y149.333 E22.32321
G1 X134.96 Y148.501 E22.37769
G1 X135.353 Y148.351 E22.39168
G1 X135.539 Y148.313 E22.398
G1 X135.569 Y147.732 E22.41735
G1 X135.64 Y146.913 E22.44469
G1 X135.942 Y144.72 E22.51832
G1 X136.964 Y142.469 E22.60054
G1 X138.992 Y140.445 E22.69584
G1 X140.271 Y139.683 E22.74536
G1 X140.403 Y139.63 E22.75009
G1 X140.403 Y135.648 E22.88253
G1 X140.774 Y134.138 E22.93425
G1 X141.614 Y132.519 E22.99491
G0 F6000 X141.937 Y132.764
G1 F1200 X143.096 Y131.682 E23.04765
G1 X144.402 Y130.905 E23.09819
G1 X144.797 Y130.756 E23.11223
G1 X146.205 Y130.544 E23.15959
G1 X148.813 Y130.515 E23.24634
G1 X149.458 Y130.671 E23.26841
G1 X150.331 Y130.544 E23.29775
G1 X152.948 Y130.513 E23.3848
G1 X154.326 Y130.851 E23.43199
G1 X155.869 Y131.65 E23.48978
G1 X156.948 Y132.806 E23.54238
G1 X157.845 Y134.31 E23.60062
G1 X158.077 Y135.786 E23.65032
G1 X158.106 Y139.943 E23.78858
G1 X158.735 Y140.126 E23.81037
G1 X160.158 Y141.227 E23.87021
G1 X161.646 Y142.782 E23.9418
G1 X162.596 Y144.846 E24.01737
G1 X162.906 Y147.239 E24.09762
G1 X162.992 Y148.486 E24.1392
G1 X163.321 Y148.486 E24.15014
G1 X164.736 Y148.834 E24.19861
G1 X166.252 Y149.62 E24.2554
G1 X167.328 Y150.773 E24.30786
G1 X168.228 Y152.281 E24.36627
G1 X168.45 Y153.632 E24.4118
G1 X168.5 Y164.302 E24.76669
G1 X168.152 Y165.72 E24.81526
G1 X167.366 Y167.236 E24.87205
G1 X166.213 Y168.312 E24.92451
G1 X164.705 Y169.212 E24.98292
G1 X163.354 Y169.434 E25.02845
G1 X136.679 Y169.484 E25.91567
G1 X135.264 Y169.136 E25.96413
G1 X133.748 Y168.35 E26.02093
G1 X132.672 Y167.197 E26.07338
G1 X131.772 Y165.689 E26.13179
G1 X131.55 Y164.338 E26.17733
G1 X131.5 Y153.668 E26.53222
G1 X131.848 Y152.25 E26.58078
G1 X132.634 Y150.734 E26.63758
G1 X133.789 Y149.656 E26.69013
G1 X135.103 Y148.875 E26.74097
G1 X135.496 Y148.725 E26.75496
G1 X135.921 Y148.661 E26.76925
G1 X135.968 Y147.767 E26.79903
G1 X136.039 Y146.948 E26.82637
G1 X136.33 Y144.832 E26.89741
G1 X137.297 Y142.702 E26.97522
G1 X139.239 Y140.764 E27.06647
G1 X140.476 Y140.027 E27.11436
G1 X140.803 Y139.92 E27.1258
G1 X140.803 Y135.695 E27.26633
G1 X141.151 Y134.28 E27.31479
G1 X141.937 Y132.764 E27.37159
G0 F6000 X142.26 Y133.009
G1 F1200 X143.335 Y132.006 E27.42049
G1 X144.607 Y131.249 E27.46972
G1 X144.896 Y131.146 E27.47993
G1 X146.265 Y130.94 E27.52597
G1 X148.767 Y130.916 E27.60919
G1 X149.441 Y131.079 E27.63226
G1 X150.336 Y130.944 E27.66236
G1 X152.9 Y130.914 E27.74765
G1 X154.187 Y131.229 E27.79172
G1 X155.624 Y131.973 E27.84554
G1 X156.624 Y133.045 E27.8943
G1 X157.462 Y134.45 E27.94871
G1 X157.677 Y135.789 E27.99381
G1 X157.708 Y140.244 E28.14199
G1 X158.55 Y140.489 E28.17116
G1 X159.869 Y141.504 E28.22651
G1 X161.312 Y143.012 E28.29593
G1 X162.207 Y144.956 E28.36711
G1 X162.509 Y147.29 E28.44539
G1 X162.575 Y148.25 E28.47739
G1 X162.591 Y148.886 E28.49855
G1 X163.275 Y148.886 E28.5213
G1 X164.593 Y149.21 E28.56645
G1 X166.007 Y149.943 E28.61942
G1 X167.007 Y151.015 E28.66818
G1 X167.845 Y152.419 E28.72256
G1 X168.055 Y153.697 E28.76564
G1 X168.1 Y164.257 E29.11687
G1 X167.776 Y165.577 E29.16208
G1 X167.043 Y166.991 E29.21505
G1 X165.971 Y167.991 E29.26381
G1 X164.567 Y168.829 E29.31819
G1 X163.289 Y169.039 E29.36127
G1 X136.725 Y169.084 E30.24479
G1 X135.407 Y168.76 E30.28993
G1 X133.993 Y168.027 E30.34291
G1 X132.993 Y166.955 E30.39167
G1 X132.155 Y165.551 E30.44605
G1 X131.945 Y164.273 E30.48913
G1 X131.9 Y153.713 E30.84036
G1 X132.224 Y152.393 E30.88556
G1 X132.957 Y150.979 E30.93854
G1 X134.03 Y149.978 E30.98734
G1 X135.307 Y149.219 E31.03675
G1 X135.595 Y149.115 E31.04694
G1 X136.303 Y149.008 E31.07075
G1 X136.367 Y147.802 E31.11092
G1 X136.438 Y146.983 E31.13826
G1 X136.718 Y144.944 E31.20672
G1 X137.63 Y142.935 E31.2801
G1 X139.486 Y141.083 E31.3673
G1 X140.681 Y140.371 E31.41357
G1 X141.203 Y140.222 E31.43163
G1 X141.203 Y135.741 E31.58066
G1 X141.527 Y134.423 E31.62581
G1 X142.26 Y133.009 E31.67878
G0 F6000 X142.582 Y133.256
G1 F1200 X143.577 Y132.328 E31.72403
G1 X144.812 Y131.593 E31.77183
G1 X144.956 Y131.542 E31.77691
G1 X146.325 Y131.336 E31.82296
G1 X148.72 Y131.316 E31.90262
G1 X149.424 Y131.486 E31.92671
G1 X150.395 Y131.34 E31.95937
G1 X152.852 Y131.315 E32.04109
G1 X154.048 Y131.607 E32.08204
G1 X155.377 Y132.295 E32.13181
G1 X156.305 Y133.29 E32.17707
G1 X157.079 Y134.587 E32.2273
G1 X157.277 Y135.792 E32.26792
G1 X157.31 Y140.545 E32.42601
G1 X158.365 Y140.851 E32.46254
G1 X159.58 Y141.781 E32.51343
G1 X160.978 Y143.242 E32.58069
G1 X161.818 Y145.066 E32.64748
G1 X162.11 Y147.318 E32.72301
G1 X162.175 Y148.26 E32.75442
G1 X162.192 Y148.916 E32.77624
G1 X162.221 Y149.286 E32.78859
G1 X163.229 Y149.286 E32.82211
G1 X164.45 Y149.586 E32.86393
G1 X165.76 Y150.265 E32.91301
G1 X166.688 Y151.26 E32.95826
G1 X167.462 Y152.557 E33.0085
G1 X167.66 Y153.762 E33.04911
G1 X167.7 Y164.212 E33.39668
G1 X167.4 Y165.434 E33.43853
G1 X166.721 Y166.744 E33.48761
G1 X165.726 Y167.672 E33.53286
G1 X164.429 Y168.446 E33.5831
G1 X163.224 Y168.644 E33.62371
G1 X136.771 Y168.684 E34.50355
G1 X135.55 Y168.384 E34.54536
G1 X134.24 Y167.705 E34.59444
G1 X133.312 Y166.71 E34.63969
G1 X132.538 Y165.413 E34.68993
G1 X132.34 Y164.208 E34.73054
G1 X132.3 Y153.758 E35.07812
G1 X132.6 Y152.536 E35.11997
G1 X133.279 Y151.226 E35.16904
G1 X134.273 Y150.299 E35.21425
G1 X135.511 Y149.563 E35.26215
G1 X135.655 Y149.511 E35.26724
G1 X136.685 Y149.356 E35.30189
G1 X136.766 Y147.837 E35.35248
G1 X136.837 Y147.018 E35.37982
G1 X137.106 Y145.056 E35.44569
G1 X137.963 Y143.168 E35.51465
G1 X139.733 Y141.402 E35.59781
G1 X140.841 Y140.742 E35.64071
G1 X141.603 Y140.524 E35.66707
G1 X141.603 Y135.787 E35.82462
G1 X141.903 Y134.566 E35.86644
G1 X142.582 Y133.256 E35.91552
G0 F6000 X142.904 Y133.503
G1 F1200 X143.819 Y132.65 E35.95712
G1 X145.017 Y131.937 E36.00349
G1 X146.328 Y131.736 E36.04761
G1 X148.673 Y131.716 E36.1256
G1 X149.407 Y131.894 E36.15072
G1 X150.455 Y131.736 E36.18597
G1 X152.804 Y131.716 E36.26411
G1 X153.909 Y131.985 E36.30193
G1 X155.13 Y132.617 E36.34766
G1 X155.983 Y133.532 E36.38927
G1 X156.696 Y134.727 E36.43555
G1 X156.882 Y135.857 E36.47364
G1 X156.912 Y140.846 E36.63958
G1 X158.182 Y141.214 E36.68355
G1 X159.291 Y142.058 E36.72991
G1 X160.644 Y143.472 E36.795
G1 X161.429 Y145.176 E36.8574
G1 X161.713 Y147.369 E36.93095
G1 X161.775 Y148.271 E36.96102
G1 X161.793 Y148.947 E36.98351
G1 X161.85 Y149.686 E37.00816
G1 X163.183 Y149.686 E37.0525
G1 X164.307 Y149.962 E37.09099
G1 X165.513 Y150.587 E37.13617
G1 X166.366 Y151.502 E37.17778
G1 X167.079 Y152.697 E37.22406
G1 X167.265 Y153.827 E37.26215
G1 X167.3 Y164.167 E37.60606
G1 X167.024 Y165.291 E37.64456
G1 X166.399 Y166.497 E37.68973
G1 X165.484 Y167.35 E37.73134
G1 X164.289 Y168.063 E37.77762
G1 X163.159 Y168.249 E37.81571
G1 X136.817 Y168.284 E38.69185
G1 X135.693 Y168.008 E38.73035
G1 X134.487 Y167.383 E38.77553
G1 X133.634 Y166.468 E38.81713
G1 X132.921 Y165.273 E38.86342
G1 X132.735 Y164.143 E38.9015
G1 X132.7 Y153.803 E39.24542
G1 X132.976 Y152.679 E39.28391
G1 X133.601 Y151.473 E39.32909
G1 X134.516 Y150.62 E39.3707
G1 X135.715 Y149.907 E39.41709
G1 X137.067 Y149.703 E39.46257
G1 X137.165 Y147.872 E39.52356
G1 X137.236 Y147.053 E39.5509
G1 X137.494 Y145.168 E39.61418
G1 X138.296 Y143.401 E39.67872
G1 X139.98 Y141.721 E39.75784
G1 X141.001 Y141.113 E39.79736
G1 X142.003 Y140.826 E39.83203
G1 X142.003 Y135.833 E39.99809
G1 X142.279 Y134.709 E40.03659
G1 X142.904 Y133.503 E40.08177
G0 F6000 X143.226 Y133.75
G1 F1200 X144.061 Y132.972 E40.11973
G1 X145.156 Y132.32 E40.16211
G1 X146.331 Y132.136 E40.20167
G1 X148.626 Y132.116 E40.27801
G1 X149.445 Y132.315 E40.30604
G1 X149.582 Y132.272 E40.31081
G1 X150.458 Y132.136 E40.3403
G1 X152.756 Y132.116 E40.41673
G1 X153.77 Y132.363 E40.45145
G1 X154.883 Y132.939 E40.49313
