;FLAVOR:Marlin
;TIME:30504
;Filament used: 20.9829m
;Layer height: 0.2
;MINX:60.078
;MINY:116.5
;MINZ:0.2
;MAXX:239.938
;MAXY:183.5
;MAXZ:59
;Generated with Cura_SteamEngine master
M140 S62
M105
M190 S62
M104 S200
M105
M109 S200
M82 ;absolute extrusion mode
M201 X500.00 Y500.00 Z100.00 E5000.00 ;Setup machine max acceleration
M203 X500.00 Y500.00 Z10.00 E50.00 ;Setup machine max feedrate
M204 P500.00 R1000.00 T500.00 ;Setup Print/Retract/Travel acceleration
M205 X8.00 Y8.00 Z0.40 E5.00 ;Setup Jerk
M220 S100 ;Reset Feedrate
M221 S100 ;Reset Flowrate

G28 ;Home

G92 E0 ;Reset Extruder
G1 Z2.0 F3000 ;Move Z Axis up
G1 X10.1 Y20 Z0.28 F5000.0 ;Move to start position
G1 X10.1 Y200.0 Z0.28 F1500.0 E15 ;Draw the first line
G1 X10.4 Y200.0 Z0.28 F5000.0 ;Move to side a little
G1 X10.4 Y20 Z0.28 F1500.0 E30 ;Draw the second line
G92 E0 ;Reset Extruder
G1 Z2.0 F3000 ;Move Z Axis up

G92 E0
G92 E0
G1 F2700 E-5
;LAYER_COUNT:295
;LAYER:0
M107
G0 F6000 X66.295 Y122.455 Z0.2
;TYPE:SKIRT
G1 F2700 E0
G1 F1200 X67.129 Y122.025 E0.03121
G1 X67.996 Y121.668 E0.06239
G1 X68.789 Y121.413 E0.0901
G1 X69.15 Y121.312 E0.10257
G1 X69.832 Y121.144 E0.12593
G1 X70.282 Y121.049 E0.14123
G1 X70.628 Y120.98 E0.15296
G1 X70.773 Y120.949 E0.15789
G1 X71.445 Y120.819 E0.18066
G1 X72.538 Y120.664 E0.21737
G1 X72.604 Y120.658 E0.21958
G1 X73.414 Y120.615 E0.24656
G1 X73.829 Y120.608 E0.26036
G1 X74.26 Y120.609 E0.2747
G1 X74.484 Y120.614 E0.28215
G1 X75.22 Y120.655 E0.30667
G1 X75.421 Y120.673 E0.31338
G1 X76.351 Y120.796 E0.34458
G1 X76.976 Y120.931 E0.36585
G1 X76.977 Y120.928 E0.36595
G1 X79.588 Y121.521 E0.45501
G1 X81.992 Y121.996 E0.53651
G1 X84.545 Y122.425 E0.62261
G1 X87.037 Y122.772 E0.7063
G1 X89.532 Y123.048 E0.78979
G1 X92.04 Y123.253 E0.87348
G1 X94.524 Y123.386 E0.95622
G1 X97.082 Y123.45 E1.04132
G1 X99.572 Y123.443 E1.12414
G1 X102.105 Y123.363 E1.20843
G1 X104.64 Y123.212 E1.2929
G1 X107.101 Y122.994 E1.37507
G1 X109.628 Y122.699 E1.45969
G1 X112.131 Y122.335 E1.54382
G1 X114.585 Y121.906 E1.62667
G1 X117.072 Y121.399 E1.71109
G1 X118.425 Y121.094 E1.75722
G1 X119.213 Y120.908 E1.78415
G1 X120.543 Y120.68 E1.82903
G1 X120.598 Y120.674 E1.83087
G1 X121.638 Y120.61 E1.86553
G1 X122.07 Y120.604 E1.8799
G1 X122.381 Y120.604 E1.89024
G1 X123.775 Y120.624 E1.93661
G1 X124.287 Y120.638 E1.95365
G1 X126.821 Y120.642 E2.03793
G1 X129.334 Y120.574 E2.12154
G1 X131.846 Y120.435 E2.20522
G1 X134.364 Y120.225 E2.28926
G1 X136.861 Y119.944 E2.37283
G1 X139.354 Y119.592 E2.45657
G1 X141.833 Y119.171 E2.54021
G1 X143.987 Y118.748 E2.61322
G1 X144.487 Y118.662 E2.63009
G1 X144.823 Y118.612 E2.64139
G1 X145.267 Y118.555 E2.65628
G1 X147.913 Y118.271 E2.74479
G1 X150.449 Y117.926 E2.82992
G1 X152.901 Y117.522 E2.91257
G1 X155.415 Y117.034 E2.99775
G1 X156.82 Y116.741 E3.04548
G1 X157.745 Y116.589 E3.07666
G1 X158.686 Y116.516 E3.10805
G1 X158.832 Y116.511 E3.11291
G1 X159.074 Y116.506 E3.12096
G1 X159.617 Y116.5 E3.13902
G1 X228.114 Y116.5 E5.41724
G1 X228.271 Y116.501 E5.42246
G1 X228.973 Y116.511 E5.44581
G1 X229.909 Y116.564 E5.477
G1 X230.837 Y116.697 E5.50818
G1 X231.751 Y116.909 E5.53938
G1 X232.644 Y117.197 E5.57059
G1 X233.508 Y117.561 E5.60177
G1 X234.339 Y117.997 E5.63299
G1 X235.129 Y118.502 E5.66417
G1 X235.873 Y119.072 E5.69535
G1 X236.629 Y119.766 E5.72948
G1 X236.741 Y119.879 E5.73477
G1 X237.372 Y120.573 E5.76597
G1 X237.942 Y121.318 E5.79717
G1 X238.446 Y122.109 E5.82836
G1 X238.881 Y122.94 E5.85956
G1 X239.244 Y123.804 E5.89073
G1 X239.532 Y124.697 E5.92194
G1 X239.742 Y125.611 E5.95313
G1 X239.875 Y126.54 E5.98434
G1 X239.921 Y127.219 E6.00698
G1 X239.926 Y127.355 E6.0115
G1 X239.932 Y127.62 E6.02032
G1 X239.938 Y128.155 E6.03812
G1 X239.937 Y134.761 E6.25783
G1 X239.927 Y135.463 E6.28118
G1 X239.874 Y136.399 E6.31236
G1 X239.741 Y137.327 E6.34354
G1 X239.529 Y138.241 E6.37475
G1 X239.241 Y139.134 E6.40596
G1 X238.877 Y139.998 E6.43714
G1 X238.441 Y140.829 E6.46835
G1 X237.936 Y141.619 E6.49954
G1 X237.366 Y142.363 E6.53071
G1 X236.547 Y143.24 E6.57062
G1 X236.421 Y143.361 E6.57643
G1 X235.718 Y143.981 E6.60761
G1 X234.964 Y144.539 E6.63881
G1 X233.961 Y145.142 E6.67773
G1 X233.076 Y145.612 E6.71106
G1 X232.917 Y145.695 E6.71703
G1 X232.672 Y145.82 E6.72618
G1 X230.452 Y147.035 E6.81035
G1 X228.298 Y148.293 E6.89331
G1 X226.14 Y149.637 E6.97787
G1 X224.076 Y151.006 E7.06025
G1 X222.016 Y152.456 E7.14404
G1 X219.958 Y153.995 E7.22951
G1 X218.028 Y155.525 E7.31142
G1 X216.081 Y157.16 E7.39599
G1 X214.193 Y158.839 E7.48002
G1 X212.381 Y160.543 E7.56275
G1 X210.57 Y162.348 E7.64779
G1 X208.851 Y164.159 E7.73084
G1 X207.165 Y166.04 E7.81486
G1 X205.536 Y167.964 E7.8987
G1 X203.987 Y169.901 E7.9812
G1 X202.463 Y171.925 E8.06546
G1 X200.984 Y174.005 E8.15035
G1 X199.595 Y176.082 E8.23346
G1 X198.423 Y177.939 E8.30649
G1 X198.315 Y178.115 E8.31336
G1 X197.792 Y178.893 E8.34454
G1 X197.205 Y179.624 E8.37572
G1 X196.711 Y180.151 E8.39975
G1 X196.594 Y180.268 E8.40525
G1 X195.903 Y180.902 E8.43644
G1 X195.161 Y181.476 E8.46764
G1 X194.372 Y181.983 E8.49884
G1 X193.544 Y182.422 E8.53001
G1 X192.68 Y182.789 E8.56123
G1 X191.789 Y183.081 E8.59241
G1 X190.876 Y183.295 E8.6236
G1 X189.948 Y183.432 E8.6548
G1 X189.187 Y183.484 E8.68017
G1 X189.039 Y183.489 E8.6851
G1 X188.802 Y183.494 E8.69298
G1 X188.259 Y183.5 E8.71105
G1 X151.805 Y183.499 E9.92351
G1 X151.102 Y183.489 E9.94689
G1 X150.165 Y183.436 E9.97811
G1 X149.237 Y183.303 E10.00929
G1 X148.323 Y183.091 E10.0405
G1 X147.431 Y182.803 E10.07167
G1 X146.566 Y182.439 E10.10289
G1 X145.736 Y182.003 E10.13407
G1 X144.945 Y181.498 E10.16528
G1 X143.995 Y180.751 E10.20548
G1 X142.909 Y179.795 E10.2536
G1 X142.771 Y179.67 E10.25979
G1 X140.918 Y178.087 E10.34085
G1 X138.895 Y176.457 E10.42726
G1 X136.925 Y174.96 E10.50955
G1 X134.862 Y173.481 E10.59398
G1 X132.764 Y172.066 E10.67815
G1 X130.647 Y170.723 E10.76153
G1 X128.499 Y169.444 E10.84468
G1 X126.298 Y168.218 E10.92848
G1 X124.043 Y167.042 E11.01307
G1 X121.808 Y165.956 E11.09571
G1 X119.477 Y164.905 E11.18076
G1 X117.18 Y163.946 E11.26355
G1 X114.877 Y163.059 E11.34563
G1 X112.423 Y162.194 E11.43217
G1 X110.061 Y161.436 E11.51468
G1 X107.638 Y160.733 E11.59859
G1 X105.211 Y160.104 E11.68198
G1 X102.728 Y159.532 E11.76673
G1 X100.33 Y159.051 E11.84808
G1 X97.796 Y158.619 E11.93357
G1 X95.346 Y158.271 E12.01588
G1 X93.171 Y158.037 E12.08864
G1 X92.96 Y158.005 E12.09574
G1 X92.057 Y157.907 E12.12595
G1 X90.716 Y157.75 E12.17085
G1 X89.609 Y157.604 E12.20799
G1 X89.293 Y157.557 E12.21862
G1 X88.992 Y157.508 E12.22876
G1 X88.214 Y157.372 E12.25503
G1 X87.941 Y157.32 E12.26427
G1 X87.39 Y157.209 E12.28297
G1 X83.703 Y156.426 E12.40833
G1 X83.518 Y156.385 E12.41463
G1 X82.42 Y156.132 E12.45211
G1 X82.089 Y156.05 E12.46345
G1 X81.789 Y155.971 E12.47377
G1 X81.559 Y155.908 E12.4817
G1 X81.121 Y155.782 E12.49686
G1 X80.13 Y155.486 E12.53126
G1 X78.968 Y155.121 E12.57177
G1 X78.722 Y155.041 E12.58037
G1 X78.37 Y154.921 E12.59274
G1 X78.174 Y154.852 E12.59965
G1 X77.514 Y154.613 E12.623
G1 X76.926 Y154.381 E12.64403
G1 X76.205 Y154.072 E12.67012
G1 X70.773 Y151.654 E12.86788
G1 X70.158 Y151.371 E12.89039
G1 X69.323 Y150.943 E12.9216
G1 X68.422 Y150.372 E12.95708
G1 X68.209 Y150.222 E12.96574
G1 X67.466 Y149.649 E12.99695
G1 X66.528 Y148.762 E13.03989
G1 X65.792 Y147.979 E13.07563
G1 X65.637 Y147.81 E13.08326
G1 X65.215 Y147.34 E13.10427
G1 X64.799 Y146.863 E13.12532
G1 X64.213 Y146.131 E13.1565
G1 X63.677 Y145.326 E13.18867
G1 X63.132 Y144.425 E13.22369
G1 X63.024 Y144.242 E13.23076
G1 X62.708 Y143.694 E13.2518
G1 X62.396 Y143.136 E13.27307
G1 X61.974 Y142.299 E13.30424
G1 X61.607 Y141.379 E13.33719
G1 X61.265 Y140.395 E13.37183
G1 X61.195 Y140.188 E13.3791
G1 X60.995 Y139.571 E13.40068
G1 X60.804 Y138.953 E13.42219
G1 X60.566 Y138.046 E13.45338
G1 X60.398 Y137.066 E13.48645
G1 X60.267 Y136.015 E13.52167
G1 X60.241 Y135.783 E13.52944
G1 X60.181 Y135.193 E13.54916
G1 X60.124 Y134.571 E13.56994
G1 X60.078 Y133.634 E13.60114
G1 X60.119 Y132.62 E13.63489
G1 X60.173 Y131.995 E13.65576
G1 X60.27 Y131.202 E13.68233
G1 X60.303 Y130.996 E13.68927
G1 X60.491 Y130.077 E13.72047
G1 X60.75 Y129.197 E13.75098
G1 X60.838 Y128.938 E13.76008
G1 X61.239 Y127.925 E13.79631
G1 X61.249 Y127.903 E13.79712
G1 X61.673 Y127.067 E13.82829
G1 X62.126 Y126.329 E13.8571
G1 X62.244 Y126.153 E13.86414
G1 X62.799 Y125.397 E13.89534
G1 X63.417 Y124.691 E13.92654
G1 X63.894 Y124.22 E13.94884
G1 X64.063 Y124.063 E13.95651
G1 X64.777 Y123.455 E13.9877
G1 X65.54 Y122.909 E14.01891
G1 X66.092 Y122.571 E14.04044
G1 X66.295 Y122.455 E14.04821
G0 F6000 X66.494 Y122.803
G1 F1200 X67.312 Y122.381 E14.07883
G1 X68.164 Y122.032 E14.10945
G1 X68.897 Y121.798 E14.13504
G1 X69.258 Y121.697 E14.14751
G1 X69.915 Y121.536 E14.17001
G1 X70.361 Y121.441 E14.18518
G1 X70.707 Y121.372 E14.19691
G1 X70.849 Y121.342 E14.20174
G1 X71.521 Y121.212 E14.2245
G1 X72.574 Y121.063 E14.25987
G1 X72.64 Y121.057 E14.26208
G1 X73.421 Y121.015 E14.28809
G1 X73.836 Y121.008 E14.3019
G1 X74.252 Y121.009 E14.31573
G1 X74.476 Y121.014 E14.32319
G1 X75.184 Y121.053 E14.34677
G1 X75.385 Y121.071 E14.35348
G1 X76.298 Y121.193 E14.38412
G1 X76.887 Y121.32 E14.40416
G1 X76.888 Y121.318 E14.40423
G1 X79.493 Y121.909 E14.49308
G1 X81.953 Y122.395 E14.57648
G1 X84.455 Y122.816 E14.66087
G1 X86.974 Y123.167 E14.74546
G1 X89.489 Y123.445 E14.82962
G1 X92.023 Y123.653 E14.91418
G1 X94.529 Y123.787 E14.99765
G1 X97.073 Y123.85 E15.08229
G1 X99.585 Y123.842 E15.16584
G1 X102.14 Y123.762 E15.25086
G1 X104.631 Y123.614 E15.33386
G1 X107.186 Y123.388 E15.41917
G1 X109.661 Y123.099 E15.50205
G1 X112.18 Y122.732 E15.58671
G1 X114.668 Y122.298 E15.67071
G1 X117.189 Y121.784 E15.75629
G1 X118.507 Y121.486 E15.80123
G1 X119.305 Y121.298 E15.8285
G1 X120.586 Y121.078 E15.87173
G1 X120.641 Y121.072 E15.87357
G1 X121.644 Y121.01 E15.90699
G1 X122.076 Y121.004 E15.92136
G1 X122.375 Y121.004 E15.93131
G1 X123.926 Y121.027 E15.9829
G1 X124.312 Y121.038 E15.99574
G1 X126.831 Y121.042 E16.07953
G1 X129.331 Y120.975 E16.16271
G1 X131.904 Y120.832 E16.24842
G1 X134.368 Y120.626 E16.33066
G1 X136.929 Y120.338 E16.41637
G1 X139.406 Y119.989 E16.49957
G1 X141.937 Y119.559 E16.58496
G1 X144.064 Y119.141 E16.65706
G1 X144.546 Y119.057 E16.67333
G1 X144.882 Y119.007 E16.68463
G1 X145.31 Y118.953 E16.69898
G1 X147.973 Y118.667 E16.78806
G1 X150.462 Y118.329 E16.8716
G1 X152.971 Y117.915 E16.95618
G1 X155.505 Y117.424 E17.04203
G1 X156.901 Y117.133 E17.08946
G1 X157.81 Y116.984 E17.12009
G1 X158.699 Y116.916 E17.14975
G1 X158.845 Y116.911 E17.15461
G1 X159.078 Y116.906 E17.16236
G1 X159.617 Y116.9 E17.18029
G1 X228.114 Y116.9 E19.45851
G1 X228.967 Y116.911 E19.48688
G1 X229.886 Y116.964 E19.5175
G1 X230.797 Y117.097 E19.54812
G1 X231.693 Y117.308 E19.57873
G1 X232.568 Y117.596 E19.60937
G1 X233.414 Y117.959 E19.63999
G1 X234.225 Y118.394 E19.6706
G1 X234.996 Y118.898 E19.70124
G1 X235.72 Y119.466 E19.73184
G1 X236.345 Y120.048 E19.76025
G1 X236.457 Y120.161 E19.76554
G1 X237.076 Y120.842 E19.79615
G1 X237.633 Y121.575 E19.82677
G1 X238.125 Y122.353 E19.85739
G1 X238.548 Y123.171 E19.88801
G1 X238.898 Y124.023 E19.91865
G1 X239.173 Y124.901 E19.94925
G1 X239.37 Y125.801 E19.97989
G1 X239.489 Y126.714 E20.01052
G1 X239.521 Y127.234 E20.02785
G1 X239.526 Y127.37 E20.03237
G1 X239.532 Y127.625 E20.04086
G1 X239.538 Y128.155 E20.05848
G1 X239.537 Y134.755 E20.278
G1 X239.527 Y135.457 E20.30135
G1 X239.474 Y136.376 E20.33197
G1 X239.341 Y137.287 E20.36259
G1 X239.13 Y138.183 E20.39321
G1 X238.842 Y139.058 E20.42385
G1 X238.479 Y139.904 E20.45446
G1 X238.044 Y140.715 E20.48507
G1 X237.54 Y141.486 E20.51571
G1 X236.972 Y142.21 E20.54632
G1 X236.27 Y142.951 E20.58027
G1 X236.144 Y143.072 E20.58608
G1 X235.453 Y143.681 E20.61671
G1 X234.712 Y144.227 E20.64732
G1 X233.774 Y144.789 E20.68369
G1 X232.889 Y145.259 E20.71702
G1 X232.491 Y145.463 E20.7319
G1 X230.264 Y146.681 E20.81632
G1 X228.106 Y147.942 E20.89945
G1 X225.914 Y149.308 E20.98536
G1 X223.834 Y150.687 E21.06836
G1 X221.752 Y152.153 E21.15305
G1 X219.756 Y153.645 E21.23594
G1 X217.746 Y155.239 E21.32126
G1 X215.838 Y156.841 E21.40412
G1 X213.917 Y158.549 E21.48962
G1 X212.09 Y160.268 E21.57305
G1 X210.316 Y162.035 E21.65633
G1 X208.546 Y163.9 E21.74185
G1 X206.863 Y165.778 E21.82573
G1 X205.234 Y167.701 E21.90955
G1 X203.654 Y169.677 E21.9937
G1 X202.132 Y171.698 E22.07785
G1 X200.686 Y173.733 E22.16088
G1 X199.246 Y175.885 E22.247
G1 X198.087 Y177.722 E22.31924
G1 X197.974 Y177.906 E22.32643
G1 X197.46 Y178.67 E22.35705
G1 X196.881 Y179.386 E22.38768
G1 X196.428 Y179.868 E22.40968
G1 X196.311 Y179.985 E22.41518
G1 X195.633 Y180.607 E22.44578
G1 X194.903 Y181.168 E22.47641
G1 X194.127 Y181.664 E22.50704
G1 X193.311 Y182.09 E22.53765
G1 X192.461 Y182.444 E22.56828
G1 X191.583 Y182.722 E22.59891
G1 X190.685 Y182.924 E22.62952
G1 X189.772 Y183.047 E22.66016
G1 X189.174 Y183.084 E22.68009
G1 X189.026 Y183.089 E22.68502
G1 X188.798 Y183.094 E22.6926
G1 X188.259 Y183.1 E22.71053
G1 X151.81 Y183.099 E23.92283
G1 X151.107 Y183.089 E23.94621
G1 X150.188 Y183.036 E23.97683
G1 X149.277 Y182.903 E24.00745
G1 X148.381 Y182.692 E24.03807
G1 X147.507 Y182.404 E24.06868
G1 X146.66 Y182.041 E24.09932
G1 X145.849 Y181.606 E24.12993
G1 X145.078 Y181.102 E24.16057
G1 X144.259 Y180.451 E24.19537
G1 X143.177 Y179.499 E24.2433
G1 X143.038 Y179.374 E24.24952
G1 X141.148 Y177.759 E24.3322
G1 X139.16 Y176.156 E24.41714
G1 X137.155 Y174.632 E24.50091
G1 X135.073 Y173.14 E24.5861
G1 X133.021 Y171.756 E24.66842
G1 X130.86 Y170.385 E24.75354
G1 X128.651 Y169.07 E24.83905
G1 X126.499 Y167.871 E24.92098
G1 X124.224 Y166.685 E25.00631
G1 X121.969 Y165.589 E25.08971
G1 X119.66 Y164.548 E25.17395
G1 X117.329 Y163.575 E25.25796
G1 X114.987 Y162.673 E25.34143
G1 X112.605 Y161.834 E25.42543
G1 X110.156 Y161.048 E25.51098
G1 X107.744 Y160.347 E25.59452
G1 X105.287 Y159.711 E25.67893
G1 X102.832 Y159.146 E25.76272
G1 X100.398 Y158.657 E25.84529
G1 X97.853 Y158.223 E25.93116
G1 X95.388 Y157.873 E26.01397
G1 X93.213 Y157.639 E26.08673
G1 X93 Y157.607 E26.09389
G1 X92.021 Y157.5 E26.12665
G1 X90.929 Y157.373 E26.16321
G1 X90.768 Y157.353 E26.16861
G1 X89.661 Y157.207 E26.20575
G1 X89.357 Y157.162 E26.21597
G1 X89.061 Y157.114 E26.22594
G1 X88.283 Y156.978 E26.25221
G1 X88.02 Y156.928 E26.26111
G1 X87.473 Y156.818 E26.27967
G1 X83.786 Y156.035 E26.40504
G1 X82.51 Y155.742 E26.44858
G1 X82.191 Y155.664 E26.4595
G1 X81.891 Y155.585 E26.46982
G1 X81.67 Y155.524 E26.47745
G1 X81.235 Y155.399 E26.4925
G1 X80.244 Y155.103 E26.5269
G1 X79.088 Y154.74 E26.5672
G1 X78.851 Y154.662 E26.5755
G1 X78.31 Y154.476 E26.59453
G1 X77.65 Y154.237 E26.61787
G1 X77.083 Y154.013 E26.63815
G1 X76.227 Y153.645 E26.66914
G1 X71.06 Y151.345 E26.85725
G1 X70.325 Y151.007 E26.88416
G1 X69.506 Y150.587 E26.91477
G1 X68.653 Y150.045 E26.94839
G1 X68.44 Y149.895 E26.95705
G1 X67.711 Y149.332 E26.98769
G1 X66.819 Y148.488 E27.02853
G1 X66.083 Y147.705 E27.06427
G1 X65.934 Y147.543 E27.07159
G1 X65.632 Y147.208 E27.08659
G1 X65.516 Y147.077 E27.09241
G1 X65.1 Y146.6 E27.11346
G1 X64.526 Y145.881 E27.14406
G1 X64.019 Y145.119 E27.17451
G1 X63.474 Y144.218 E27.20953
G1 X63.37 Y144.042 E27.21633
G1 X63.057 Y143.499 E27.23717
G1 X62.745 Y142.941 E27.25844
G1 X62.331 Y142.119 E27.28905
G1 X61.985 Y141.248 E27.32022
G1 X61.643 Y140.264 E27.35487
G1 X61.575 Y140.064 E27.3619
G1 X61.425 Y139.603 E27.37802
G1 X61.187 Y138.835 E27.40476
G1 X60.953 Y137.944 E27.4354
G1 X60.795 Y137.016 E27.46671
G1 X60.664 Y135.965 E27.50194
G1 X60.639 Y135.742 E27.5094
G1 X60.579 Y135.156 E27.52899
G1 X60.522 Y134.534 E27.54977
G1 X60.478 Y133.615 E27.58037
G1 X60.517 Y132.655 E27.61233
G1 X60.571 Y132.03 E27.63319
G1 X60.665 Y131.265 E27.65883
G1 X60.698 Y131.059 E27.66576
G1 X60.883 Y130.157 E27.69639
G1 X61.129 Y129.326 E27.72521
G1 X61.217 Y129.067 E27.73431
G1 X61.603 Y128.091 E27.76922
G1 X61.613 Y128.069 E27.77003
G1 X62.03 Y127.248 E27.80065
G1 X62.459 Y126.552 E27.82785
G1 X62.577 Y126.376 E27.83489
G1 X63.122 Y125.634 E27.86551
G1 X63.73 Y124.943 E27.89613
G1 X64.166 Y124.513 E27.91649
