;FLAVOR:Marlin
;TIME:1821
;Filament used: 1.0777m
;Layer height: 0.2
;MINX:104.95
;MINY:128.7
;MINZ:0.2
;MAXX:133.55
;MAXY:171.3
;MAXZ:14
;Generated with Cura_SteamEngine 5.3.0
M140 S60
M105
M190 S60
M104 S210
M105
M109 S210
M82 ;absolute extrusion mode
M220 S100 ;Reset Feedrate
M221 S100 ;Reset Flowrate

M280 P0 S160 ;reset bltouch
G28 ;Home
G29 A ; enable UBL
G92 E0 ;Reset Extruder
G1 Z2.0 F3000 ;Move Z Axis up
G1 X10.1 Y20 Z0.28 F5000.0 ;Move to start position
G1 X10.1 Y200.0 Z0.28 F1500.0 E15 ;Draw the first line
G1 X10.4 Y200.0 Z0.28 F5000.0 ;Move to side a little
G1 X10.4 Y20 Z0.28 F1500.0 E30 ;Draw the second line
G92 E0 ;Reset Extruder
G1 Z2.0 F3000 ;Move Z Axis up
G92 E0
G92 E0
G1 F2100 E-1.5
;LAYER_COUNT:70
;LAYER:0
M107
G0 F6000 X108.044 Y130.25 Z0.2
;TYPE:SKIRT
G1 F2100 E0
G1 F1200 X109.916 Y129.138 E0.07242
G1 X112.103 Y128.7 E0.1466
G1 X126.603 Y128.7 E0.62888
G1 X128.499 Y129.166 E0.69381
G1 X130.526 Y130.219 E0.76979
G1 X132 Y131.794 E0.84153
G1 X133.112 Y133.666 E0.91395
G1 X133.55 Y135.853 E0.98814
G1 X133.55 Y164.353 E1.93605
G1 X133.084 Y166.249 E2.00099
G1 X132.031 Y168.276 E2.07696
G1 X130.456 Y169.75 E2.14871
G1 X128.584 Y170.862 E2.22113
G1 X126.397 Y171.3 E2.29531
G1 X111.897 Y171.3 E2.77758
G1 X110.001 Y170.834 E2.84252
G1 X107.974 Y169.781 E2.9185
G1 X106.5 Y168.206 E2.99024
G1 X105.388 Y166.334 E3.06266
G1 X104.95 Y164.147 E3.13685
G1 X104.95 Y135.647 E4.08476
G1 X105.416 Y133.751 E4.1497
G1 X106.469 Y131.724 E4.22567
G1 X108.044 Y130.25 E4.29742
G0 F6000 X108.285 Y130.572
G1 F1200 X110.062 Y129.516 E4.36617
G1 X112.141 Y129.1 E4.43669
G1 X126.557 Y129.1 E4.91617
G1 X128.356 Y129.542 E4.97778
G1 X130.281 Y130.542 E5.04993
G1 X131.678 Y132.035 E5.11794
G1 X132.734 Y133.812 E5.18669
G1 X133.15 Y135.891 E5.25721
G1 X133.15 Y164.307 E6.20233
G1 X132.708 Y166.106 E6.26394
G1 X131.708 Y168.031 E6.33609
G1 X130.215 Y169.428 E6.4041
G1 X128.438 Y170.484 E6.47285
G1 X126.359 Y170.9 E6.54337
G1 X111.943 Y170.9 E7.02284
G1 X110.144 Y170.458 E7.08446
G1 X108.219 Y169.458 E7.15661
G1 X106.822 Y167.965 E7.22461
G1 X105.766 Y166.188 E7.29337
G1 X105.35 Y164.109 E7.36388
G1 X105.35 Y135.693 E8.309
G1 X105.792 Y133.894 E8.37062
G1 X106.792 Y131.969 E8.44277
G1 X108.285 Y130.572 E8.51077
G0 F6000 X108.526 Y130.894
G1 F1200 X110.208 Y129.895 E8.57584
G1 X112.18 Y129.5 E8.64273
G1 X126.51 Y129.5 E9.11935
G1 X128.214 Y129.919 E9.17771
G1 X130.036 Y130.865 E9.246
G1 X131.356 Y132.276 E9.31026
G1 X132.355 Y133.958 E9.37533
G1 X132.75 Y135.93 E9.44222
G1 X132.75 Y164.26 E10.38448
G1 X132.331 Y165.964 E10.44284
G1 X131.385 Y167.786 E10.51112
G1 X129.974 Y169.106 E10.57539
G1 X128.292 Y170.105 E10.64045
G1 X126.32 Y170.5 E10.70735
G1 X111.99 Y170.5 E11.18396
G1 X110.286 Y170.081 E11.24233
G1 X108.464 Y169.135 E11.31061
G1 X107.144 Y167.724 E11.37487
G1 X106.145 Y166.042 E11.43994
G1 X105.75 Y164.07 E11.50683
G1 X105.75 Y135.74 E12.44909
G1 X106.169 Y134.036 E12.50746
G1 X107.115 Y132.214 E12.57574
G1 X108.526 Y130.894 E12.64
G0 F6000 X108.767 Y131.216
G1 F1200 X110.354 Y130.273 E12.7014
G1 X112.218 Y129.9 E12.76463
G1 X126.464 Y129.9 E13.23845
G1 X128.071 Y130.295 E13.29349
G1 X129.791 Y131.188 E13.35795
G1 X131.034 Y132.517 E13.41847
G1 X131.977 Y134.104 E13.47987
G1 X132.35 Y135.968 E13.5431
G1 X132.35 Y164.214 E14.48256
G1 X131.955 Y165.821 E14.5376
G1 X131.062 Y167.541 E14.60206
G1 X129.733 Y168.784 E14.66258
G1 X128.146 Y169.727 E14.72398
G1 X126.282 Y170.1 E14.78721
G1 X112.036 Y170.1 E15.26103
G1 X110.429 Y169.705 E15.31607
G1 X108.709 Y168.812 E15.38053
G1 X107.466 Y167.483 E15.44105
G1 X106.523 Y165.896 E15.50245
G1 X106.15 Y164.032 E15.56568
G1 X106.15 Y135.786 E16.50515
G1 X106.545 Y134.179 E16.56019
G1 X107.438 Y132.459 E16.62464
G1 X108.767 Y131.216 E16.68517
G0 F6000 X109.008 Y131.538
G1 F1200 X110.5 Y130.651 E16.7429
G1 X112.256 Y130.3 E16.80246
G1 X126.418 Y130.3 E17.27349
G1 X127.928 Y130.671 E17.32521
G1 X129.546 Y131.511 E17.38584
G1 X130.712 Y132.758 E17.44262
G1 X131.599 Y134.25 E17.50035
G1 X131.95 Y136.006 E17.55991
G1 X131.95 Y164.168 E18.49659
G1 X131.579 Y165.678 E18.5483
G1 X130.739 Y167.296 E18.60894
G1 X129.492 Y168.462 E18.66572
G1 X128 Y169.349 E18.72345
G1 X126.244 Y169.7 E18.78301
G1 X112.082 Y169.7 E19.25404
G1 X110.572 Y169.329 E19.30576
G1 X108.954 Y168.489 E19.36639
G1 X107.788 Y167.242 E19.42317
G1 X106.901 Y165.75 E19.48091
G1 X106.55 Y163.994 E19.54047
G1 X106.55 Y135.832 E20.47714
G1 X106.921 Y134.322 E20.52885
G1 X107.761 Y132.704 E20.58949
G1 X109.008 Y131.538 E20.64627
G0 F6000 X109.249 Y131.86
G1 F1200 X110.646 Y131.029 E20.70033
G1 X112.294 Y130.7 E20.75623
G1 X126.371 Y130.7 E21.22443
G1 X127.786 Y131.048 E21.2729
G1 X129.301 Y131.834 E21.32966
G1 X130.39 Y132.999 E21.3827
G1 X131.221 Y134.396 E21.43677
G1 X131.55 Y136.044 E21.49266
G1 X131.55 Y164.121 E22.42651
G1 X131.202 Y165.536 E22.47497
G1 X130.416 Y167.051 E22.53174
G1 X129.251 Y168.14 E22.58478
G1 X127.854 Y168.971 E22.63884
G1 X126.206 Y169.3 E22.69474
G1 X112.129 Y169.3 E23.16294
G1 X110.714 Y168.952 E23.21141
G1 X109.199 Y168.166 E23.26817
G1 X108.11 Y167.001 E23.32121
G1 X107.279 Y165.604 E23.37528
G1 X106.95 Y163.956 E23.43117
G1 X106.95 Y135.879 E24.36502
G1 X107.298 Y134.464 E24.41348
G1 X108.084 Y132.949 E24.47025
G1 X109.249 Y131.86 E24.52329
G0 F6000 X109.488 Y132.184
G1 F1200 X110.794 Y131.407 E24.57383
G1 X112.332 Y131.1 E24.626
G1 X126.325 Y131.1 E25.09141
G1 X127.643 Y131.424 E25.13655
G1 X129.056 Y132.157 E25.18949
G1 X130.066 Y133.238 E25.2387
G1 X130.843 Y134.544 E25.28924
G1 X131.15 Y136.082 E25.34141
G1 X131.15 Y164.075 E26.27246
G1 X130.826 Y165.393 E26.3176
G1 X130.093 Y166.806 E26.37054
G1 X129.012 Y167.816 E26.41975
G1 X127.706 Y168.593 E26.47029
G1 X126.168 Y168.9 E26.52246
G1 X112.175 Y168.9 E26.98786
G1 X110.857 Y168.576 E27.03301
G1 X109.444 Y167.843 E27.08595
G1 X108.434 Y166.762 E27.13516
G1 X107.657 Y165.456 E27.1857
G1 X107.35 Y163.918 E27.23786
G1 X107.35 Y135.925 E28.16891
G1 X107.674 Y134.607 E28.21406
G1 X108.407 Y133.194 E28.267
G1 X109.488 Y132.184 E28.3162
G0 F6000 X109.727 Y132.508
G1 F1200 X110.942 Y131.785 E28.36323
G1 X112.37 Y131.5 E28.41166
G1 X126.279 Y131.5 E28.87428
G1 X127.5 Y131.8 E28.9161
G1 X128.811 Y132.48 E28.96522
G1 X129.742 Y133.477 E29.01059
G1 X130.465 Y134.692 E29.05761
G1 X130.75 Y136.12 E29.10604
G1 X130.75 Y164.029 E30.0343
G1 X130.45 Y165.25 E30.07612
G1 X129.77 Y166.561 E30.12524
G1 X128.773 Y167.492 E30.17061
G1 X127.558 Y168.215 E30.21763
G1 X126.13 Y168.5 E30.26607
G1 X112.221 Y168.5 E30.72868
G1 X111 Y168.2 E30.7705
G1 X109.689 Y167.52 E30.81962
G1 X108.758 Y166.523 E30.86499
G1 X108.035 Y165.308 E30.91202
G1 X107.75 Y163.88 E30.96045
G1 X107.75 Y135.971 E31.8887
G1 X108.05 Y134.75 E31.93052
G1 X108.73 Y133.439 E31.97964
G1 X109.727 Y132.508 E32.02501
G0 F6000 X109.966 Y132.832
G1 F1200 X111.09 Y132.163 E32.06852
G1 X112.408 Y131.9 E32.11322
G1 X126.233 Y131.9 E32.57304
G1 X127.357 Y132.176 E32.61154
G1 X128.566 Y132.803 E32.65683
G1 X129.418 Y133.716 E32.69837
G1 X130.087 Y134.84 E32.74187
G1 X130.35 Y136.158 E32.78657
G1 X130.35 Y163.983 E33.71204
G1 X130.074 Y165.107 E33.75053
G1 X129.447 Y166.316 E33.79583
G1 X128.534 Y167.168 E33.83737
G1 X127.41 Y167.837 E33.88087
G1 X126.092 Y168.1 E33.92557
G1 X112.267 Y168.1 E34.38539
G1 X111.143 Y167.824 E34.42389
G1 X109.934 Y167.197 E34.46919
G1 X109.082 Y166.284 E34.51072
G1 X108.413 Y165.16 E34.55423
G1 X108.15 Y163.842 E34.59893
G1 X108.15 Y136.017 E35.52439
G1 X108.426 Y134.893 E35.56288
G1 X109.053 Y133.684 E35.60818
G1 X109.966 Y132.832 E35.64972
G0 F6000 X110.208 Y133.154
G1 F1200 X111.238 Y132.541 E35.68958
G1 X112.446 Y132.3 E35.73055
G1 X126.186 Y132.3 E36.18755
G1 X127.215 Y132.553 E36.22279
G1 X128.319 Y133.125 E36.26415
G1 X129.096 Y133.958 E36.30203
G1 X129.709 Y134.988 E36.3419
G1 X129.95 Y136.196 E36.38287
G1 X129.95 Y163.936 E37.30551
G1 X129.697 Y164.965 E37.34075
G1 X129.125 Y166.069 E37.38211
G1 X128.292 Y166.846 E37.41999
G1 X127.262 Y167.459 E37.45986
G1 X126.054 Y167.7 E37.50083
G1 X112.314 Y167.7 E37.95782
G1 X111.285 Y167.447 E37.99307
G1 X110.181 Y166.875 E38.03442
G1 X109.404 Y166.042 E38.07231
G1 X108.791 Y165.012 E38.11218
G1 X108.55 Y163.804 E38.15315
G1 X108.55 Y136.064 E39.07578
G1 X108.803 Y135.035 E39.11103
G1 X109.375 Y133.931 E39.15238
G1 X110.208 Y133.154 E39.19027
G0 F6000 X110.45 Y133.476
G1 F1200 X111.386 Y132.919 E39.2265
G1 X112.484 Y132.7 E39.26373
G1 X126.14 Y132.7 E39.71793
G1 X127.072 Y132.929 E39.74986
G1 X128.072 Y133.447 E39.78731
G1 X128.774 Y134.2 E39.82155
G1 X129.331 Y135.136 E39.85778
G1 X129.55 Y136.234 E39.89502
G1 X129.55 Y163.89 E40.81486
G1 X129.321 Y164.822 E40.84678
G1 X128.803 Y165.822 E40.88424
G1 X128.05 Y166.524 E40.91848
G1 X127.114 Y167.081 E40.95471
G1 X126.016 Y167.3 E40.99195
G1 X112.36 Y167.3 E41.44615
G1 X111.428 Y167.071 E41.47807
G1 X110.428 Y166.553 E41.51552
G1 X109.726 Y165.8 E41.54976
G1 X109.169 Y164.864 E41.58599
G1 X108.95 Y163.766 E41.62323
G1 X108.95 Y136.11 E42.54307
G1 X109.179 Y135.178 E42.57499
G1 X109.697 Y134.178 E42.61245
G1 X110.45 Y133.476 E42.64669
G0 F6000 X110.692 Y133.798
G1 F1200 X111.534 Y133.297 E42.67928
G1 X112.522 Y133.1 E42.71279
G1 X126.094 Y133.1 E43.16419
G1 X126.929 Y133.305 E43.19279
G1 X127.825 Y133.769 E43.22635
G1 X128.452 Y134.442 E43.25694
G1 X128.953 Y135.284 E43.28953
G1 X129.15 Y136.272 E43.32304
G1 X129.15 Y163.844 E44.24009
G1 X128.945 Y164.679 E44.26868
G1 X128.481 Y165.575 E44.30224
G1 X127.808 Y166.202 E44.33284
G1 X126.966 Y166.703 E44.36542
G1 X125.978 Y166.9 E44.39893
G1 X112.406 Y166.9 E44.85034
G1 X111.571 Y166.695 E44.87894
G1 X110.675 Y166.231 E44.9125
G1 X110.048 Y165.558 E44.94309
G1 X109.547 Y164.716 E44.97568
G1 X109.35 Y163.728 E45.00918
G1 X109.35 Y136.156 E45.92623
G1 X109.555 Y135.321 E45.95483
G1 X110.019 Y134.425 E45.98839
G1 X110.692 Y133.798 E46.01898
G0 F6000 X110.934 Y134.12
G1 F1200 X111.682 Y133.675 E46.04793
G1 X112.56 Y133.5 E46.07771
G1 X126.048 Y133.5 E46.52632
G1 X126.786 Y133.681 E46.55159
G1 X127.578 Y134.091 E46.58126
G1 X128.13 Y134.684 E46.6082
G1 X128.575 Y135.432 E46.63715
G1 X128.75 Y136.31 E46.66693
G1 X128.75 Y163.798 E47.58118
G1 X128.569 Y164.536 E47.60646
G1 X128.159 Y165.328 E47.63612
G1 X127.566 Y165.88 E47.66306
G1 X126.818 Y166.325 E47.69201
G1 X125.94 Y166.5 E47.72179
G1 X112.452 Y166.5 E48.1704
G1 X111.714 Y166.319 E48.19567
G1 X110.922 Y165.909 E48.22534
G1 X110.37 Y165.316 E48.25228
G1 X109.925 Y164.568 E48.28123
G1 X109.75 Y163.69 E48.31101
G1 X109.75 Y136.202 E49.22526
G1 X109.931 Y135.464 E49.25054
G1 X110.341 Y134.672 E49.2802
G1 X110.934 Y134.12 E49.30714
G0 F6000 X111.173 Y134.444
G1 F1200 X111.83 Y134.053 E49.33257
G1 X112.598 Y133.9 E49.35862
G1 X125.998 Y133.9 E49.80431
G1 X126.647 Y134.059 E49.82653
G1 X127.333 Y134.414 E49.85222
G1 X127.806 Y134.923 E49.87533
G1 X128.197 Y135.58 E49.90076
G1 X128.35 Y136.348 E49.92681
G1 X128.35 Y163.748 E50.83813
G1 X128.191 Y164.397 E50.86036
G1 X127.836 Y165.083 E50.88605
G1 X127.327 Y165.556 E50.90916
G1 X126.67 Y165.947 E50.93459
G1 X125.902 Y166.1 E50.96063
G1 X112.502 Y166.1 E51.40632
G1 X111.853 Y165.941 E51.42854
G1 X111.167 Y165.586 E51.45423
G1 X110.694 Y165.077 E51.47734
G1 X110.303 Y164.42 E51.50277
G1 X110.15 Y163.652 E51.52882
G1 X110.15 Y136.252 E52.44015
G1 X110.309 Y135.603 E52.46237
G1 X110.664 Y134.917 E52.48806
G1 X111.173 Y134.444 E52.51117
G0 F6000 X111.412 Y134.768
G1 F1200 X111.978 Y134.431 E52.53308
G1 X112.636 Y134.3 E52.5554
G1 X125.948 Y134.3 E52.99815
G1 X126.508 Y134.437 E53.01733
G1 X127.088 Y134.737 E53.03905
G1 X127.482 Y135.162 E53.05832
G1 X127.819 Y135.728 E53.08023
G1 X127.95 Y136.386 E53.10255
G1 X127.95 Y163.698 E54.01095
G1 X127.813 Y164.258 E54.03012
G1 X127.513 Y164.838 E54.05184
G1 X127.088 Y165.232 E54.07112
G1 X126.522 Y165.569 E54.09303
G1 X125.864 Y165.7 E54.11534
G1 X112.552 Y165.7 E54.5581
G1 X111.992 Y165.563 E54.57728
G1 X111.412 Y165.263 E54.59899
G1 X111.018 Y164.838 E54.61827
G1 X110.681 Y164.272 E54.64018
G1 X110.55 Y163.614 E54.66249
G1 X110.55 Y136.302 E55.57089
G1 X110.687 Y135.742 E55.59007
G1 X110.987 Y135.162 E55.61179
G1 X111.412 Y134.768 E55.63106
G0 F6000 X111.651 Y135.092
G1 F1200 X112.126 Y134.809 E55.64945
G1 X112.674 Y134.7 E55.66804
G1 X125.898 Y134.7 E56.10787
G1 X126.369 Y134.815 E56.124
G1 X126.842 Y135.06 E56.14171
G1 X127.158 Y135.401 E56.15718
G1 X127.441 Y135.876 E56.17557
G1 X127.55 Y136.424 E56.19415
G1 X127.55 Y163.648 E57.09962
G1 X127.435 Y164.119 E57.11575
G1 X127.19 Y164.592 E57.13347
G1 X126.849 Y164.908 E57.14893
G1 X126.374 Y165.191 E57.16732
G1 X125.826 Y165.3 E57.1859
G1 X112.602 Y165.3 E57.62573
G1 X112.131 Y165.185 E57.64186
G1 X111.658 Y164.94 E57.65958
G1 X111.342 Y164.599 E57.67504
G1 X111.059 Y164.124 E57.69343
G1 X110.95 Y163.576 E57.71201
G1 X110.95 Y136.352 E58.61749
G1 X111.065 Y135.881 E58.63361
G1 X111.31 Y135.408 E58.65133
G1 X111.651 Y135.092 E58.66679
G0 F6000 X111.89 Y135.416
G1 F1200 X112.274 Y135.187 E58.68166
G1 X112.712 Y135.1 E58.69652
G1 X125.848 Y135.1 E59.13342
G1 X126.23 Y135.193 E59.1465
G1 X126.596 Y135.383 E59.16021
G1 X126.834 Y135.64 E59.17186
G1 X127.063 Y136.024 E59.18673
G1 X127.15 Y136.462 E59.20159
G1 X127.15 Y163.598 E60.10413
G1 X127.057 Y163.98 E60.11721
G1 X126.867 Y164.346 E60.13093
G1 X126.61 Y164.584 E60.14258
G1 X126.226 Y164.813 E60.15745
G1 X125.788 Y164.9 E60.1723
G1 X112.652 Y164.9 E60.6092
G1 X112.27 Y164.807 E60.62228
G1 X111.904 Y164.617 E60.636
G1 X111.666 Y164.36 E60.64765
G1 X111.437 Y163.976 E60.66252
G1 X111.35 Y163.538 E60.67737
G1 X111.35 Y136.402 E61.57992
G1 X111.443 Y136.02 E61.59299
G1 X111.633 Y135.654 E61.60671
G1 X111.89 Y135.416 E61.61836
G0 F6000 X112.095 Y135.76
G1 F1200 X112.422 Y135.565 E61.63102
G1 X112.75 Y135.5 E61.64214
G1 X125.799 Y135.5 E62.07616
G1 X126.088 Y135.57 E62.08605
G1 X126.351 Y135.707 E62.09591
G1 X126.49 Y135.845 E62.10242
G1 X126.685 Y136.172 E62.11509
G1 X126.75 Y136.5 E62.12621
G1 X126.75 Y163.549 E63.02586
G1 X126.68 Y163.838 E63.03575
G1 X126.543 Y164.101 E63.04561
G1 X126.405 Y164.24 E63.05213
G1 X126.078 Y164.435 E63.06479
G1 X125.75 Y164.5 E63.07591
G1 X112.701 Y164.5 E63.50993
G1 X112.412 Y164.43 E63.51982
G1 X112.149 Y164.293 E63.52968
G1 X112.01 Y164.155 E63.53619
G1 X111.815 Y163.828 E63.54886
G1 X111.75 Y163.5 E63.55998
G1 X111.75 Y136.451 E64.45963
G1 X111.82 Y136.162 E64.46952
G1 X111.957 Y135.899 E64.47938
G1 X112.095 Y135.76 E64.4859
G0 F6000 X112.3 Y136.104
G1 F1200 X112.57 Y135.943 E64.49635
G1 X112.75 Y135.9 E64.50251
G1 X125.75 Y135.9 E64.93489
G1 X125.994 Y135.959 E64.94324
G1 X126.146 Y136.05 E64.94913
G1 X126.307 Y136.32 E64.95959
G1 X126.35 Y136.5 E64.96574
G1 X126.35 Y163.5 E65.86377
G1 X126.291 Y163.744 E65.87212
G1 X126.2 Y163.896 E65.87801
G1 X125.93 Y164.057 E65.88847
G1 X125.75 Y164.1 E65.89462
G1 X112.75 Y164.1 E66.327
G1 X112.506 Y164.041 E66.33535
G1 X112.354 Y163.95 E66.34124
G1 X112.193 Y163.68 E66.3517
G1 X112.15 Y163.5 E66.35785
G1 X112.15 Y136.5 E67.25588
G1 X112.209 Y136.256 E67.26423
G1 X112.3 Y136.104 E67.27012
G0 F6000 X112.589 Y136.381
G1 F1200 X112.75 Y136.3 E67.27611
G1 X125.75 Y136.3 E67.7085
G1 X125.869 Y136.339 E67.71266
G1 X125.95 Y136.5 E67.71866
G1 X125.95 Y163.5 E68.61668
G1 X125.911 Y163.619 E68.62084
G1 X125.75 Y163.7 E68.62684
G1 X112.75 Y163.7 E69.05922
G1 X112.631 Y163.661 E69.06339
G1 X112.55 Y163.5 E69.06938
G1 X112.55 Y136.5 E69.9674
G1 X112.589 Y136.381 E69.97157
G1 F2100 E68.47157
;MESH:sample.stl
G0 F6000 X113.55 Y137.3
G0 X125.15 Y162.9
;TYPE:WALL-INNER
G1 F2100 E69.97157
G1 F1200 X125.15 Y137.1 E70.82968
G1 X113.35 Y137.1 E71.22215
G1 X113.35 Y162.9 E72.08026
G1 X125.15 Y162.9 E72.47273
G0 F6000 X125.55 Y163.3
;TYPE:WALL-OUTER
G1 F1200 X125.55 Y136.7 E73.35745
G1 X112.95 Y136.7 E73.77653
G1 X112.95 Y163.3 E74.66125
G1 X125.55 Y163.3 E75.08033
G0 F6000 X125.28 Y163.03
G0 X125.05 Y162.54
G0 X124.79 Y162.54
;TYPE:SKIN
G1 F1200 X113.71 Y162.54 E75.44885
G1 X113.71 Y137.46 E76.28301
G1 X124.79 Y137.46 E76.65153
G1 X124.79 Y162.54 E77.4857
G0 F6000 X125.05 Y162.54
G0 X113.522 Y162.728
G0 X113.45 Y161.993
G0 X113.909 Y161.993
