;FLAVOR:Marlin
;TIME:12720
;Filament used: 5.00379m
;Layer height: 0.1
;MINX:92.264
;MINY:92.754
;MINZ:0.3
;MAXX:207.301
;MAXY:207.462
;MAXZ:20
;Generated with Cura_SteamEngine master
M140 S60
M105
M190 S60
M104 S210
M105
M109 S210
M82 ;absolute extrusion mode
M201 X500.00 Y500.00 Z100.00 E5000.00 ;Setup machine max acceleration
M203 X500.00 Y500.00 Z10.00 E50.00 ;Setup machine max feedrate
M204 P500.00 R1000.00 T500.00 ;Setup Print/Retract/Travel acceleration
M205 X8.00 Y8.00 Z0.40 E5.00 ;Setup Jerk
M220 S100 ;Reset Feedrate
M221 S100 ;Reset Flowrate

G28 ;Home
G29 A ; enable UBL
G92 E0 ;Reset Extruder
G1 Z2.0 F3000 ;Move Z Axis up
G1 X10.1 Y20 Z0.28 F5000.0 ;Move to start position
G1 X10.1 Y200.0 Z0.28 F1500.0 E15 ;Draw the first line
G1 X10.4 Y200.0 Z0.28 F5000.0 ;Move to side a little
G1 X10.4 Y20 Z0.28 F1500.0 E30 ;Draw the second line
G92 E0 ;Reset Extruder
G1 Z2.0 F3000 ;Move Z Axis up
G92 E0
G92 E0
G1 F2400 E-3
;LAYER_COUNT:198
;LAYER:0
M107
G0 F6000 X172.68 Y96.771 Z0.3
;TYPE:SKIRT
G1 F2400 E0
G1 F1200 X173.098 Y96.1 E0.03944
G1 X173.581 Y95.476 E0.07881
G1 X174.124 Y94.903 E0.11819
G1 X174.723 Y94.388 E0.1576
G1 X175.371 Y93.937 E0.19699
G1 X176.062 Y93.553 E0.23643
G1 X176.787 Y93.241 E0.27581
G1 X177.54 Y93.004 E0.31519
G1 X178.314 Y92.845 E0.35461
G1 X179.099 Y92.764 E0.39399
G1 X179.501 Y92.754 E0.41405
G1 X199.501 Y92.754 E1.41185
G1 X200.29 Y92.794 E1.45127
G1 X201.07 Y92.913 E1.49063
G1 X201.835 Y93.111 E1.53005
G1 X202.575 Y93.385 E1.56942
G1 X203.284 Y93.733 E1.60883
G1 X203.955 Y94.151 E1.64827
G1 X204.579 Y94.634 E1.68763
G1 X205.152 Y95.177 E1.72702
G1 X205.667 Y95.776 E1.76643
G1 X206.118 Y96.424 E1.80582
G1 X206.502 Y97.115 E1.84526
G1 X206.814 Y97.84 E1.88463
G1 X207.051 Y98.593 E1.92402
G1 X207.21 Y99.367 E1.96344
G1 X207.291 Y100.152 E2.00281
G1 X207.301 Y100.554 E2.02287
G1 X207.301 Y120.554 E3.02068
G1 X207.261 Y121.343 E3.06009
G1 X207.142 Y122.123 E3.09946
G1 X206.944 Y122.888 E3.13888
G1 X206.67 Y123.628 E3.17825
G1 X206.322 Y124.337 E3.21765
G1 X205.904 Y125.008 E3.25709
G1 X205.421 Y125.632 E3.29646
G1 X204.878 Y126.205 E3.33584
G1 X204.279 Y126.72 E3.37526
G1 X203.631 Y127.171 E3.41464
G1 X202.94 Y127.555 E3.45408
G1 X202.215 Y127.867 E3.49346
G1 X201.462 Y128.104 E3.53285
G1 X200.688 Y128.263 E3.57227
G1 X199.903 Y128.344 E3.61164
G1 X199.501 Y128.354 E3.6317
G1 X179.501 Y128.354 E4.6295
G1 X178.712 Y128.314 E4.66892
G1 X177.932 Y128.195 E4.70828
G1 X177.167 Y127.997 E4.74771
G1 X176.427 Y127.723 E4.78707
G1 X175.718 Y127.375 E4.82648
G1 X175.047 Y126.957 E4.86592
G1 X174.423 Y126.474 E4.90529
G1 X173.85 Y125.931 E4.94467
G1 X173.335 Y125.332 E4.98408
G1 X172.884 Y124.684 E5.02347
G1 X172.5 Y123.993 E5.06291
G1 X172.188 Y123.268 E5.10229
G1 X171.951 Y122.515 E5.14167
G1 X171.792 Y121.741 E5.18109
G1 X171.711 Y120.956 E5.22046
G1 X171.701 Y120.554 E5.24053
G1 X171.701 Y100.554 E6.23833
G1 X171.741 Y99.765 E6.27774
G1 X171.86 Y98.985 E6.31711
G1 X172.058 Y98.22 E6.35653
G1 X172.332 Y97.48 E6.3959
G1 X172.68 Y96.771 E6.4353
G0 F6000 X173.079 Y96.878
G1 F1200 X173.495 Y96.231 E6.47368
G1 X173.976 Y95.631 E6.51205
G1 X174.517 Y95.084 E6.55043
G1 X175.112 Y94.596 E6.58882
G1 X175.754 Y94.173 E6.62718
G1 X176.437 Y93.818 E6.66558
G1 X177.152 Y93.537 E6.70391
G1 X177.894 Y93.331 E6.74233
G1 X178.652 Y93.203 E6.78068
G1 X179.501 Y93.154 E6.82311
G1 X199.501 Y93.154 E7.82091
G1 X200.269 Y93.194 E7.85928
G1 X201.029 Y93.313 E7.89766
G1 X201.772 Y93.511 E7.93602
G1 X202.491 Y93.785 E7.9744
G1 X203.177 Y94.132 E8.01276
G1 X203.824 Y94.548 E8.05113
G1 X204.424 Y95.029 E8.0895
G1 X204.971 Y95.57 E8.12788
G1 X205.459 Y96.165 E8.16627
G1 X205.882 Y96.807 E8.20463
G1 X206.237 Y97.49 E8.24303
G1 X206.518 Y98.205 E8.28136
G1 X206.724 Y98.947 E8.31978
G1 X206.852 Y99.705 E8.35813
G1 X206.901 Y100.554 E8.40056
G1 X206.901 Y120.554 E9.39836
G1 X206.861 Y121.322 E9.43673
G1 X206.742 Y122.082 E9.47511
G1 X206.544 Y122.825 E9.51347
G1 X206.27 Y123.544 E9.55186
G1 X205.923 Y124.23 E9.59021
G1 X205.507 Y124.877 E9.62859
G1 X205.026 Y125.477 E9.66695
G1 X204.485 Y126.024 E9.70534
G1 X203.89 Y126.512 E9.74373
G1 X203.248 Y126.935 E9.78209
G1 X202.565 Y127.29 E9.82049
G1 X201.85 Y127.571 E9.85882
G1 X201.108 Y127.777 E9.89723
G1 X200.35 Y127.905 E9.93559
G1 X199.501 Y127.954 E9.97801
G1 X179.501 Y127.954 E10.97582
G1 X178.733 Y127.914 E11.01419
G1 X177.973 Y127.795 E11.05256
G1 X177.23 Y127.597 E11.09093
G1 X176.511 Y127.323 E11.12931
G1 X175.825 Y126.976 E11.16767
G1 X175.178 Y126.56 E11.20604
G1 X174.578 Y126.079 E11.24441
G1 X174.031 Y125.538 E11.28279
G1 X173.543 Y124.943 E11.32118
G1 X173.12 Y124.301 E11.35954
G1 X172.765 Y123.618 E11.39794
G1 X172.484 Y122.903 E11.43627
G1 X172.278 Y122.161 E11.47469
G1 X172.15 Y121.403 E11.51304
G1 X172.101 Y120.554 E11.55547
G1 X172.101 Y100.554 E12.55327
G1 X172.141 Y99.786 E12.59164
G1 X172.26 Y99.026 E12.63002
G1 X172.458 Y98.283 E12.66838
G1 X172.732 Y97.564 E12.70677
G1 X173.079 Y96.878 E12.74512
G0 F6000 X173.478 Y96.988
G1 F1200 X173.893 Y96.365 E12.78247
G1 X174.372 Y95.791 E12.81977
G1 X174.909 Y95.27 E12.8571
G1 X175.499 Y94.811 E12.89439
G1 X176.135 Y94.416 E12.93174
G1 X176.809 Y94.092 E12.96905
G1 X177.514 Y93.842 E13.00637
G1 X178.242 Y93.668 E13.04371
G1 X178.984 Y93.573 E13.08103
G1 X179.501 Y93.554 E13.10684
G1 X199.501 Y93.554 E14.10465
G1 X200.248 Y93.594 E14.14197
G1 X200.986 Y93.713 E14.17926
G1 X201.708 Y93.911 E14.21661
G1 X202.404 Y94.184 E14.25391
G1 X203.067 Y94.531 E14.29125
G1 X203.69 Y94.946 E14.32859
G1 X204.264 Y95.425 E14.36589
G1 X204.785 Y95.962 E14.40322
G1 X205.244 Y96.552 E14.44051
G1 X205.639 Y97.188 E14.47786
G1 X205.963 Y97.862 E14.51517
G1 X206.213 Y98.567 E14.55249
G1 X206.387 Y99.295 E14.58984
G1 X206.482 Y100.037 E14.62716
G1 X206.501 Y100.554 E14.65297
G1 X206.501 Y120.554 E15.65077
G1 X206.461 Y121.301 E15.68809
G1 X206.342 Y122.039 E15.72539
G1 X206.144 Y122.761 E15.76274
G1 X205.871 Y123.457 E15.80004
G1 X205.524 Y124.12 E15.83737
G1 X205.109 Y124.743 E15.87472
G1 X204.63 Y125.317 E15.91202
G1 X204.093 Y125.838 E15.94934
G1 X203.503 Y126.297 E15.98664
G1 X202.867 Y126.692 E16.02399
G1 X202.193 Y127.016 E16.0613
G1 X201.488 Y127.266 E16.09862
G1 X200.76 Y127.44 E16.13596
G1 X200.018 Y127.535 E16.17328
G1 X199.501 Y127.554 E16.19909
G1 X179.501 Y127.554 E17.1969
G1 X178.754 Y127.514 E17.23422
G1 X178.016 Y127.395 E17.27151
G1 X177.294 Y127.197 E17.30886
G1 X176.598 Y126.924 E17.34616
G1 X175.935 Y126.577 E17.3835
G1 X175.312 Y126.162 E17.42084
G1 X174.738 Y125.683 E17.45814
G1 X174.217 Y125.146 E17.49547
G1 X173.758 Y124.556 E17.53276
G1 X173.363 Y123.92 E17.57011
G1 X173.039 Y123.246 E17.60742
G1 X172.789 Y122.541 E17.64474
G1 X172.615 Y121.813 E17.68208
G1 X172.52 Y121.071 E17.71941
G1 X172.501 Y120.554 E17.74522
G1 X172.501 Y100.554 E18.74302
G1 X172.541 Y99.807 E18.78034
G1 X172.66 Y99.069 E18.81764
G1 X172.858 Y98.347 E18.85499
G1 X173.131 Y97.651 E18.89229
G1 X173.478 Y96.988 E18.92962
G0 F6000 X173.876 Y97.101
G1 F1200 X174.29 Y96.504 E18.96586
G1 X174.766 Y95.956 E19.00208
G1 X175.3 Y95.463 E19.03834
G1 X175.885 Y95.033 E19.07456
G1 X176.514 Y94.669 E19.11082
G1 X177.179 Y94.376 E19.14707
G1 X177.872 Y94.158 E19.18331
G1 X178.584 Y94.018 E19.21952
G1 X179.501 Y93.954 E19.26538
G1 X199.501 Y93.954 E20.26318
G1 X200.226 Y93.994 E20.29941
G1 X200.943 Y94.113 E20.33567
G1 X201.642 Y94.311 E20.37191
G1 X202.315 Y94.584 E20.40815
G1 X202.954 Y94.929 E20.44438
G1 X203.551 Y95.343 E20.48062
G1 X204.099 Y95.819 E20.51683
G1 X204.592 Y96.353 E20.55309
G1 X205.022 Y96.938 E20.58932
G1 X205.386 Y97.567 E20.62557
G1 X205.679 Y98.232 E20.66183
G1 X205.897 Y98.925 E20.69807
G1 X206.037 Y99.637 E20.73427
G1 X206.101 Y100.554 E20.78013
G1 X206.101 Y120.554 E21.77794
G1 X206.061 Y121.279 E21.81416
G1 X205.942 Y121.996 E21.85042
G1 X205.744 Y122.695 E21.88667
G1 X205.471 Y123.368 E21.9229
G1 X205.126 Y124.007 E21.95913
G1 X204.712 Y124.604 E21.99538
G1 X204.236 Y125.152 E22.03159
G1 X203.702 Y125.645 E22.06785
G1 X203.117 Y126.075 E22.10407
G1 X202.488 Y126.439 E22.14033
G1 X201.823 Y126.732 E22.17658
G1 X201.13 Y126.95 E22.21283
G1 X200.418 Y127.09 E22.24903
G1 X199.501 Y127.154 E22.29489
G1 X179.501 Y127.154 E23.29269
G1 X178.776 Y127.114 E23.32892
G1 X178.059 Y126.995 E23.36518
G1 X177.36 Y126.797 E23.40143
G1 X176.687 Y126.524 E23.43766
G1 X176.048 Y126.179 E23.47389
G1 X175.451 Y125.765 E23.51013
G1 X174.903 Y125.289 E23.54635
G1 X174.41 Y124.755 E23.58261
G1 X173.98 Y124.17 E23.61883
G1 X173.616 Y123.541 E23.65509
G1 X173.323 Y122.876 E23.69134
G1 X173.105 Y122.183 E23.72758
G1 X172.965 Y121.471 E23.76379
G1 X172.901 Y120.554 E23.80965
G1 X172.901 Y100.554 E24.80745
G1 X172.941 Y99.829 E24.84368
G1 X173.06 Y99.112 E24.87994
G1 X173.258 Y98.413 E24.91618
G1 X173.531 Y97.74 E24.95242
G1 X173.876 Y97.101 E24.98864
G0 F6000 X173.93 Y97.833
G1 F1200 X174.275 Y97.219 E25.02378
G1 X174.686 Y96.648 E25.05888
G1 X175.16 Y96.127 E25.09402
G1 X175.69 Y95.663 E25.12917
G1 X176.269 Y95.263 E25.16427
G1 X176.89 Y94.931 E25.19941
G1 X177.544 Y94.671 E25.23452
G1 X178.224 Y94.487 E25.26966
G1 X178.92 Y94.381 E25.30479
G1 X179.501 Y94.354 E25.3338
G1 X199.501 Y94.354 E26.33161
G1 X200.204 Y94.394 E26.36674
G1 X200.898 Y94.513 E26.40187
G1 X201.573 Y94.711 E26.43696
G1 X202.222 Y94.983 E26.47207
G1 X202.836 Y95.328 E26.50721
G1 X203.407 Y95.739 E26.54231
G1 X203.928 Y96.213 E26.57745
G1 X204.392 Y96.743 E26.61259
G1 X204.792 Y97.322 E26.6477
G1 X205.124 Y97.943 E26.68283
G1 X205.384 Y98.597 E26.71794
G1 X205.568 Y99.277 E26.75309
G1 X205.674 Y99.973 E26.78821
G1 X205.701 Y100.554 E26.81723
G1 X205.701 Y120.554 E27.81503
G1 X205.661 Y121.257 E27.85016
G1 X205.542 Y121.951 E27.88529
G1 X205.344 Y122.626 E27.92039
G1 X205.072 Y123.275 E27.95549
G1 X204.727 Y123.889 E27.99063
G1 X204.316 Y124.46 E28.02573
G1 X203.842 Y124.981 E28.06087
G1 X203.312 Y125.445 E28.09602
G1 X202.733 Y125.845 E28.13112
G1 X202.112 Y126.177 E28.16626
G1 X201.458 Y126.437 E28.20137
G1 X200.778 Y126.621 E28.23651
G1 X200.082 Y126.727 E28.27164
G1 X199.501 Y126.754 E28.30066
G1 X179.501 Y126.754 E29.29846
G1 X178.798 Y126.714 E29.33359
G1 X178.104 Y126.595 E29.36872
G1 X177.429 Y126.397 E29.40381
G1 X176.78 Y126.125 E29.43892
G1 X176.166 Y125.78 E29.47406
G1 X175.595 Y125.369 E29.50916
G1 X175.074 Y124.895 E29.5443
G1 X174.61 Y124.365 E29.57944
G1 X174.21 Y123.786 E29.61455
G1 X173.878 Y123.165 E29.64968
G1 X173.618 Y122.511 E29.68479
G1 X173.434 Y121.831 E29.71994
G1 X173.328 Y121.135 E29.75506
G1 X173.301 Y120.554 E29.78408
G1 X173.301 Y100.554 E30.78188
G1 X173.341 Y99.851 E30.81701
G1 X173.46 Y99.157 E30.85214
G1 X173.658 Y98.482 E30.88724
G1 X173.93 Y97.833 E30.92235
G0 F6000 X174.329 Y97.928
G1 F1200 X174.673 Y97.34 E30.95633
G1 X175.083 Y96.796 E30.99032
G1 X175.554 Y96.305 E31.02426
G1 X176.079 Y95.871 E31.05825
G1 X176.651 Y95.502 E31.09221
G1 X177.263 Y95.203 E31.12619
G1 X177.905 Y94.978 E31.16013
G1 X178.57 Y94.829 E31.19413
G1 X179.501 Y94.754 E31.24072
G1 X199.501 Y94.754 E32.23853
G1 X200.181 Y94.794 E32.27251
G1 X200.851 Y94.913 E32.30646
G1 X201.503 Y95.11 E32.34044
G1 X202.127 Y95.382 E32.3744
G1 X202.715 Y95.726 E32.40839
G1 X203.259 Y96.136 E32.44238
G1 X203.75 Y96.607 E32.47632
G1 X204.184 Y97.132 E32.5103
G1 X204.553 Y97.704 E32.54426
G1 X204.852 Y98.316 E32.57825
G1 X205.077 Y98.958 E32.61218
G1 X205.226 Y99.623 E32.64618
G1 X205.301 Y100.554 E32.69278
G1 X205.301 Y120.554 E33.69059
G1 X205.261 Y121.234 E33.72457
G1 X205.142 Y121.904 E33.75852
G1 X204.945 Y122.556 E33.7925
G1 X204.673 Y123.18 E33.82646
G1 X204.329 Y123.768 E33.86045
G1 X203.919 Y124.312 E33.89443
G1 X203.448 Y124.803 E33.92838
G1 X202.923 Y125.237 E33.96236
G1 X202.351 Y125.606 E33.99632
G1 X201.739 Y125.905 E34.0303
G1 X201.097 Y126.13 E34.06424
G1 X200.432 Y126.279 E34.09824
G1 X199.501 Y126.354 E34.14484
G1 X179.501 Y126.354 E35.14265
G1 X178.821 Y126.314 E35.17663
G1 X178.151 Y126.195 E35.21058
G1 X177.499 Y125.998 E35.24456
G1 X176.875 Y125.726 E35.27852
G1 X176.287 Y125.382 E35.31251
G1 X175.743 Y124.972 E35.34649
G1 X175.252 Y124.501 E35.38044
G1 X174.818 Y123.976 E35.41442
G1 X174.449 Y123.404 E35.44838
G1 X174.15 Y122.792 E35.48236
G1 X173.925 Y122.15 E35.5163
G1 X173.776 Y121.485 E35.5503
G1 X173.701 Y120.554 E35.5969
G1 X173.701 Y100.554 E36.5947
G1 X173.741 Y99.874 E36.62869
G1 X173.86 Y99.204 E36.66264
G1 X174.057 Y98.552 E36.69662
G1 X174.329 Y97.928 E36.73058
G0 F6000 X174.729 Y98.027
G1 F1200 X175.071 Y97.466 E36.76336
G1 X175.479 Y96.951 E36.79614
G1 X175.946 Y96.489 E36.82891
G1 X176.466 Y96.088 E36.86167
G1 X177.03 Y95.752 E36.89442
G1 X177.632 Y95.488 E36.92722
G1 X178.261 Y95.298 E36.96
G1 X178.908 Y95.187 E36.99275
G1 X179.501 Y95.154 E37.02238
G1 X199.501 Y95.154 E38.02019
G1 X200.157 Y95.194 E38.05297
G1 X200.803 Y95.313 E38.08575
G1 X201.43 Y95.51 E38.11853
G1 X202.028 Y95.782 E38.15131
G1 X202.589 Y96.124 E38.18409
G1 X203.104 Y96.532 E38.21687
G1 X203.566 Y96.999 E38.24964
G1 X203.967 Y97.519 E38.2824
G1 X204.303 Y98.083 E38.31516
G1 X204.567 Y98.685 E38.34795
G1 X204.757 Y99.314 E38.38073
G1 X204.868 Y99.961 E38.41348
G1 X204.901 Y100.554 E38.44311
G1 X204.901 Y120.554 E39.44092
G1 X204.861 Y121.21 E39.47371
G1 X204.742 Y121.856 E39.50648
G1 X204.545 Y122.483 E39.53927
G1 X204.273 Y123.081 E39.57204
G1 X203.931 Y123.642 E39.60482
G1 X203.523 Y124.157 E39.6376
G1 X203.056 Y124.619 E39.67037
G1 X202.536 Y125.02 E39.70313
G1 X201.972 Y125.356 E39.73589
G1 X201.37 Y125.62 E39.76868
G1 X200.741 Y125.81 E39.80146
G1 X200.094 Y125.921 E39.83421
G1 X199.501 Y125.954 E39.86385
G1 X179.501 Y125.954 E40.86165
G1 X178.845 Y125.914 E40.89444
G1 X178.199 Y125.795 E40.92721
G1 X177.572 Y125.598 E40.96
G1 X176.974 Y125.326 E40.99277
G1 X176.413 Y124.984 E41.02555
G1 X175.898 Y124.576 E41.05833
G1 X175.436 Y124.109 E41.09111
G1 X175.035 Y123.589 E41.12387
G1 X174.699 Y123.025 E41.15662
G1 X174.435 Y122.423 E41.18941
G1 X174.245 Y121.794 E41.2222
G1 X174.134 Y121.147 E41.25495
G1 X174.101 Y120.554 E41.28458
G1 X174.101 Y100.554 E42.28238
G1 X174.141 Y99.898 E42.31517
G1 X174.26 Y99.252 E42.34794
G1 X174.457 Y98.625 E42.38073
G1 X174.729 Y98.027 E42.41351
G0 F6000 X175.128 Y98.13
G1 F1200 X175.468 Y97.598 E42.445
G1 X175.874 Y97.113 E42.47656
G1 X176.337 Y96.683 E42.50809
G1 X176.851 Y96.314 E42.53965
G1 X177.407 Y96.014 E42.57117
G1 X177.996 Y95.786 E42.60268
G1 X178.61 Y95.634 E42.63424
G1 X179.501 Y95.554 E42.67887
G1 X199.501 Y95.554 E43.67667
G1 X200.132 Y95.594 E43.70822
G1 X200.753 Y95.713 E43.73976
G1 X201.353 Y95.91 E43.77127
G1 X201.925 Y96.181 E43.80285
G1 X202.457 Y96.521 E43.83435
G1 X202.942 Y96.927 E43.8659
G1 X203.372 Y97.39 E43.89743
G1 X203.741 Y97.904 E43.92899
G1 X204.041 Y98.46 E43.96051
G1 X204.269 Y99.049 E43.99202
G1 X204.421 Y99.663 E44.02358
G1 X204.501 Y100.554 E44.06821
G1 X204.501 Y120.554 E45.06602
G1 X204.461 Y121.185 E45.09756
G1 X204.342 Y121.806 E45.12911
G1 X204.145 Y122.406 E45.16061
G1 X203.874 Y122.978 E45.19219
G1 X203.534 Y123.51 E45.22369
G1 X203.128 Y123.995 E45.25524
G1 X202.665 Y124.425 E45.28677
G1 X202.151 Y124.794 E45.31834
G1 X201.595 Y125.094 E45.34986
G1 X201.006 Y125.322 E45.38137
G1 X200.392 Y125.474 E45.41292
G1 X199.501 Y125.554 E45.45755
G1 X179.501 Y125.554 E46.45536
G1 X178.87 Y125.514 E46.4869
G1 X178.249 Y125.395 E46.51845
G1 X177.649 Y125.198 E46.54995
G1 X177.077 Y124.927 E46.58153
G1 X176.545 Y124.587 E46.61303
G1 X176.06 Y124.181 E46.64459
G1 X175.63 Y123.718 E46.67611
G1 X175.261 Y123.204 E46.70768
G1 X174.961 Y122.648 E46.7392
G1 X174.733 Y122.059 E46.77071
G1 X174.581 Y121.445 E46.80227
G1 X174.501 Y120.554 E46.8469
G1 X174.501 Y100.554 E47.8447
G1 X174.541 Y99.923 E47.87624
G1 X174.66 Y99.302 E47.90779
G1 X174.857 Y98.702 E47.9393
G1 X175.128 Y98.13 E47.97087
G0 F6000 X175.527 Y98.238
G1 F1200 X175.866 Y97.735 E48.00114
G1 X176.268 Y97.282 E48.03135
G1 X176.726 Y96.885 E48.06159
G1 X177.233 Y96.552 E48.09185
G1 X177.779 Y96.288 E48.12211
G1 X178.355 Y96.099 E48.15236
G1 X178.951 Y95.987 E48.18261
G1 X179.501 Y95.954 E48.2101
G1 X199.501 Y95.954 E49.2079
G1 X200.106 Y95.994 E49.23815
