;FLAVOR:Marlin
;TIME:21888
;Filament used: 8.33964m
;Layer height: 0.1
;MINX:21.539
;MINY:21.864
;MINZ:0.3
;MAXX:278.498
;MAXY:279.159
;MAXZ:20
;Generated with Cura_SteamEngine master
M140 S60
M105
M190 S60
M104 S210
M105
M109 S210
M82 ;absolute extrusion mode
M201 X500.00 Y500.00 Z100.00 E5000.00 ;Setup machine max acceleration
M203 X500.00 Y500.00 Z10.00 E50.00 ;Setup machine max feedrate
M204 P500.00 R1000.00 T500.00 ;Setup Print/Retract/Travel acceleration
M205 X8.00 Y8.00 Z0.40 E5.00 ;Setup Jerk
M220 S100 ;Reset Feedrate
M221 S100 ;Reset Flowrate

G28 ;Home
G29 A ; enable UBL
G92 E0 ;Reset Extruder
G1 Z2.0 F3000 ;Move Z Axis up
G1 X10.1 Y20 Z0.28 F5000.0 ;Move to start position
G1 X10.1 Y200.0 Z0.28 F1500.0 E15 ;Draw the first line
G1 X10.4 Y200.0 Z0.28 F5000.0 ;Move to side a little
G1 X10.4 Y20 Z0.28 F1500.0 E30 ;Draw the second line
G92 E0 ;Reset Extruder
G1 Z2.0 F3000 ;Move Z Axis up
G92 E0
G92 E0
G1 F2400 E-3
;LAYER_COUNT:198
;LAYER:0
M107
G0 F6000 X23.962 Y24.013 Z0.3
;TYPE:SKIRT
G1 F2400 E0
G1 F1200 X24.561 Y23.498 E0.03941
G1 X25.209 Y23.047 E0.0788
G1 X25.9 Y22.663 E0.11824
G1 X26.625 Y22.351 E0.15762
G1 X27.378 Y22.114 E0.197
G1 X28.152 Y21.955 E0.23642
G1 X28.937 Y21.874 E0.27579
G1 X29.339 Y21.864 E0.29586
G1 X49.339 Y21.864 E1.29366
G1 X50.128 Y21.904 E1.33307
G1 X50.908 Y22.023 E1.37244
G1 X51.673 Y22.221 E1.41186
G1 X52.413 Y22.495 E1.45123
G1 X53.122 Y22.843 E1.49063
G1 X53.793 Y23.261 E1.53007
G1 X54.417 Y23.744 E1.56944
G1 X54.99 Y24.287 E1.60883
G1 X55.505 Y24.886 E1.64824
G1 X55.956 Y25.534 E1.68763
G1 X56.34 Y26.225 E1.72706
G1 X56.652 Y26.95 E1.76644
G1 X56.889 Y27.703 E1.80583
G1 X57.048 Y28.477 E1.84525
G1 X57.129 Y29.262 E1.88462
G1 X57.139 Y29.664 E1.90468
G1 X57.139 Y49.664 E2.90249
G1 X57.099 Y50.453 E2.9419
G1 X56.98 Y51.233 E2.98126
G1 X56.782 Y51.998 E3.02069
G1 X56.508 Y52.738 E3.06006
G1 X56.16 Y53.447 E3.09946
G1 X55.742 Y54.118 E3.1389
G1 X55.259 Y54.742 E3.17827
G1 X54.716 Y55.315 E3.21765
G1 X54.117 Y55.83 E3.25706
G1 X53.469 Y56.281 E3.29645
G1 X52.778 Y56.665 E3.33589
G1 X52.053 Y56.977 E3.37527
G1 X51.3 Y57.214 E3.41465
G1 X50.526 Y57.373 E3.45407
G1 X49.741 Y57.454 E3.49345
G1 X49.339 Y57.464 E3.51351
G1 X29.339 Y57.464 E4.51131
G1 X28.55 Y57.424 E4.55073
G1 X27.77 Y57.305 E4.59009
G1 X27.005 Y57.107 E4.62951
G1 X26.265 Y56.833 E4.66888
G1 X25.556 Y56.485 E4.70829
G1 X24.885 Y56.067 E4.74773
G1 X24.261 Y55.584 E4.78709
G1 X23.688 Y55.041 E4.82648
G1 X23.173 Y54.442 E4.86589
G1 X22.722 Y53.794 E4.90528
G1 X22.338 Y53.103 E4.94472
G1 X22.026 Y52.378 E4.98409
G1 X21.789 Y51.625 E5.02348
G1 X21.63 Y50.851 E5.0629
G1 X21.549 Y50.066 E5.10227
G1 X21.539 Y49.664 E5.12233
G1 X21.539 Y29.664 E6.12014
G1 X21.579 Y28.875 E6.15955
G1 X21.698 Y28.095 E6.19892
G1 X21.896 Y27.33 E6.23834
G1 X22.17 Y26.59 E6.27771
G1 X22.518 Y25.881 E6.31711
G1 X22.936 Y25.21 E6.35655
G1 X23.419 Y24.586 E6.39592
G1 X23.962 Y24.013 E6.4353
G0 F6000 X24.355 Y24.194
G1 F1200 X24.95 Y23.706 E6.4737
G1 X25.592 Y23.283 E6.51205
G1 X26.275 Y22.928 E6.55046
G1 X26.99 Y22.647 E6.58878
G1 X27.732 Y22.441 E6.6272
G1 X28.49 Y22.313 E6.66555
G1 X29.339 Y22.264 E6.70798
G1 X49.339 Y22.264 E7.70579
G1 X50.107 Y22.304 E7.74415
G1 X50.867 Y22.423 E7.78253
G1 X51.61 Y22.621 E7.82089
G1 X52.329 Y22.895 E7.85928
G1 X53.015 Y23.242 E7.89764
G1 X53.662 Y23.658 E7.93601
G1 X54.262 Y24.139 E7.97438
G1 X54.809 Y24.68 E8.01276
G1 X55.297 Y25.275 E8.05115
G1 X55.72 Y25.917 E8.08951
G1 X56.075 Y26.6 E8.12791
G1 X56.356 Y27.315 E8.16624
G1 X56.562 Y28.057 E8.20466
G1 X56.69 Y28.815 E8.24301
G1 X56.739 Y29.664 E8.28544
G1 X56.739 Y49.664 E9.28324
G1 X56.699 Y50.432 E9.32161
G1 X56.58 Y51.192 E9.35999
G1 X56.382 Y51.935 E9.39835
G1 X56.108 Y52.654 E9.43674
G1 X55.761 Y53.34 E9.47509
G1 X55.345 Y53.987 E9.51347
G1 X54.864 Y54.587 E9.55183
G1 X54.323 Y55.134 E9.59021
G1 X53.728 Y55.622 E9.62861
G1 X53.086 Y56.045 E9.66696
G1 X52.403 Y56.4 E9.70537
G1 X51.688 Y56.681 E9.74369
G1 X50.946 Y56.887 E9.78211
G1 X50.188 Y57.015 E9.82046
G1 X49.339 Y57.064 E9.86289
G1 X29.339 Y57.064 E10.86069
G1 X28.571 Y57.024 E10.89906
G1 X27.811 Y56.905 E10.93744
G1 X27.068 Y56.707 E10.9758
G1 X26.349 Y56.433 E11.01419
G1 X25.663 Y56.086 E11.05254
G1 X25.016 Y55.67 E11.09092
G1 X24.416 Y55.189 E11.12929
G1 X23.869 Y54.648 E11.16767
G1 X23.381 Y54.053 E11.20606
G1 X22.958 Y53.411 E11.24442
G1 X22.603 Y52.728 E11.28282
G1 X22.322 Y52.013 E11.32115
G1 X22.116 Y51.271 E11.35957
G1 X21.988 Y50.513 E11.39792
G1 X21.939 Y49.664 E11.44035
G1 X21.939 Y29.664 E12.43815
G1 X21.979 Y28.896 E12.47652
G1 X22.098 Y28.136 E12.5149
G1 X22.296 Y27.393 E12.55326
G1 X22.57 Y26.674 E12.59165
G1 X22.917 Y25.988 E12.63
G1 X23.333 Y25.341 E12.66837
G1 X23.814 Y24.741 E12.70674
G1 X24.355 Y24.194 E12.74512
G0 F6000 X24.747 Y24.38
G1 F1200 X25.337 Y23.921 E12.78242
G1 X25.973 Y23.526 E12.81977
G1 X26.647 Y23.202 E12.85708
G1 X27.352 Y22.952 E12.8944
G1 X28.08 Y22.778 E12.93174
G1 X28.822 Y22.683 E12.96906
G1 X29.339 Y22.664 E12.99487
G1 X49.339 Y22.664 E13.99267
G1 X50.086 Y22.704 E14.03
G1 X50.824 Y22.823 E14.06729
G1 X51.546 Y23.021 E14.10464
G1 X52.242 Y23.294 E14.14194
G1 X52.905 Y23.641 E14.17927
G1 X53.528 Y24.056 E14.21662
G1 X54.102 Y24.535 E14.25392
G1 X54.623 Y25.072 E14.29125
G1 X55.082 Y25.662 E14.32854
G1 X55.477 Y26.298 E14.36589
G1 X55.801 Y26.972 E14.4032
G1 X56.051 Y27.677 E14.44052
G1 X56.225 Y28.405 E14.47786
G1 X56.32 Y29.147 E14.51518
G1 X56.339 Y29.664 E14.54099
G1 X56.339 Y49.664 E15.5388
G1 X56.299 Y50.411 E15.57612
G1 X56.18 Y51.149 E15.61341
G1 X55.982 Y51.871 E15.65077
G1 X55.709 Y52.567 E15.68806
G1 X55.362 Y53.23 E15.7254
G1 X54.947 Y53.853 E15.76274
G1 X54.468 Y54.427 E15.80004
G1 X53.931 Y54.948 E15.83737
G1 X53.341 Y55.407 E15.87466
G1 X52.705 Y55.802 E15.91202
G1 X52.031 Y56.126 E15.94933
G1 X51.326 Y56.376 E15.98664
G1 X50.598 Y56.55 E16.02399
G1 X49.856 Y56.645 E16.06131
G1 X49.339 Y56.664 E16.08712
G1 X29.339 Y56.664 E17.08492
G1 X28.592 Y56.624 E17.12224
G1 X27.854 Y56.505 E17.15954
G1 X27.132 Y56.307 E17.19689
G1 X26.436 Y56.034 E17.23419
G1 X25.773 Y55.687 E17.27152
G1 X25.15 Y55.272 E17.30887
G1 X24.576 Y54.793 E17.34617
G1 X24.055 Y54.256 E17.3835
G1 X23.596 Y53.666 E17.42079
G1 X23.201 Y53.03 E17.45814
G1 X22.877 Y52.356 E17.49545
G1 X22.627 Y51.651 E17.53277
G1 X22.453 Y50.923 E17.57011
G1 X22.358 Y50.181 E17.60743
G1 X22.339 Y49.664 E17.63324
G1 X22.339 Y29.664 E18.63105
G1 X22.379 Y28.917 E18.66837
G1 X22.498 Y28.179 E18.70566
G1 X22.696 Y27.457 E18.74301
G1 X22.969 Y26.761 E18.78031
G1 X23.316 Y26.098 E18.81765
G1 X23.731 Y25.475 E18.85499
G1 X24.21 Y24.901 E18.89229
G1 X24.747 Y24.38 E18.92962
G0 F6000 X24.604 Y25.066
G1 F1200 X25.138 Y24.573 E18.96588
G1 X25.723 Y24.143 E19.0021
G1 X26.352 Y23.779 E19.03836
G1 X27.017 Y23.486 E19.07461
G1 X27.71 Y23.268 E19.11086
G1 X28.422 Y23.128 E19.14706
G1 X29.339 Y23.064 E19.19292
G1 X49.339 Y23.064 E20.19072
G1 X50.064 Y23.104 E20.22695
G1 X50.781 Y23.223 E20.26321
G1 X51.48 Y23.421 E20.29945
G1 X52.153 Y23.694 E20.33569
G1 X52.792 Y24.039 E20.37192
G1 X53.389 Y24.453 E20.40816
G1 X53.937 Y24.929 E20.44438
G1 X54.43 Y25.463 E20.48063
G1 X54.86 Y26.048 E20.51686
G1 X55.224 Y26.677 E20.55311
G1 X55.517 Y27.342 E20.58937
G1 X55.735 Y28.035 E20.62561
G1 X55.875 Y28.747 E20.66181
G1 X55.939 Y29.664 E20.70767
G1 X55.939 Y49.664 E21.70548
G1 X55.899 Y50.389 E21.7417
G1 X55.78 Y51.106 E21.77796
G1 X55.582 Y51.805 E21.81421
G1 X55.309 Y52.478 E21.85044
G1 X54.964 Y53.117 E21.88667
G1 X54.55 Y53.714 E21.92292
G1 X54.074 Y54.262 E21.95913
G1 X53.54 Y54.755 E21.99539
G1 X52.955 Y55.185 E22.03161
G1 X52.326 Y55.549 E22.06787
G1 X51.661 Y55.842 E22.10412
G1 X50.968 Y56.06 E22.14037
G1 X50.256 Y56.2 E22.17657
G1 X49.339 Y56.264 E22.22243
G1 X29.339 Y56.264 E23.22024
G1 X28.614 Y56.224 E23.25646
G1 X27.897 Y56.105 E23.29272
G1 X27.198 Y55.907 E23.32897
G1 X26.525 Y55.634 E23.3652
G1 X25.886 Y55.289 E23.40143
G1 X25.289 Y54.875 E23.43767
G1 X24.741 Y54.399 E23.47389
G1 X24.248 Y53.865 E23.51015
G1 X23.818 Y53.28 E23.54637
G1 X23.454 Y52.651 E23.58263
G1 X23.161 Y51.986 E23.61888
G1 X22.943 Y51.293 E23.65512
G1 X22.803 Y50.581 E23.69133
G1 X22.739 Y49.664 E23.73719
G1 X22.739 Y29.664 E24.73499
G1 X22.779 Y28.939 E24.77122
G1 X22.898 Y28.222 E24.80748
G1 X23.096 Y27.523 E24.84372
G1 X23.369 Y26.85 E24.87996
G1 X23.714 Y26.211 E24.91619
G1 X24.128 Y25.614 E24.95243
G1 X24.604 Y25.066 E24.98864
G0 F6000 X24.998 Y25.237
G1 F1200 X25.528 Y24.773 E25.02379
G1 X26.107 Y24.373 E25.0589
G1 X26.728 Y24.041 E25.09403
G1 X27.382 Y23.781 E25.12914
G1 X28.062 Y23.597 E25.16429
G1 X28.758 Y23.491 E25.19941
G1 X29.339 Y23.464 E25.22843
G1 X49.339 Y23.464 E26.22623
G1 X50.042 Y23.504 E26.26136
G1 X50.736 Y23.623 E26.29649
G1 X51.411 Y23.821 E26.33159
G1 X52.06 Y24.093 E26.36669
G1 X52.674 Y24.438 E26.40183
G1 X53.245 Y24.849 E26.43693
G1 X53.766 Y25.323 E26.47207
G1 X54.23 Y25.853 E26.50721
G1 X54.63 Y26.432 E26.54232
G1 X54.962 Y27.053 E26.57745
G1 X55.222 Y27.707 E26.61257
G1 X55.406 Y28.387 E26.64771
G1 X55.512 Y29.083 E26.68284
G1 X55.539 Y29.664 E26.71185
G1 X55.539 Y49.664 E27.70966
G1 X55.499 Y50.367 E27.74479
G1 X55.38 Y51.061 E27.77992
G1 X55.182 Y51.736 E27.81501
G1 X54.91 Y52.385 E27.85012
G1 X54.565 Y52.999 E27.88525
G1 X54.154 Y53.57 E27.92035
G1 X53.68 Y54.091 E27.95549
G1 X53.15 Y54.555 E27.99064
G1 X52.571 Y54.955 E28.02575
G1 X51.95 Y55.287 E28.06088
G1 X51.296 Y55.547 E28.09599
G1 X50.616 Y55.731 E28.13114
G1 X49.92 Y55.837 E28.16626
G1 X49.339 Y55.864 E28.19528
G1 X29.339 Y55.864 E29.19308
G1 X28.636 Y55.824 E29.22821
G1 X27.942 Y55.705 E29.26334
G1 X27.267 Y55.507 E29.29844
G1 X26.618 Y55.235 E29.33354
G1 X26.004 Y54.89 E29.36868
G1 X25.433 Y54.479 E29.40378
G1 X24.912 Y54.005 E29.43892
G1 X24.448 Y53.475 E29.47406
G1 X24.048 Y52.896 E29.50917
G1 X23.716 Y52.275 E29.5443
G1 X23.456 Y51.621 E29.57942
G1 X23.272 Y50.941 E29.61456
G1 X23.166 Y50.245 E29.64969
G1 X23.139 Y49.664 E29.6787
G1 X23.139 Y29.664 E30.67651
G1 X23.179 Y28.961 E30.71164
G1 X23.298 Y28.267 E30.74677
G1 X23.496 Y27.592 E30.78186
G1 X23.768 Y26.943 E30.81697
G1 X24.113 Y26.329 E30.85211
G1 X24.524 Y25.758 E30.8872
G1 X24.998 Y25.237 E30.92235
G0 F6000 X25.392 Y25.415
G1 F1200 X25.917 Y24.981 E30.95633
G1 X26.489 Y24.612 E30.99029
G1 X27.101 Y24.313 E31.02427
G1 X27.743 Y24.088 E31.05821
G1 X28.408 Y23.939 E31.09221
G1 X29.339 Y23.864 E31.13881
G1 X49.339 Y23.864 E32.13661
G1 X50.019 Y23.904 E32.1706
G1 X50.689 Y24.023 E32.20455
G1 X51.341 Y24.22 E32.23853
G1 X51.965 Y24.492 E32.27249
G1 X52.553 Y24.836 E32.30647
G1 X53.097 Y25.246 E32.34046
G1 X53.588 Y25.717 E32.3744
G1 X54.022 Y26.242 E32.40839
G1 X54.391 Y26.814 E32.44235
G1 X54.69 Y27.426 E32.47633
G1 X54.915 Y28.068 E32.51027
G1 X55.064 Y28.733 E32.54427
G1 X55.139 Y29.664 E32.59087
G1 X55.139 Y49.664 E33.58867
G1 X55.099 Y50.344 E33.62265
G1 X54.98 Y51.014 E33.6566
G1 X54.783 Y51.666 E33.69058
G1 X54.511 Y52.29 E33.72454
G1 X54.167 Y52.878 E33.75853
G1 X53.757 Y53.422 E33.79252
G1 X53.286 Y53.913 E33.82646
G1 X52.761 Y54.347 E33.86044
G1 X52.189 Y54.716 E33.8944
G1 X51.577 Y55.015 E33.92839
G1 X50.935 Y55.24 E33.96233
G1 X50.27 Y55.389 E33.99633
G1 X49.339 Y55.464 E34.04292
G1 X29.339 Y55.464 E35.04073
G1 X28.659 Y55.424 E35.07471
G1 X27.989 Y55.305 E35.10866
G1 X27.337 Y55.108 E35.14264
G1 X26.713 Y54.836 E35.1766
G1 X26.125 Y54.492 E35.21059
G1 X25.581 Y54.082 E35.24458
G1 X25.09 Y53.611 E35.27852
G1 X24.656 Y53.086 E35.3125
G1 X24.287 Y52.514 E35.34646
G1 X23.988 Y51.902 E35.38045
G1 X23.763 Y51.26 E35.41438
G1 X23.614 Y50.595 E35.44838
G1 X23.539 Y49.664 E35.49498
G1 X23.539 Y29.664 E36.49279
G1 X23.579 Y28.984 E36.52677
G1 X23.698 Y28.314 E36.56072
G1 X23.895 Y27.662 E36.5947
G1 X24.167 Y27.038 E36.62866
G1 X24.511 Y26.45 E36.66265
G1 X24.921 Y25.906 E36.69663
G1 X25.392 Y25.415 E36.73058
G0 F6000 X25.784 Y25.599
G1 F1200 X26.304 Y25.198 E36.76334
G1 X26.868 Y24.862 E36.79609
G1 X27.47 Y24.598 E36.82889
G1 X28.099 Y24.408 E36.86167
G1 X28.746 Y24.297 E36.89442
G1 X29.339 Y24.264 E36.92405
G1 X49.339 Y24.264 E37.92185
G1 X49.995 Y24.304 E37.95464
G1 X50.641 Y24.423 E37.98741
G1 X51.268 Y24.62 E38.0202
G1 X51.866 Y24.892 E38.05298
G1 X52.427 Y25.234 E38.08576
G1 X52.942 Y25.642 E38.11854
G1 X53.404 Y26.109 E38.15131
G1 X53.805 Y26.629 E38.18407
G1 X54.141 Y27.193 E38.21682
G1 X54.405 Y27.795 E38.24962
G1 X54.595 Y28.424 E38.2824
G1 X54.706 Y29.071 E38.31515
G1 X54.739 Y29.664 E38.34478
G1 X54.739 Y49.664 E39.34259
G1 X54.699 Y50.32 E39.37537
G1 X54.58 Y50.966 E39.40815
G1 X54.383 Y51.593 E39.44093
G1 X54.111 Y52.191 E39.47371
G1 X53.769 Y52.752 E39.50649
G1 X53.361 Y53.267 E39.53927
G1 X52.894 Y53.729 E39.57204
G1 X52.374 Y54.13 E39.6048
G1 X51.81 Y54.466 E39.63756
G1 X51.208 Y54.73 E39.67035
G1 X50.579 Y54.92 E39.70313
G1 X49.932 Y55.031 E39.73588
G1 X49.339 Y55.064 E39.76551
G1 X29.339 Y55.064 E40.76332
G1 X28.683 Y55.024 E40.79611
G1 X28.037 Y54.905 E40.82888
G1 X27.41 Y54.708 E40.86167
G1 X26.812 Y54.436 E40.89444
G1 X26.251 Y54.094 E40.92722
G1 X25.736 Y53.686 E40.96
G1 X25.274 Y53.219 E40.99277
G1 X24.873 Y52.699 E41.02553
G1 X24.537 Y52.135 E41.05829
G1 X24.273 Y51.533 E41.09108
G1 X24.083 Y50.904 E41.12386
G1 X23.972 Y50.257 E41.15661
G1 X23.939 Y49.664 E41.18625
G1 X23.939 Y29.664 E42.18405
G1 X23.979 Y29.008 E42.21684
G1 X24.098 Y28.362 E42.24961
G1 X24.295 Y27.735 E42.2824
G1 X24.567 Y27.137 E42.31517
G1 X24.909 Y26.576 E42.34795
G1 X25.317 Y26.061 E42.38073
G1 X25.784 Y25.599 E42.41351
G0 F6000 X25.712 Y26.223
G1 F1200 X26.175 Y25.793 E42.44503
G1 X26.689 Y25.424 E42.4766
G1 X27.245 Y25.124 E42.50812
G1 X27.834 Y24.896 E42.53963
G1 X28.448 Y24.744 E42.57118
G1 X29.339 Y24.664 E42.61582
G1 X49.339 Y24.664 E43.61362
G1 X49.97 Y24.704 E43.64516
G1 X50.591 Y24.823 E43.67671
G1 X51.191 Y25.02 E43.70822
G1 X51.763 Y25.291 E43.73979
G1 X52.295 Y25.631 E43.77129
G1 X52.78 Y26.037 E43.80285
G1 X53.21 Y26.5 E43.83437
G1 X53.579 Y27.014 E43.86594
G1 X53.879 Y27.57 E43.89746
G1 X54.107 Y28.159 E43.92897
G1 X54.259 Y28.773 E43.96053
G1 X54.339 Y29.664 E44.00516
G1 X54.339 Y49.664 E45.00296
G1 X54.299 Y50.295 E45.03451
G1 X54.18 Y50.916 E45.06605
G1 X53.983 Y51.516 E45.09756
G1 X53.712 Y52.088 E45.12914
G1 X53.372 Y52.62 E45.16063
G1 X52.966 Y53.105 E45.19219
G1 X52.503 Y53.535 E45.22371
G1 X51.989 Y53.904 E45.25528
G1 X51.433 Y54.204 E45.2868
G1 X50.844 Y54.432 E45.31831
G1 X50.23 Y54.584 E45.34987
G1 X49.339 Y54.664 E45.3945
G1 X29.339 Y54.664 E46.3923
G1 X28.708 Y54.624 E46.42385
G1 X28.087 Y54.505 E46.45539
G1 X27.487 Y54.308 E46.4869
G1 X26.915 Y54.037 E46.51848
G1 X26.383 Y53.697 E46.54998
G1 X25.898 Y53.291 E46.58153
G1 X25.468 Y52.828 E46.61306
G1 X25.099 Y52.314 E46.64462
G1 X24.799 Y51.758 E46.67614
G1 X24.571 Y51.169 E46.70765
G1 X24.419 Y50.555 E46.73921
G1 X24.339 Y49.664 E46.78384
G1 X24.339 Y29.664 E47.78165
G1 X24.379 Y29.033 E47.81319
G1 X24.498 Y28.412 E47.84474
G1 X24.695 Y27.812 E47.87624
G1 X24.966 Y27.24 E47.90782
G1 X25.306 Y26.708 E47.93932
G1 X25.712 Y26.223 E47.97087
G0 F6000 X26.106 Y26.392
G1 F1200 X26.564 Y25.995 E48.00111
G1 X27.071 Y25.662 E48.03138
G1 X27.617 Y25.398 E48.06163
G1 X28.193 Y25.209 E48.09188
G1 X28.789 Y25.097 E48.12213
G1 X29.339 Y25.064 E48.14962
G1 X49.339 Y25.064 E49.14742
G1 X49.944 Y25.104 E49.17767
G1 X50.538 Y25.223 E49.2079
G1 X51.112 Y25.419 E49.23816
G1 X51.655 Y25.69 E49.26844
G1 X52.158 Y26.029 E49.2987
G1 X52.611 Y26.431 E49.32891
G1 X53.008 Y26.889 E49.35915
G1 X53.341 Y27.396 E49.38941
G1 X53.605 Y27.942 E49.41967
G1 X53.794 Y28.518 E49.44992
G1 X53.906 Y29.114 E49.48017
G1 X53.939 Y29.664 E49.50766
G1 X53.939 Y49.664 E50.50546
G1 X53.899 Y50.269 E50.53571
G1 X53.78 Y50.863 E50.56594
G1 X53.584 Y51.437 E50.5962
G1 X53.313 Y51.98 E50.62647
G1 X52.974 Y52.483 E50.65674
G1 X52.572 Y52.936 E50.68695
G1 X52.114 Y53.333 E50.71719
G1 X51.607 Y53.666 E50.74745
G1 X51.061 Y53.93 E50.77771
G1 X50.485 Y54.119 E50.80796
G1 X49.889 Y54.231 E50.83821
G1 X49.339 Y54.264 E50.8657
G1 X29.339 Y54.264 E51.8635
G1 X28.734 Y54.224 E51.89375
G1 X28.14 Y54.105 E51.92398
G1 X27.566 Y53.909 E51.95424
