;FLAVOR:Marlin
;TIME:1963
;Filament used: 1.39939m
;Layer height: 0.2
;MINX:84.377
;MINY:54.136
;MINZ:0.2
;MAXX:119.977
;MAXY:89.736
;MAXZ:20
;Generated with Cura_SteamEngine 5.3.0
M140 S50
M105
M190 S50
M104 S210
M105
M109 S210
M82 ;absolute extrusion mode
M220 S100 ;Reset Feedrate
M221 S100 ;Reset Flowrate

M280 P0 S160 ;reset bltouch
G28 ;Home
G29 A ; enable UBL
G92 E0 ;Reset Extruder
G1 Z2.0 F3000 ;Move Z Axis up
G1 X10.1 Y20 Z0.28 F5000.0 ;Move to start position
G1 X10.1 Y200.0 Z0.28 F1500.0 E15 ;Draw the first line
G1 X10.4 Y200.0 Z0.28 F5000.0 ;Move to side a little
G1 X10.4 Y20 Z0.28 F1500.0 E30 ;Draw the second line
G92 E0 ;Reset Extruder
G1 Z2.0 F3000 ;Move Z Axis up
G92 E0
G92 E0
G1 F2100 E-1.5
;LAYER_COUNT:100
;LAYER:0
M107
G0 F6000 X85.896 Y57.16 Z0.2
;TYPE:SKIRT
G1 F2100 E0
G1 F1200 X87.471 Y55.686 E0.07175
G1 X89.343 Y54.574 E0.14417
G1 X91.53 Y54.136 E0.21835
G1 X113.03 Y54.136 E0.93344
G1 X114.926 Y54.602 E0.99838
G1 X116.953 Y55.655 E1.07435
G1 X118.427 Y57.23 E1.1461
G1 X119.539 Y59.102 E1.21852
G1 X119.977 Y61.289 E1.29271
G1 X119.977 Y82.789 E2.0078
G1 X119.511 Y84.685 E2.07274
G1 X118.458 Y86.712 E2.14871
G1 X116.883 Y88.186 E2.22046
G1 X115.011 Y89.298 E2.29288
G1 X112.824 Y89.736 E2.36706
G1 X91.324 Y89.736 E3.08215
G1 X89.428 Y89.27 E3.14709
G1 X87.401 Y88.217 E3.22306
G1 X85.927 Y86.642 E3.29481
G1 X84.815 Y84.77 E3.36723
G1 X84.377 Y82.583 E3.44141
G1 X84.377 Y61.083 E4.15651
G1 X84.843 Y59.187 E4.22145
G1 X85.896 Y57.16 E4.29742
G0 F6000 X86.219 Y57.405
G1 F1200 X87.712 Y56.008 E4.36542
G1 X89.489 Y54.952 E4.43418
G1 X91.568 Y54.536 E4.50469
G1 X112.984 Y54.536 E5.21699
G1 X114.783 Y54.978 E5.27861
G1 X116.708 Y55.978 E5.35076
G1 X118.105 Y57.471 E5.41876
G1 X119.161 Y59.248 E5.48751
G1 X119.577 Y61.327 E5.55803
G1 X119.577 Y82.743 E6.27033
G1 X119.135 Y84.542 E6.33195
G1 X118.135 Y86.467 E6.4041
G1 X116.642 Y87.864 E6.4721
G1 X114.865 Y88.92 E6.54085
G1 X112.786 Y89.336 E6.61137
G1 X91.37 Y89.336 E7.32367
G1 X89.571 Y88.894 E7.38529
G1 X87.646 Y87.894 E7.45744
G1 X86.249 Y86.401 E7.52544
G1 X85.193 Y84.624 E7.59419
G1 X84.777 Y82.545 E7.66471
G1 X84.777 Y61.129 E8.37701
G1 X85.219 Y59.33 E8.43862
G1 X86.219 Y57.405 E8.51077
G0 F6000 X86.542 Y57.65
G1 F1200 X87.953 Y56.33 E8.57504
G1 X89.635 Y55.331 E8.64011
G1 X91.607 Y54.936 E8.707
G1 X112.937 Y54.936 E9.41644
G1 X114.641 Y55.355 E9.4748
G1 X116.463 Y56.301 E9.54308
G1 X117.783 Y57.712 E9.60735
G1 X118.782 Y59.394 E9.67241
G1 X119.177 Y61.366 E9.7393
G1 X119.177 Y82.696 E10.44874
G1 X118.758 Y84.4 E10.50711
G1 X117.812 Y86.222 E10.57539
G1 X116.401 Y87.542 E10.63965
G1 X114.719 Y88.541 E10.70472
G1 X112.747 Y88.936 E10.77161
G1 X91.417 Y88.936 E11.48105
G1 X89.713 Y88.517 E11.53941
G1 X87.891 Y87.571 E11.60769
G1 X86.571 Y86.16 E11.67196
G1 X85.572 Y84.478 E11.73703
G1 X85.177 Y82.506 E11.80392
G1 X85.177 Y61.176 E12.51336
G1 X85.596 Y59.472 E12.57172
G1 X86.542 Y57.65 E12.64
G0 F6000 X86.865 Y57.895
G1 F1200 X88.194 Y56.652 E12.70052
G1 X89.781 Y55.709 E12.76192
G1 X91.645 Y55.336 E12.82515
G1 X112.891 Y55.336 E13.53179
G1 X114.498 Y55.731 E13.58683
G1 X116.218 Y56.624 E13.65129
G1 X117.461 Y57.953 E13.71182
G1 X118.404 Y59.54 E13.77322
G1 X118.777 Y61.404 E13.83644
G1 X118.777 Y82.65 E14.54309
G1 X118.382 Y84.257 E14.59813
G1 X117.489 Y85.977 E14.66258
G1 X116.16 Y87.22 E14.72311
G1 X114.573 Y88.163 E14.78451
G1 X112.709 Y88.536 E14.84773
G1 X91.463 Y88.536 E15.55438
G1 X89.856 Y88.141 E15.60942
G1 X88.136 Y87.248 E15.67388
G1 X86.893 Y85.919 E15.7344
G1 X85.95 Y84.332 E15.7958
G1 X85.577 Y82.468 E15.85902
G1 X85.577 Y61.222 E16.56567
G1 X85.972 Y59.615 E16.62071
G1 X86.865 Y57.895 E16.68517
G0 F6000 X87.188 Y58.14
G1 F1200 X88.435 Y56.974 E16.74195
G1 X89.927 Y56.087 E16.79968
G1 X91.683 Y55.736 E16.85924
G1 X112.845 Y55.736 E17.56309
G1 X114.355 Y56.107 E17.61481
G1 X115.973 Y56.947 E17.67544
G1 X117.139 Y58.194 E17.73223
G1 X118.026 Y59.686 E17.78996
G1 X118.377 Y61.442 E17.84952
G1 X118.377 Y82.604 E18.55337
G1 X118.006 Y84.114 E18.60508
G1 X117.166 Y85.732 E18.66572
G1 X115.919 Y86.898 E18.7225
G1 X114.427 Y87.785 E18.78023
G1 X112.671 Y88.136 E18.83979
G1 X91.509 Y88.136 E19.54364
G1 X89.999 Y87.765 E19.59536
G1 X88.381 Y86.925 E19.656
G1 X87.215 Y85.678 E19.71278
G1 X86.328 Y84.186 E19.77051
G1 X85.977 Y82.43 E19.83007
G1 X85.977 Y61.268 E20.53392
G1 X86.348 Y59.758 E20.58564
G1 X87.188 Y58.14 E20.64627
G0 F6000 X87.511 Y58.385
G1 F1200 X88.676 Y57.296 E20.69931
G1 X90.073 Y56.465 E20.75338
G1 X91.721 Y56.136 E20.80927
G1 X112.798 Y56.136 E21.51029
G1 X114.213 Y56.484 E21.55876
G1 X115.728 Y57.27 E21.61553
G1 X116.817 Y58.435 E21.66857
G1 X117.648 Y59.832 E21.72263
G1 X117.977 Y61.48 E21.77852
G1 X117.977 Y82.557 E22.47955
G1 X117.629 Y83.972 E22.52801
G1 X116.843 Y85.487 E22.58478
G1 X115.678 Y86.576 E22.63782
G1 X114.281 Y87.407 E22.69189
G1 X112.633 Y87.736 E22.74778
G1 X91.556 Y87.736 E23.4488
G1 X90.141 Y87.388 E23.49727
G1 X88.626 Y86.602 E23.55404
G1 X87.537 Y85.437 E23.60708
G1 X86.706 Y84.04 E23.66114
G1 X86.377 Y82.392 E23.71703
G1 X86.377 Y61.315 E24.41806
G1 X86.725 Y59.9 E24.46652
G1 X87.511 Y58.385 E24.52329
G0 F6000 X87.834 Y58.63
G1 F1200 X88.915 Y57.62 E24.5725
G1 X90.221 Y56.843 E24.62304
G1 X91.759 Y56.536 E24.6752
G1 X112.752 Y56.536 E25.37343
G1 X114.07 Y56.86 E25.41858
G1 X115.483 Y57.593 E25.47152
G1 X116.493 Y58.674 E25.52072
G1 X117.27 Y59.98 E25.57127
G1 X117.577 Y61.518 E25.62343
G1 X117.577 Y82.511 E26.32166
G1 X117.253 Y83.829 E26.3668
G1 X116.52 Y85.242 E26.41975
G1 X115.439 Y86.252 E26.46895
G1 X114.133 Y87.029 E26.5195
G1 X112.595 Y87.336 E26.57166
G1 X91.602 Y87.336 E27.26989
G1 X90.284 Y87.012 E27.31503
G1 X88.871 Y86.279 E27.36798
G1 X87.861 Y85.198 E27.41718
G1 X87.084 Y83.892 E27.46773
G1 X86.777 Y82.354 E27.51989
G1 X86.777 Y61.361 E28.21812
G1 X87.101 Y60.043 E28.26326
G1 X87.834 Y58.63 E28.3162
G0 F6000 X88.157 Y58.875
G1 F1200 X89.154 Y57.944 E28.36158
G1 X90.369 Y57.221 E28.4086
G1 X91.797 Y56.936 E28.45703
G1 X112.706 Y56.936 E29.15247
G1 X113.927 Y57.236 E29.19429
G1 X115.238 Y57.916 E29.24341
G1 X116.169 Y58.913 E29.28878
G1 X116.892 Y60.128 E29.3358
G1 X117.177 Y61.556 E29.38423
G1 X117.177 Y82.465 E30.07967
G1 X116.877 Y83.686 E30.12149
G1 X116.197 Y84.997 E30.17061
G1 X115.2 Y85.928 E30.21598
G1 X113.985 Y86.651 E30.263
G1 X112.557 Y86.936 E30.31144
G1 X91.648 Y86.936 E31.00687
G1 X90.427 Y86.636 E31.04869
G1 X89.116 Y85.956 E31.09781
G1 X88.185 Y84.959 E31.14318
G1 X87.462 Y83.744 E31.19021
G1 X87.177 Y82.316 E31.23864
G1 X87.177 Y61.407 E31.93407
G1 X87.477 Y60.186 E31.97589
G1 X88.157 Y58.875 E32.02501
G0 F6000 X88.48 Y59.12
G1 F1200 X89.393 Y58.268 E32.06655
G1 X90.517 Y57.599 E32.11005
G1 X91.835 Y57.336 E32.15475
G1 X112.66 Y57.336 E32.8474
G1 X113.784 Y57.612 E32.88589
G1 X114.993 Y58.239 E32.93119
G1 X115.845 Y59.152 E32.97272
G1 X116.514 Y60.276 E33.01623
G1 X116.777 Y61.594 E33.06093
G1 X116.777 Y82.419 E33.75357
G1 X116.501 Y83.543 E33.79207
G1 X115.874 Y84.752 E33.83737
G1 X114.961 Y85.604 E33.8789
G1 X113.837 Y86.273 E33.92241
G1 X112.519 Y86.536 E33.96711
G1 X91.694 Y86.536 E34.65975
G1 X90.57 Y86.26 E34.69824
G1 X89.361 Y85.633 E34.74354
G1 X88.509 Y84.72 E34.78508
G1 X87.84 Y83.596 E34.82858
G1 X87.577 Y82.278 E34.87328
G1 X87.577 Y61.453 E35.56592
G1 X87.853 Y60.329 E35.60442
G1 X88.48 Y59.12 E35.64972
G0 F6000 X88.802 Y59.367
G1 F1200 X89.635 Y58.59 E35.6876
G1 X90.665 Y57.977 E35.72747
G1 X91.873 Y57.736 E35.76844
G1 X112.613 Y57.736 E36.45826
G1 X113.642 Y57.989 E36.4935
G1 X114.746 Y58.561 E36.53486
G1 X115.523 Y59.394 E36.57274
G1 X116.136 Y60.424 E36.61261
G1 X116.377 Y61.632 E36.65358
G1 X116.377 Y82.372 E37.34339
G1 X116.124 Y83.401 E37.37864
G1 X115.552 Y84.505 E37.41999
G1 X114.719 Y85.282 E37.45788
G1 X113.689 Y85.895 E37.49775
G1 X112.481 Y86.136 E37.53872
G1 X91.741 Y86.136 E38.22853
G1 X90.712 Y85.883 E38.26378
G1 X89.608 Y85.311 E38.30513
G1 X88.831 Y84.478 E38.34302
G1 X88.218 Y83.448 E38.38288
G1 X87.977 Y82.24 E38.42385
G1 X87.977 Y61.5 E39.11367
G1 X88.23 Y60.471 E39.14891
G1 X88.802 Y59.367 E39.19027
G0 F6000 X89.124 Y59.614
G1 F1200 X89.877 Y58.912 E39.22451
G1 X90.813 Y58.355 E39.26074
G1 X91.911 Y58.136 E39.29797
G1 X112.567 Y58.136 E39.985
G1 X113.499 Y58.365 E40.01692
G1 X114.499 Y58.883 E40.05437
G1 X115.201 Y59.636 E40.08861
G1 X115.758 Y60.572 E40.12484
G1 X115.977 Y61.67 E40.16208
G1 X115.977 Y82.326 E40.8491
G1 X115.748 Y83.258 E40.88102
G1 X115.23 Y84.258 E40.91848
G1 X114.477 Y84.96 E40.95272
G1 X113.541 Y85.517 E40.98895
G1 X112.443 Y85.736 E41.02619
G1 X91.787 Y85.736 E41.71321
G1 X90.855 Y85.507 E41.74513
G1 X89.855 Y84.989 E41.78259
G1 X89.153 Y84.236 E41.81683
G1 X88.596 Y83.3 E41.85305
G1 X88.377 Y82.202 E41.89029
G1 X88.377 Y61.546 E42.57731
G1 X88.606 Y60.614 E42.60923
G1 X89.124 Y59.614 E42.64669
G0 F6000 X89.446 Y59.861
G1 F1200 X90.119 Y59.234 E42.67728
G1 X90.961 Y58.733 E42.70987
G1 X91.949 Y58.536 E42.74338
G1 X112.521 Y58.536 E43.42761
G1 X113.356 Y58.741 E43.4562
G1 X114.252 Y59.205 E43.48976
G1 X114.879 Y59.878 E43.52036
G1 X115.38 Y60.72 E43.55294
G1 X115.577 Y61.708 E43.58645
G1 X115.577 Y82.28 E44.27068
G1 X115.372 Y83.115 E44.29928
G1 X114.908 Y84.011 E44.33284
G1 X114.235 Y84.638 E44.36343
G1 X113.393 Y85.139 E44.39602
G1 X112.405 Y85.336 E44.42953
G1 X91.833 Y85.336 E45.11375
G1 X90.998 Y85.131 E45.14235
G1 X90.102 Y84.667 E45.17591
G1 X89.475 Y83.994 E45.2065
G1 X88.974 Y83.152 E45.23909
G1 X88.777 Y82.164 E45.2726
G1 X88.777 Y61.592 E45.95683
G1 X88.982 Y60.757 E45.98542
G1 X89.446 Y59.861 E46.01898
G0 F6000 X89.768 Y60.108
G1 F1200 X90.361 Y59.556 E46.04593
G1 X91.109 Y59.111 E46.07488
G1 X91.987 Y58.936 E46.10465
G1 X112.475 Y58.936 E46.78609
G1 X113.213 Y59.117 E46.81136
G1 X114.005 Y59.527 E46.84102
G1 X114.557 Y60.12 E46.86797
G1 X115.002 Y60.868 E46.89692
G1 X115.177 Y61.746 E46.92669
G1 X115.177 Y82.234 E47.60813
G1 X114.996 Y82.972 E47.6334
G1 X114.586 Y83.764 E47.66306
G1 X113.993 Y84.316 E47.69001
G1 X113.245 Y84.761 E47.71896
G1 X112.367 Y84.936 E47.74873
G1 X91.879 Y84.936 E48.43017
G1 X91.141 Y84.755 E48.45544
G1 X90.349 Y84.345 E48.4851
G1 X89.797 Y83.752 E48.51205
G1 X89.352 Y83.004 E48.541
G1 X89.177 Y82.126 E48.57078
G1 X89.177 Y61.638 E49.25221
G1 X89.358 Y60.9 E49.27748
G1 X89.768 Y60.108 E49.30714
G0 F6000 X90.091 Y60.353
G1 F1200 X90.6 Y59.88 E49.33026
G1 X91.257 Y59.489 E49.35568
G1 X92.025 Y59.336 E49.38173
G1 X112.425 Y59.336 E50.06024
G1 X113.074 Y59.495 E50.08246
G1 X113.76 Y59.85 E50.10815
G1 X114.233 Y60.359 E50.13126
G1 X114.624 Y61.016 E50.15669
G1 X114.777 Y61.784 E50.18274
G1 X114.777 Y82.184 E50.86124
G1 X114.618 Y82.833 E50.88347
G1 X114.263 Y83.519 E50.90916
G1 X113.754 Y83.992 E50.93227
G1 X113.097 Y84.383 E50.9577
G1 X112.329 Y84.536 E50.98374
G1 X91.929 Y84.536 E51.66225
G1 X91.28 Y84.377 E51.68447
G1 X90.594 Y84.022 E51.71017
G1 X90.121 Y83.513 E51.73328
G1 X89.73 Y82.856 E51.7587
G1 X89.577 Y82.088 E51.78475
G1 X89.577 Y61.688 E52.46326
G1 X89.736 Y61.039 E52.48548
G1 X90.091 Y60.353 E52.51117
G0 F6000 X90.414 Y60.598
G1 F1200 X90.839 Y60.204 E52.53045
G1 X91.405 Y59.867 E52.55236
G1 X92.063 Y59.736 E52.57467
G1 X112.375 Y59.736 E53.25025
G1 X112.935 Y59.873 E53.26943
G1 X113.515 Y60.173 E53.29114
G1 X113.909 Y60.598 E53.31042
G1 X114.246 Y61.164 E53.33233
G1 X114.377 Y61.822 E53.35464
G1 X114.377 Y82.134 E54.03022
G1 X114.24 Y82.694 E54.0494
G1 X113.94 Y83.274 E54.07112
G1 X113.515 Y83.668 E54.09039
G1 X112.949 Y84.005 E54.1123
G1 X112.291 Y84.136 E54.13462
G1 X91.979 Y84.136 E54.8102
G1 X91.419 Y83.999 E54.82937
G1 X90.839 Y83.699 E54.85109
G1 X90.445 Y83.274 E54.87037
G1 X90.108 Y82.708 E54.89228
G1 X89.977 Y82.05 E54.91459
G1 X89.977 Y61.738 E55.59017
G1 X90.114 Y61.178 E55.60935
G1 X90.414 Y60.598 E55.63106
G0 F6000 X90.737 Y60.844
G1 F1200 X91.078 Y60.528 E55.64653
G1 X91.553 Y60.245 E55.66492
G1 X92.101 Y60.136 E55.6835
G1 X112.325 Y60.136 E56.35615
G1 X112.796 Y60.251 E56.37228
G1 X113.269 Y60.496 E56.39
G1 X113.585 Y60.837 E56.40546
G1 X113.868 Y61.312 E56.42385
G1 X113.977 Y61.86 E56.44243
G1 X113.977 Y82.084 E57.11509
G1 X113.862 Y82.555 E57.13121
G1 X113.617 Y83.028 E57.14893
G1 X113.276 Y83.344 E57.16439
G1 X112.801 Y83.627 E57.18278
G1 X112.253 Y83.736 E57.20136
G1 X92.029 Y83.736 E57.87402
G1 X91.558 Y83.621 E57.89014
G1 X91.085 Y83.376 E57.90786
G1 X90.769 Y83.035 E57.92332
G1 X90.486 Y82.56 E57.94171
G1 X90.377 Y82.012 E57.9603
G1 X90.377 Y61.788 E58.63295
G1 X90.492 Y61.317 E58.64908
G1 X90.737 Y60.844 E58.66679
G0 F6000 X91.06 Y61.09
G1 F1200 X91.317 Y60.852 E58.67844
G1 X91.701 Y60.623 E58.69331
G1 X92.139 Y60.536 E58.70817
G1 X112.275 Y60.536 E59.37789
G1 X112.657 Y60.629 E59.39097
G1 X113.023 Y60.819 E59.40468
G1 X113.261 Y61.076 E59.41633
G1 X113.49 Y61.46 E59.43121
G1 X113.577 Y61.898 E59.44606
G1 X113.577 Y82.034 E60.11578
G1 X113.484 Y82.416 E60.12886
G1 X113.294 Y82.782 E60.14258
G1 X113.037 Y83.02 E60.15423
G1 X112.653 Y83.249 E60.1691
G1 X112.215 Y83.336 E60.18395
G1 X92.079 Y83.336 E60.85368
G1 X91.697 Y83.243 E60.86675
G1 X91.331 Y83.053 E60.88047
G1 X91.093 Y82.796 E60.89212
G1 X90.864 Y82.412 E60.90699
G1 X90.777 Y81.974 E60.92184
G1 X90.777 Y61.838 E61.59157
G1 X90.87 Y61.456 E61.60464
G1 X91.06 Y61.09 E61.61836
G0 F6000 X91.384 Y61.335
G1 F1200 X91.522 Y61.196 E61.62487
G1 X91.849 Y61.001 E61.63754
G1 X92.177 Y60.936 E61.64866
G1 X112.226 Y60.936 E62.31549
G1 X112.515 Y61.006 E62.32538
G1 X112.778 Y61.143 E62.33524
G1 X112.917 Y61.281 E62.34176
G1 X113.112 Y61.608 E62.35442
G1 X113.177 Y61.936 E62.36554
G1 X113.177 Y81.985 E63.03238
G1 X113.107 Y82.274 E63.04227
G1 X112.97 Y82.537 E63.05213
G1 X112.832 Y82.676 E63.05864
G1 X112.505 Y82.871 E63.07131
G1 X112.177 Y82.936 E63.08243
G1 X92.128 Y82.936 E63.74926
G1 X91.839 Y82.866 E63.75915
G1 X91.576 Y82.729 E63.76901
G1 X91.437 Y82.591 E63.77553
G1 X91.242 Y82.264 E63.78819
G1 X91.177 Y81.936 E63.79931
G1 X91.177 Y61.887 E64.46615
G1 X91.247 Y61.598 E64.47604
G1 X91.384 Y61.335 E64.4859
G0 F6000 X91.727 Y61.54
G1 F1200 X91.997 Y61.379 E64.49635
G1 X92.177 Y61.336 E64.50251
G1 X112.177 Y61.336 E65.16771
G1 X112.421 Y61.395 E65.17606
G1 X112.573 Y61.486 E65.18195
G1 X112.734 Y61.756 E65.19241
G1 X112.777 Y61.936 E65.19857
G1 X112.777 Y81.936 E65.86377
G1 X112.718 Y82.18 E65.87212
G1 X112.627 Y82.332 E65.87801
G1 X112.357 Y82.493 E65.88847
G1 X112.177 Y82.536 E65.89462
G1 X92.177 Y82.536 E66.55982
G1 X91.933 Y82.477 E66.56817
G1 X91.781 Y82.386 E66.57406
G1 X91.62 Y82.116 E66.58452
G1 X91.577 Y81.936 E66.59068
G1 X91.577 Y61.936 E67.25588
G1 X91.636 Y61.692 E67.26423
G1 X91.727 Y61.54 E67.27012
G0 F6000 X92.016 Y61.817
G1 F1200 X92.177 Y61.736 E67.27611
G1 X112.177 Y61.736 E67.94132
G1 X112.296 Y61.775 E67.94548
G1 X112.377 Y61.936 E67.95148
G1 X112.377 Y81.936 E68.61668
G1 X112.338 Y82.055 E68.62084
G1 X112.177 Y82.136 E68.62684
G1 X92.177 Y82.136 E69.29204
G1 X92.058 Y82.097 E69.29621
G1 X91.977 Y81.936 E69.3022
G1 X91.977 Y61.936 E69.9674
G1 X92.016 Y61.817 E69.97157
G1 F2100 E68.47157
;MESH:xyzCalibration_cube.stl
G0 F6000 X92.977 Y62.736
G0 X111.577 Y81.336
;TYPE:WALL-INNER
G1 F2100 E69.97157
G1 F1200 X111.577 Y62.536 E70.59686
G1 X92.777 Y62.536 E71.22215
G1 X92.777 Y81.336 E71.84744
G1 X111.577 Y81.336 E72.47273
G0 F6000 X111.977 Y81.736
;TYPE:WALL-OUTER
G1 F1200 X111.977 Y62.136 E73.12463
G1 X92.377 Y62.136 E73.77653
G1 X92.377 Y81.736 E74.42843
G1 X111.977 Y81.736 E75.08033
G0 F6000 X111.707 Y81.466
G0 X111.477 Y80.976
G0 X111.217 Y80.976
;TYPE:SKIN
G1 F1200 X93.137 Y80.976 E75.68167
G1 X93.137 Y62.896 E76.28301
G1 X111.217 Y62.896 E76.88436
G1 X111.217 Y80.976 E77.4857
G0 F6000 X111.477 Y80.976
G0 X111.477 Y63.498
G0 X111.016 Y63.498
G1 F1200 X110.613 Y63.095 E77.50465
G0 F6000 X110.047 Y63.095
G1 F1200 X111.016 Y64.064 E77.55023
G0 F6000 X111.016 Y64.63
G1 F1200 X109.482 Y63.095 E77.62241
G0 F6000 X108.916 Y63.095
G1 F1200 X111.016 Y65.195 E77.72119
G0 F6000 X111.016 Y65.761
G1 F1200 X108.35 Y63.095 E77.84659
G0 F6000 X107.784 Y63.095
G1 F1200 X111.016 Y66.327 E77.99861
G0 F6000 X111.016 Y66.893
G1 F1200 X107.219 Y63.095 E78.17724
