;FLAVOR:Marlin
;TIME:1878
;Filament used: 1.34399m
;Layer height: 0.2
;MINX:129
;MINY:129
;MINZ:0.2
;MAXX:171
;MAXY:171
;MAXZ:20
;Generated with Cura_SteamEngine 5.3.0
M140 S55
M105
M190 S55
M104 S205
M105
M109 S205
M82 ;absolute extrusion mode
M220 S100 ;Reset Feedrate
M221 S100 ;Reset Flowrate

M280 P0 S160 ;reset bltouch
G28 ;Home
G29 A ; enable UBL
G92 E0 ;Reset Extruder
G1 Z2.0 F3000 ;Move Z Axis up
G1 X10.1 Y20 Z0.28 F5000.0 ;Move to start position
G1 X10.1 Y200.0 Z0.28 F1500.0 E15 ;Draw the first line
G1 X10.4 Y200.0 Z0.28 F5000.0 ;Move to side a little
G1 X10.4 Y20 Z0.28 F1500.0 E30 ;Draw the second line
G92 E0 ;Reset Extruder
G1 Z2.0 F3000 ;Move Z Axis up
G92 E0
G92 E0
G1 F2100 E-1.5
;LAYER_COUNT:100
;LAYER:0
M107
G0 F6000 X132.981 Y132.617 Z0.2
;TYPE:SKIRT
G1 F2100 E0
G1 F1200 X133.662 Y132.024 E0.03003
G1 X134.394 Y131.494 E0.06009
G1 X135.169 Y131.031 E0.09012
G1 X135.982 Y130.638 E0.12015
G1 X136.827 Y130.318 E0.1502
G1 X137.696 Y130.075 E0.18022
G1 X138.584 Y129.909 E0.21026
G1 X139.723 Y129.813 E0.24828
G1 X140.33 Y129.8 E0.26847
G1 X159.293 Y129.8 E0.89919
G1 X160.137 Y129.811 E0.92726
G1 X161.039 Y129.864 E0.95731
G1 X161.932 Y129.996 E0.98734
G1 X162.81 Y130.207 E1.01737
G1 X163.666 Y130.495 E1.04741
G1 X164.493 Y130.857 E1.07744
G1 X165.285 Y131.292 E1.10749
G1 X166.036 Y131.794 E1.13753
G1 X166.739 Y132.361 E1.16757
G1 X167.389 Y132.988 E1.19761
G1 X167.981 Y133.67 E1.22765
G1 X168.511 Y134.401 E1.25768
G1 X168.973 Y135.177 E1.28772
G1 X169.366 Y135.99 E1.31775
G1 X169.684 Y136.835 E1.34778
G1 X169.927 Y137.705 E1.37782
G1 X170.092 Y138.593 E1.40786
G1 X170.187 Y139.723 E1.44558
G1 X170.2 Y140.33 E1.46578
G1 X170.199 Y159.39 E2.09971
G1 X170.19 Y160.117 E2.1239
G1 X170.139 Y161.019 E2.15394
G1 X170.008 Y161.913 E2.184
G1 X169.799 Y162.791 E2.21401
G1 X169.513 Y163.648 E2.24406
G1 X169.152 Y164.476 E2.27411
G1 X168.72 Y165.268 E2.30411
G1 X168.219 Y166.02 E2.33417
G1 X167.653 Y166.724 E2.36421
G1 X167.028 Y167.375 E2.39423
G1 X166.347 Y167.969 E2.42428
G1 X165.616 Y168.5 E2.45433
G1 X164.842 Y168.964 E2.48435
G1 X164.029 Y169.358 E2.5144
G1 X163.185 Y169.678 E2.54442
G1 X162.315 Y169.923 E2.57448
G1 X161.428 Y170.089 E2.60449
G1 X160.277 Y170.187 E2.64291
G1 X159.67 Y170.2 E2.66311
G1 X140.575 Y170.199 E3.29821
G1 X139.877 Y170.19 E3.32143
G1 X138.976 Y170.139 E3.35144
G1 X138.082 Y170.007 E3.3815
G1 X137.204 Y169.798 E3.41152
G1 X136.347 Y169.511 E3.44158
G1 X135.52 Y169.15 E3.47159
G1 X134.727 Y168.717 E3.50164
G1 X133.976 Y168.216 E3.53167
G1 X133.272 Y167.65 E3.56171
G1 X132.621 Y167.024 E3.59175
G1 X132.028 Y166.343 E3.62179
G1 X131.498 Y165.612 E3.65182
G1 X131.034 Y164.837 E3.68186
G1 X130.64 Y164.024 E3.71191
G1 X130.32 Y163.18 E3.74193
G1 X130.076 Y162.31 E3.77198
G1 X129.91 Y161.422 E3.80203
G1 X129.813 Y160.267 E3.84058
G1 X129.8 Y159.658 E3.86084
G1 X129.801 Y140.536 E4.49684
G1 X129.81 Y139.871 E4.51896
G1 X129.862 Y138.969 E4.54901
G1 X129.994 Y138.076 E4.57903
G1 X130.204 Y137.198 E4.60906
G1 X130.491 Y136.341 E4.63912
G1 X130.853 Y135.514 E4.66915
G1 X131.286 Y134.722 E4.69917
G1 X131.788 Y133.971 E4.72921
G1 X132.355 Y133.267 E4.75928
G1 X132.981 Y132.617 E4.78929
G0 F6000 X132.718 Y132.315
G1 F1200 X133.399 Y131.722 E4.81933
G1 X134.159 Y131.17 E4.85057
G1 X134.995 Y130.671 E4.88295
G1 X135.84 Y130.264 E4.91415
G1 X136.685 Y129.944 E4.9442
G1 X137.622 Y129.682 E4.97656
G1 X138.55 Y129.51 E5.00795
G1 X139.689 Y129.414 E5.04597
G1 X140.321 Y129.4 E5.06699
G1 X159.298 Y129.4 E5.69817
G1 X160.16 Y129.412 E5.72684
G1 X161.097 Y129.468 E5.75806
G1 X161.99 Y129.6 E5.78809
G1 X162.938 Y129.828 E5.82052
G1 X163.794 Y130.116 E5.85056
G1 X164.686 Y130.506 E5.88294
G1 X165.478 Y130.941 E5.91299
G1 X166.258 Y131.461 E5.94417
G1 X167.017 Y132.073 E5.9766
G1 X167.667 Y132.7 E6.00664
G1 X168.305 Y133.435 E6.03901
G1 X168.855 Y134.196 E6.07024
G1 X169.317 Y134.972 E6.10027
G1 X169.74 Y135.849 E6.13266
G1 X170.069 Y136.727 E6.16384
G1 X170.32 Y137.632 E6.19508
G1 X170.491 Y138.559 E6.22643
G1 X170.586 Y139.689 E6.26415
G1 X170.6 Y140.33 E6.28548
G1 X170.599 Y159.395 E6.91958
G1 X170.589 Y160.14 E6.94436
G1 X170.535 Y161.077 E6.97558
G1 X170.404 Y161.971 E7.00563
G1 X170.188 Y162.884 E7.03683
G1 X169.88 Y163.808 E7.06923
G1 X169.519 Y164.636 E7.09927
G1 X169.053 Y165.49 E7.13163
G1 X168.531 Y166.271 E7.16287
G1 X167.965 Y166.975 E7.19292
G1 X167.317 Y167.652 E7.22409
G1 X166.582 Y168.293 E7.25652
G1 X165.851 Y168.824 E7.28657
G1 X165.048 Y169.307 E7.31774
G1 X164.171 Y169.732 E7.35016
G1 X163.327 Y170.052 E7.38018
G1 X162.389 Y170.316 E7.41259
G1 X161.462 Y170.488 E7.44395
G1 X160.311 Y170.586 E7.48237
G1 X159.679 Y170.6 E7.50339
G1 X140.57 Y170.599 E8.13896
G1 X139.854 Y170.589 E8.16278
G1 X138.918 Y170.535 E8.19396
G1 X138.024 Y170.403 E8.22402
G1 X137.111 Y170.187 E8.25522
G1 X136.187 Y169.878 E8.28763
G1 X135.36 Y169.517 E8.31764
G1 X134.505 Y169.05 E8.35004
G1 X133.725 Y168.528 E8.38126
G1 X133.021 Y167.962 E8.4113
G1 X132.319 Y167.287 E8.44369
G1 X131.726 Y166.606 E8.47373
G1 X131.174 Y165.847 E8.50494
G1 X130.674 Y165.011 E8.53734
G1 X130.266 Y164.166 E8.56855
G1 X129.946 Y163.322 E8.59857
G1 X129.683 Y162.384 E8.63097
G1 X129.511 Y161.455 E8.6624
G1 X129.413 Y160.276 E8.70175
G1 X129.4 Y159.658 E8.72231
G1 X129.401 Y140.531 E9.35847
G1 X129.411 Y139.848 E9.38119
G1 X129.466 Y138.911 E9.41241
G1 X129.598 Y138.018 E9.44243
G1 X129.815 Y137.105 E9.47365
G1 X130.112 Y136.214 E9.50488
G1 X130.502 Y135.322 E9.53726
G1 X130.953 Y134.5 E9.56845
G1 X131.476 Y133.72 E9.59968
G1 X132.043 Y133.016 E9.62975
G1 X132.718 Y132.315 E9.66212
G0 F6000 X132.455 Y132.013
G1 F1200 X133.136 Y131.42 E9.69215
G1 X133.924 Y130.846 E9.72458
G1 X134.821 Y130.311 E9.75931
G1 X135.698 Y129.89 E9.79167
G1 X136.543 Y129.57 E9.82172
G1 X137.549 Y129.289 E9.85646
G1 X138.516 Y129.111 E9.88916
G1 X139.655 Y129.015 E9.92718
G1 X140.312 Y129 E9.94904
G1 X159.304 Y129 E10.58072
G1 X160.184 Y129.013 E10.60999
G1 X161.155 Y129.072 E10.64234
G1 X162.084 Y129.211 E10.67359
G1 X163.032 Y129.439 E10.70602
G1 X163.954 Y129.749 E10.73837
G1 X164.879 Y130.155 E10.77197
G1 X165.671 Y130.59 E10.80202
G1 X166.48 Y131.128 E10.83434
G1 X167.295 Y131.785 E10.86915
G1 X167.945 Y132.412 E10.89919
G1 X168.607 Y133.173 E10.93274
G1 X169.199 Y133.991 E10.96632
G1 X169.661 Y134.767 E10.99636
G1 X170.115 Y135.709 E11.03114
G1 X170.444 Y136.587 E11.06233
G1 X170.713 Y137.559 E11.09587
G1 X170.89 Y138.525 E11.12853
G1 X170.985 Y139.655 E11.16625
G1 X171 Y140.33 E11.18871
G1 X170.999 Y159.4 E11.82298
G1 X170.988 Y160.163 E11.84836
G1 X170.931 Y161.135 E11.88074
G1 X170.8 Y162.029 E11.91079
G1 X170.577 Y162.976 E11.94315
G1 X170.247 Y163.968 E11.97793
G1 X169.886 Y164.796 E12.00797
G1 X169.386 Y165.712 E12.04268
G1 X168.843 Y166.522 E12.07511
G1 X168.277 Y167.226 E12.10516
G1 X167.606 Y167.929 E12.13748
G1 X166.817 Y168.617 E12.1723
G1 X166.086 Y169.148 E12.20235
G1 X165.254 Y169.65 E12.23467
G1 X164.313 Y170.106 E12.26945
G1 X163.469 Y170.426 E12.29947
G1 X162.497 Y170.701 E12.33307
G1 X161.496 Y170.887 E12.36693
G1 X160.345 Y170.985 E12.40535
G1 X159.679 Y171 E12.42751
G1 X140.564 Y170.999 E13.06327
G1 X139.831 Y170.988 E13.08766
G1 X138.86 Y170.931 E13.12001
G1 X137.966 Y170.799 E13.15007
G1 X136.984 Y170.566 E13.18363
G1 X136.027 Y170.245 E13.21721
G1 X135.2 Y169.884 E13.24722
G1 X134.313 Y169.401 E13.28081
G1 X133.474 Y168.84 E13.31438
G1 X132.77 Y168.274 E13.34442
G1 X132.017 Y167.55 E13.37917
G1 X131.424 Y166.869 E13.4092
G1 X130.831 Y166.052 E13.44278
G1 X130.314 Y165.185 E13.47635
G1 X129.892 Y164.308 E13.50872
G1 X129.572 Y163.464 E13.53874
G1 X129.298 Y162.492 E13.57233
G1 X129.112 Y161.488 E13.60629
G1 X129.014 Y160.309 E13.64564
G1 X129 Y159.658 E13.6673
G1 X129.001 Y140.525 E14.30367
G1 X129.012 Y139.825 E14.32695
G1 X129.07 Y138.853 E14.35934
G1 X129.202 Y137.96 E14.38936
G1 X129.426 Y137.013 E14.42173
G1 X129.745 Y136.054 E14.45534
G1 X130.135 Y135.162 E14.48772
G1 X130.602 Y134.308 E14.5201
G1 X131.164 Y133.469 E14.55368
G1 X131.731 Y132.765 E14.58375
G1 X132.455 Y132.013 E14.61847
G1 F2100 E13.11847
;MESH:xyzCalibration_cube.stl
G0 F6000 X140.414 Y139.335
G0 X159.4 Y159.4
;TYPE:WALL-INNER
G1 F2100 E14.61847
G1 F1200 X159.4 Y140.6 E15.24376
G1 X140.6 Y140.6 E15.86905
G1 X140.6 Y159.4 E16.49434
G1 X159.4 Y159.4 E17.11963
G0 F6000 X159.8 Y159.8
;TYPE:WALL-OUTER
G1 F1200 X159.8 Y140.2 E17.77153
G1 X140.2 Y140.2 E18.42343
G1 X140.2 Y159.8 E19.07533
G1 X159.8 Y159.8 E19.72723
G0 F6000 X159.53 Y159.53
G0 X159.3 Y159.04
G0 X159.04 Y159.04
;TYPE:SKIN
G1 F1200 X140.96 Y159.04 E20.32857
G1 X140.96 Y140.96 E20.92991
G1 X159.04 Y140.96 E21.53126
G1 X159.04 Y159.04 E22.1326
G0 F6000 X159.3 Y159.04
G0 X159.3 Y141.303
G0 X158.839 Y141.303
G1 F1200 X158.696 Y141.16 E22.13932
G0 F6000 X158.13 Y141.16
G1 F1200 X158.839 Y141.868 E22.17265
G0 F6000 X158.839 Y142.434
G1 F1200 X157.565 Y141.16 E22.23258
G0 F6000 X156.999 Y141.16
G1 F1200 X158.839 Y143 E22.31912
G0 F6000 X158.839 Y143.566
G1 F1200 X156.433 Y141.16 E22.43229
G0 F6000 X155.868 Y141.16
G1 F1200 X158.839 Y144.131 E22.57204
G0 F6000 X158.839 Y144.697
G1 F1200 X155.302 Y141.16 E22.73841
G0 F6000 X154.736 Y141.16
G1 F1200 X158.839 Y145.263 E22.9314
G0 F6000 X158.839 Y145.828
G1 F1200 X154.171 Y141.16 E23.15097
G0 F6000 X153.605 Y141.16
G1 F1200 X158.839 Y146.394 E23.39716
G0 F6000 X158.839 Y146.96
G1 F1200 X153.039 Y141.16 E23.66998
G0 F6000 X152.474 Y141.16
G1 F1200 X158.839 Y147.525 E23.96937
G0 F6000 X158.839 Y148.091
G1 F1200 X151.908 Y141.16 E24.29538
G0 F6000 X151.342 Y141.16
G1 F1200 X158.839 Y148.657 E24.64802
G0 F6000 X158.839 Y149.222
G1 F1200 X150.777 Y141.16 E25.02723
G0 F6000 X150.211 Y141.16
G1 F1200 X158.839 Y149.788 E25.43306
G0 F6000 X158.839 Y150.354
G1 F1200 X149.645 Y141.16 E25.86552
G0 F6000 X149.08 Y141.16
G1 F1200 X158.839 Y150.919 E26.32455
G0 F6000 X158.839 Y151.485
G1 F1200 X148.514 Y141.16 E26.81021
G0 F6000 X147.948 Y141.16
G1 F1200 X158.839 Y152.051 E27.32249
G0 F6000 X158.839 Y152.616
G1 F1200 X147.382 Y141.16 E27.86137
G0 F6000 X146.817 Y141.16
G1 F1200 X158.839 Y153.182 E28.42685
G0 F6000 X158.839 Y153.748
G1 F1200 X146.251 Y141.16 E29.01895
G0 F6000 X145.685 Y141.16
G1 F1200 X158.839 Y154.314 E29.63767
G0 F6000 X158.839 Y154.879
G1 F1200 X145.12 Y141.16 E30.28297
G0 F6000 X144.554 Y141.16
G1 F1200 X158.839 Y155.445 E30.95489
G0 F6000 X158.839 Y156.011
G1 F1200 X143.988 Y141.16 E31.65344
G0 F6000 X143.423 Y141.16
G1 F1200 X158.839 Y156.576 E32.37856
G0 F6000 X158.839 Y157.142
G1 F1200 X142.857 Y141.16 E33.1303
G0 F6000 X142.291 Y141.16
G1 F1200 X158.839 Y157.708 E33.90867
G0 F6000 X158.839 Y158.273
G1 F1200 X141.726 Y141.16 E34.71361
G0 F6000 X141.159 Y141.159
G1 F1200 X158.839 Y158.839 E35.54523
G0 F6000 X158.273 Y158.839
G1 F1200 X141.159 Y141.725 E36.35022
G0 F6000 X141.159 Y142.291
G1 F1200 X157.708 Y158.839 E37.12861
G0 F6000 X157.142 Y158.839
G1 F1200 X141.159 Y142.856 E37.8804
G0 F6000 X141.159 Y143.422
G1 F1200 X156.576 Y158.839 E38.60557
G0 F6000 X156.011 Y158.839
G1 F1200 X141.159 Y143.988 E39.30414
G0 F6000 X141.159 Y144.553
G1 F1200 X155.445 Y158.839 E39.97611
G0 F6000 X154.879 Y158.839
G1 F1200 X141.159 Y145.119 E40.62145
G0 F6000 X141.159 Y145.685
G1 F1200 X154.314 Y158.839 E41.2402
G0 F6000 X153.748 Y158.839
G1 F1200 X141.159 Y146.25 E41.83235
G0 F6000 X141.159 Y146.816
G1 F1200 X153.182 Y158.839 E42.39787
G0 F6000 X152.616 Y158.839
G1 F1200 X141.159 Y147.382 E42.93678
G0 F6000 X141.159 Y147.947
G1 F1200 X152.051 Y158.839 E43.4491
G0 F6000 X151.485 Y158.839
G1 F1200 X141.159 Y148.513 E43.93481
G0 F6000 X141.159 Y149.079
G1 F1200 X150.919 Y158.839 E44.39389
G0 F6000 X150.354 Y158.839
G1 F1200 X141.159 Y149.645 E44.82637
G0 F6000 X141.159 Y150.21
G1 F1200 X149.788 Y158.839 E45.23225
G0 F6000 X149.222 Y158.839
G1 F1200 X141.159 Y150.776 E45.61151
G0 F6000 X141.159 Y151.342
G1 F1200 X148.657 Y158.839 E45.96417
G0 F6000 X148.091 Y158.839
G1 F1200 X141.159 Y151.907 E46.29023
G0 F6000 X141.159 Y152.473
G1 F1200 X147.525 Y158.839 E46.58966
G0 F6000 X146.96 Y158.839
G1 F1200 X141.159 Y153.039 E46.8625
G0 F6000 X141.159 Y153.604
G1 F1200 X146.394 Y158.839 E47.10874
G0 F6000 X145.828 Y158.839
G1 F1200 X141.159 Y154.17 E47.32836
G0 F6000 X141.159 Y154.736
G1 F1200 X145.263 Y158.839 E47.52137
G0 F6000 X144.697 Y158.839
G1 F1200 X141.159 Y155.301 E47.68779
G0 F6000 X141.159 Y155.867
G1 F1200 X144.131 Y158.839 E47.82758
G0 F6000 X143.566 Y158.839
G1 F1200 X141.159 Y156.433 E47.94078
G0 F6000 X141.159 Y156.998
G1 F1200 X143 Y158.839 E48.02737
G0 F6000 X142.434 Y158.839
G1 F1200 X141.159 Y157.564 E48.08734
G0 F6000 X141.159 Y158.13
G1 F1200 X141.868 Y158.839 E48.12069
G0 F6000 X141.303 Y158.839
G1 F1200 X141.159 Y158.695 E48.12747
;MESH:NOMESH
G0 F300 X141.159 Y158.695 Z0.4
G0 F6000 X140.7 Y158.695
G0 X140.772 Y159.228
G0 X159.4 Y159.4
;TIME_ELAPSED:83.249296
;LAYER:1
M106 S85
;TYPE:WALL-INNER
;MESH:xyzCalibration_cube.stl
G1 F1350 X159.4 Y140.6 E48.75276
G1 X140.6 Y140.6 E49.37805
G1 X140.6 Y159.4 E50.00334
G1 X159.4 Y159.4 E50.62863
G0 F7500 X159.8 Y159.8
;TYPE:WALL-OUTER
G1 F1350 X159.8 Y140.2 E51.28053
G1 X140.2 Y140.2 E51.93243
G1 X140.2 Y159.8 E52.58432
G1 X159.8 Y159.8 E53.23622
G0 F7500 X159.53 Y159.53
G0 X159.3 Y159.04
G0 X159.04 Y159.04
;TYPE:SKIN
G1 F1350 X140.96 Y159.04 E53.83757
G1 X140.96 Y140.96 E54.43891
G1 X159.04 Y140.96 E55.04025
G1 X159.04 Y159.04 E55.6416
G0 F7500 X158.51 Y158.839
G1 F1350 X158.839 Y158.51 E55.65707
G0 F7500 X158.839 Y157.944
G1 F1350 X157.944 Y158.839 E55.69917
G0 F7500 X157.378 Y158.839
G1 F1350 X158.839 Y157.378 E55.76789
G0 F7500 X158.839 Y156.812
G1 F1350 X156.812 Y158.839 E55.86323
G0 F7500 X156.247 Y158.839
G1 F1350 X158.839 Y156.247 E55.98515
G0 F7500 X158.839 Y155.681
G1 F1350 X155.681 Y158.839 E56.1337
G0 F7500 X155.115 Y158.839
G1 F1350 X158.839 Y155.115 E56.30886
G0 F7500 X158.839 Y154.55
G1 F1350 X154.55 Y158.839 E56.5106
G0 F7500 X153.984 Y158.839
G1 F1350 X158.839 Y153.984 E56.73897
G0 F7500 X158.839 Y153.418
G1 F1350 X153.418 Y158.839 E56.99395
G0 F7500 X152.853 Y158.839
G1 F1350 X158.839 Y152.853 E57.27552
G0 F7500 X158.839 Y152.287
G1 F1350 X152.287 Y158.839 E57.5837
G0 F7500 X151.721 Y158.839
G1 F1350 X158.839 Y151.721 E57.91851
G0 F7500 X158.839 Y151.156
G1 F1350 X151.156 Y158.839 E58.2799
G0 F7500 X150.59 Y158.839
G1 F1350 X158.839 Y150.59 E58.6679
G0 F7500 X158.839 Y150.024
G1 F1350 X150.024 Y158.839 E59.08254
G0 F7500 X149.459 Y158.839
G1 F1350 X158.839 Y149.459 E59.52374
G0 F7500 X158.839 Y148.893
G1 F1350 X148.893 Y158.839 E59.99157
G0 F7500 X148.327 Y158.839
G1 F1350 X158.839 Y148.327 E60.48602
G0 F7500 X158.839 Y147.761
G1 F1350 X147.761 Y158.839 E61.0071
G0 F7500 X147.196 Y158.839
G1 F1350 X158.839 Y147.196 E61.55475
G0 F7500 X158.839 Y146.63
G1 F1350 X146.63 Y158.839 E62.12902
G0 F7500 X146.064 Y158.839
G1 F1350 X158.839 Y146.064 E62.72992
G0 F7500 X158.839 Y145.499
G1 F1350 X145.499 Y158.839 E63.35739
G0 F7500 X144.933 Y158.839
G1 F1350 X158.839 Y144.933 E64.01149
G0 F7500 X158.839 Y144.367
G1 F1350 X144.367 Y158.839 E64.69221
G0 F7500 X143.802 Y158.839
G1 F1350 X158.839 Y143.802 E65.3995
G0 F7500 X158.839 Y143.236
G1 F1350 X143.236 Y158.839 E66.13342
G0 F7500 X142.67 Y158.839
G1 F1350 X158.839 Y142.67 E66.89396
G0 F7500 X158.839 Y142.105
G1 F1350 X142.105 Y158.839 E67.68108
G0 F7500 X141.539 Y158.839
G1 F1350 X158.839 Y141.539 E68.49481
G0 F7500 X158.653 Y141.159
G1 F1350 X141.16 Y158.652 E69.31763
G0 F7500 X141.16 Y158.087
G1 F1350 X158.087 Y141.159 E70.11385
G0 F7500 X157.522 Y141.159
G1 F1350 X141.16 Y157.521 E70.88347
G0 F7500 X141.16 Y156.955
G1 F1350 X156.956 Y141.159 E71.62646
G0 F7500 X156.39 Y141.159
G1 F1350 X141.16 Y156.39 E72.34286
G0 F7500 X141.16 Y155.824
G1 F1350 X155.825 Y141.159 E73.03266
G0 F7500 X155.259 Y141.159
G1 F1350 X141.16 Y155.258 E73.69583
G0 F7500 X141.16 Y154.693
G1 F1350 X154.693 Y141.159 E74.3324
G0 F7500 X154.128 Y141.159
G1 F1350 X141.16 Y154.127 E74.94238
G0 F7500 X141.16 Y153.561
G1 F1350 X153.562 Y141.159 E75.52573
G0 F7500 X152.996 Y141.159
G1 F1350 X141.16 Y152.995 E76.08246
G0 F7500 X141.16 Y152.43
G1 F1350 X152.431 Y141.159 E76.61261
