;FLAVOR:Marlin
;TIME:1962
;Filament used: 1.39935m
;Layer height: 0.2
;MINX:132.2
;MINY:132.2
;MINZ:0.2
;MAXX:167.8
;MAXY:167.8
;MAXZ:20
;Generated with Cura_SteamEngine 5.3.0
M140 S60
M105
M190 S60
M104 S210
M105
M109 S210
M82 ;absolute extrusion mode
M220 S100 ;Reset Feedrate
M221 S100 ;Reset Flowrate

M280 P0 S160 ;reset bltouch
G28 ;Home
G29 A ; enable UBL
G92 E0 ;Reset Extruder
G1 Z2.0 F3000 ;Move Z Axis up
G1 X10.1 Y20 Z0.28 F5000.0 ;Move to start position
G1 X10.1 Y200.0 Z0.28 F1500.0 E15 ;Draw the first line
G1 X10.4 Y200.0 Z0.28 F5000.0 ;Move to side a little
G1 X10.4 Y20 Z0.28 F1500.0 E30 ;Draw the second line
G92 E0 ;Reset Extruder
G1 Z2.0 F3000 ;Move Z Axis up
G92 E0
G92 E0
G1 F2100 E-1.5
;LAYER_COUNT:100
;LAYER:0
M107
G0 F6000 X133.719 Y135.224 Z0.2
;TYPE:SKIRT
G1 F2100 E0
G1 F1200 X135.294 Y133.75 E0.07175
G1 X137.166 Y132.638 E0.14417
G1 X139.353 Y132.2 E0.21835
G1 X160.853 Y132.2 E0.93344
G1 X162.749 Y132.666 E0.99838
G1 X164.776 Y133.719 E1.07435
G1 X166.25 Y135.294 E1.1461
G1 X167.362 Y137.166 E1.21852
G1 X167.8 Y139.353 E1.29271
G1 X167.8 Y160.853 E2.0078
G1 X167.334 Y162.749 E2.07274
G1 X166.281 Y164.776 E2.14871
G1 X164.706 Y166.25 E2.22046
G1 X162.834 Y167.362 E2.29288
G1 X160.647 Y167.8 E2.36706
G1 X139.147 Y167.8 E3.08215
G1 X137.251 Y167.334 E3.14709
G1 X135.224 Y166.281 E3.22306
G1 X133.75 Y164.706 E3.29481
G1 X132.638 Y162.834 E3.36723
G1 X132.2 Y160.647 E3.44141
G1 X132.2 Y139.147 E4.15651
G1 X132.666 Y137.251 E4.22145
G1 X133.719 Y135.224 E4.29742
G0 F6000 X134.042 Y135.469
G1 F1200 X135.535 Y134.072 E4.36542
G1 X137.312 Y133.016 E4.43418
G1 X139.391 Y132.6 E4.50469
G1 X160.807 Y132.6 E5.21699
G1 X162.606 Y133.042 E5.27861
G1 X164.531 Y134.042 E5.35076
G1 X165.928 Y135.535 E5.41876
G1 X166.984 Y137.312 E5.48751
G1 X167.4 Y139.391 E5.55803
G1 X167.4 Y160.807 E6.27033
G1 X166.958 Y162.606 E6.33195
G1 X165.958 Y164.531 E6.4041
G1 X164.465 Y165.928 E6.4721
G1 X162.688 Y166.984 E6.54085
G1 X160.609 Y167.4 E6.61137
G1 X139.193 Y167.4 E7.32367
G1 X137.394 Y166.958 E7.38529
G1 X135.469 Y165.958 E7.45744
G1 X134.072 Y164.465 E7.52544
G1 X133.016 Y162.688 E7.59419
G1 X132.6 Y160.609 E7.66471
G1 X132.6 Y139.193 E8.37701
G1 X133.042 Y137.394 E8.43862
G1 X134.042 Y135.469 E8.51077
G0 F6000 X134.365 Y135.714
G1 F1200 X135.776 Y134.394 E8.57504
G1 X137.458 Y133.395 E8.64011
G1 X139.43 Y133 E8.707
G1 X160.76 Y133 E9.41644
G1 X162.464 Y133.419 E9.4748
G1 X164.286 Y134.365 E9.54308
G1 X165.606 Y135.776 E9.60735
G1 X166.605 Y137.458 E9.67241
G1 X167 Y139.43 E9.7393
G1 X167 Y160.76 E10.44874
G1 X166.581 Y162.464 E10.50711
G1 X165.635 Y164.286 E10.57539
G1 X164.224 Y165.606 E10.63965
G1 X162.542 Y166.605 E10.70472
G1 X160.57 Y167 E10.77161
G1 X139.24 Y167 E11.48105
G1 X137.536 Y166.581 E11.53941
G1 X135.714 Y165.635 E11.60769
G1 X134.394 Y164.224 E11.67196
G1 X133.395 Y162.542 E11.73703
G1 X133 Y160.57 E11.80392
G1 X133 Y139.24 E12.51336
G1 X133.419 Y137.536 E12.57172
G1 X134.365 Y135.714 E12.64
G0 F6000 X134.688 Y135.959
G1 F1200 X136.017 Y134.716 E12.70052
G1 X137.604 Y133.773 E12.76192
G1 X139.468 Y133.4 E12.82515
G1 X160.714 Y133.4 E13.53179
G1 X162.321 Y133.795 E13.58683
G1 X164.041 Y134.688 E13.65129
G1 X165.284 Y136.017 E13.71182
G1 X166.227 Y137.604 E13.77322
G1 X166.6 Y139.468 E13.83644
G1 X166.6 Y160.714 E14.54309
G1 X166.205 Y162.321 E14.59813
G1 X165.312 Y164.041 E14.66258
G1 X163.983 Y165.284 E14.72311
G1 X162.396 Y166.227 E14.78451
G1 X160.532 Y166.6 E14.84773
G1 X139.286 Y166.6 E15.55438
G1 X137.679 Y166.205 E15.60942
G1 X135.959 Y165.312 E15.67388
G1 X134.716 Y163.983 E15.7344
G1 X133.773 Y162.396 E15.7958
G1 X133.4 Y160.532 E15.85902
G1 X133.4 Y139.286 E16.56567
G1 X133.795 Y137.679 E16.62071
G1 X134.688 Y135.959 E16.68517
G0 F6000 X135.011 Y136.204
G1 F1200 X136.258 Y135.038 E16.74195
G1 X137.75 Y134.151 E16.79968
G1 X139.506 Y133.8 E16.85924
G1 X160.668 Y133.8 E17.56309
G1 X162.178 Y134.171 E17.61481
G1 X163.796 Y135.011 E17.67544
G1 X164.962 Y136.258 E17.73223
G1 X165.849 Y137.75 E17.78996
G1 X166.2 Y139.506 E17.84952
G1 X166.2 Y160.668 E18.55337
G1 X165.829 Y162.178 E18.60508
G1 X164.989 Y163.796 E18.66572
G1 X163.742 Y164.962 E18.7225
G1 X162.25 Y165.849 E18.78023
G1 X160.494 Y166.2 E18.83979
G1 X139.332 Y166.2 E19.54364
G1 X137.822 Y165.829 E19.59536
G1 X136.204 Y164.989 E19.656
G1 X135.038 Y163.742 E19.71278
G1 X134.151 Y162.25 E19.77051
G1 X133.8 Y160.494 E19.83007
G1 X133.8 Y139.332 E20.53392
G1 X134.171 Y137.822 E20.58564
G1 X135.011 Y136.204 E20.64627
G0 F6000 X135.334 Y136.449
G1 F1200 X136.499 Y135.36 E20.69931
G1 X137.896 Y134.529 E20.75338
G1 X139.544 Y134.2 E20.80927
G1 X160.621 Y134.2 E21.51029
G1 X162.036 Y134.548 E21.55876
G1 X163.551 Y135.334 E21.61553
G1 X164.64 Y136.499 E21.66857
G1 X165.471 Y137.896 E21.72263
G1 X165.8 Y139.544 E21.77852
G1 X165.8 Y160.621 E22.47955
G1 X165.452 Y162.036 E22.52801
G1 X164.666 Y163.551 E22.58478
G1 X163.501 Y164.64 E22.63782
G1 X162.104 Y165.471 E22.69189
G1 X160.456 Y165.8 E22.74778
G1 X139.379 Y165.8 E23.4488
G1 X137.964 Y165.452 E23.49727
G1 X136.449 Y164.666 E23.55404
G1 X135.36 Y163.501 E23.60708
G1 X134.529 Y162.104 E23.66114
G1 X134.2 Y160.456 E23.71703
G1 X134.2 Y139.379 E24.41806
G1 X134.548 Y137.964 E24.46652
G1 X135.334 Y136.449 E24.52329
G0 F6000 X135.657 Y136.694
G1 F1200 X136.738 Y135.684 E24.5725
G1 X138.044 Y134.907 E24.62304
G1 X139.582 Y134.6 E24.6752
G1 X160.575 Y134.6 E25.37343
G1 X161.893 Y134.924 E25.41858
G1 X163.306 Y135.657 E25.47152
G1 X164.316 Y136.738 E25.52072
G1 X165.093 Y138.044 E25.57127
G1 X165.4 Y139.582 E25.62343
G1 X165.4 Y160.575 E26.32166
G1 X165.076 Y161.893 E26.3668
G1 X164.343 Y163.306 E26.41975
G1 X163.262 Y164.316 E26.46895
G1 X161.956 Y165.093 E26.5195
G1 X160.418 Y165.4 E26.57166
G1 X139.425 Y165.4 E27.26989
G1 X138.107 Y165.076 E27.31503
G1 X136.694 Y164.343 E27.36798
G1 X135.684 Y163.262 E27.41718
G1 X134.907 Y161.956 E27.46773
G1 X134.6 Y160.418 E27.51989
G1 X134.6 Y139.425 E28.21812
G1 X134.924 Y138.107 E28.26326
G1 X135.657 Y136.694 E28.3162
G0 F6000 X135.98 Y136.939
G1 F1200 X136.977 Y136.008 E28.36158
G1 X138.192 Y135.285 E28.4086
G1 X139.62 Y135 E28.45703
G1 X160.529 Y135 E29.15247
G1 X161.75 Y135.3 E29.19429
G1 X163.061 Y135.98 E29.24341
G1 X163.992 Y136.977 E29.28878
G1 X164.715 Y138.192 E29.3358
G1 X165 Y139.62 E29.38423
G1 X165 Y160.529 E30.07967
G1 X164.7 Y161.75 E30.12149
G1 X164.02 Y163.061 E30.17061
G1 X163.023 Y163.992 E30.21598
G1 X161.808 Y164.715 E30.263
G1 X160.38 Y165 E30.31144
G1 X139.471 Y165 E31.00687
G1 X138.25 Y164.7 E31.04869
G1 X136.939 Y164.02 E31.09781
G1 X136.008 Y163.023 E31.14318
G1 X135.285 Y161.808 E31.19021
G1 X135 Y160.38 E31.23864
G1 X135 Y139.471 E31.93407
G1 X135.3 Y138.25 E31.97589
G1 X135.98 Y136.939 E32.02501
G0 F6000 X136.303 Y137.184
G1 F1200 X137.216 Y136.332 E32.06655
G1 X138.34 Y135.663 E32.11005
G1 X139.658 Y135.4 E32.15475
G1 X160.483 Y135.4 E32.8474
G1 X161.607 Y135.676 E32.88589
G1 X162.816 Y136.303 E32.93119
G1 X163.668 Y137.216 E32.97272
G1 X164.337 Y138.34 E33.01623
G1 X164.6 Y139.658 E33.06093
G1 X164.6 Y160.483 E33.75357
G1 X164.324 Y161.607 E33.79207
G1 X163.697 Y162.816 E33.83737
G1 X162.784 Y163.668 E33.8789
G1 X161.66 Y164.337 E33.92241
G1 X160.342 Y164.6 E33.96711
G1 X139.517 Y164.6 E34.65975
G1 X138.393 Y164.324 E34.69824
G1 X137.184 Y163.697 E34.74354
G1 X136.332 Y162.784 E34.78508
G1 X135.663 Y161.66 E34.82858
G1 X135.4 Y160.342 E34.87328
G1 X135.4 Y139.517 E35.56592
G1 X135.676 Y138.393 E35.60442
G1 X136.303 Y137.184 E35.64972
G0 F6000 X136.625 Y137.431
G1 F1200 X137.458 Y136.654 E35.6876
G1 X138.488 Y136.041 E35.72747
G1 X139.696 Y135.8 E35.76844
G1 X160.436 Y135.8 E36.45826
G1 X161.465 Y136.053 E36.4935
G1 X162.569 Y136.625 E36.53486
G1 X163.346 Y137.458 E36.57274
G1 X163.959 Y138.488 E36.61261
G1 X164.2 Y139.696 E36.65358
G1 X164.2 Y160.436 E37.34339
G1 X163.947 Y161.465 E37.37864
G1 X163.375 Y162.569 E37.41999
G1 X162.542 Y163.346 E37.45788
G1 X161.512 Y163.959 E37.49775
G1 X160.304 Y164.2 E37.53872
G1 X139.564 Y164.2 E38.22853
G1 X138.535 Y163.947 E38.26378
G1 X137.431 Y163.375 E38.30513
G1 X136.654 Y162.542 E38.34302
G1 X136.041 Y161.512 E38.38288
G1 X135.8 Y160.304 E38.42385
G1 X135.8 Y139.564 E39.11367
G1 X136.053 Y138.535 E39.14891
G1 X136.625 Y137.431 E39.19027
G0 F6000 X136.947 Y137.678
G1 F1200 X137.7 Y136.976 E39.22451
G1 X138.636 Y136.419 E39.26074
G1 X139.734 Y136.2 E39.29797
G1 X160.39 Y136.2 E39.985
G1 X161.322 Y136.429 E40.01692
G1 X162.322 Y136.947 E40.05437
G1 X163.024 Y137.7 E40.08861
G1 X163.581 Y138.636 E40.12484
G1 X163.8 Y139.734 E40.16208
G1 X163.8 Y160.39 E40.8491
G1 X163.571 Y161.322 E40.88102
G1 X163.053 Y162.322 E40.91848
G1 X162.3 Y163.024 E40.95272
G1 X161.364 Y163.581 E40.98895
G1 X160.266 Y163.8 E41.02619
G1 X139.61 Y163.8 E41.71321
G1 X138.678 Y163.571 E41.74513
G1 X137.678 Y163.053 E41.78259
G1 X136.976 Y162.3 E41.81683
G1 X136.419 Y161.364 E41.85305
G1 X136.2 Y160.266 E41.89029
G1 X136.2 Y139.61 E42.57731
G1 X136.429 Y138.678 E42.60923
G1 X136.947 Y137.678 E42.64669
G0 F6000 X137.269 Y137.925
G1 F1200 X137.942 Y137.298 E42.67728
G1 X138.784 Y136.797 E42.70987
G1 X139.772 Y136.6 E42.74338
G1 X160.344 Y136.6 E43.42761
G1 X161.179 Y136.805 E43.4562
G1 X162.075 Y137.269 E43.48976
G1 X162.702 Y137.942 E43.52036
G1 X163.203 Y138.784 E43.55294
G1 X163.4 Y139.772 E43.58645
G1 X163.4 Y160.344 E44.27068
G1 X163.195 Y161.179 E44.29928
G1 X162.731 Y162.075 E44.33284
G1 X162.058 Y162.702 E44.36343
G1 X161.216 Y163.203 E44.39602
G1 X160.228 Y163.4 E44.42953
G1 X139.656 Y163.4 E45.11375
G1 X138.821 Y163.195 E45.14235
G1 X137.925 Y162.731 E45.17591
G1 X137.298 Y162.058 E45.2065
G1 X136.797 Y161.216 E45.23909
G1 X136.6 Y160.228 E45.2726
G1 X136.6 Y139.656 E45.95683
G1 X136.805 Y138.821 E45.98542
G1 X137.269 Y137.925 E46.01898
G0 F6000 X137.591 Y138.172
G1 F1200 X138.184 Y137.62 E46.04593
G1 X138.932 Y137.175 E46.07488
G1 X139.81 Y137 E46.10465
G1 X160.298 Y137 E46.78609
G1 X161.036 Y137.181 E46.81136
G1 X161.828 Y137.591 E46.84102
G1 X162.38 Y138.184 E46.86797
G1 X162.825 Y138.932 E46.89692
G1 X163 Y139.81 E46.92669
G1 X163 Y160.298 E47.60813
G1 X162.819 Y161.036 E47.6334
G1 X162.409 Y161.828 E47.66306
G1 X161.816 Y162.38 E47.69001
G1 X161.068 Y162.825 E47.71896
G1 X160.19 Y163 E47.74873
G1 X139.702 Y163 E48.43017
G1 X138.964 Y162.819 E48.45544
G1 X138.172 Y162.409 E48.4851
G1 X137.62 Y161.816 E48.51205
G1 X137.175 Y161.068 E48.541
G1 X137 Y160.19 E48.57078
G1 X137 Y139.702 E49.25221
G1 X137.181 Y138.964 E49.27748
G1 X137.591 Y138.172 E49.30714
G0 F6000 X137.914 Y138.417
G1 F1200 X138.423 Y137.944 E49.33026
G1 X139.08 Y137.553 E49.35568
G1 X139.848 Y137.4 E49.38173
G1 X160.248 Y137.4 E50.06024
G1 X160.897 Y137.559 E50.08246
G1 X161.583 Y137.914 E50.10815
G1 X162.056 Y138.423 E50.13126
G1 X162.447 Y139.08 E50.15669
G1 X162.6 Y139.848 E50.18274
G1 X162.6 Y160.248 E50.86124
G1 X162.441 Y160.897 E50.88347
G1 X162.086 Y161.583 E50.90916
G1 X161.577 Y162.056 E50.93227
G1 X160.92 Y162.447 E50.9577
G1 X160.152 Y162.6 E50.98374
G1 X139.752 Y162.6 E51.66225
G1 X139.103 Y162.441 E51.68447
G1 X138.417 Y162.086 E51.71017
G1 X137.944 Y161.577 E51.73328
G1 X137.553 Y160.92 E51.7587
G1 X137.4 Y160.152 E51.78475
G1 X137.4 Y139.752 E52.46326
G1 X137.559 Y139.103 E52.48548
G1 X137.914 Y138.417 E52.51117
G0 F6000 X138.237 Y138.662
G1 F1200 X138.662 Y138.268 E52.53045
G1 X139.228 Y137.931 E52.55236
G1 X139.886 Y137.8 E52.57467
G1 X160.198 Y137.8 E53.25025
G1 X160.758 Y137.937 E53.26943
G1 X161.338 Y138.237 E53.29114
G1 X161.732 Y138.662 E53.31042
G1 X162.069 Y139.228 E53.33233
G1 X162.2 Y139.886 E53.35464
G1 X162.2 Y160.198 E54.03022
G1 X162.063 Y160.758 E54.0494
G1 X161.763 Y161.338 E54.07112
G1 X161.338 Y161.732 E54.09039
G1 X160.772 Y162.069 E54.1123
G1 X160.114 Y162.2 E54.13462
G1 X139.802 Y162.2 E54.8102
G1 X139.242 Y162.063 E54.82937
G1 X138.662 Y161.763 E54.85109
G1 X138.268 Y161.338 E54.87037
G1 X137.931 Y160.772 E54.89228
G1 X137.8 Y160.114 E54.91459
G1 X137.8 Y139.802 E55.59017
G1 X137.937 Y139.242 E55.60935
G1 X138.237 Y138.662 E55.63106
G0 F6000 X138.56 Y138.908
G1 F1200 X138.901 Y138.592 E55.64653
G1 X139.376 Y138.309 E55.66492
G1 X139.924 Y138.2 E55.6835
G1 X160.148 Y138.2 E56.35615
G1 X160.619 Y138.315 E56.37228
G1 X161.092 Y138.56 E56.39
G1 X161.408 Y138.901 E56.40546
G1 X161.691 Y139.376 E56.42385
G1 X161.8 Y139.924 E56.44243
G1 X161.8 Y160.148 E57.11509
G1 X161.685 Y160.619 E57.13121
G1 X161.44 Y161.092 E57.14893
G1 X161.099 Y161.408 E57.16439
G1 X160.624 Y161.691 E57.18278
G1 X160.076 Y161.8 E57.20136
G1 X139.852 Y161.8 E57.87402
G1 X139.381 Y161.685 E57.89014
G1 X138.908 Y161.44 E57.90786
G1 X138.592 Y161.099 E57.92332
G1 X138.309 Y160.624 E57.94171
G1 X138.2 Y160.076 E57.9603
G1 X138.2 Y139.852 E58.63295
G1 X138.315 Y139.381 E58.64908
G1 X138.56 Y138.908 E58.66679
G0 F6000 X138.883 Y139.154
G1 F1200 X139.14 Y138.916 E58.67844
G1 X139.524 Y138.687 E58.69331
G1 X139.962 Y138.6 E58.70817
G1 X160.098 Y138.6 E59.37789
G1 X160.48 Y138.693 E59.39097
G1 X160.846 Y138.883 E59.40468
G1 X161.084 Y139.14 E59.41633
G1 X161.313 Y139.524 E59.43121
G1 X161.4 Y139.962 E59.44606
G1 X161.4 Y160.098 E60.11578
G1 X161.307 Y160.48 E60.12886
G1 X161.117 Y160.846 E60.14258
G1 X160.86 Y161.084 E60.15423
G1 X160.476 Y161.313 E60.1691
G1 X160.038 Y161.4 E60.18395
G1 X139.902 Y161.4 E60.85368
G1 X139.52 Y161.307 E60.86675
G1 X139.154 Y161.117 E60.88047
G1 X138.916 Y160.86 E60.89212
G1 X138.687 Y160.476 E60.90699
G1 X138.6 Y160.038 E60.92184
G1 X138.6 Y139.902 E61.59157
G1 X138.693 Y139.52 E61.60464
G1 X138.883 Y139.154 E61.61836
G0 F6000 X139.345 Y139.26
G1 F1200 X139.672 Y139.065 E61.63102
G1 X140 Y139 E61.64214
G1 X160.049 Y139 E62.30898
G1 X160.338 Y139.07 E62.31887
G1 X160.601 Y139.207 E62.32873
G1 X160.74 Y139.345 E62.33524
G1 X160.935 Y139.672 E62.34791
G1 X161 Y140 E62.35903
G1 X161 Y160.049 E63.02586
G1 X160.93 Y160.338 E63.03575
G1 X160.793 Y160.601 E63.04561
G1 X160.655 Y160.74 E63.05213
G1 X160.328 Y160.935 E63.06479
G1 X160 Y161 E63.07591
G1 X139.951 Y161 E63.74275
G1 X139.662 Y160.93 E63.75264
G1 X139.399 Y160.793 E63.7625
G1 X139.26 Y160.655 E63.76901
G1 X139.065 Y160.328 E63.78168
G1 X139 Y160 E63.7928
G1 X139 Y139.951 E64.45963
G1 X139.07 Y139.662 E64.46952
G1 X139.207 Y139.399 E64.47938
G1 X139.345 Y139.26 E64.4859
G0 F6000 X139.55 Y139.604
G1 F1200 X139.82 Y139.443 E64.49635
G1 X140 Y139.4 E64.50251
G1 X160 Y139.4 E65.16771
G1 X160.244 Y139.459 E65.17606
G1 X160.396 Y139.55 E65.18195
G1 X160.557 Y139.82 E65.19241
G1 X160.6 Y140 E65.19857
G1 X160.6 Y160 E65.86377
G1 X160.541 Y160.244 E65.87212
G1 X160.45 Y160.396 E65.87801
G1 X160.18 Y160.557 E65.88847
G1 X160 Y160.6 E65.89462
G1 X140 Y160.6 E66.55982
G1 X139.756 Y160.541 E66.56817
G1 X139.604 Y160.45 E66.57406
G1 X139.443 Y160.18 E66.58452
G1 X139.4 Y160 E66.59068
G1 X139.4 Y140 E67.25588
G1 X139.459 Y139.756 E67.26423
G1 X139.55 Y139.604 E67.27012
G0 F6000 X139.839 Y139.881
G1 F1200 X140 Y139.8 E67.27611
G1 X160 Y139.8 E67.94132
G1 X160.119 Y139.839 E67.94548
G1 X160.2 Y140 E67.95148
G1 X160.2 Y160 E68.61668
G1 X160.161 Y160.119 E68.62084
G1 X160 Y160.2 E68.62684
G1 X140 Y160.2 E69.29204
G1 X139.881 Y160.161 E69.29621
G1 X139.8 Y160 E69.3022
G1 X139.8 Y140 E69.9674
G1 X139.839 Y139.881 E69.97157
G1 F2100 E68.47157
;MESH:xyzCalibration_cube.stl
G0 F6000 X140.8 Y140.8
G0 X159.4 Y159.4
;TYPE:WALL-INNER
G1 F2100 E69.97157
G1 F1200 X159.4 Y140.6 E70.59686
G1 X140.6 Y140.6 E71.22215
G1 X140.6 Y159.4 E71.84744
G1 X159.4 Y159.4 E72.47273
G0 F6000 X159.8 Y159.8
;TYPE:WALL-OUTER
G1 F1200 X159.8 Y140.2 E73.12463
G1 X140.2 Y140.2 E73.77653
G1 X140.2 Y159.8 E74.42843
G1 X159.8 Y159.8 E75.08033
G0 F6000 X159.53 Y159.53
G0 X159.3 Y159.04
G0 X159.04 Y159.04
;TYPE:SKIN
G1 F1200 X140.96 Y159.04 E75.68167
G1 X140.96 Y140.96 E76.28301
G1 X159.04 Y140.96 E76.88436
G1 X159.04 Y159.04 E77.4857
G0 F6000 X159.3 Y159.04
G0 X159.3 Y141.303
G0 X158.839 Y141.303
G1 F1200 X158.696 Y141.16 E77.49242
G0 F6000 X158.13 Y141.16
G1 F1200 X158.839 Y141.868 E77.52575
G0 F6000 X158.839 Y142.434
G1 F1200 X157.565 Y141.16 E77.58568
G0 F6000 X156.999 Y141.16
