;FLAVOR:Marlin
;TIME:17006
;Filament used: 12.7146m
;Layer height: 0.2
;MINX:118.918
;MINY:105.539
;MINZ:0.2
;MAXX:180.584
;MAXY:195.326
;MAXZ:18.4
;TARGET_MACHINE.NAME:Creality CR-10S
;Generated with Cura_SteamEngine 5.8.0
M140 S60
M105
M190 S60
M104 S210
M105
M109 S210
M82 ;absolute extrusion mode
M220 S100 ;Reset Feedrate
M221 S100 ;Reset Flowrate

M280 P0 S160 ;reset bltouch
G28 ;Home
G29 A ; enable UBL
G92 E0 ;Reset Extruder
G1 Z2.0 F3000 ;Move Z Axis up
G1 X10.1 Y20 Z0.28 F5000.0 ;Move to start position
G1 X10.1 Y200.0 Z0.28 F1500.0 E15 ;Draw the first line
G1 X10.4 Y200.0 Z0.28 F5000.0 ;Move to side a little
G1 X10.4 Y20 Z0.28 F1500.0 E30 ;Draw the second line
G92 E0 ;Reset Extruder
G1 Z2.0 F3000 ;Move Z Axis up
G92 E0
G92 E0
G1 F2100 E-1.5
;LAYER_COUNT:92
;LAYER:0
M107
G0 F6000 X127.987 Y119.776 Z0.2
;TYPE:SKIRT
G1 F2100 E0
G1 F1200 X128.373 Y119.776 E0.01284
G1 X128.379 Y119.81 E0.01399
G1 X128.44 Y119.919 E0.01814
G1 X128.539 Y119.958 E0.02168
G1 X128.562 Y126.324 E0.23342
G1 X128.562 Y126.334 E0.23375
G1 X128.583 Y126.727 E0.24684
G1 X128.584 Y126.74 E0.24727
G1 X128.62 Y127.033 E0.25709
G1 X128.624 Y127.052 E0.25774
G1 X128.699 Y127.389 E0.26922
G1 X128.705 Y127.411 E0.26998
G1 X128.825 Y127.761 E0.28228
G1 X128.834 Y127.782 E0.28304
G1 X128.965 Y128.056 E0.29314
G1 X128.976 Y128.077 E0.29393
G1 X129.151 Y128.353 E0.3048
G1 X129.165 Y128.372 E0.30559
G1 X129.381 Y128.637 E0.31696
G1 X129.395 Y128.653 E0.31767
G1 X129.683 Y128.94 E0.33119
G1 X129.696 Y128.952 E0.33178
G1 X129.991 Y129.198 E0.34455
G1 X130 Y129.205 E0.34493
G1 X130.167 Y129.328 E0.35183
G1 X131.099 Y130.335 E0.39747
G1 X131.104 Y130.34 E0.3977
G1 X131.572 Y130.814 E0.41986
G1 X131.831 Y131.167 E0.43442
G1 X131.847 Y131.187 E0.43527
G1 X132.184 Y131.54 E0.4515
G1 X132.21 Y131.563 E0.45266
G1 X132.579 Y131.837 E0.46794
G1 X132.598 Y131.849 E0.46869
G1 X132.896 Y132.02 E0.48012
G1 X132.919 Y132.031 E0.48097
G1 X133.31 Y132.195 E0.49507
G1 X133.34 Y132.205 E0.49612
G1 X133.755 Y132.305 E0.51032
G1 X133.778 Y132.31 E0.5111
G1 X134.161 Y132.357 E0.52394
G1 X134.176 Y132.358 E0.52444
G1 X134.795 Y132.385 E0.54504
G1 X134.804 Y132.385 E0.54534
G1 X165.604 Y132.374 E1.56976
G1 X165.629 Y132.372 E1.57059
G1 X166.117 Y132.31 E1.58695
G1 X166.131 Y132.308 E1.58742
G1 X166.404 Y132.254 E1.59668
G1 X166.425 Y132.249 E1.5974
G1 X166.734 Y132.151 E1.60818
G1 X166.754 Y132.143 E1.60889
G1 X167.081 Y132 E1.62076
G1 X167.102 Y131.989 E1.62155
G1 X167.372 Y131.83 E1.63197
G1 X167.391 Y131.818 E1.63272
G1 X167.652 Y131.621 E1.6436
G1 X167.669 Y131.607 E1.64433
G1 X167.904 Y131.386 E1.65506
G1 X167.916 Y131.373 E1.65565
G1 X168.171 Y131.087 E1.66839
G1 X168.18 Y131.077 E1.66884
G1 X168.509 Y130.654 E1.68666
G1 X169.248 Y129.917 E1.72138
G1 X169.253 Y129.912 E1.72161
G1 X169.702 Y129.434 E1.74342
G1 X170.119 Y129.111 E1.76097
G1 X170.13 Y129.102 E1.76144
G1 X170.33 Y128.924 E1.77035
G1 X170.34 Y128.914 E1.77082
G1 X170.52 Y128.729 E1.7794
G1 X170.53 Y128.719 E1.77987
G1 X170.707 Y128.509 E1.78901
G1 X170.72 Y128.491 E1.78974
G1 X170.955 Y128.141 E1.80377
G1 X170.971 Y128.114 E1.80481
G1 X171.184 Y127.653 E1.8217
G1 X171.196 Y127.618 E1.82293
G1 X171.297 Y127.218 E1.83665
G1 X171.3 Y127.201 E1.83723
G1 X171.368 Y126.779 E1.85144
G1 X171.371 Y126.755 E1.85225
G1 X171.395 Y126.137 E1.87282
G1 X171.395 Y126.129 E1.87308
G1 X171.407 Y119.957 E2.07837
G1 X171.479 Y119.933 E2.08089
G1 X171.555 Y119.818 E2.08548
G1 X171.565 Y119.776 E2.08691
G1 X171.962 Y119.776 E2.10012
G1 X171.961 Y132.929 E2.53759
G1 X127.987 Y132.93 E4.00017
G1 X127.987 Y119.776 E4.43767
G1 F2100 E2.93767
G0 F6000 X134.755 Y119.575
G1 F2100 E4.43767
G1 F1200 X134.755 Y111.526 E4.70538
G1 X165.262 Y111.527 E5.72005
G1 X165.262 Y119.568 E5.98749
G1 X134.755 Y119.575 E7.00216
G0 F6000 X135.155 Y119.175
G1 F1200 X135.155 Y111.926 E7.24326
G1 X164.862 Y111.927 E8.23132
G1 X164.862 Y119.168 E8.47216
G1 X135.155 Y119.175 E9.46022
G0 F6000 X135.555 Y118.775
G1 F1200 X135.555 Y112.326 E9.67471
G1 X164.462 Y112.327 E10.63616
G1 X164.462 Y118.768 E10.85039
G1 X135.555 Y118.775 E11.81184
G0 F6000 X135.955 Y118.375
G1 F1200 X135.955 Y112.726 E11.99973
G1 X164.062 Y112.727 E12.93457
G1 X164.062 Y118.368 E13.12219
G1 X135.955 Y118.375 E14.05703
G0 F6000 X136.355 Y117.975
G1 F1200 X136.355 Y113.126 E14.21831
G1 X163.662 Y113.127 E15.12655
G1 X163.662 Y117.968 E15.28756
G1 X136.355 Y117.975 E16.19579
G0 F6000 X136.755 Y117.575
G1 F1200 X136.755 Y113.526 E16.33046
G1 X163.262 Y113.527 E17.21209
G1 X163.262 Y117.568 E17.3465
G1 X136.755 Y117.575 E18.22812
G0 F6000 X137.155 Y117.174
G1 F1200 X137.155 Y113.926 E18.33615
G1 X162.862 Y113.927 E19.19117
G1 X162.862 Y117.169 E19.299
G1 X137.155 Y117.174 E20.15402
G0 F6000 X137.555 Y116.774
G1 F1200 X137.555 Y114.326 E20.23544
G1 X162.462 Y114.327 E21.06385
G1 X162.462 Y116.769 E21.14507
G1 X137.555 Y116.774 E21.97348
G0 F6000 X137.955 Y116.374
G1 F1200 X137.955 Y114.726 E22.02829
G1 X162.062 Y114.727 E22.83009
G1 X162.062 Y116.369 E22.88471
G1 X137.955 Y116.374 E23.68651
G0 F6000 X138.355 Y115.974
G1 F1200 X138.355 Y115.126 E23.71471
G1 X161.662 Y115.127 E24.48991
G1 X161.662 Y115.969 E24.51791
G1 X138.355 Y115.974 E25.29311
G1 F2100 E23.79311
G0 F6000 X138.356 Y116.438
G0 X128.446 Y127.891
G1 F2100 E25.29311
G1 F1200 X128.473 Y127.955 E25.29542
G1 X128.604 Y128.229 E25.30552
G1 X128.638 Y128.291 E25.30787
G1 X128.813 Y128.567 E25.31874
G1 X128.855 Y128.625 E25.32112
G1 X129.071 Y128.89 E25.33249
G1 X129.112 Y128.936 E25.33454
G1 X129.4 Y129.223 E25.34806
G1 X129.44 Y129.259 E25.34985
G1 X129.735 Y129.505 E25.36263
G1 X129.763 Y129.527 E25.36381
G1 X129.899 Y129.627 E25.36943
G1 X130.806 Y130.607 E25.41384
G1 X130.819 Y130.621 E25.41448
G1 X131.264 Y131.072 E25.43555
G1 X131.508 Y131.404 E25.44925
G1 X131.558 Y131.463 E25.45183
G1 X131.895 Y131.816 E25.46806
G1 X131.971 Y131.884 E25.47145
G1 X132.34 Y132.158 E25.48674
G1 X132.399 Y132.196 E25.48907
G1 X132.697 Y132.367 E25.5005
G1 X132.764 Y132.4 E25.50298
G1 X133.074 Y132.53 E25.51416
G1 X128.387 Y132.53 E25.67005
G1 X128.387 Y127.719 E25.83007
G1 X128.446 Y127.891 E25.83612
G0 F6000 X128.83 Y129.219
G1 F1200 X129.118 Y129.506 E25.84964
G1 X129.184 Y129.566 E25.85261
G1 X129.479 Y129.812 E25.86538
G1 X129.526 Y129.849 E25.86737
G1 X129.631 Y129.927 E25.87172
G1 X130.512 Y130.878 E25.91484
G1 X130.534 Y130.902 E25.91592
G1 X130.961 Y131.335 E25.93615
G1 X131.186 Y131.641 E25.94878
G1 X131.269 Y131.74 E25.95308
G1 X131.606 Y132.093 E25.96931
G1 X131.648 Y132.13 E25.97117
G1 X128.787 Y132.13 E26.06633
G1 X128.787 Y129.172 E26.16471
G1 X128.83 Y129.219 E26.16683
G0 F6000 X129.222 Y130.119
G1 F1200 X129.289 Y130.171 E26.16965
G1 X129.364 Y130.226 E26.17274
G1 X130.219 Y131.15 E26.21462
G1 X130.25 Y131.183 E26.21612
G1 X130.654 Y131.592 E26.23524
G1 X130.755 Y131.73 E26.24093
G1 X129.187 Y131.73 E26.29308
G1 X129.187 Y130.09 E26.34763
G1 X129.222 Y130.119 E26.34914
G0 F6000 X129.587 Y131.33
G1 F1200 X129.587 Y131.057 E26.35822
G1 X129.84 Y131.33 E26.3706
G1 X129.587 Y131.33 E26.37902
G1 F2100 E24.87902
G0 F6000 X166.863 Y132.529
G1 F2100 E26.37902
G1 F1200 X166.914 Y132.51 E26.38083
G1 X167.241 Y132.367 E26.3927
G1 X167.305 Y132.334 E26.39509
G1 X167.575 Y132.175 E26.40551
G1 X167.632 Y132.137 E26.40779
G1 X167.893 Y131.94 E26.41867
G1 X167.943 Y131.898 E26.42084
G1 X168.178 Y131.677 E26.43157
G1 X168.215 Y131.639 E26.43333
G1 X168.47 Y131.353 E26.44608
G1 X168.496 Y131.322 E26.44742
G1 X168.807 Y130.922 E26.46427
G1 X169.531 Y130.2 E26.49828
G1 X169.545 Y130.186 E26.49894
G1 X169.971 Y129.732 E26.51965
G1 X170.364 Y129.428 E26.53617
G1 X170.396 Y129.401 E26.53757
G1 X170.596 Y129.223 E26.54647
G1 X170.627 Y129.193 E26.54791
G1 X170.807 Y129.008 E26.55649
G1 X170.836 Y128.977 E26.5579
G1 X171.013 Y128.767 E26.56704
G1 X171.052 Y128.714 E26.56923
G1 X171.287 Y128.364 E26.58325
G1 X171.334 Y128.282 E26.58639
G1 X171.547 Y127.821 E26.60328
G1 X171.561 Y127.78 E26.60472
G1 X171.561 Y132.529 E26.76267
G1 X166.863 Y132.529 E26.91893
G0 F6000 X168.281 Y132.129
G1 F1200 X168.452 Y131.968 E26.92674
G1 X168.513 Y131.905 E26.92966
G1 X168.768 Y131.619 E26.9424
G1 X168.811 Y131.568 E26.94462
G1 X169.108 Y131.186 E26.96072
G1 X169.813 Y130.483 E26.99383
G1 X169.836 Y130.459 E26.99494
G1 X170.237 Y130.032 E27.01442
G1 X170.609 Y129.744 E27.03007
G1 X170.662 Y129.7 E27.03236
G1 X170.862 Y129.522 E27.04126
G1 X170.914 Y129.472 E27.04366
G1 X171.094 Y129.287 E27.05225
G1 X171.142 Y129.234 E27.05462
G1 X171.161 Y129.211 E27.05562
G1 X171.161 Y132.129 E27.15267
G1 X168.281 Y132.129 E27.24846
G0 F6000 X169.193 Y131.729
G1 F1200 X169.41 Y131.45 E27.26022
G1 X170.096 Y130.766 E27.29244
G1 X170.128 Y130.733 E27.29396
G1 X170.509 Y130.327 E27.31248
G1 X170.761 Y130.132 E27.32308
G1 X170.761 Y131.729 E27.3762
G1 X169.193 Y131.729 E27.42835
G0 F6000 X170.097 Y131.329
G1 F1200 X170.361 Y131.066 E27.44074
G1 X170.361 Y131.329 E27.44949
G1 X170.097 Y131.329 E27.45827
G1 F2100 E25.95827
G0 F6000 X177.398 Y188.025
G1 F2100 E27.45827
G1 F1200 X177.409 Y188.134 E27.46191
G1 X177.418 Y188.153 E27.46261
G1 X177.413 Y188.154 E27.46278
G1 X177.491 Y188.544 E27.47601
G1 X177.503 Y188.583 E27.47737
G1 X177.657 Y188.946 E27.49048
G1 X177.676 Y188.981 E27.49181
G1 X177.904 Y189.314 E27.50523
G1 X177.93 Y189.345 E27.50658
G1 X178.22 Y189.626 E27.52001
G1 X178.25 Y189.65 E27.52129
G1 X178.584 Y189.866 E27.53452
G1 X178.617 Y189.883 E27.53575
G1 X179.001 Y190.041 E27.54956
G1 X179.033 Y190.051 E27.55068
G1 X179.133 Y190.073 E27.55408
G1 X179.959 Y190.542 E27.58567
G1 X180.15 Y190.73 E27.59459
G1 X180.237 Y190.93 E27.60184
G1 X180.247 Y191.158 E27.60943
G1 X180.205 Y191.331 E27.61535
G1 X179.36 Y193.153 E27.68215
G1 X179.226 Y193.3 E27.68877
G1 X179.014 Y193.419 E27.69686
G1 X178.855 Y193.451 E27.70225
G1 X177.908 Y193.452 E27.73375
G1 X177.544 Y193.334 E27.74647
G1 X177.529 Y193.33 E27.74699
G1 X177.23 Y193.257 E27.75723
G1 X177.206 Y193.252 E27.75804
G1 X176.74 Y193.198 E27.77365
G1 X176.723 Y193.197 E27.77421
G1 X176.469 Y193.189 E27.78266
G1 X176.451 Y193.189 E27.78326
G1 X176.08 Y193.212 E27.79563
G1 X176.058 Y193.215 E27.79636
G1 X175.498 Y193.312 E27.81527
G1 X175.422 Y193.346 E27.81804
G1 X175.352 Y193.348 E27.82037
G1 X175.319 Y193.352 E27.82147
G1 X174.375 Y193.537 E27.85347
G1 X174.324 Y193.56 E27.85533
G1 X173.555 Y193.635 E27.88103
G1 X173.512 Y193.644 E27.88249
G1 X173.395 Y193.682 E27.88658
G1 X172.896 Y193.702 E27.90319
G1 X172.874 Y193.704 E27.90392
G1 X172.42 Y193.772 E27.91919
G1 X172.384 Y193.781 E27.92043
G1 X172.348 Y193.793 E27.92169
G1 X172.111 Y193.797 E27.92957
G1 X172.1 Y193.797 E27.92994
G1 X171.842 Y193.815 E27.93854
G1 X171.828 Y193.817 E27.93901
G1 X171.398 Y193.877 E27.95345
G1 X171.365 Y193.885 E27.95458
G1 X171.304 Y193.905 E27.95672
G1 X170.678 Y193.924 E27.97755
G1 X170.652 Y193.927 E27.97842
G1 X170.097 Y194.016 E27.99711
G1 X169.585 Y194.016 E28.01414
G1 X169.186 Y194.037 E28.02743
G1 X169.171 Y194.039 E28.02793
G1 X168.694 Y194.101 E28.04393
G1 X168.68 Y194.103 E28.0444
G1 X168.562 Y194.127 E28.04841
G1 X167.996 Y194.127 E28.06723
G1 X167.706 Y194.14 E28.07689
G1 X167.691 Y194.141 E28.07739
G1 X167.267 Y194.193 E28.0916
G1 X167.253 Y194.196 E28.09207
G1 X167.037 Y194.238 E28.09939
G1 X165.497 Y194.238 E28.15061
G1 X165.473 Y194.239 E28.15141
G1 X164.545 Y194.349 E28.18249
G1 X161.794 Y194.348 E28.27399
G1 X161.786 Y194.348 E28.27426
G1 X161.496 Y194.36 E28.28391
G1 X161.488 Y194.361 E28.28418
G1 X160.242 Y194.46 E28.32575
G1 X156.865 Y194.46 E28.43807
G1 X156.728 Y194.393 E28.44314
G1 X156.383 Y194.393 E28.45462
G1 X156.368 Y194.394 E28.45512
G1 X154.022 Y194.571 E28.53337
G1 X151.024 Y194.571 E28.63308
G1 X151.013 Y194.282 E28.6427
G1 X151.898 Y194.215 E28.67222
G1 X151.927 Y194.295 E28.67505
G1 X152.084 Y194.371 E28.68085
G1 X153.999 Y194.371 E28.74454
G1 X154.014 Y194.37 E28.74504
G1 X155.473 Y194.26 E28.79371
G1 X160.221 Y194.26 E28.95163
G1 X160.236 Y194.259 E28.95213
G1 X161.348 Y194.175 E28.98922
G1 X161.357 Y194.175 E28.98952
G1 X161.573 Y194.149 E28.99675
G1 X164.528 Y194.149 E29.09504
G1 X164.552 Y194.148 E29.09584
G1 X165.465 Y194.038 E29.12642
G1 X166.966 Y194.038 E29.17635
G1 X167.025 Y194.029 E29.17833
G1 X170.514 Y192.959 E29.29971
G1 X170.537 Y192.951 E29.30052
G1 X174.008 Y191.395 E29.42704
G1 X174.055 Y191.365 E29.42889
G1 X176.382 Y189.413 E29.52991
G1 X176.418 Y189.373 E29.5317
G1 X177.43 Y187.897 E29.59122
G1 X177.398 Y188.025 E29.59561
G0 F6000 X177.289 Y189.102
G1 F1200 X177.346 Y189.207 E29.59959
G1 X177.574 Y189.54 E29.61301
G1 X177.651 Y189.632 E29.617
G1 X177.941 Y189.913 E29.63043
G1 X178.033 Y189.986 E29.63434
G1 X178.367 Y190.202 E29.64757
G1 X178.465 Y190.253 E29.65124
G1 X178.849 Y190.411 E29.66505
G1 X178.946 Y190.442 E29.66844
G1 X178.99 Y190.452 E29.66994
G1 X179.714 Y190.863 E29.69763
G1 X179.814 Y190.961 E29.70229
G1 X179.841 Y191.024 E29.70457
G1 X179.845 Y191.118 E29.70769
G1 X179.826 Y191.197 E29.7104
G1 X179.022 Y192.93 E29.77394
G1 X178.975 Y192.982 E29.77627
G1 X178.872 Y193.04 E29.7802
G1 X178.815 Y193.051 E29.78213
G1 X177.972 Y193.052 E29.81017
G1 X177.667 Y192.953 E29.82084
G1 X177.624 Y192.941 E29.82232
G1 X177.325 Y192.868 E29.83256
G1 X177.252 Y192.855 E29.83502
G1 X176.786 Y192.801 E29.85063
G1 X176.736 Y192.797 E29.85229
G1 X176.482 Y192.789 E29.86075
G1 X176.426 Y192.79 E29.86261
G1 X176.055 Y192.813 E29.87497
G1 X175.99 Y192.821 E29.87715
G1 X175.43 Y192.918 E29.89605
G1 X175.365 Y192.947 E29.89842
G1 X175.343 Y192.948 E29.89915
G1 X175.242 Y192.959 E29.90253
G1 X174.298 Y193.144 E29.93453
G1 X174.251 Y193.165 E29.93624
G1 X173.516 Y193.237 E29.9608
G1 X173.388 Y193.264 E29.96515
G1 X173.326 Y193.284 E29.96732
G1 X172.88 Y193.302 E29.98217
G1 X172.815 Y193.309 E29.98434
G1 X172.361 Y193.377 E29.99961
G1 X172.289 Y193.394 E30.00207
G1 X172.105 Y193.397 E30.00819
G1 X172.072 Y193.398 E30.00929
G1 X171.814 Y193.416 E30.01789
G1 X171.773 Y193.421 E30.01926
G1 X171.343 Y193.481 E30.03371
G1 X171.242 Y193.504 E30.03715
G1 X171.234 Y193.507 E30.03743
G1 X170.666 Y193.524 E30.05633
G1 X170.589 Y193.532 E30.05891
G1 X170.065 Y193.616 E30.07656
G1 X169.738 Y193.616 E30.08744
G1 X170.631 Y193.342 E30.1185
G1 X170.7 Y193.316 E30.12096
G1 X174.171 Y191.76 E30.24747
G1 X174.312 Y191.672 E30.253
G1 X176.639 Y189.72 E30.35402
G1 X176.748 Y189.599 E30.35944
G1 X177.213 Y188.922 E30.38676
G1 X177.289 Y189.102 E30.39325
G0 F6000 X177.244 Y189.766
G1 F1200 X177.373 Y189.919 E30.39991
G1 X177.663 Y190.2 E30.41334
G1 X177.816 Y190.322 E30.41985
G1 X178.15 Y190.538 E30.43308
G1 X178.312 Y190.623 E30.43916
G1 X178.696 Y190.781 E30.45297
G1 X178.84 Y190.826 E30.45799
G1 X179.408 Y191.149 E30.47972
G1 X178.71 Y192.651 E30.53481
G1 X178.033 Y192.652 E30.55733
G1 X177.79 Y192.573 E30.56583
G1 X177.719 Y192.553 E30.56828
G1 X177.42 Y192.48 E30.57852
G1 X177.298 Y192.458 E30.58264
G1 X176.832 Y192.404 E30.59824
G1 X176.748 Y192.397 E30.60105
G1 X176.494 Y192.389 E30.6095
G1 X176.401 Y192.391 E30.61259
G1 X176.03 Y192.414 E30.62496
G1 X175.921 Y192.427 E30.62861
G1 X175.361 Y192.524 E30.64751
G1 X175.262 Y192.556 E30.65097
G1 X175.165 Y192.567 E30.65422
G1 X174.221 Y192.752 E30.68621
G1 X174.162 Y192.772 E30.68829
G1 X173.477 Y192.839 E30.71118
G1 X173.264 Y192.883 E30.71841
G1 X173.25 Y192.888 E30.71891
G1 X172.864 Y192.903 E30.73175
G1 X172.756 Y192.913 E30.73536
G1 X172.487 Y192.953 E30.74441
G1 X174.335 Y192.125 E30.81176
G1 X174.569 Y191.978 E30.82095
G1 X176.896 Y190.026 E30.92197
G1 X177.078 Y189.826 E30.93097
G1 X177.182 Y189.675 E30.93706
G1 X177.244 Y189.766 E30.94073
G0 F6000 X177.153 Y190.333
G1 F1200 X177.187 Y190.295 E30.94242
G1 X177.385 Y190.487 E30.9516
G1 X177.599 Y190.658 E30.96071
G1 X177.933 Y190.874 E30.97394
G1 X178.16 Y190.993 E30.98246
G1 X178.544 Y191.151 E30.99627
G1 X178.671 Y191.19 E31.00069
G1 X178.89 Y191.315 E31.00908
G1 X178.455 Y192.251 E31.04341
G1 X178.098 Y192.252 E31.05528
G1 X177.914 Y192.192 E31.06172
G1 X177.814 Y192.164 E31.06517
G1 X177.515 Y192.091 E31.07541
G1 X177.344 Y192.06 E31.08119
G1 X176.878 Y192.006 E31.09679
