;FLAVOR:Marlin
;TIME:17927
;Filament used: 13.0066m
;Layer height: 0.2
;MINX:94.766
;MINY:109.071
;MINZ:0.2
;MAXX:204.82
;MAXY:190.929
;MAXZ:18.4
;Generated with Cura_SteamEngine master
M140 S55
M105
M190 S55
M104 S210
M105
M109 S210
M82 ;absolute extrusion mode
M201 X500.00 Y500.00 Z100.00 E5000.00 ;Setup machine max acceleration
M203 X500.00 Y500.00 Z10.00 E50.00 ;Setup machine max feedrate
M204 P500.00 R1000.00 T500.00 ;Setup Print/Retract/Travel acceleration
M205 X8.00 Y8.00 Z0.40 E5.00 ;Setup Jerk
M220 S100 ;Reset Feedrate
M221 S100 ;Reset Flowrate

G28 ;Home
G29 A ; enable UBL
G92 E0 ;Reset Extruder
G1 Z2.0 F3000 ;Move Z Axis up
G1 X10.1 Y20 Z0.28 F5000.0 ;Move to start position
G1 X10.1 Y200.0 Z0.28 F1500.0 E15 ;Draw the first line
G1 X10.4 Y200.0 Z0.28 F5000.0 ;Move to side a little
G1 X10.4 Y20 Z0.28 F1500.0 E30 ;Draw the second line
G92 E0 ;Reset Extruder
G1 Z2.0 F3000 ;Move Z Axis up

G92 E0
G92 E0
G1 F2700 E-5
;LAYER_COUNT:92
;LAYER:0
M107
G0 F6000 X101.674 Y113.137 Z0.2
;TYPE:SKIRT
G1 F2700 E0
G1 F1200 X102.394 Y112.535 E0.03122
G1 X103.162 Y111.997 E0.0624
G1 X103.921 Y111.555 E0.09162
G1 X104.318 Y111.348 E0.10651
G1 X104.786 Y111.115 E0.1239
G1 X105.217 Y110.908 E0.1398
G1 X105.86 Y110.608 E0.1634
G1 X106.726 Y110.248 E0.19459
G1 X107.62 Y109.963 E0.2258
G1 X108.452 Y109.77 E0.25421
G1 X109.146 Y109.659 E0.27758
G1 X109.571 Y109.607 E0.29182
G1 X109.861 Y109.576 E0.30152
G1 X110.548 Y109.512 E0.32447
G1 X111.275 Y109.453 E0.34873
G1 X111.888 Y109.421 E0.36915
G1 X112.795 Y109.399 E0.39932
G1 X113.948 Y109.386 E0.43768
G1 X116.517 Y109.285 E0.52319
G1 X118.956 Y109.121 E0.60449
G1 X119.484 Y109.098 E0.62207
G1 X120.63 Y109.076 E0.66019
G1 X120.84 Y109.074 E0.66718
G1 X178.385 Y109.071 E2.58113
G1 X179.527 Y109.086 E2.61912
G1 X179.995 Y109.103 E2.63469
G1 X180.4 Y109.126 E2.64819
G1 X181.086 Y109.186 E2.67109
G1 X182.245 Y109.325 E2.70991
G1 X182.648 Y109.381 E2.72345
G1 X183.238 Y109.474 E2.74331
G1 X184.143 Y109.656 E2.77402
G1 X184.494 Y109.742 E2.78604
G1 X184.799 Y109.822 E2.79652
G1 X185.453 Y110.003 E2.81909
G1 X186.101 Y110.192 E2.84154
G1 X187.016 Y110.503 E2.87369
G1 X187.914 Y110.853 E2.90574
G1 X188.24 Y110.986 E2.91745
G1 X188.865 Y111.253 E2.94006
G1 X189.705 Y111.655 E2.97103
G1 X190.422 Y112.037 E2.99805
G1 X190.777 Y112.232 E3.01152
G1 X191.394 Y112.583 E3.03513
G1 X191.816 Y112.835 E3.05148
G1 X191.897 Y112.886 E3.05466
G1 X192.24 Y113.111 E3.06831
G1 X192.778 Y113.48 E3.09001
G1 X193.149 Y113.741 E3.10509
G1 X193.703 Y114.142 E3.12784
G1 X194.113 Y114.454 E3.14498
G1 X194.39 Y114.675 E3.15676
G1 X194.699 Y114.931 E3.17011
G1 X195.026 Y115.212 E3.18445
G1 X195.35 Y115.501 E3.19889
G1 X195.537 Y115.675 E3.20738
G1 X196.017 Y116.134 E3.22947
G1 X196.358 Y116.471 E3.24542
G1 X196.8 Y116.919 E3.26635
G1 X196.786 Y116.932 E3.26699
G1 X197.25 Y117.401 E3.28893
G1 X197.399 Y117.571 E3.29645
G1 X197.577 Y117.779 E3.30555
G1 X198.108 Y118.419 E3.33321
G1 X198.458 Y118.856 E3.35184
G1 X198.867 Y119.4 E3.37447
G1 X199.49 Y120.285 E3.41047
G1 X199.695 Y120.587 E3.42261
G1 X199.988 Y121.034 E3.44039
G1 X200.487 Y121.875 E3.47291
G1 X201.046 Y122.923 E3.51242
G1 X201.805 Y124.408 E3.56789
G1 X202.059 Y124.919 E3.58687
G1 X202.363 Y125.584 E3.61118
G1 X202.521 Y125.976 E3.62524
G1 X202.726 Y126.513 E3.64436
G1 X202.915 Y127.033 E3.66276
G1 X203.106 Y127.581 E3.68206
G1 X203.47 Y128.874 E3.72674
G1 X203.707 Y129.969 E3.764
G1 X203.755 Y130.203 E3.77195
G1 X204.306 Y133.052 E3.86846
G1 X204.423 Y133.704 E3.89049
G1 X204.546 Y134.604 E3.92071
G1 X204.568 Y134.835 E3.92843
G1 X204.591 Y135.114 E3.93774
G1 X204.617 Y135.484 E3.95007
G1 X204.764 Y137.927 E4.03147
G1 X204.792 Y138.509 E4.05085
G1 X204.804 Y138.863 E4.06263
G1 X204.819 Y139.804 E4.09394
G1 X204.82 Y160.137 E4.77021
G1 X204.81 Y160.909 E4.79589
G1 X204.8 Y161.231 E4.80661
G1 X204.752 Y162.295 E4.84203
G1 X204.619 Y164.469 E4.91448
G1 X204.573 Y165.077 E4.93476
G1 X204.503 Y165.731 E4.95663
G1 X204.339 Y166.926 E4.99675
G1 X204.128 Y168.281 E5.04236
G1 X204.006 Y169.001 E5.06665
G1 X203.888 Y169.598 E5.08689
G1 X203.795 Y169.993 E5.10039
G1 X203.67 Y170.486 E5.1173
G1 X203.523 Y171.032 E5.13611
G1 X203.353 Y171.635 E5.15695
G1 X203.159 Y172.253 E5.17849
G1 X202.855 Y173.13 E5.20936
G1 X202.736 Y173.456 E5.22091
G1 X202.497 Y174.081 E5.24316
G1 X202.363 Y174.416 E5.25516
G1 X202.234 Y174.715 E5.26599
G1 X201.945 Y175.359 E5.28947
G1 X201.785 Y175.7 E5.302
G1 X201.504 Y176.284 E5.32355
G1 X201.351 Y176.59 E5.33493
G1 X201.15 Y176.974 E5.34935
G1 X200.996 Y177.254 E5.35998
G1 X200.682 Y177.81 E5.38122
G1 X200.294 Y178.475 E5.40682
G1 X199.98 Y178.981 E5.42663
G1 X199.66 Y179.467 E5.44598
G1 X199.52 Y179.675 E5.45432
G1 X199.094 Y180.291 E5.47923
G1 X198.666 Y180.869 E5.50315
G1 X198.011 Y181.695 E5.53822
G1 X197.781 Y181.975 E5.55027
G1 X197.362 Y182.469 E5.57181
G1 X196.681 Y183.202 E5.60509
G1 X196.443 Y183.433 E5.61612
G1 X196.101 Y183.758 E5.63181
G1 X195.155 Y184.635 E5.67472
G1 X194.625 Y185.112 E5.69843
G1 X193.952 Y185.671 E5.72753
G1 X193.607 Y185.929 E5.74186
G1 X193.127 Y186.273 E5.7615
G1 X192.721 Y186.558 E5.778
G1 X192.153 Y186.945 E5.80086
G1 X191.602 Y187.297 E5.82261
G1 X191.291 Y187.478 E5.83458
G1 X190.762 Y187.777 E5.85479
G1 X190.325 Y188.016 E5.87135
G1 X189.707 Y188.344 E5.89462
G1 X188.854 Y188.751 E5.92606
G1 X188.031 Y189.1 E5.95579
G1 X187.731 Y189.221 E5.96655
G1 X187.152 Y189.449 E5.98725
G1 X186.214 Y189.77 E6.02022
G1 X185.306 Y190.036 E6.05169
G1 X184.995 Y190.123 E6.06243
G1 X184.31 Y190.302 E6.08598
G1 X183.048 Y190.554 E6.12878
G1 X182.62 Y190.611 E6.14314
G1 X182.194 Y190.661 E6.15741
G1 X180.892 Y190.799 E6.20096
G1 X180.105 Y190.872 E6.22725
G1 X179.494 Y190.912 E6.24761
G1 X179.329 Y190.918 E6.2531
G1 X179.051 Y190.924 E6.26235
G1 X178.569 Y190.929 E6.27838
G1 X120.42 Y190.926 E8.21243
G1 X119.734 Y190.916 E8.23525
G1 X119.429 Y190.907 E8.24539
G1 X118.129 Y190.852 E8.28867
G1 X115.49 Y190.777 E8.37648
G1 X114.266 Y190.778 E8.41719
G1 X112.857 Y190.763 E8.46406
G1 X112.535 Y190.755 E8.47477
G1 X111.393 Y190.708 E8.51279
G1 X110.629 Y190.666 E8.53823
G1 X110.192 Y190.635 E8.55281
G1 X109.831 Y190.601 E8.56487
G1 X109.429 Y190.556 E8.57832
G1 X109.193 Y190.527 E8.58623
G1 X108.521 Y190.437 E8.60878
G1 X107.597 Y190.273 E8.63999
G1 X106.691 Y190.031 E8.67118
G1 X105.809 Y189.712 E8.70238
G1 X104.957 Y189.32 E8.73357
G1 X104.142 Y188.856 E8.76476
G1 X103.343 Y188.306 E8.79702
G1 X102.484 Y187.656 E8.83285
G1 X102.18 Y187.417 E8.84571
G1 X101.617 Y186.959 E8.86985
G1 X100.916 Y186.337 E8.90102
G1 X100.27 Y185.657 E8.93222
G1 X99.684 Y184.925 E8.96341
G1 X99.162 Y184.145 E8.99462
G1 X98.709 Y183.324 E9.02581
G1 X98.193 Y182.106 E9.06981
G1 X98.1 Y181.844 E9.07905
G1 X97.969 Y181.452 E9.0928
G1 X97.829 Y181.005 E9.10838
G1 X97.727 Y180.662 E9.12028
G1 X97.503 Y179.857 E9.14807
G1 X96.779 Y177.401 E9.23324
G1 X96.381 Y176.182 E9.27589
G1 X96.053 Y175.121 E9.31282
G1 X95.814 Y174.214 E9.34402
G1 X95.654 Y173.292 E9.37514
G1 X95.564 Y172.596 E9.39849
G1 X95.381 Y171.032 E9.45086
G1 X95.177 Y169.63 E9.49798
G1 X95.164 Y169.506 E9.50213
G1 X94.983 Y168.267 E9.54377
G1 X94.887 Y167.333 E9.575
G1 X94.807 Y166.001 E9.61939
G1 X94.795 Y165.757 E9.62751
G1 X94.775 Y165.227 E9.64515
G1 X94.767 Y164.893 E9.65626
G1 X94.766 Y164.758 E9.66075
G1 X94.799 Y163.821 E9.69194
G1 X94.859 Y163.25 E9.71103
G1 X94.88 Y163.093 E9.7163
G1 X95.187 Y160.521 E9.80245
G1 X95.421 Y157.963 E9.88789
G1 X95.574 Y155.512 E9.96957
G1 X95.662 Y152.952 E10.05476
G1 X95.68 Y150.719 E10.12904
G1 X95.677 Y150.175 E10.14713
G1 X95.695 Y149.498 E10.16966
G1 X95.723 Y148.998 E10.18631
G1 X95.832 Y146.42 E10.27213
G1 X95.867 Y143.889 E10.35632
G1 X95.83 Y141.374 E10.43998
G1 X95.722 Y138.841 E10.5243
G1 X95.547 Y136.38 E10.60636
G1 X95.292 Y133.828 E10.69167
G1 X95.073 Y132.074 E10.75046
G1 X95.048 Y131.853 E10.75786
G1 X94.98 Y130.828 E10.79202
G1 X94.963 Y129.942 E10.8215
G1 X94.962 Y129.552 E10.83447
G1 X94.969 Y129.123 E10.84874
G1 X95.025 Y128.186 E10.87996
G1 X95.16 Y127.258 E10.91115
G1 X95.373 Y126.345 E10.94233
G1 X95.763 Y125.195 E10.98272
G1 X96.056 Y124.467 E11.00882
G1 X96.949 Y122.146 E11.09153
G1 X97.921 Y119.377 E11.18914
G1 X98.08 Y118.898 E11.20593
G1 X98.478 Y117.873 E11.2425
G1 X98.699 Y117.402 E11.2598
G1 X98.944 Y116.911 E11.27805
G1 X99.085 Y116.638 E11.28827
G1 X99.381 Y116.084 E11.30916
G1 X99.858 Y115.277 E11.34034
G1 X100.402 Y114.513 E11.37154
G1 X101.009 Y113.798 E11.40273
G1 X101.674 Y113.137 E11.43392
G0 F6000 X101.994 Y113.387
G1 F1200 X102.705 Y112.802 E11.46454
G1 X103.463 Y112.28 E11.49515
G1 X104.108 Y111.908 E11.51992
G1 X104.496 Y111.706 E11.53447
G1 X104.961 Y111.475 E11.55174
G1 X105.386 Y111.27 E11.56743
G1 X106.029 Y110.97 E11.59103
G1 X106.88 Y110.617 E11.62167
G1 X107.757 Y110.34 E11.65226
G1 X108.528 Y110.163 E11.67857
G1 X109.197 Y110.056 E11.70111
G1 X109.614 Y110.004 E11.71508
G1 X109.899 Y109.974 E11.72462
G1 X110.581 Y109.911 E11.7474
G1 X111.308 Y109.852 E11.77166
G1 X111.898 Y109.82 E11.79131
G1 X112.651 Y109.801 E11.81636
G1 X113.969 Y109.786 E11.8602
G1 X116.524 Y109.685 E11.94525
G1 X118.983 Y109.52 E12.02722
G1 X119.492 Y109.498 E12.04416
G1 X120.638 Y109.476 E12.08228
G1 X120.84 Y109.474 E12.089
G1 X178.385 Y109.471 E14.00296
G1 X179.522 Y109.486 E14.04078
G1 X179.972 Y109.502 E14.05575
G1 X180.377 Y109.525 E14.06925
G1 X181.038 Y109.583 E14.09132
G1 X182.197 Y109.722 E14.13014
G1 X182.585 Y109.776 E14.14317
G1 X183.175 Y109.869 E14.16304
G1 X184.048 Y110.045 E14.19266
G1 X184.399 Y110.131 E14.20468
G1 X184.693 Y110.207 E14.21478
G1 X185.341 Y110.387 E14.23714
G1 X185.989 Y110.576 E14.2596
G1 X186.87 Y110.876 E14.29055
G1 X187.768 Y111.226 E14.32261
G1 X188.083 Y111.354 E14.33391
G1 X188.708 Y111.621 E14.35652
G1 X189.517 Y112.008 E14.38635
G1 X190.231 Y112.388 E14.41325
G1 X190.579 Y112.58 E14.42647
G1 X191.196 Y112.931 E14.45008
G1 X191.603 Y113.174 E14.46584
G1 X191.684 Y113.225 E14.46903
G1 X192.014 Y113.442 E14.48216
G1 X192.549 Y113.808 E14.50372
G1 X192.914 Y114.065 E14.51857
G1 X193.468 Y114.466 E14.54132
G1 X193.864 Y114.767 E14.55786
G1 X194.141 Y114.988 E14.56965
G1 X194.439 Y115.235 E14.58252
G1 X194.766 Y115.516 E14.59686
G1 X195.081 Y115.797 E14.6109
G1 X195.261 Y115.965 E14.61909
G1 X195.737 Y116.42 E14.64099
G1 X196.074 Y116.752 E14.65673
G1 X196.516 Y117.2 E14.67766
G1 X196.503 Y117.213 E14.67827
G1 X196.95 Y117.664 E14.69939
G1 X197.099 Y117.834 E14.70691
G1 X197.27 Y118.035 E14.71568
G1 X197.796 Y118.669 E14.74308
G1 X198.146 Y119.106 E14.76171
G1 X198.54 Y119.63 E14.78351
G1 X199.163 Y120.515 E14.81951
G1 X199.36 Y120.806 E14.8312
G1 X199.653 Y121.253 E14.84897
G1 X200.135 Y122.064 E14.88035
G1 X200.602 Y122.937 E14.91328
G1 X201.39 Y124.473 E14.9707
G1 X201.701 Y125.097 E14.99389
G1 X201.994 Y125.738 E15.01733
G1 X202.147 Y126.119 E15.03099
G1 X202.409 Y126.81 E15.05556
G1 X202.537 Y127.164 E15.06808
G1 X202.728 Y127.712 E15.08739
G1 X203.079 Y128.959 E15.13047
G1 X203.316 Y130.054 E15.16774
G1 X203.362 Y130.279 E15.17538
G1 X203.912 Y133.123 E15.27172
G1 X204.029 Y133.775 E15.29375
G1 X204.148 Y134.642 E15.32286
G1 X204.17 Y134.873 E15.33058
G1 X204.192 Y135.142 E15.33955
G1 X204.218 Y135.508 E15.35176
G1 X204.365 Y137.947 E15.43303
G1 X204.393 Y138.529 E15.45241
G1 X204.404 Y138.869 E15.46372
G1 X204.419 Y139.81 E15.49502
G1 X204.42 Y160.137 E16.1711
G1 X204.41 Y160.903 E16.19658
G1 X204.401 Y161.214 E16.20693
G1 X204.353 Y162.271 E16.24212
G1 X204.22 Y164.439 E16.31436
G1 X204.174 Y165.047 E16.33464
G1 X204.107 Y165.677 E16.35572
G1 X203.944 Y166.865 E16.3956
G1 X203.734 Y168.214 E16.44101
G1 X203.612 Y168.934 E16.4653
G1 X203.498 Y169.509 E16.48479
G1 X203.407 Y169.896 E16.49802
G1 X203.284 Y170.383 E16.51472
G1 X203.179 Y170.777 E16.52828
G1 X202.968 Y171.526 E16.55417
G1 X202.781 Y172.122 E16.57494
G1 X202.477 Y172.999 E16.60581
G1 X202.363 Y173.313 E16.61692
G1 X202.124 Y173.938 E16.63918
G1 X201.994 Y174.263 E16.65082
G1 X201.869 Y174.552 E16.66129
G1 X201.581 Y175.191 E16.68461
G1 X201.425 Y175.527 E16.69693
G1 X201.144 Y176.111 E16.71848
G1 X200.996 Y176.405 E16.72943
G1 X200.798 Y176.783 E16.74362
G1 X200.647 Y177.059 E16.75409
G1 X200.337 Y177.609 E16.77509
G1 X199.949 Y178.274 E16.80069
G1 X199.646 Y178.761 E16.81977
G1 X199.326 Y179.247 E16.83912
G1 X199.191 Y179.447 E16.84715
G1 X198.765 Y180.063 E16.87206
G1 X198.353 Y180.62 E16.8951
G1 X197.698 Y181.446 E16.93017
G1 X197.476 Y181.717 E16.94182
G1 X197.057 Y182.211 E16.96336
G1 X196.401 Y182.917 E16.99542
G1 X196.167 Y183.144 E17.00626
G1 X195.829 Y183.465 E17.02176
G1 X194.887 Y184.338 E17.06448
G1 X194.357 Y184.815 E17.0882
G1 X193.709 Y185.353 E17.11621
G1 X193.373 Y185.604 E17.13016
G1 X192.897 Y185.946 E17.14965
G1 X192.495 Y186.227 E17.16597
G1 X191.927 Y186.614 E17.18883
G1 X191.396 Y186.953 E17.20978
G1 X191.094 Y187.13 E17.22142
G1 X190.569 Y187.427 E17.24148
G1 X190.137 Y187.663 E17.25786
G1 X189.519 Y187.991 E17.28113
G1 X188.698 Y188.383 E17.31139
G1 X187.88 Y188.729 E17.34093
G1 X187.585 Y188.849 E17.35152
G1 X187.006 Y189.077 E17.37222
G1 X186.102 Y189.386 E17.40399
G1 X185.194 Y189.652 E17.43546
G1 X184.894 Y189.736 E17.44582
G1 X184.209 Y189.915 E17.46937
G1 X182.993 Y190.157 E17.51061
G1 X182.572 Y190.214 E17.52474
G1 X182.152 Y190.263 E17.5388
G1 X180.708 Y190.415 E17.58709
G1 X180.069 Y190.474 E17.60844
G1 X179.479 Y190.512 E17.6281
G1 X179.314 Y190.518 E17.63359
G1 X179.047 Y190.524 E17.64248
G1 X178.569 Y190.529 E17.65838
G1 X120.425 Y190.526 E19.59225
G1 X119.739 Y190.516 E19.61507
G1 X119.446 Y190.508 E19.62482
G1 X118.087 Y190.45 E19.67006
G1 X115.501 Y190.377 E19.75611
G1 X114.27 Y190.378 E19.79705
G1 X112.861 Y190.363 E19.84392
G1 X112.551 Y190.356 E19.85423
G1 X111.574 Y190.317 E19.88675
G1 X110.651 Y190.267 E19.9175
G1 X110.224 Y190.236 E19.93174
G1 X109.876 Y190.203 E19.94336
G1 X109.474 Y190.158 E19.95682
G1 X109.246 Y190.13 E19.96446
G1 X108.574 Y190.04 E19.98701
G1 X107.668 Y189.878 E20.01762
G1 X106.779 Y189.639 E20.04824
G1 X105.914 Y189.323 E20.07887
G1 X105.08 Y188.933 E20.10949
G1 X104.283 Y188.472 E20.14011
G1 X103.585 Y187.987 E20.16838
G1 X102.726 Y187.337 E20.20421
G1 X102.433 Y187.107 E20.2166
G1 X101.87 Y186.649 E20.24074
G1 X101.181 Y186.037 E20.27139
G1 X100.549 Y185.368 E20.302
G1 X99.977 Y184.647 E20.33261
G1 X99.469 Y183.879 E20.36323
G1 X99.03 Y183.07 E20.39385
G1 X98.57 Y181.972 E20.43344
G1 X98.477 Y181.71 E20.44269
G1 X98.351 Y181.332 E20.45594
G1 X98.211 Y180.885 E20.47152
G1 X98.113 Y180.555 E20.48297
G1 X97.895 Y179.771 E20.51004
G1 X97.166 Y177.3 E20.59573
G1 X96.763 Y176.064 E20.63896
G1 X96.435 Y175.003 E20.6759
G1 X96.201 Y174.112 E20.70654
G1 X96.051 Y173.241 E20.73594
G1 X95.962 Y172.55 E20.75911
G1 X95.782 Y171.009 E20.81071
G1 X95.573 Y169.572 E20.85901
G1 X95.56 Y169.449 E20.86312
G1 X95.379 Y168.209 E20.9048
G1 X95.286 Y167.309 E20.9349
G1 X95.206 Y165.977 E20.97928
G1 X95.195 Y165.742 E20.9871
G1 X95.175 Y165.212 E21.00474
G1 X95.167 Y164.891 E21.01542
G1 X95.166 Y164.756 E21.01991
G1 X95.199 Y163.835 E21.05057
G1 X95.256 Y163.302 E21.0684
G1 X95.588 Y160.537 E21.16102
G1 X95.819 Y158.003 E21.24565
G1 X95.975 Y155.515 E21.32856
G1 X96.062 Y152.969 E21.41329
G1 X96.08 Y150.72 E21.4881
G1 X96.077 Y150.173 E21.50629
G1 X96.094 Y149.521 E21.52799
G1 X96.121 Y149.038 E21.54407
G1 X96.232 Y146.407 E21.63166
G1 X96.267 Y143.889 E21.71542
G1 X96.23 Y141.351 E21.79984
G1 X96.122 Y138.829 E21.8838
G1 X95.946 Y136.348 E21.96653
G1 X95.689 Y133.775 E22.05253
G1 X95.47 Y132.029 E22.11106
G1 X95.445 Y131.808 E22.11845
G1 X95.38 Y130.82 E22.15139
G1 X95.363 Y129.934 E22.18086
G1 X95.362 Y129.558 E22.19337
G1 X95.369 Y129.129 E22.20764
G1 X95.424 Y128.21 E22.23826
G1 X95.559 Y127.299 E22.26889
G1 X95.772 Y126.404 E22.29949
G1 X96.135 Y125.344 E22.33675
G1 X96.416 Y124.645 E22.36181
G1 X97.32 Y122.296 E22.44552
G1 X98.316 Y119.457 E22.54559
G1 X98.46 Y119.024 E22.56077
G1 X98.843 Y118.036 E22.59601
G1 X99.057 Y117.58 E22.61277
G1 X99.302 Y117.089 E22.63102
G1 X99.438 Y116.827 E22.64084
G1 X99.734 Y116.273 E22.66173
