;FLAVOR:Marlin
;TIME:17823
;Filament used: 12.971m
;Layer height: 0.2
;MINX:94.231
;MINY:109.071
;MINZ:0.2
;MAXX:204.82
;MAXY:190.929
;MAXZ:18.4
;Generated with Cura_SteamEngine master
M140 S55
M105
M190 S55
M104 S210
M105
M109 S210
M82 ;absolute extrusion mode
M201 X500.00 Y500.00 Z100.00 E5000.00 ;Setup machine max acceleration
M203 X500.00 Y500.00 Z10.00 E50.00 ;Setup machine max feedrate
M204 P500.00 R1000.00 T500.00 ;Setup Print/Retract/Travel acceleration
M205 X8.00 Y8.00 Z0.40 E5.00 ;Setup Jerk
M220 S100 ;Reset Feedrate
M221 S100 ;Reset Flowrate

G28 ;Home

G92 E0 ;Reset Extruder
G1 Z2.0 F3000 ;Move Z Axis up
G1 X10.1 Y20 Z0.28 F5000.0 ;Move to start position
G1 X10.1 Y200.0 Z0.28 F1500.0 E15 ;Draw the first line
G1 X10.4 Y200.0 Z0.28 F5000.0 ;Move to side a little
G1 X10.4 Y20 Z0.28 F1500.0 E30 ;Draw the second line
G92 E0 ;Reset Extruder
G1 Z2.0 F3000 ;Move Z Axis up

G92 E0
G92 E0
G1 F2700 E-5
;LAYER_COUNT:92
;LAYER:0
M107
G0 F6000 X105.597 Y115.764 Z0.2
;TYPE:SKIRT
G1 F2700 E0
G1 F1200 X106.343 Y115.166 E0.0318
G1 X106.552 Y115.013 E0.04041
G1 X106.831 Y114.816 E0.05177
G1 X109.307 Y113.12 E0.15159
G1 X109.875 Y112.741 E0.1743
G1 X110.676 Y112.254 E0.20548
G1 X111.261 Y111.955 E0.22734
G1 X112.001 Y111.604 E0.25458
G1 X114.778 Y110.313 E0.35643
G1 X115.351 Y110.056 E0.37732
G1 X116.223 Y109.709 E0.40853
G1 X117.12 Y109.438 E0.4397
G1 X118.038 Y109.244 E0.47091
G1 X118.969 Y109.129 E0.50211
G1 X119.642 Y109.095 E0.52452
G1 X120.63 Y109.076 E0.55739
G1 X120.84 Y109.074 E0.56437
G1 X178.385 Y109.071 E2.47833
G1 X179.527 Y109.086 E2.51631
G1 X179.995 Y109.103 E2.53189
G1 X180.4 Y109.126 E2.54538
G1 X181.086 Y109.186 E2.56829
G1 X182.245 Y109.325 E2.60711
G1 X182.648 Y109.381 E2.62064
G1 X183.238 Y109.474 E2.64051
G1 X184.143 Y109.656 E2.67121
G1 X184.494 Y109.742 E2.68323
G1 X184.799 Y109.822 E2.69372
G1 X185.453 Y110.003 E2.71629
G1 X186.101 Y110.192 E2.73874
G1 X187.014 Y110.502 E2.77081
G1 X187.92 Y110.855 E2.80315
G1 X188.254 Y110.992 E2.81516
G1 X188.871 Y111.256 E2.83748
G1 X189.697 Y111.651 E2.86793
G1 X190.43 Y112.04 E2.89553
G1 X190.777 Y112.232 E2.90872
G1 X191.394 Y112.583 E2.93233
G1 X191.816 Y112.835 E2.94868
G1 X191.897 Y112.886 E2.95186
G1 X192.25 Y113.118 E2.96591
G1 X192.785 Y113.486 E2.98751
G1 X193.149 Y113.741 E3.00229
G1 X193.703 Y114.142 E3.02504
G1 X194.113 Y114.454 E3.04217
G1 X194.39 Y114.675 E3.05396
G1 X194.699 Y114.931 E3.0673
G1 X195.026 Y115.212 E3.08164
G1 X195.35 Y115.501 E3.09608
G1 X195.537 Y115.675 E3.10458
G1 X196.017 Y116.134 E3.12667
G1 X196.358 Y116.471 E3.14262
G1 X196.8 Y116.919 E3.16355
G1 X196.786 Y116.932 E3.16418
G1 X197.25 Y117.401 E3.18613
G1 X197.399 Y117.571 E3.19364
G1 X197.577 Y117.779 E3.20275
G1 X198.108 Y118.419 E3.23041
G1 X198.458 Y118.856 E3.24903
G1 X198.867 Y119.4 E3.27167
G1 X199.49 Y120.285 E3.30767
G1 X199.695 Y120.587 E3.31981
G1 X199.988 Y121.034 E3.33758
G1 X200.487 Y121.875 E3.37011
G1 X200.954 Y122.748 E3.40304
G1 X201.046 Y122.924 E3.40964
G1 X201.808 Y124.414 E3.4653
G1 X202.059 Y124.919 E3.48406
G1 X202.363 Y125.584 E3.50838
G1 X202.521 Y125.976 E3.52244
G1 X202.726 Y126.513 E3.54156
G1 X202.914 Y127.028 E3.55979
G1 X203.107 Y127.582 E3.5793
G1 X203.47 Y128.874 E3.62394
G1 X203.707 Y129.969 E3.6612
G1 X203.755 Y130.203 E3.66915
G1 X204.306 Y133.052 E3.76566
G1 X204.423 Y133.704 E3.78769
G1 X204.546 Y134.604 E3.8179
G1 X204.568 Y134.835 E3.82562
G1 X204.591 Y135.114 E3.83493
G1 X204.617 Y135.484 E3.84727
G1 X204.764 Y137.927 E3.92867
G1 X204.792 Y138.509 E3.94805
G1 X204.804 Y138.863 E3.95983
G1 X204.819 Y139.804 E3.99113
G1 X204.82 Y160.137 E4.66741
G1 X204.81 Y160.909 E4.69309
G1 X204.8 Y161.231 E4.70381
G1 X204.752 Y162.295 E4.73923
G1 X204.619 Y164.469 E4.81167
G1 X204.573 Y165.077 E4.83195
G1 X204.503 Y165.731 E4.85383
G1 X204.34 Y166.919 E4.89371
G1 X204.139 Y168.218 E4.93743
G1 X204.007 Y168.998 E4.96374
G1 X203.894 Y169.574 E4.98327
G1 X203.863 Y169.712 E4.98797
G1 X203.794 Y169.997 E4.99772
G1 X203.67 Y170.486 E5.0145
G1 X203.523 Y171.032 E5.03331
G1 X203.353 Y171.635 E5.05415
G1 X203.159 Y172.253 E5.07569
G1 X202.855 Y173.13 E5.10656
G1 X202.736 Y173.456 E5.11811
G1 X202.497 Y174.081 E5.14036
G1 X202.363 Y174.416 E5.15236
G1 X202.234 Y174.715 E5.16319
G1 X201.945 Y175.359 E5.18667
G1 X201.785 Y175.7 E5.1992
G1 X201.504 Y176.284 E5.22075
G1 X201.351 Y176.59 E5.23213
G1 X201.159 Y176.956 E5.24588
G1 X200.969 Y177.304 E5.25907
G1 X200.69 Y177.799 E5.27797
G1 X200.345 Y178.392 E5.30078
G1 X200.143 Y178.725 E5.31374
G1 X199.986 Y178.972 E5.32347
G1 X199.595 Y179.565 E5.3471
G1 X199.406 Y179.844 E5.35831
G1 X199.073 Y180.322 E5.37768
G1 X198.666 Y180.869 E5.40036
G1 X198.011 Y181.695 E5.43542
G1 X197.781 Y181.975 E5.44747
G1 X197.362 Y182.469 E5.46902
G1 X196.681 Y183.202 E5.50229
G1 X196.443 Y183.433 E5.51333
G1 X196.101 Y183.758 E5.52902
G1 X195.155 Y184.635 E5.57192
G1 X194.625 Y185.112 E5.59564
G1 X193.952 Y185.671 E5.62474
G1 X193.609 Y185.927 E5.63897
G1 X193.093 Y186.297 E5.66009
G1 X192.733 Y186.549 E5.67471
G1 X192.155 Y186.943 E5.69797
G1 X191.602 Y187.297 E5.71981
G1 X191.291 Y187.478 E5.73178
G1 X190.762 Y187.777 E5.75199
G1 X190.325 Y188.016 E5.76856
G1 X189.707 Y188.344 E5.79183
G1 X188.851 Y188.752 E5.82337
G1 X188.039 Y189.096 E5.8527
G1 X187.731 Y189.221 E5.86375
G1 X187.152 Y189.449 E5.88445
G1 X186.214 Y189.77 E5.91742
G1 X185.306 Y190.036 E5.94889
G1 X184.995 Y190.123 E5.95963
G1 X184.31 Y190.302 E5.98318
G1 X183.048 Y190.554 E6.02599
G1 X182.62 Y190.611 E6.04035
G1 X182.194 Y190.661 E6.05461
G1 X180.746 Y190.813 E6.10304
G1 X180.108 Y190.872 E6.12435
G1 X179.492 Y190.912 E6.14488
G1 X179.326 Y190.918 E6.1504
G1 X179.051 Y190.924 E6.15955
G1 X178.569 Y190.929 E6.17559
G1 X120.418 Y190.926 E8.1097
G1 X119.738 Y190.916 E8.13231
G1 X118.802 Y190.862 E8.1635
G1 X117.874 Y190.729 E8.19468
G1 X116.96 Y190.517 E8.22589
G1 X116.068 Y190.228 E8.25707
G1 X115.468 Y189.985 E8.2786
G1 X114.539 Y189.576 E8.31236
G1 X114.331 Y189.481 E8.31997
G1 X111.843 Y188.323 E8.41124
G1 X111.24 Y188.033 E8.4335
G1 X110.4 Y187.583 E8.46519
G1 X110.292 Y187.519 E8.46937
G1 X109.789 Y187.202 E8.48914
G1 X109.247 Y186.839 E8.51084
G1 X107.078 Y185.351 E8.59833
G1 X106.483 Y184.931 E8.62255
G1 X105.741 Y184.358 E8.65373
G1 X105.05 Y183.723 E8.68494
G1 X104.603 Y183.249 E8.70661
G1 X104.274 Y182.875 E8.72318
G1 X102.994 Y181.351 E8.78938
G1 X102.424 Y180.654 E8.81932
G1 X101.863 Y179.903 E8.8505
G1 X101.368 Y179.106 E8.88171
G1 X101.079 Y178.557 E8.90234
G1 X100.901 Y178.188 E8.91597
G1 X100.658 Y177.659 E8.93533
G1 X99.613 Y175.324 E9.02042
G1 X99.367 Y174.755 E9.04103
G1 X99.014 Y173.824 E9.07415
G1 X98.691 Y172.841 E9.10856
G1 X98.626 Y172.637 E9.11569
G1 X97.735 Y169.735 E9.21665
G1 X97.674 Y169.525 E9.22393
G1 X96.911 Y167.045 E9.31023
G1 X96.117 Y164.698 E9.39264
G1 X95.095 Y161.954 E9.49003
G1 X95.045 Y161.824 E9.49466
G1 X94.744 Y160.936 E9.52584
G1 X94.52 Y160.025 E9.55705
G1 X94.41 Y159.386 E9.57861
G1 X94.351 Y158.967 E9.59269
G1 X94.26 Y158.033 E9.6239
G1 X94.268 Y156.701 E9.6682
G1 X94.351 Y155.451 E9.70987
G1 X94.486 Y152.89 E9.79517
G1 X94.547 Y150.36 E9.87934
G1 X94.537 Y147.834 E9.96335
G1 X94.456 Y145.334 E10.04655
G1 X94.288 Y142.603 E10.13755
G1 X94.26 Y142.218 E10.15039
G1 X94.231 Y141.281 E10.18157
G1 X94.282 Y140.344 E10.21278
G1 X94.412 Y139.415 E10.24398
G1 X94.622 Y138.501 E10.27517
G1 X95.059 Y137.221 E10.32016
G1 X96.048 Y134.819 E10.40656
G1 X96.938 Y132.472 E10.49004
G1 X97.768 Y130.081 E10.57422
G1 X98.373 Y128.186 E10.64039
G1 X98.745 Y126.978 E10.68243
G1 X98.933 Y126.395 E10.7028
G1 X99.282 Y125.459 E10.73602
G1 X99.677 Y124.532 E10.76954
G1 X100.623 Y122.415 E10.84666
G1 X100.969 Y121.667 E10.87407
G1 X101.4 Y120.834 E10.90527
G1 X101.901 Y120.041 E10.93646
G1 X102.192 Y119.64 E10.95294
G1 X102.278 Y119.527 E10.95767
G1 X102.526 Y119.213 E10.97098
G1 X102.899 Y118.759 E10.99052
G1 X104.019 Y117.424 E11.04848
G1 X104.497 Y116.87 E11.07281
G1 X105.139 Y116.187 E11.10399
G1 X105.597 Y115.764 E11.12473
G0 F6000 X105.861 Y116.065
G1 F1200 X106.58 Y115.489 E11.15537
G1 X106.789 Y115.336 E11.16398
G1 X107.057 Y115.146 E11.17491
G1 X109.529 Y113.453 E11.27456
G1 X110.097 Y113.074 E11.29727
G1 X110.884 Y112.596 E11.3279
G1 X111.432 Y112.316 E11.34837
G1 X112.17 Y111.966 E11.37553
G1 X114.942 Y110.678 E11.4772
G1 X115.515 Y110.421 E11.49808
G1 X116.371 Y110.081 E11.52872
G1 X117.253 Y109.817 E11.55934
G1 X118.154 Y109.63 E11.58995
G1 X119.068 Y109.522 E11.62056
G1 X119.649 Y109.495 E11.6399
G1 X120.637 Y109.476 E11.67277
G1 X120.84 Y109.474 E11.67952
G1 X178.385 Y109.471 E13.59348
G1 X179.522 Y109.486 E13.6313
G1 X179.972 Y109.502 E13.64627
G1 X180.377 Y109.525 E13.65977
G1 X181.038 Y109.583 E13.68183
G1 X182.197 Y109.722 E13.72066
G1 X182.585 Y109.776 E13.73369
G1 X183.175 Y109.869 E13.75355
G1 X184.048 Y110.045 E13.78317
G1 X184.399 Y110.131 E13.79519
G1 X184.693 Y110.207 E13.80529
G1 X185.341 Y110.387 E13.82766
G1 X185.989 Y110.576 E13.85011
G1 X186.869 Y110.875 E13.88103
G1 X187.775 Y111.228 E13.91337
G1 X188.097 Y111.36 E13.92494
G1 X188.714 Y111.624 E13.94726
G1 X189.51 Y112.004 E13.9766
G1 X190.238 Y112.391 E14.00402
G1 X190.579 Y112.58 E14.01699
G1 X191.196 Y112.931 E14.0406
G1 X191.603 Y113.174 E14.05636
G1 X191.684 Y113.225 E14.05955
G1 X192.024 Y113.448 E14.07307
G1 X192.556 Y113.813 E14.09453
G1 X192.914 Y114.065 E14.10909
G1 X193.468 Y114.466 E14.13184
G1 X193.864 Y114.767 E14.14838
G1 X194.141 Y114.988 E14.16017
G1 X194.439 Y115.235 E14.17304
G1 X194.766 Y115.516 E14.18738
G1 X195.081 Y115.797 E14.20142
G1 X195.261 Y115.965 E14.20961
G1 X195.737 Y116.42 E14.23151
G1 X196.074 Y116.752 E14.24725
G1 X196.516 Y117.2 E14.26818
G1 X196.503 Y117.213 E14.26879
G1 X196.95 Y117.664 E14.28991
G1 X197.099 Y117.834 E14.29743
G1 X197.27 Y118.035 E14.30621
G1 X197.796 Y118.669 E14.3336
G1 X198.146 Y119.106 E14.35223
G1 X198.54 Y119.63 E14.37403
G1 X199.163 Y120.515 E14.41003
G1 X199.36 Y120.806 E14.42172
G1 X199.653 Y121.253 E14.43949
G1 X200.135 Y122.064 E14.47087
G1 X200.602 Y122.937 E14.5038
G1 X201.393 Y124.479 E14.56144
G1 X201.701 Y125.097 E14.58441
G1 X201.994 Y125.738 E14.60785
G1 X202.147 Y126.119 E14.62151
G1 X202.407 Y126.802 E14.64581
G1 X202.536 Y127.16 E14.65847
G1 X202.729 Y127.714 E14.67798
G1 X203.079 Y128.959 E14.721
G1 X203.316 Y130.054 E14.75826
G1 X203.362 Y130.279 E14.7659
G1 X203.912 Y133.123 E14.86224
G1 X204.029 Y133.775 E14.88427
G1 X204.148 Y134.642 E14.91338
G1 X204.17 Y134.873 E14.9211
G1 X204.192 Y135.142 E14.93008
G1 X204.218 Y135.508 E14.94228
G1 X204.365 Y137.947 E15.02355
G1 X204.393 Y138.529 E15.04293
G1 X204.404 Y138.869 E15.05424
G1 X204.419 Y139.81 E15.08554
G1 X204.42 Y160.137 E15.76162
G1 X204.41 Y160.903 E15.7871
G1 X204.401 Y161.214 E15.79745
G1 X204.353 Y162.271 E15.83264
G1 X204.22 Y164.439 E15.90489
G1 X204.174 Y165.047 E15.92517
G1 X204.107 Y165.677 E15.94624
G1 X203.945 Y166.858 E15.98589
G1 X203.77 Y167.995 E16.02415
G1 X203.612 Y168.932 E16.05575
G1 X203.503 Y169.486 E16.07453
G1 X203.407 Y169.899 E16.08863
G1 X203.284 Y170.383 E16.10524
G1 X203.179 Y170.777 E16.11881
G1 X202.968 Y171.526 E16.14469
G1 X202.781 Y172.122 E16.16546
G1 X202.477 Y172.999 E16.19634
G1 X202.363 Y173.313 E16.20745
G1 X202.124 Y173.938 E16.2297
G1 X201.994 Y174.263 E16.24134
G1 X201.869 Y174.552 E16.25182
G1 X201.581 Y175.191 E16.27513
G1 X201.425 Y175.527 E16.28745
G1 X201.144 Y176.111 E16.30901
G1 X200.996 Y176.405 E16.31995
G1 X200.808 Y176.765 E16.33346
G1 X200.62 Y177.108 E16.34647
G1 X200.344 Y177.597 E16.36515
G1 X199.999 Y178.19 E16.38796
G1 X199.803 Y178.515 E16.40059
G1 X199.652 Y178.752 E16.40993
G1 X199.263 Y179.342 E16.43344
G1 X199.078 Y179.615 E16.44441
G1 X198.745 Y180.093 E16.46378
G1 X198.353 Y180.62 E16.48563
G1 X197.698 Y181.446 E16.52069
G1 X197.476 Y181.717 E16.53234
G1 X197.057 Y182.211 E16.55389
G1 X196.401 Y182.917 E16.58594
G1 X196.167 Y183.144 E16.59678
G1 X195.829 Y183.465 E16.61229
G1 X194.887 Y184.338 E16.65501
G1 X194.357 Y184.815 E16.67872
G1 X193.709 Y185.353 E16.70673
G1 X193.376 Y185.602 E16.72056
G1 X192.863 Y185.97 E16.74156
G1 X192.507 Y186.219 E16.75601
G1 X191.929 Y186.613 E16.77928
G1 X191.396 Y186.953 E16.8003
G1 X191.094 Y187.13 E16.81195
G1 X190.569 Y187.427 E16.83201
G1 X190.137 Y187.663 E16.84838
G1 X189.519 Y187.991 E16.87165
G1 X188.694 Y188.384 E16.90205
G1 X187.888 Y188.726 E16.93117
G1 X187.585 Y188.849 E16.94204
G1 X187.006 Y189.077 E16.96274
G1 X186.102 Y189.386 E16.99452
G1 X185.194 Y189.652 E17.02599
G1 X184.894 Y189.736 E17.03635
G1 X184.209 Y189.915 E17.0599
G1 X182.993 Y190.157 E17.10113
G1 X182.572 Y190.214 E17.11526
G1 X182.152 Y190.263 E17.12933
G1 X180.709 Y190.415 E17.17759
G1 X180.071 Y190.474 E17.1989
G1 X179.478 Y190.512 E17.21866
G1 X179.047 Y190.524 E17.233
G1 X178.569 Y190.529 E17.2489
G1 X120.424 Y190.526 E19.18281
G1 X119.744 Y190.516 E19.20543
G1 X118.825 Y190.462 E19.23605
G1 X117.914 Y190.329 E19.26667
G1 X117.018 Y190.118 E19.29729
G1 X116.144 Y189.829 E19.3279
G1 X115.629 Y189.618 E19.34642
G1 X114.7 Y189.209 E19.38018
G1 X114.5 Y189.119 E19.38747
G1 X112.017 Y187.963 E19.47857
G1 X111.414 Y187.673 E19.50082
G1 X110.604 Y187.239 E19.53139
G1 X110.496 Y187.175 E19.53556
G1 X110.011 Y186.869 E19.55464
G1 X109.473 Y186.509 E19.57617
G1 X107.309 Y185.024 E19.66346
G1 X106.714 Y184.604 E19.68768
G1 X105.986 Y184.041 E19.71829
G1 X105.309 Y183.417 E19.74891
G1 X104.902 Y182.984 E19.76868
G1 X104.727 Y182.787 E19.77744
G1 X104.376 Y182.377 E19.79539
G1 X103.206 Y180.981 E19.85598
G1 X102.734 Y180.402 E19.88082
G1 X102.184 Y179.663 E19.91146
G1 X101.7 Y178.88 E19.94208
G1 X101.438 Y178.381 E19.96082
G1 X101.264 Y178.02 E19.97415
G1 X101.023 Y177.495 E19.99337
G1 X99.98 Y175.165 E20.07827
G1 X99.734 Y174.596 E20.09889
G1 X99.394 Y173.699 E20.13079
G1 X99.008 Y172.52 E20.17206
G1 X98.119 Y169.622 E20.27288
G1 X98.053 Y169.397 E20.28068
G1 X97.297 Y166.937 E20.36627
G1 X96.491 Y164.557 E20.44985
G1 X95.481 Y161.844 E20.54613
G1 X95.418 Y161.68 E20.55198
G1 X95.123 Y160.808 E20.58259
G1 X94.905 Y159.913 E20.61323
G1 X94.807 Y159.33 E20.6329
G1 X94.748 Y158.911 E20.64697
G1 X94.659 Y157.995 E20.67758
G1 X94.668 Y156.727 E20.71975
G1 X94.75 Y155.499 E20.76069
G1 X94.885 Y152.92 E20.84658
G1 X94.947 Y150.368 E20.93149
G1 X94.937 Y147.855 E21.01507
G1 X94.854 Y145.298 E21.10016
G1 X94.686 Y142.549 E21.19176
G1 X94.659 Y142.189 E21.20377
G1 X94.631 Y141.268 E21.23442
G1 X94.683 Y140.349 E21.26503
G1 X94.815 Y139.438 E21.29565
G1 X95.025 Y138.542 E21.32626
G1 X95.429 Y137.373 E21.3674
G1 X96.421 Y134.964 E21.45405
G1 X97.314 Y132.609 E21.53782
G1 X98.147 Y130.208 E21.62234
G1 X98.74 Y128.351 E21.68718
G1 X99.126 Y127.101 E21.73069
G1 X99.314 Y126.518 E21.75107
G1 X99.65 Y125.616 E21.78308
G1 X100.045 Y124.689 E21.8166
G1 X100.988 Y122.579 E21.89347
G1 X101.332 Y121.836 E21.9207
G1 X101.756 Y121.019 E21.95131
G1 X102.51 Y119.882 E21.99669
G1 X102.596 Y119.769 E22.00141
G1 X102.835 Y119.467 E22.01422
G1 X103.205 Y119.016 E22.03362
G1 X104.321 Y117.685 E22.0914
G1 X104.799 Y117.131 E22.11573
G1 X105.431 Y116.461 E22.14637
G1 X105.861 Y116.065 E22.16581
G0 F6000 X106.124 Y116.366
G1 F1200 X106.816 Y115.812 E22.19529
G1 X107.025 Y115.659 E22.20391
G1 X107.283 Y115.476 E22.21443
G1 X109.751 Y113.785 E22.31393
G1 X110.319 Y113.406 E22.33664
G1 X111.091 Y112.939 E22.36665
G1 X111.604 Y112.677 E22.38581
G1 X112.338 Y112.329 E22.41283
G1 X115.106 Y111.043 E22.51435
G1 X115.679 Y110.786 E22.53523
G1 X116.518 Y110.453 E22.56526
G1 X117.384 Y110.196 E22.5953
G1 X118.269 Y110.017 E22.62533
G1 X119.167 Y109.916 E22.65539
G1 X119.657 Y109.895 E22.6717
G1 X120.645 Y109.876 E22.70457
G1 X120.84 Y109.874 E22.71105
G1 X178.385 Y109.871 E24.62501
G1 X179.516 Y109.886 E24.66263
G1 X179.949 Y109.901 E24.67704
G1 X180.354 Y109.924 E24.69053
G1 X180.991 Y109.981 E24.7118
G1 X182.15 Y110.12 E24.75063
G1 X182.523 Y110.171 E24.76315
G1 X183.113 Y110.264 E24.78301
G1 X183.952 Y110.433 E24.81148
G1 X184.303 Y110.519 E24.8235
G1 X184.587 Y110.593 E24.83326
G1 X185.229 Y110.771 E24.85542
G1 X185.877 Y110.96 E24.87787
G1 X186.724 Y111.248 E24.90762
