;FLAVOR:Marlin
;TIME:1483
;Filament used: 0.673261m
;Layer height: 0.2
;MINX:1.2
;MINY:1.2
;MINZ:0.2
;MAXX:306.8
;MAXY:280.8
;MAXZ:0.2
;Generated with Cura_SteamEngine master
M140 S62
M105
M190 S62
M104 S200
M105
M109 S200
M82 ;absolute extrusion mode
M201 X500.00 Y500.00 Z100.00 E5000.00 ;Setup machine max acceleration
M203 X500.00 Y500.00 Z10.00 E50.00 ;Setup machine max feedrate
M204 P500.00 R1000.00 T500.00 ;Setup Print/Retract/Travel acceleration
M205 X8.00 Y8.00 Z0.40 E5.00 ;Setup Jerk
M220 S100 ;Reset Feedrate
M221 S100 ;Reset Flowrate

G28 ;Home

G92 E0 ;Reset Extruder
G1 Z2.0 F3000 ;Move Z Axis up
G1 X10.1 Y20 Z0.28 F5000.0 ;Move to start position
G1 X10.1 Y200.0 Z0.28 F1500.0 E15 ;Draw the first line
G1 X10.4 Y200.0 Z0.28 F5000.0 ;Move to side a little
G1 X10.4 Y20 Z0.28 F1500.0 E30 ;Draw the second line
G92 E0 ;Reset Extruder
G1 Z2.0 F3000 ;Move Z Axis up

G92 E0
G92 E0
G1 F2700 E-5
;LAYER_COUNT:1
;LAYER:0
M107
;MESH:dimension_test.stl
G0 F6000 X30.4 Y30.4 Z0.2
;TYPE:WALL-INNER
G1 F2700 E0
G1 F900 X1.6 Y30.4 E0.95789
G1 X1.6 Y1.6 E1.91578
G1 X30.4 Y1.6 E2.87368
G1 X30.4 Y30.4 E3.83157
G1 F2700 E-1.16843
G0 F6000 X1.672 Y30.672
G0 X1.672 Y113.328
G0 X30.4 Y113.6
G1 F2700 E3.83157
G1 F900 X30.4 Y142.4 E4.78946
G1 X1.6 Y142.4 E5.74735
G1 X1.6 Y113.6 E6.70524
G1 X30.4 Y113.6 E7.66314
G1 F2700 E2.66314
G0 F6000 X1.672 Y113.328
G0 X1.672 Y30.672
G0 X30.672 Y30.672
G0 X30.672 Y1.672
G0 X139.328 Y1.672
G0 X139.6 Y30.4
G1 F2700 E7.66314
G1 F900 X139.6 Y1.6 E8.62103
G1 X168.4 Y1.6 E9.57892
G1 X168.4 Y30.4 E10.53681
G1 X139.6 Y30.4 E11.4947
G1 F2700 E6.4947
G0 F6000 X168.66 Y30.4
G0 X168.672 Y1.672
G0 X277.328 Y1.672
G0 X277.6 Y30.4
G1 F2700 E11.4947
G1 F900 X277.6 Y1.6 E12.45259
G1 X306.4 Y1.6 E13.41049
G1 X306.4 Y30.4 E14.36838
G1 X277.6 Y30.4 E15.32627
G1 F2700 E10.32627
G0 F6000 X306.328 Y30.672
G0 X306.328 Y113.328
G0 X277.6 Y113.6
G1 F2700 E15.32627
G1 F900 X306.4 Y113.6 E16.28416
G1 X306.4 Y142.4 E17.24205
G1 X277.6 Y142.4 E18.19995
G1 X277.6 Y113.6 E19.15784
G1 F2700 E14.15784
G0 F6000 X277.6 Y142.66
G0 X306.328 Y142.672
G0 X306.328 Y251.328
G0 X277.6 Y251.6
G1 F2700 E19.15784
G1 F900 X306.4 Y251.6 E20.11573
G1 X306.4 Y280.4 E21.07362
G1 X277.6 Y280.4 E22.03151
G1 X277.6 Y251.6 E22.98941
G1 F2700 E17.98941
G0 F6000 X277.328 Y280.328
G0 X168.672 Y280.328
G0 X168.66 Y251.6
G0 X139.6 Y251.6
G1 F2700 E22.98941
G1 F900 X168.4 Y251.6 E23.9473
G1 X168.4 Y280.4 E24.90519
G1 X139.6 Y280.4 E25.86308
G1 X139.6 Y251.6 E26.82097
G1 F2700 E21.82097
G0 F6000 X139.328 Y280.328
G0 X30.672 Y280.328
G0 X30.4 Y251.6
G1 F2700 E26.82097
G1 F900 X30.4 Y280.4 E27.77886
G1 X1.6 Y280.4 E28.73676
G1 X1.6 Y251.6 E29.69465
G1 X30.4 Y251.6 E30.65254
G1 F2700 E25.65254
G0 F6000 X30.672 Y280.328
G0 X139.328 Y280.328
G0 X139.4 Y280.2
G0 X139.2 Y280.2
;TYPE:WALL-OUTER
G1 F2700 E30.65254
G1 F900 X139.2 Y251.2 E31.61708
G1 X168.8 Y251.2 E32.60158
G1 X168.8 Y280.2 E33.56613
G1 X277.2 Y280.2 E37.17153
G1 X277.2 Y251.2 E38.13607
G1 X306.2 Y251.2 E39.10061
G1 X306.2 Y142.8 E42.70601
G1 X277.2 Y142.8 E43.67056
G1 X277.2 Y113.2 E44.65506
G1 X306.2 Y113.2 E45.6196
G1 X306.2 Y30.8 E48.36024
G1 X277.2 Y30.8 E49.32478
G1 X277.2 Y1.8 E50.28932
G1 X168.8 Y1.8 E53.89472
G1 X168.8 Y30.8 E54.85927
G1 X139.2 Y30.8 E55.84377
G1 X139.2 Y1.8 E56.80831
G1 X30.8 Y1.8 E60.41371
G1 X30.8 Y30.8 E61.37825
G1 X1.8 Y30.8 E62.3428
G1 X1.8 Y113.2 E65.08343
G1 X30.8 Y113.2 E66.04798
G1 X30.8 Y142.8 E67.03248
G1 X1.8 Y142.8 E67.99702
G1 X1.8 Y251.2 E71.60242
G1 X30.8 Y251.2 E72.56696
G1 X30.8 Y280.2 E73.53151
G1 X139.2 Y280.2 E77.13691
G1 F2700 E72.13691
G0 F6000 X139.4 Y280.2
G0 X155.996 Y280.272
G0 X306.63 Y280.63
G0 X306.8 Y280.8
G1 F2700 E77.13691
G1 F900 X1.2 Y280.8 E87.3012
G1 X1.2 Y1.2 E96.60074
G1 X306.8 Y1.2 E106.76503
G1 X306.8 Y280.8 E116.06457
G0 F6000 X306.63 Y280.63
G0 X306.29 Y280.01
G0 X306.01 Y280.01
;TYPE:SKIN
G1 F900 X277.99 Y280.01 E116.99652
G1 X277.99 Y251.99 E117.92847
G1 X306.01 Y251.99 E118.86041
G1 X306.01 Y280.01 E119.79236
G0 F6000 X306.29 Y280.01
G0 X306.29 Y252.674
G0 X305.849 Y252.674
G1 F900 X305.324 Y252.15 E119.81703
G0 F6000 X304.758 Y252.15
G1 F900 X305.849 Y253.24 E119.86833
G0 F6000 X305.849 Y253.806
G1 F900 X304.193 Y252.15 E119.94622
G0 F6000 X303.627 Y252.15
G1 F900 X305.849 Y254.371 E120.05071
G0 F6000 X305.849 Y254.937
G1 F900 X303.061 Y252.15 E120.18183
G0 F6000 X302.496 Y252.15
G1 F900 X305.849 Y255.503 E120.33954
G0 F6000 X305.849 Y256.068
G1 F900 X301.93 Y252.15 E120.52386
G0 F6000 X301.364 Y252.15
G1 F900 X305.849 Y256.634 E120.7348
G0 F6000 X305.849 Y257.2
G1 F900 X300.798 Y252.15 E120.97236
G0 F6000 X300.233 Y252.15
G1 F900 X305.849 Y257.765 E121.23649
G0 F6000 X305.849 Y258.331
G1 F900 X299.667 Y252.15 E121.52725
G0 F6000 X299.101 Y252.15
G1 F900 X305.849 Y258.897 E121.84463
G0 F6000 X305.849 Y259.462
G1 F900 X298.536 Y252.15 E122.18859
G0 F6000 X297.97 Y252.15
G1 F900 X305.849 Y260.028 E122.55917
G0 F6000 X305.849 Y260.594
G1 F900 X297.404 Y252.15 E122.95637
G0 F6000 X296.839 Y252.15
G1 F900 X305.849 Y261.159 E123.38015
G0 F6000 X305.849 Y261.725
G1 F900 X296.273 Y252.15 E123.83055
G0 F6000 X295.707 Y252.15
G1 F900 X305.849 Y262.291 E124.30758
G0 F6000 X305.849 Y262.857
G1 F900 X295.142 Y252.15 E124.8112
G0 F6000 X294.576 Y252.15
G1 F900 X305.849 Y263.422 E125.34143
G0 F6000 X305.849 Y263.988
G1 F900 X294.01 Y252.15 E125.89827
G0 F6000 X293.445 Y252.15
G1 F900 X305.849 Y264.554 E126.48172
G0 F6000 X305.849 Y265.119
G1 F900 X292.879 Y252.15 E127.09177
G0 F6000 X292.313 Y252.15
G1 F900 X305.849 Y265.685 E127.72843
G0 F6000 X305.849 Y266.251
G1 F900 X291.748 Y252.15 E128.3917
G0 F6000 X291.182 Y252.15
G1 F900 X305.849 Y266.816 E129.08157
G0 F6000 X305.849 Y267.382
G1 F900 X290.616 Y252.15 E129.79806
G0 F6000 X290.05 Y252.15
G1 F900 X305.849 Y267.948 E130.54117
G0 F6000 X305.849 Y268.513
G1 F900 X289.485 Y252.15 E131.31086
G0 F6000 X288.919 Y252.15
G1 F900 X305.849 Y269.079 E132.10717
G0 F6000 X305.849 Y269.645
G1 F900 X288.353 Y252.15 E132.93011
G0 F6000 X287.788 Y252.15
G1 F900 X305.849 Y270.21 E133.77962
G0 F6000 X305.849 Y270.776
G1 F900 X287.222 Y252.15 E134.65575
G0 F6000 X286.656 Y252.15
G1 F900 X305.849 Y271.342 E135.55851
G0 F6000 X305.849 Y271.908
G1 F900 X286.091 Y252.15 E136.48786
G0 F6000 X285.525 Y252.15
G1 F900 X305.849 Y272.473 E137.44382
G0 F6000 X305.849 Y273.039
G1 F900 X284.959 Y252.15 E138.4264
G0 F6000 X284.394 Y252.15
G1 F900 X305.849 Y273.605 E139.43557
G0 F6000 X305.849 Y274.17
G1 F900 X283.828 Y252.15 E140.47135
G0 F6000 X283.262 Y252.15
G1 F900 X305.849 Y274.736 E141.53375
G0 F6000 X305.849 Y275.302
G1 F900 X282.697 Y252.15 E142.62275
G0 F6000 X282.131 Y252.15
G1 F900 X305.849 Y275.867 E143.73835
G0 F6000 X305.849 Y276.433
G1 F900 X281.565 Y252.15 E144.88057
G0 F6000 X280.999 Y252.15
G1 F900 X305.849 Y276.999 E146.04941
G0 F6000 X305.849 Y277.564
G1 F900 X280.434 Y252.15 E147.24483
G0 F6000 X279.868 Y252.15
G1 F900 X305.849 Y278.13 E148.46688
G0 F6000 X305.849 Y278.696
G1 F900 X279.302 Y252.15 E149.71554
G0 F6000 X278.737 Y252.15
G1 F900 X305.849 Y279.261 E150.99079
G0 F6000 X305.849 Y279.827
G1 F900 X278.171 Y252.15 E152.29265
G0 F6000 X278.148 Y252.693
G1 F900 X305.305 Y279.849 E153.57001
G0 F6000 X304.739 Y279.849
G1 F900 X278.148 Y253.258 E154.82077
G0 F6000 X278.148 Y253.824
G1 F900 X304.174 Y279.849 E156.04493
G0 F6000 X303.608 Y279.849
G1 F900 X278.148 Y254.39 E157.24246
G0 F6000 X278.148 Y254.955
G1 F900 X303.042 Y279.849 E158.4134
G0 F6000 X302.476 Y279.849
G1 F900 X278.148 Y255.521 E159.55772
G0 F6000 X278.148 Y256.087
G1 F900 X301.911 Y279.849 E160.67543
G0 F6000 X301.345 Y279.849
G1 F900 X278.148 Y256.652 E161.76655
G0 F6000 X278.148 Y257.218
G1 F900 X300.779 Y279.849 E162.83104
G0 F6000 X300.214 Y279.849
G1 F900 X278.148 Y257.784 E163.86893
G0 F6000 X278.148 Y258.349
G1 F900 X299.648 Y279.849 E164.88023
G0 F6000 X299.082 Y279.849
G1 F900 X278.148 Y258.915 E165.8649
G0 F6000 X278.148 Y259.481
G1 F900 X298.517 Y279.849 E166.82297
G0 F6000 X297.951 Y279.849
G1 F900 X278.148 Y260.047 E167.75442
G0 F6000 X278.148 Y260.612
G1 F900 X297.385 Y279.849 E168.65927
G0 F6000 X296.82 Y279.849
G1 F900 X278.148 Y261.178 E169.53752
G0 F6000 X278.148 Y261.744
G1 F900 X296.254 Y279.849 E170.38915
G0 F6000 X295.688 Y279.849
G1 F900 X278.148 Y262.309 E171.21417
G0 F6000 X278.148 Y262.875
G1 F900 X295.123 Y279.849 E172.0126
G0 F6000 X294.557 Y279.849
G1 F900 X278.148 Y263.441 E172.78441
G0 F6000 X278.148 Y264.006
G1 F900 X293.991 Y279.849 E173.52961
G0 F6000 X293.425 Y279.849
G1 F900 X278.148 Y264.572 E174.2482
G0 F6000 X278.148 Y265.138
G1 F900 X292.86 Y279.849 E174.94018
G0 F6000 X292.294 Y279.849
G1 F900 X278.148 Y265.703 E175.60557
G0 F6000 X278.148 Y266.269
G1 F900 X291.728 Y279.849 E176.24433
G0 F6000 X291.163 Y279.849
G1 F900 X278.148 Y266.835 E176.85649
G0 F6000 X278.148 Y267.4
G1 F900 X290.597 Y279.849 E177.44205
G0 F6000 X290.031 Y279.849
G1 F900 X278.148 Y267.966 E178.00099
G0 F6000 X278.148 Y268.532
G1 F900 X289.466 Y279.849 E178.53333
G0 F6000 X288.9 Y279.849
G1 F900 X278.148 Y269.097 E179.03907
G0 F6000 X278.148 Y269.663
G1 F900 X288.334 Y279.849 E179.51819
G0 F6000 X287.769 Y279.849
G1 F900 X278.148 Y270.229 E179.97071
G0 F6000 X278.148 Y270.795
G1 F900 X287.203 Y279.849 E180.39661
G0 F6000 X286.637 Y279.849
G1 F900 X278.148 Y271.36 E180.7959
G0 F6000 X278.148 Y271.926
G1 F900 X286.072 Y279.849 E181.1686
G0 F6000 X285.506 Y279.849
G1 F900 X278.148 Y272.492 E181.51467
G0 F6000 X278.148 Y273.057
G1 F900 X284.94 Y279.849 E181.83415
G0 F6000 X284.375 Y279.849
G1 F900 X278.148 Y273.623 E182.12703
G0 F6000 X278.148 Y274.189
G1 F900 X283.809 Y279.849 E182.39328
G0 F6000 X283.243 Y279.849
G1 F900 X278.148 Y274.754 E182.63293
G0 F6000 X278.148 Y275.32
G1 F900 X282.677 Y279.849 E182.84596
G0 F6000 X282.112 Y279.849
G1 F900 X278.148 Y275.886 E183.03239
G0 F6000 X278.148 Y276.451
G1 F900 X281.546 Y279.849 E183.19222
G0 F6000 X280.98 Y279.849
G1 F900 X278.148 Y277.017 E183.32543
G0 F6000 X278.148 Y277.583
G1 F900 X280.415 Y279.849 E183.43204
G0 F6000 X279.849 Y279.849
G1 F900 X278.148 Y278.148 E183.51205
G0 F6000 X278.148 Y278.714
G1 F900 X279.283 Y279.849 E183.56544
G0 F6000 X278.718 Y279.849
G1 F900 X278.148 Y279.28 E183.59223
G1 F2700 E178.59223
G0 F6000 X277.71 Y279.28
G0 X277.328 Y280.328
G0 X168.672 Y280.328
G0 X168.29 Y280.01
G0 X168.01 Y280.01
G1 F2700 E183.59223
G1 F900 X139.99 Y280.01 E184.52417
G1 X139.99 Y251.99 E185.45612
G1 X168.01 Y251.99 E186.38807
G1 X168.01 Y280.01 E187.32002
G0 F6000 X168.29 Y280.01
G0 X168.29 Y252.702
G0 X167.85 Y252.702
G1 F900 X167.296 Y252.149 E187.34606
G0 F6000 X166.73 Y252.149
G1 F900 X167.85 Y253.268 E187.39871
G0 F6000 X167.85 Y253.834
G1 F900 X166.165 Y252.149 E187.47797
G0 F6000 X165.599 Y252.149
G1 F900 X167.85 Y254.4 E187.58385
G0 F6000 X167.85 Y254.965
G1 F900 X165.033 Y252.149 E187.71633
G0 F6000 X164.468 Y252.149
G1 F900 X167.85 Y255.531 E187.87541
G0 F6000 X167.85 Y256.097
G1 F900 X163.902 Y252.149 E188.06111
G0 F6000 X163.336 Y252.149
G1 F900 X167.85 Y256.662 E188.27341
G0 F6000 X167.85 Y257.228
G1 F900 X162.771 Y252.149 E188.51231
G0 F6000 X162.205 Y252.149
G1 F900 X167.85 Y257.794 E188.77784
G0 F6000 X167.85 Y258.359
G1 F900 X161.639 Y252.149 E189.06996
G0 F6000 X161.073 Y252.149
G1 F900 X167.85 Y258.925 E189.38871
G0 F6000 X167.85 Y259.491
G1 F900 X160.508 Y252.149 E189.73405
G0 F6000 X159.942 Y252.149
G1 F900 X167.85 Y260.056 E190.106
G0 F6000 X167.85 Y260.622
G1 F900 X159.376 Y252.149 E190.50456
G0 F6000 X158.811 Y252.149
G1 F900 X167.85 Y261.188 E190.92973
G0 F6000 X167.85 Y261.753
G1 F900 X158.245 Y252.149 E191.3815
G0 F6000 X157.679 Y252.149
G1 F900 X167.85 Y262.319 E191.85989
G0 F6000 X167.85 Y262.885
G1 F900 X157.114 Y252.149 E192.36487
G0 F6000 X156.548 Y252.149
G1 F900 X167.85 Y263.451 E192.89649
G0 F6000 X167.85 Y264.016
G1 F900 X155.982 Y252.149 E193.4547
G0 F6000 X155.417 Y252.149
G1 F900 X167.85 Y264.582 E194.03951
G0 F6000 X167.85 Y265.148
G1 F900 X154.851 Y252.149 E194.65094
G0 F6000 X154.285 Y252.149
G1 F900 X167.85 Y265.713 E195.28897
G0 F6000 X167.85 Y266.279
G1 F900 X153.72 Y252.149 E195.9536
G0 F6000 X153.154 Y252.149
G1 F900 X167.85 Y266.845 E196.64486
G0 F6000 X167.85 Y267.41
G1 F900 X152.588 Y252.149 E197.36271
G0 F6000 X152.023 Y252.149
G1 F900 X167.85 Y267.976 E198.10717
G0 F6000 X167.85 Y268.542
G1 F900 X151.457 Y252.149 E198.87824
G0 F6000 X150.891 Y252.149
G1 F900 X167.85 Y269.107 E199.67592
G0 F6000 X167.85 Y269.673
G1 F900 X150.325 Y252.149 E200.50022
G0 F6000 X149.76 Y252.149
G1 F900 X167.85 Y270.239 E201.35112
G0 F6000 X167.85 Y270.804
G1 F900 X149.194 Y252.149 E202.22861
G0 F6000 X148.628 Y252.149
G1 F900 X167.85 Y271.37 E203.13273
G0 F6000 X167.85 Y271.936
G1 F900 X148.063 Y252.149 E204.06345
G0 F6000 X147.497 Y252.149
G1 F900 X167.85 Y272.501 E205.02077
G0 F6000 X167.85 Y273.067
G1 F900 X146.931 Y252.149 E206.00471
G0 F6000 X146.366 Y252.149
G1 F900 X167.85 Y273.633 E207.01526
G0 F6000 X167.85 Y274.199
G1 F900 X145.8 Y252.149 E208.05242
G0 F6000 X145.234 Y252.149
G1 F900 X167.85 Y274.764 E209.11618
G0 F6000 X167.85 Y275.33
G1 F900 X144.669 Y252.149 E210.20655
G0 F6000 X144.103 Y252.149
G1 F900 X167.85 Y275.896 E211.32353
G0 F6000 X167.85 Y276.461
G1 F900 X143.537 Y252.149 E212.46712
G0 F6000 X142.972 Y252.149
G1 F900 X167.85 Y277.027 E213.6373
G0 F6000 X167.85 Y277.593
G1 F900 X142.406 Y252.149 E214.83411
G0 F6000 X141.84 Y252.149
G1 F900 X167.85 Y278.158 E216.05752
G0 F6000 X167.85 Y278.724
G1 F900 X141.274 Y252.149 E217.30755
G0 F6000 X140.709 Y252.149
G1 F900 X167.85 Y279.29 E218.58418
G0 F6000 X167.843 Y279.848
G1 F900 X140.149 Y252.155 E219.8868
G0 F6000 X140.149 Y252.721
G1 F900 X167.277 Y279.848 E221.16279
G0 F6000 X166.711 Y279.848
G1 F900 X140.149 Y253.287 E222.41216
G0 F6000 X140.149 Y253.852
G1 F900 X166.146 Y279.848 E223.63496
G0 F6000 X165.58 Y279.848
G1 F900 X140.149 Y254.418 E224.83113
G0 F6000 X140.149 Y254.984
G1 F900 X165.014 Y279.848 E226.00068
G0 F6000 X164.448 Y279.848
G1 F900 X140.149 Y255.549 E227.14363
G0 F6000 X140.149 Y256.115
G1 F900 X163.883 Y279.848 E228.25998
G0 F6000 X163.317 Y279.848
G1 F900 X140.149 Y256.681 E229.34971
G0 F6000 X140.149 Y257.246
G1 F900 X162.751 Y279.848 E230.41284
G0 F6000 X162.186 Y279.848
G1 F900 X140.149 Y257.812 E231.44937
G0 F6000 X140.149 Y258.378
G1 F900 X161.62 Y279.848 E232.45927
G0 F6000 X161.054 Y279.848
G1 F900 X140.149 Y258.943 E233.44258
G0 F6000 X140.149 Y259.509
G1 F900 X160.489 Y279.848 E234.39929
G0 F6000 X159.923 Y279.848
G1 F900 X140.149 Y260.075 E235.32937
G0 F6000 X140.149 Y260.64
G1 F900 X159.357 Y279.848 E236.23286
G0 F6000 X158.792 Y279.848
G1 F900 X140.149 Y261.206 E237.10975
G0 F6000 X140.149 Y261.772
G1 F900 X158.226 Y279.848 E237.96001
G0 F6000 X157.66 Y279.848
G1 F900 X140.149 Y262.338 E238.78365
G0 F6000 X140.149 Y262.903
G1 F900 X157.095 Y279.848 E239.58071
G0 F6000 X156.529 Y279.848
G1 F900 X140.149 Y263.469 E240.35115
G0 F6000 X140.149 Y264.035
G1 F900 X155.963 Y279.848 E241.09497
G0 F6000 X155.398 Y279.848
G1 F900 X140.149 Y264.6 E241.81222
G0 F6000 X140.149 Y265.166
G1 F900 X154.832 Y279.848 E242.50284
G0 F6000 X154.266 Y279.848
G1 F900 X140.149 Y265.732 E243.16683
G0 F6000 X140.149 Y266.297
G1 F900 X153.7 Y279.848 E243.80423
G0 F6000 X153.135 Y279.848
G1 F900 X140.149 Y266.863 E244.41503
G0 F6000 X140.149 Y267.429
G1 F900 X152.569 Y279.848 E244.9992
G0 F6000 X152.003 Y279.848
G1 F900 X140.149 Y267.994 E245.55678
G0 F6000 X140.149 Y268.56
G1 F900 X151.438 Y279.848 E246.08776
G0 F6000 X150.872 Y279.848
G1 F900 X140.149 Y269.126 E246.59211
G0 F6000 X140.149 Y269.691
G1 F900 X150.306 Y279.848 E247.06986
G0 F6000 X149.741 Y279.848
G1 F900 X140.149 Y270.257 E247.52102
G0 F6000 X140.149 Y270.823
G1 F900 X149.175 Y279.848 E247.94555
G0 F6000 X148.609 Y279.848
G1 F900 X140.149 Y271.388 E248.34348
G0 F6000 X140.149 Y271.954
G1 F900 X148.044 Y279.848 E248.71482
G0 F6000 X147.478 Y279.848
G1 F900 X140.149 Y272.52 E249.05953
G0 F6000 X140.149 Y273.086
G1 F900 X146.912 Y279.848 E249.37761
G0 F6000 X146.347 Y279.848
G1 F900 X140.149 Y273.651 E249.66912
G0 F6000 X140.149 Y274.217
G1 F900 X145.781 Y279.848 E249.93401
