;FLAVOR:Marlin
;TIME:1472
;Filament used: 0.670507m
;Layer height: 0.2
;MINX:3.2
;MINY:7.2
;MINZ:0.2
;MAXX:304.8
;MAXY:274.8
;MAXZ:0.2
;Generated with Cura_SteamEngine master
M140 S62
M105
M190 S62
M104 S200
M105
M109 S200
M82 ;absolute extrusion mode
M201 X500.00 Y500.00 Z100.00 E5000.00 ;Setup machine max acceleration
M203 X500.00 Y500.00 Z10.00 E50.00 ;Setup machine max feedrate
M204 P500.00 R1000.00 T500.00 ;Setup Print/Retract/Travel acceleration
M205 X8.00 Y8.00 Z0.40 E5.00 ;Setup Jerk
M220 S100 ;Reset Feedrate
M221 S100 ;Reset Flowrate

G28 ;Home

G92 E0 ;Reset Extruder
G1 Z2.0 F3000 ;Move Z Axis up
G1 X10.1 Y20 Z0.28 F5000.0 ;Move to start position
G1 X10.1 Y200.0 Z0.28 F1500.0 E15 ;Draw the first line
G1 X10.4 Y200.0 Z0.28 F5000.0 ;Move to side a little
G1 X10.4 Y20 Z0.28 F1500.0 E30 ;Draw the second line
G92 E0 ;Reset Extruder
G1 Z2.0 F3000 ;Move Z Axis up

G92 E0
G92 E0
G1 F2700 E-5
;LAYER_COUNT:1
;LAYER:0
M107
;MESH:dimension_test.stl
G0 F6000 X32.4 Y36.4 Z0.2
;TYPE:WALL-INNER
G1 F2700 E0
G1 F900 X3.6 Y36.4 E0.95789
G1 X3.6 Y7.6 E1.91578
G1 X32.4 Y7.6 E2.87368
G1 X32.4 Y36.4 E3.83157
G1 F2700 E-1.16843
G0 F6000 X3.672 Y36.672
G0 X3.672 Y113.328
G0 X32.4 Y113.6
G1 F2700 E3.83157
G1 F900 X32.4 Y142.4 E4.78946
G1 X3.6 Y142.4 E5.74735
G1 X3.6 Y113.6 E6.70524
G1 X32.4 Y113.6 E7.66314
G1 F2700 E2.66314
G0 F6000 X32.4 Y142.66
G0 X3.672 Y142.672
G0 X3.672 Y245.328
G0 X32.4 Y245.6
G1 F2700 E7.66314
G1 F900 X32.4 Y274.4 E8.62103
G1 X3.6 Y274.4 E9.57892
G1 X3.6 Y245.6 E10.53681
G1 X32.4 Y245.6 E11.4947
G1 F2700 E6.4947
G0 F6000 X32.672 Y274.328
G0 X139.328 Y274.328
G0 X139.6 Y245.6
G1 F2700 E11.4947
G1 F900 X168.4 Y245.6 E12.45259
G1 X168.4 Y274.4 E13.41049
G1 X139.6 Y274.4 E14.36838
G1 X139.6 Y245.6 E15.32627
G1 F2700 E10.32627
G0 F6000 X168.66 Y245.6
G0 X168.672 Y274.328
G0 X275.328 Y274.328
G0 X275.6 Y245.6
G1 F2700 E15.32627
G1 F900 X304.4 Y245.6 E16.28416
G1 X304.4 Y274.4 E17.24205
G1 X275.6 Y274.4 E18.19995
G1 X275.6 Y245.6 E19.15784
G1 F2700 E14.15784
G0 F6000 X304.328 Y245.328
G0 X304.328 Y142.672
G0 X275.6 Y142.66
G0 X275.6 Y113.6
G1 F2700 E19.15784
G1 F900 X304.4 Y113.6 E20.11573
G1 X304.4 Y142.4 E21.07362
G1 X275.6 Y142.4 E22.03151
G1 X275.6 Y113.6 E22.98941
G1 F2700 E17.98941
G0 F6000 X304.328 Y113.328
G0 X304.328 Y36.672
G0 X275.6 Y36.4
G1 F2700 E22.98941
G1 F900 X275.6 Y7.6 E23.9473
G1 X304.4 Y7.6 E24.90519
G1 X304.4 Y36.4 E25.86308
G1 X275.6 Y36.4 E26.82097
G1 F2700 E21.82097
G0 F6000 X275.328 Y7.672
G0 X168.672 Y7.672
G0 X168.66 Y36.4
G0 X139.6 Y36.4
G1 F2700 E26.82097
G1 F900 X139.6 Y7.6 E27.77886
G1 X168.4 Y7.6 E28.73676
G1 X168.4 Y36.4 E29.69465
G1 X139.6 Y36.4 E30.65254
G1 F2700 E25.65254
G0 F6000 X139.328 Y7.672
G0 X32.672 Y7.672
G0 X32.672 Y36.672
G0 X3.672 Y36.672
G0 X3.672 Y113.328
G0 X3.672 Y245.328
G0 X32.672 Y245.328
G0 X32.672 Y274.328
G0 X139.328 Y274.328
G0 X139.4 Y274.2
G0 X139.2 Y274.2
;TYPE:WALL-OUTER
G1 F2700 E30.65254
G1 F900 X139.2 Y245.2 E31.61708
G1 X168.8 Y245.2 E32.60158
G1 X168.8 Y274.2 E33.56613
G1 X275.2 Y274.2 E37.10501
G1 X275.2 Y245.2 E38.06955
G1 X304.2 Y245.2 E39.03409
G1 X304.2 Y142.8 E42.43993
G1 X275.2 Y142.8 E43.40448
G1 X275.2 Y113.2 E44.38898
G1 X304.2 Y113.2 E45.35352
G1 X304.2 Y36.8 E47.89459
G1 X275.2 Y36.8 E48.85914
G1 X275.2 Y7.8 E49.82368
G1 X168.8 Y7.8 E53.36256
G1 X168.8 Y36.8 E54.3271
G1 X139.2 Y36.8 E55.3116
G1 X139.2 Y7.8 E56.27615
G1 X32.8 Y7.8 E59.81503
G1 X32.8 Y36.8 E60.77957
G1 X3.8 Y36.8 E61.74411
G1 X3.8 Y113.2 E64.28519
G1 X32.8 Y113.2 E65.24973
G1 X32.8 Y142.8 E66.23423
G1 X3.8 Y142.8 E67.19878
G1 X3.8 Y245.2 E70.60461
G1 X32.8 Y245.2 E71.56916
G1 X32.8 Y274.2 E72.5337
G1 X139.2 Y274.2 E76.07258
G1 F2700 E71.07258
G0 F6000 X139.4 Y274.2
G0 X155.996 Y274.272
G0 X304.63 Y274.63
G0 X304.8 Y274.8
G1 F2700 E76.07258
G1 F900 X3.2 Y274.8 E86.10384
G1 X3.2 Y7.2 E95.00425
G1 X304.8 Y7.2 E105.03551
G1 X304.8 Y274.8 E113.93592
G0 F6000 X304.63 Y274.63
G0 X304.29 Y274.01
G0 X304.01 Y274.01
;TYPE:SKIN
G1 F900 X275.99 Y274.01 E114.86787
G1 X275.99 Y245.99 E115.79982
G1 X304.01 Y245.99 E116.73177
G1 X304.01 Y274.01 E117.66371
G0 F6000 X304.29 Y274.01
G0 X304.29 Y246.715
G0 X303.849 Y246.715
G1 F900 X303.283 Y246.149 E117.69034
G0 F6000 X302.718 Y246.149
G1 F900 X303.849 Y247.28 E117.74354
G0 F6000 X303.849 Y247.846
G1 F900 X302.152 Y246.149 E117.82336
G0 F6000 X301.586 Y246.149
G1 F900 X303.849 Y248.412 E117.9298
G0 F6000 X303.849 Y248.977
G1 F900 X301.021 Y246.149 E118.06282
G0 F6000 X300.455 Y246.149
G1 F900 X303.849 Y249.543 E118.22247
G0 F6000 X303.849 Y250.109
G1 F900 X299.889 Y246.149 E118.40873
G0 F6000 X299.323 Y246.149
G1 F900 X303.849 Y250.675 E118.62162
G0 F6000 X303.849 Y251.24
G1 F900 X298.758 Y246.149 E118.86109
G0 F6000 X298.192 Y246.149
G1 F900 X303.849 Y251.806 E119.12717
G0 F6000 X303.849 Y252.372
G1 F900 X297.626 Y246.149 E119.41989
G0 F6000 X297.061 Y246.149
G1 F900 X303.849 Y252.937 E119.73917
G0 F6000 X303.849 Y253.503
G1 F900 X296.495 Y246.149 E120.08508
G0 F6000 X295.929 Y246.149
G1 F900 X303.849 Y254.069 E120.45761
G0 F6000 X303.849 Y254.634
G1 F900 X295.364 Y246.149 E120.85672
G0 F6000 X294.798 Y246.149
G1 F900 X303.849 Y255.2 E121.28245
G0 F6000 X303.849 Y255.766
G1 F900 X294.232 Y246.149 E121.73481
G0 F6000 X293.667 Y246.149
G1 F900 X303.849 Y256.331 E122.21374
G0 F6000 X303.849 Y256.897
G1 F900 X293.101 Y246.149 E122.71929
G0 F6000 X292.535 Y246.149
G1 F900 X303.849 Y257.463 E123.25147
G0 F6000 X303.849 Y258.028
G1 F900 X291.97 Y246.149 E123.81022
G0 F6000 X291.404 Y246.149
G1 F900 X303.849 Y258.594 E124.39559
G0 F6000 X303.849 Y259.16
G1 F900 X290.838 Y246.149 E125.00759
G0 F6000 X290.272 Y246.149
G1 F900 X303.849 Y259.725 E125.64619
G0 F6000 X303.849 Y260.291
G1 F900 X289.707 Y246.149 E126.31138
G0 F6000 X289.141 Y246.149
G1 F900 X303.849 Y260.857 E127.0032
G0 F6000 X303.849 Y261.423
G1 F900 X288.575 Y246.149 E127.72165
G0 F6000 X288.01 Y246.149
G1 F900 X303.849 Y261.988 E128.46666
G0 F6000 X303.849 Y262.554
G1 F900 X287.444 Y246.149 E129.2383
G0 F6000 X286.878 Y246.149
G1 F900 X303.849 Y263.12 E130.03657
G0 F6000 X303.849 Y263.685
G1 F900 X286.313 Y246.149 E130.86141
G0 F6000 X285.747 Y246.149
G1 F900 X303.849 Y264.251 E131.71287
G0 F6000 X303.849 Y264.817
G1 F900 X285.181 Y246.149 E132.59096
G0 F6000 X284.616 Y246.149
G1 F900 X303.849 Y265.382 E133.49562
G0 F6000 X303.849 Y265.948
G1 F900 X284.05 Y246.149 E134.4269
G0 F6000 X283.484 Y246.149
G1 F900 X303.849 Y266.514 E135.38481
G0 F6000 X303.849 Y267.079
G1 F900 X282.919 Y246.149 E136.36929
G0 F6000 X282.353 Y246.149
G1 F900 X303.849 Y267.645 E137.3804
G0 F6000 X303.849 Y268.211
G1 F900 X281.787 Y246.149 E138.41813
G0 F6000 X281.222 Y246.149
G1 F900 X303.849 Y268.776 E139.48243
G0 F6000 X303.849 Y269.342
G1 F900 X280.656 Y246.149 E140.57336
G0 F6000 X280.09 Y246.149
G1 F900 X303.849 Y269.908 E141.69091
G0 F6000 X303.849 Y270.474
G1 F900 X279.524 Y246.149 E142.83508
G0 F6000 X278.959 Y246.149
G1 F900 X303.849 Y271.039 E144.00583
G0 F6000 X303.849 Y271.605
G1 F900 X278.393 Y246.149 E145.2032
G0 F6000 X277.827 Y246.149
G1 F900 X303.849 Y272.171 E146.4272
G0 F6000 X303.849 Y272.736
G1 F900 X277.262 Y246.149 E147.67777
G0 F6000 X276.696 Y246.149
G1 F900 X303.849 Y273.302 E148.95496
G0 F6000 X303.831 Y273.849
G1 F900 X276.149 Y246.167 E150.25704
G0 F6000 X276.149 Y246.733
G1 F900 X303.265 Y273.849 E151.53249
G0 F6000 X302.699 Y273.849
G1 F900 X276.149 Y247.299 E152.78132
G0 F6000 X276.149 Y247.864
G1 F900 X302.133 Y273.849 E154.00356
G0 F6000 X301.568 Y273.849
G1 F900 X276.149 Y248.43 E155.19919
G0 F6000 X276.149 Y248.996
G1 F900 X301.002 Y273.849 E156.3682
G0 F6000 X300.436 Y273.849
G1 F900 X276.149 Y249.562 E157.51058
G0 F6000 X276.149 Y250.127
G1 F900 X299.871 Y273.849 E158.62639
G0 F6000 X299.305 Y273.849
G1 F900 X276.149 Y250.693 E159.71558
G0 F6000 X276.149 Y251.259
G1 F900 X298.739 Y273.849 E160.77814
G0 F6000 X298.174 Y273.849
G1 F900 X276.149 Y251.824 E161.81413
G0 F6000 X276.149 Y252.39
G1 F900 X297.608 Y273.849 E162.8235
G0 F6000 X297.042 Y273.849
G1 F900 X276.149 Y252.956 E163.80624
G0 F6000 X276.149 Y253.521
G1 F900 X296.477 Y273.849 E164.76241
G0 F6000 X295.911 Y273.849
G1 F900 X276.149 Y254.087 E165.69195
G0 F6000 X276.149 Y254.653
G1 F900 X295.345 Y273.849 E166.59487
G0 F6000 X294.78 Y273.849
G1 F900 X276.149 Y255.218 E167.47122
G0 F6000 X276.149 Y255.784
G1 F900 X294.214 Y273.849 E168.32094
G0 F6000 X293.648 Y273.849
G1 F900 X276.149 Y256.35 E169.14404
G0 F6000 X276.149 Y256.915
G1 F900 X293.083 Y273.849 E169.94056
G0 F6000 X292.517 Y273.849
G1 F900 X276.149 Y257.481 E170.71046
G0 F6000 X276.149 Y258.047
G1 F900 X291.951 Y273.849 E171.45374
G0 F6000 X291.385 Y273.849
G1 F900 X276.149 Y258.612 E172.17042
G0 F6000 X276.149 Y259.178
G1 F900 X290.82 Y273.849 E172.8605
G0 F6000 X290.254 Y273.849
G1 F900 X276.149 Y259.744 E173.52395
G0 F6000 X276.149 Y260.31
G1 F900 X289.688 Y273.849 E174.16079
G0 F6000 X289.123 Y273.849
G1 F900 X276.149 Y260.875 E174.77104
G0 F6000 X276.149 Y261.441
G1 F900 X288.557 Y273.849 E175.35468
G0 F6000 X287.991 Y273.849
G1 F900 X276.149 Y262.007 E175.91169
G0 F6000 X276.149 Y262.572
G1 F900 X287.426 Y273.849 E176.44213
G0 F6000 X286.86 Y273.849
G1 F900 X276.149 Y263.138 E176.94594
G0 F6000 X276.149 Y263.704
G1 F900 X286.294 Y273.849 E177.42313
G0 F6000 X285.729 Y273.849
G1 F900 X276.149 Y264.269 E177.87374
G0 F6000 X276.149 Y264.835
G1 F900 X285.163 Y273.849 E178.29773
G0 F6000 X284.597 Y273.849
G1 F900 X276.149 Y265.401 E178.6951
G0 F6000 X276.149 Y265.966
G1 F900 X284.032 Y273.849 E179.06589
G0 F6000 X283.466 Y273.849
G1 F900 X276.149 Y266.532 E179.41006
G0 F6000 X276.149 Y267.098
G1 F900 X282.9 Y273.849 E179.72761
G0 F6000 X282.335 Y273.849
G1 F900 X276.149 Y267.663 E180.01858
G0 F6000 X276.149 Y268.229
G1 F900 X281.769 Y273.849 E180.28293
G0 F6000 X281.203 Y273.849
G1 F900 X276.149 Y268.795 E180.52065
G0 F6000 X276.149 Y269.361
G1 F900 X280.637 Y273.849 E180.73175
G0 F6000 X280.072 Y273.849
G1 F900 X276.149 Y269.926 E180.91628
G0 F6000 X276.149 Y270.492
G1 F900 X279.506 Y273.849 E181.07418
G0 F6000 X278.94 Y273.849
G1 F900 X276.149 Y271.058 E181.20546
G0 F6000 X276.149 Y271.623
G1 F900 X278.375 Y273.849 E181.31017
G0 F6000 X277.809 Y273.849
G1 F900 X276.149 Y272.189 E181.38825
G0 F6000 X276.149 Y272.755
G1 F900 X277.243 Y273.849 E181.43971
G0 F6000 X276.678 Y273.849
G1 F900 X276.149 Y273.32 E181.46459
G1 F2700 E176.46459
G0 F6000 X275.71 Y273.32
G0 X275.71 Y245.34
G0 X304.328 Y245.328
G0 X304.328 Y142.672
G0 X275.71 Y142.66
G0 X275.71 Y142.01
G0 X275.99 Y142.01
G1 F2700 E181.46459
G1 F900 X275.99 Y113.99 E182.39654
G1 X304.01 Y113.99 E183.32849
G1 X304.01 Y142.01 E184.26044
G1 X275.99 Y142.01 E185.19238
G0 F6000 X276.482 Y141.849
G1 F900 X276.149 Y141.516 E185.20805
G0 F6000 X276.149 Y140.95
G1 F900 X277.048 Y141.849 E185.25033
G0 F6000 X277.614 Y141.849
G1 F900 X276.149 Y140.384 E185.31924
G0 F6000 X276.149 Y139.819
G1 F900 X278.18 Y141.849 E185.41475
G0 F6000 X278.745 Y141.849
G1 F900 X276.149 Y139.253 E185.53686
G0 F6000 X276.149 Y138.687
G1 F900 X279.311 Y141.849 E185.68559
G0 F6000 X279.877 Y141.849
G1 F900 X276.149 Y138.121 E185.86094
G0 F6000 X276.149 Y137.556
G1 F900 X280.442 Y141.849 E186.06287
G0 F6000 X281.008 Y141.849
G1 F900 X276.149 Y136.99 E186.29143
G0 F6000 X276.149 Y136.424
G1 F900 X281.574 Y141.849 E186.5466
G0 F6000 X282.139 Y141.849
G1 F900 X276.149 Y135.859 E186.82835
G0 F6000 X276.149 Y135.293
G1 F900 X282.705 Y141.849 E187.13673
G0 F6000 X283.271 Y141.849
G1 F900 X276.149 Y134.727 E187.47172
G0 F6000 X276.149 Y134.162
G1 F900 X283.836 Y141.849 E187.8333
G0 F6000 X284.402 Y141.849
G1 F900 X276.149 Y133.596 E188.22149
G0 F6000 X276.149 Y133.03
G1 F900 X284.968 Y141.849 E188.63631
G0 F6000 X285.533 Y141.849
G1 F900 X276.149 Y132.465 E189.07771
G0 F6000 X276.149 Y131.899
G1 F900 X286.099 Y141.849 E189.54572
G0 F6000 X286.665 Y141.849
G1 F900 X276.149 Y131.333 E190.04036
G0 F6000 X276.149 Y130.768
G1 F900 X287.231 Y141.849 E190.5616
G0 F6000 X287.796 Y141.849
G1 F900 X276.149 Y130.202 E191.10944
G0 F6000 X276.149 Y129.636
G1 F900 X288.362 Y141.849 E191.6839
G0 F6000 X288.928 Y141.849
G1 F900 X276.149 Y129.071 E192.28497
G0 F6000 X276.149 Y128.505
G1 F900 X289.493 Y141.849 E192.91263
G0 F6000 X290.059 Y141.849
G1 F900 X276.149 Y127.939 E193.56691
G0 F6000 X276.149 Y127.373
G1 F900 X290.625 Y141.849 E194.24782
G0 F6000 X291.19 Y141.849
G1 F900 X276.149 Y126.808 E194.9553
G0 F6000 X276.149 Y126.242
G1 F900 X291.756 Y141.849 E195.68941
G0 F6000 X292.322 Y141.849
G1 F900 X276.149 Y125.676 E196.45013
G0 F6000 X276.149 Y125.111
G1 F900 X292.887 Y141.849 E197.23744
G0 F6000 X293.453 Y141.849
G1 F900 X276.149 Y124.545 E198.05136
G0 F6000 X276.149 Y123.979
G1 F900 X294.019 Y141.849 E198.89191
G0 F6000 X294.584 Y141.849
G1 F900 X276.149 Y123.414 E199.75904
G0 F6000 X276.149 Y122.848
G1 F900 X295.15 Y141.849 E200.65279
G0 F6000 X295.716 Y141.849
G1 F900 X276.149 Y122.282 E201.57316
G0 F6000 X276.149 Y121.717
G1 F900 X296.281 Y141.849 E202.52011
G0 F6000 X296.847 Y141.849
G1 F900 X276.149 Y121.151 E203.49368
G0 F6000 X276.149 Y120.585
G1 F900 X297.413 Y141.849 E204.49387
G0 F6000 X297.979 Y141.849
G1 F900 X276.149 Y120.02 E205.52067
G0 F6000 X276.149 Y119.454
G1 F900 X298.544 Y141.849 E206.57406
G0 F6000 X299.11 Y141.849
G1 F900 X276.149 Y118.888 E207.65407
G0 F6000 X276.149 Y118.323
G1 F900 X299.676 Y141.849 E208.76069
G0 F6000 X300.241 Y141.849
G1 F900 X276.149 Y117.757 E209.8939
G0 F6000 X276.149 Y117.191
G1 F900 X300.807 Y141.849 E211.05374
G0 F6000 X301.373 Y141.849
G1 F900 X276.149 Y116.625 E212.2402
G0 F6000 X276.149 Y116.06
G1 F900 X301.938 Y141.849 E213.45323
G0 F6000 X302.504 Y141.849
G1 F900 X276.149 Y115.494 E214.69289
G0 F6000 X276.149 Y114.928
G1 F900 X303.07 Y141.849 E215.95917
G0 F6000 X303.635 Y141.849
G1 F900 X276.149 Y114.363 E217.25203
G0 F6000 X276.501 Y114.149
G1 F900 X303.849 Y141.497 E218.5384
G0 F6000 X303.849 Y140.932
G1 F900 X277.067 Y114.149 E219.79816
G0 F6000 X277.632 Y114.149
G1 F900 X303.849 Y140.366 E221.03133
G0 F6000 X303.849 Y139.8
G1 F900 X278.198 Y114.149 E222.23787
G0 F6000 X278.764 Y114.149
G1 F900 X303.849 Y139.234 E223.4178
G0 F6000 X303.849 Y138.669
G1 F900 X279.329 Y114.149 E224.57114
G0 F6000 X279.895 Y114.149
G1 F900 X303.849 Y138.103 E225.69786
G0 F6000 X303.849 Y137.537
G1 F900 X280.461 Y114.149 E226.79796
G0 F6000 X281.026 Y114.149
G1 F900 X303.849 Y136.972 E227.87149
G0 F6000 X303.849 Y136.406
G1 F900 X281.592 Y114.149 E228.91839
G0 F6000 X282.158 Y114.149
G1 F900 X303.849 Y135.84 E229.93867
G0 F6000 X303.849 Y135.275
G1 F900 X282.723 Y114.149 E230.93237
G0 F6000 X283.289 Y114.149
G1 F900 X303.849 Y134.709 E231.89945
G0 F6000 X303.849 Y134.143
G1 F900 X283.855 Y114.149 E232.8399
G0 F6000 X284.42 Y114.149
G1 F900 X303.849 Y133.578 E233.75379
G0 F6000 X303.849 Y133.012
G1 F900 X284.986 Y114.149 E234.64104
G0 F6000 X285.552 Y114.149
G1 F900 X303.849 Y132.446 E235.50168
G0 F6000 X303.849 Y131.881
G1 F900 X286.118 Y114.149 E236.33571
G0 F6000 X286.683 Y114.149
G1 F900 X303.849 Y131.315 E237.14315
G0 F6000 X303.849 Y130.749
G1 F900 X287.249 Y114.149 E237.92396
G0 F6000 X287.815 Y114.149
G1 F900 X303.849 Y130.184 E238.67818
G0 F6000 X303.849 Y129.618
G1 F900 X288.38 Y114.149 E239.40579
G0 F6000 X288.946 Y114.149
G1 F900 X303.849 Y129.052 E240.10678
G0 F6000 X303.849 Y128.486
G1 F900 X289.512 Y114.149 E240.78115
G0 F6000 X290.077 Y114.149
G1 F900 X303.849 Y127.921 E241.42894
G0 F6000 X303.849 Y127.355
G1 F900 X290.643 Y114.149 E242.05011
G0 F6000 X291.209 Y114.149
G1 F900 X303.849 Y126.789 E242.64466
G0 F6000 X303.849 Y126.224
G1 F900 X291.774 Y114.149 E243.21263
G0 F6000 X292.34 Y114.149
G1 F900 X303.849 Y125.658 E243.75398
G0 F6000 X303.849 Y125.092
G1 F900 X292.906 Y114.149 E244.2687
G0 F6000 X293.471 Y114.149
G1 F900 X303.849 Y124.527 E244.75685
G0 F6000 X303.849 Y123.961
G1 F900 X294.037 Y114.149 E245.21838
G0 F6000 X294.603 Y114.149
G1 F900 X303.849 Y123.395 E245.65328
G0 F6000 X303.849 Y122.83
G1 F900 X295.168 Y114.149 E246.06161
G0 F6000 X295.734 Y114.149
G1 F900 X303.849 Y122.264 E246.44332
G0 F6000 X303.849 Y121.698
G1 F900 X296.3 Y114.149 E246.7984
