;FLAVOR:Marlin
;TIME:1153
;Filament used: 0.672143m
;Layer height: 0.16
;MINX:2.2
;MINY:8.2
;MINZ:0.2
;MAXX:297.8
;MAXY:291.8
;MAXZ:0.2
;Generated with Cura_SteamEngine master
M140 S55
M105
M190 S55
M104 S190
M105
M109 S190
M82 ;absolute extrusion mode
M201 X500.00 Y500.00 Z100.00 E5000.00 ;Setup machine max acceleration
M203 X500.00 Y500.00 Z10.00 E50.00 ;Setup machine max feedrate
M204 P500.00 R1000.00 T500.00 ;Setup Print/Retract/Travel acceleration
M205 X8.00 Y8.00 Z0.40 E5.00 ;Setup Jerk
M220 S100 ;Reset Feedrate
M221 S100 ;Reset Flowrate

G28 ;Home

G92 E0 ;Reset Extruder
G1 Z2.0 F3000 ;Move Z Axis up
G1 X10.1 Y20 Z0.28 F5000.0 ;Move to start position
G1 X10.1 Y200.0 Z0.28 F1500.0 E15 ;Draw the first line
G1 X10.4 Y200.0 Z0.28 F5000.0 ;Move to side a little
G1 X10.4 Y20 Z0.28 F1500.0 E30 ;Draw the second line
G92 E0 ;Reset Extruder
G1 Z2.0 F3000 ;Move Z Axis up

G92 E0
G92 E0
G1 F2700 E-5
;LAYER_COUNT:2
;LAYER:0
M107
;MESH:dimension_test.stl
G0 F6000 X31.4 Y37.4 Z0.2
;TYPE:WALL-INNER
G1 F2700 E0
G1 F1200 X2.6 Y37.4 E0.95789
G1 X2.6 Y8.6 E1.91578
G1 X31.4 Y8.6 E2.87368
G1 X31.4 Y37.4 E3.83157
G1 F2700 E-1.16843
G0 F6000 X2.672 Y37.672
G0 X2.672 Y122.328
G0 X31.4 Y122.6
G1 F2700 E3.83157
G1 F1200 X31.4 Y151.4 E4.78946
G1 X2.6 Y151.4 E5.74735
G1 X2.6 Y122.6 E6.70524
G1 X31.4 Y122.6 E7.66314
G1 F2700 E2.66314
G0 F6000 X2.672 Y122.328
G0 X2.672 Y37.672
G0 X31.672 Y37.672
G0 X31.672 Y8.672
G0 X135.328 Y8.672
G0 X135.6 Y37.4
G1 F2700 E7.66314
G1 F1200 X135.6 Y8.6 E8.62103
G1 X164.4 Y8.6 E9.57892
G1 X164.4 Y37.4 E10.53681
G1 X135.6 Y37.4 E11.4947
G1 F2700 E6.4947
G0 F6000 X164.66 Y37.4
G0 X164.672 Y8.672
G0 X268.328 Y8.672
G0 X268.6 Y37.4
G1 F2700 E11.4947
G1 F1200 X268.6 Y8.6 E12.45259
G1 X297.4 Y8.6 E13.41049
G1 X297.4 Y37.4 E14.36838
G1 X268.6 Y37.4 E15.32627
G1 F2700 E10.32627
G0 F6000 X297.328 Y37.672
G0 X297.328 Y122.328
G0 X268.6 Y122.6
G1 F2700 E15.32627
G1 F1200 X297.4 Y122.6 E16.28416
G1 X297.4 Y151.4 E17.24205
G1 X268.6 Y151.4 E18.19995
G1 X268.6 Y122.6 E19.15784
G1 F2700 E14.15784
G0 F6000 X268.6 Y151.66
G0 X297.328 Y151.672
G0 X297.328 Y262.328
G0 X268.6 Y262.6
G1 F2700 E19.15784
G1 F1200 X297.4 Y262.6 E20.11573
G1 X297.4 Y291.4 E21.07362
G1 X268.6 Y291.4 E22.03151
G1 X268.6 Y262.6 E22.98941
G1 F2700 E17.98941
G0 F6000 X268.328 Y291.328
G0 X164.672 Y291.328
G0 X164.66 Y262.6
G0 X135.6 Y262.6
G1 F2700 E22.98941
G1 F1200 X164.4 Y262.6 E23.9473
G1 X164.4 Y291.4 E24.90519
G1 X135.6 Y291.4 E25.86308
G1 X135.6 Y262.6 E26.82097
G1 F2700 E21.82097
G0 F6000 X135.328 Y291.328
G0 X31.672 Y291.328
G0 X31.4 Y262.6
G1 F2700 E26.82097
G1 F1200 X31.4 Y291.4 E27.77886
G1 X2.6 Y291.4 E28.73676
G1 X2.6 Y262.6 E29.69465
G1 X31.4 Y262.6 E30.65254
G1 F2700 E25.65254
G0 F6000 X31.672 Y291.328
G0 X135.328 Y291.328
G0 X135.4 Y291.2
G0 X135.2 Y291.2
;TYPE:WALL-OUTER
G1 F2700 E30.65254
G1 F1200 X135.2 Y262.2 E31.61708
G1 X164.8 Y262.2 E32.60158
G1 X164.8 Y291.2 E33.56613
G1 X268.2 Y291.2 E37.00523
G1 X268.2 Y262.2 E37.96977
G1 X297.2 Y262.2 E38.93431
G1 X297.2 Y151.8 E42.60623
G1 X268.2 Y151.8 E43.57078
G1 X268.2 Y122.2 E44.55528
G1 X297.2 Y122.2 E45.51982
G1 X297.2 Y37.8 E48.32698
G1 X268.2 Y37.8 E49.29152
G1 X268.2 Y8.8 E50.25606
G1 X164.8 Y8.8 E53.69516
G1 X164.8 Y37.8 E54.65971
G1 X135.2 Y37.8 E55.64421
G1 X135.2 Y8.8 E56.60875
G1 X31.8 Y8.8 E60.04785
G1 X31.8 Y37.8 E61.01239
G1 X2.8 Y37.8 E61.97694
G1 X2.8 Y122.2 E64.78409
G1 X31.8 Y122.2 E65.74863
G1 X31.8 Y151.8 E66.73313
G1 X2.8 Y151.8 E67.69768
G1 X2.8 Y262.2 E71.3696
G1 X31.8 Y262.2 E72.33414
G1 X31.8 Y291.2 E73.29869
G1 X135.2 Y291.2 E76.73778
G1 F2700 E71.73778
G0 F6000 X135.4 Y291.2
G0 X151.996 Y291.272
G0 X297.63 Y291.63
G0 X297.8 Y291.8
G1 F2700 E76.73778
G1 F1200 X2.2 Y291.8 E86.56948
G1 X2.2 Y8.2 E96.00205
G1 X297.8 Y8.2 E105.83375
G1 X297.8 Y291.8 E115.26632
G0 F6000 X297.63 Y291.63
G0 X297 Y291
;TYPE:WALL-INNER
G1 F1200 X269 Y291 E116.19761
G1 X269 Y263 E117.12889
G1 X297 Y263 E118.06018
G1 X297 Y291 E118.99146
G1 F2700 E113.99146
G0 F6000 X268.328 Y291.328
G0 X164.672 Y291.328
G0 X164 Y291
G1 F2700 E118.99146
G1 F1200 X136 Y291 E119.92274
G1 X136 Y263 E120.85403
G1 X164 Y263 E121.78531
G1 X164 Y291 E122.71659
G1 F2700 E117.71659
G0 F6000 X135.328 Y291.328
G0 X31.672 Y291.328
G0 X31 Y291
G1 F2700 E122.71659
G1 F1200 X3 Y291 E123.64788
G1 X3 Y263 E124.57916
G1 X31 Y263 E125.51045
G1 X31 Y291 E126.44173
G1 F2700 E121.44173
G0 F6000 X31 Y262.34
G0 X2.672 Y262.328
G0 X2.672 Y151.672
G0 X31 Y151
G1 F2700 E126.44173
G1 F1200 X3 Y151 E127.37301
G1 X3 Y123 E128.3043
G1 X31 Y123 E129.23558
G1 X31 Y151 E130.16686
G1 F2700 E125.16686
G0 F6000 X31 Y122.34
G0 X2.672 Y122.328
G0 X2.672 Y37.672
G0 X31 Y37
G1 F2700 E130.16686
G1 F1200 X3 Y37 E131.09815
G1 X3 Y9 E132.02943
G1 X31 Y9 E132.96072
G1 X31 Y37 E133.892
G1 F2700 E128.892
G0 F6000 X31.672 Y8.672
G0 X135.328 Y8.672
G0 X135.34 Y37
G0 X164 Y37
G1 F2700 E133.892
G1 F1200 X136 Y37 E134.82328
G1 X136 Y9 E135.75457
G1 X164 Y9 E136.68585
G1 X164 Y37 E137.61713
G1 F2700 E132.61713
G0 F6000 X164.672 Y8.672
G0 X268.328 Y8.672
G0 X268.34 Y37
G0 X297 Y37
G1 F2700 E137.61713
G1 F1200 X269 Y37 E138.54842
G1 X269 Y9 E139.4797
G1 X297 Y9 E140.41099
G1 X297 Y37 E141.34227
G1 F2700 E136.34227
G0 F6000 X297.328 Y37.672
G0 X297.328 Y122.328
G0 X297 Y151
G1 F2700 E141.34227
G1 F1200 X269 Y151 E142.27355
G1 X269 Y123 E143.20484
G1 X297 Y123 E144.13612
G1 X297 Y151 E145.06741
G0 F6000 X296.61 Y150.61
;TYPE:SKIN
G1 F1200 X269.39 Y150.61 E145.97275
G1 X269.39 Y123.39 E146.87809
G1 X296.61 Y123.39 E147.78343
G1 X296.61 Y150.61 E148.68877
G0 F6000 X296.89 Y150.61
G0 X296.89 Y123.915
G0 X296.449 Y123.915
G1 F1200 X296.083 Y123.549 E148.70598
G0 F6000 X295.518 Y123.549
G1 F1200 X296.449 Y124.481 E148.7498
G0 F6000 X296.449 Y125.046
G1 F1200 X294.952 Y123.549 E148.82021
G0 F6000 X294.386 Y123.549
G1 F1200 X296.449 Y125.612 E148.91725
G0 F6000 X296.449 Y126.178
G1 F1200 X293.821 Y123.549 E149.04089
G0 F6000 X293.255 Y123.549
G1 F1200 X296.449 Y126.743 E149.19112
G0 F6000 X296.449 Y127.309
G1 F1200 X292.689 Y123.549 E149.36798
G0 F6000 X292.124 Y123.549
G1 F1200 X296.449 Y127.875 E149.57144
G0 F6000 X296.449 Y128.44
G1 F1200 X291.558 Y123.549 E149.8015
G0 F6000 X290.992 Y123.549
G1 F1200 X296.449 Y129.006 E150.05818
G0 F6000 X296.449 Y129.572
G1 F1200 X290.427 Y123.549 E150.34146
G0 F6000 X289.861 Y123.549
G1 F1200 X296.449 Y130.138 E150.65136
G0 F6000 X296.449 Y130.703
G1 F1200 X289.295 Y123.549 E150.98786
G0 F6000 X288.73 Y123.549
G1 F1200 X296.449 Y131.269 E151.35096
G0 F6000 X296.449 Y131.835
G1 F1200 X288.164 Y123.549 E151.74069
G0 F6000 X287.598 Y123.549
G1 F1200 X296.449 Y132.4 E152.15701
G0 F6000 X296.449 Y132.966
G1 F1200 X287.033 Y123.549 E152.59994
G0 F6000 X286.467 Y123.549
G1 F1200 X296.449 Y133.532 E153.06948
G0 F6000 X296.449 Y134.097
G1 F1200 X285.901 Y123.549 E153.56563
G0 F6000 X285.335 Y123.549
G1 F1200 X296.449 Y134.663 E154.0884
G0 F6000 X296.449 Y135.229
G1 F1200 X284.77 Y123.549 E154.63776
G0 F6000 X284.204 Y123.549
G1 F1200 X296.449 Y135.794 E155.21373
G0 F6000 X296.449 Y136.36
G1 F1200 X283.638 Y123.549 E155.81632
G0 F6000 X283.073 Y123.549
G1 F1200 X296.449 Y136.926 E156.44551
G0 F6000 X296.449 Y137.491
G1 F1200 X282.507 Y123.549 E157.1013
G0 F6000 X281.941 Y123.549
G1 F1200 X296.449 Y138.057 E157.78371
G0 F6000 X296.449 Y138.623
G1 F1200 X281.376 Y123.549 E158.49272
G0 F6000 X280.81 Y123.549
G1 F1200 X296.449 Y139.189 E159.22836
G0 F6000 X296.449 Y139.754
G1 F1200 X280.244 Y123.549 E159.99059
G0 F6000 X279.679 Y123.549
G1 F1200 X296.449 Y140.32 E160.77942
G0 F6000 X296.449 Y140.886
G1 F1200 X279.113 Y123.549 E161.59488
G0 F6000 X278.547 Y123.549
G1 F1200 X296.449 Y141.451 E162.43694
G0 F6000 X296.449 Y142.017
G1 F1200 X277.982 Y123.549 E163.30559
G0 F6000 X277.416 Y123.549
G1 F1200 X296.449 Y142.583 E164.20087
G0 F6000 X296.449 Y143.148
G1 F1200 X276.85 Y123.549 E165.12274
G0 F6000 X276.285 Y123.549
G1 F1200 X296.449 Y143.714 E166.07122
G0 F6000 X296.449 Y144.28
G1 F1200 X275.719 Y123.549 E167.04632
G0 F6000 X275.153 Y123.549
G1 F1200 X296.449 Y144.845 E168.04802
G0 F6000 X296.449 Y145.411
G1 F1200 X274.587 Y123.549 E169.07634
G0 F6000 X274.022 Y123.549
G1 F1200 X296.449 Y145.977 E170.13126
G0 F6000 X296.449 Y146.542
G1 F1200 X273.456 Y123.549 E171.21278
G0 F6000 X272.89 Y123.549
G1 F1200 X296.449 Y147.108 E172.32092
G0 F6000 X296.449 Y147.674
G1 F1200 X272.325 Y123.549 E173.45567
G0 F6000 X271.759 Y123.549
G1 F1200 X296.449 Y148.239 E174.61701
G0 F6000 X296.449 Y148.805
G1 F1200 X271.193 Y123.549 E175.80497
G0 F6000 X270.628 Y123.549
G1 F1200 X296.449 Y149.371 E177.01954
G0 F6000 X296.449 Y149.937
G1 F1200 X270.062 Y123.549 E178.26072
G0 F6000 X269.549 Y123.602
G1 F1200 X296.396 Y150.449 E179.52352
G0 F6000 X295.83 Y150.449
G1 F1200 X269.549 Y124.167 E180.75973
G0 F6000 X269.549 Y124.733
G1 F1200 X295.265 Y150.449 E181.96933
G0 F6000 X294.699 Y150.449
G1 F1200 X269.549 Y125.299 E183.15231
G0 F6000 X269.549 Y125.865
G1 F1200 X294.133 Y150.449 E184.30866
G0 F6000 X293.568 Y150.449
G1 F1200 X269.549 Y126.43 E185.43844
G0 F6000 X269.549 Y126.996
G1 F1200 X293.002 Y150.449 E186.5416
G0 F6000 X292.436 Y150.449
G1 F1200 X269.549 Y127.562 E187.61813
G0 F6000 X269.549 Y128.127
G1 F1200 X291.871 Y150.449 E188.66809
G0 F6000 X291.305 Y150.449
G1 F1200 X269.549 Y128.693 E189.69143
G0 F6000 X269.549 Y129.259
G1 F1200 X290.739 Y150.449 E190.68814
G0 F6000 X290.173 Y150.449
G1 F1200 X269.549 Y129.824 E191.65825
G0 F6000 X269.549 Y130.39
G1 F1200 X289.608 Y150.449 E192.60177
G0 F6000 X289.042 Y150.449
G1 F1200 X269.549 Y130.956 E193.51866
G0 F6000 X269.549 Y131.521
G1 F1200 X288.476 Y150.449 E194.40895
G0 F6000 X287.911 Y150.449
G1 F1200 X269.549 Y132.087 E195.27264
G0 F6000 X269.549 Y132.653
G1 F1200 X287.345 Y150.449 E196.10971
G0 F6000 X286.779 Y150.449
G1 F1200 X269.549 Y133.218 E196.92018
G0 F6000 X269.549 Y133.784
G1 F1200 X286.214 Y150.449 E197.70405
G0 F6000 X285.648 Y150.449
G1 F1200 X269.549 Y134.35 E198.4613
G0 F6000 X269.549 Y134.915
G1 F1200 X285.082 Y150.449 E199.19195
G0 F6000 X284.517 Y150.449
G1 F1200 X269.549 Y135.481 E199.896
G0 F6000 X269.549 Y136.047
G1 F1200 X283.951 Y150.449 E200.57342
G0 F6000 X283.385 Y150.449
G1 F1200 X269.549 Y136.613 E201.22423
G0 F6000 X269.549 Y137.178
G1 F1200 X282.82 Y150.449 E201.84845
G0 F6000 X282.254 Y150.449
G1 F1200 X269.549 Y137.744 E202.44606
G0 F6000 X269.549 Y138.31
G1 F1200 X281.688 Y150.449 E203.01704
G0 F6000 X281.123 Y150.449
G1 F1200 X269.549 Y138.875 E203.56144
G0 F6000 X269.549 Y139.441
G1 F1200 X280.557 Y150.449 E204.07923
G0 F6000 X279.991 Y150.449
G1 F1200 X269.549 Y140.007 E204.57039
G0 F6000 X269.549 Y140.572
G1 F1200 X279.425 Y150.449 E205.03495
G0 F6000 X278.86 Y150.449
G1 F1200 X269.549 Y141.138 E205.47291
G0 F6000 X269.549 Y141.704
G1 F1200 X278.294 Y150.449 E205.88425
G0 F6000 X277.728 Y150.449
G1 F1200 X269.549 Y142.269 E206.26898
G0 F6000 X269.549 Y142.835
G1 F1200 X277.163 Y150.449 E206.62712
G0 F6000 X276.597 Y150.449
G1 F1200 X269.549 Y143.401 E206.95864
G0 F6000 X269.549 Y143.966
G1 F1200 X276.031 Y150.449 E207.26356
G0 F6000 X275.466 Y150.449
G1 F1200 X269.549 Y144.532 E207.54187
G0 F6000 X269.549 Y145.098
G1 F1200 X274.9 Y150.449 E207.79357
G0 F6000 X274.334 Y150.449
G1 F1200 X269.549 Y145.663 E208.01866
G0 F6000 X269.549 Y146.229
G1 F1200 X273.769 Y150.449 E208.21716
G0 F6000 X273.203 Y150.449
G1 F1200 X269.549 Y146.795 E208.38903
G0 F6000 X269.549 Y147.361
G1 F1200 X272.637 Y150.449 E208.53428
G0 F6000 X272.072 Y150.449
G1 F1200 X269.549 Y147.926 E208.65296
G0 F6000 X269.549 Y148.492
G1 F1200 X271.506 Y150.449 E208.74501
G0 F6000 X270.94 Y150.449
G1 F1200 X269.549 Y149.058 E208.81044
G0 F6000 X269.549 Y149.623
G1 F1200 X270.375 Y150.449 E208.84929
G0 F6000 X269.809 Y150.449
G1 F1200 X269.549 Y150.189 E208.86152
G1 F2700 E203.86152
G0 F6000 X269.11 Y150.189
G0 X269.112 Y151.66
G0 X297.328 Y151.672
G0 X297.328 Y262.328
G0 X269.39 Y263.11
G0 X269.39 Y263.39
G1 F2700 E208.86152
G1 F1200 X296.61 Y263.39 E209.76686
G1 X296.61 Y290.61 E210.6722
G1 X269.39 Y290.61 E211.57754
G1 X269.39 Y263.39 E212.48288
G0 F6000 X269.39 Y263.11
G0 X296.818 Y263.182
G0 X296.89 Y263.639
G0 X296.448 Y263.639
G1 F1200 X296.359 Y263.55 E212.48707
G0 F6000 X295.794 Y263.55
G1 F1200 X296.448 Y264.204 E212.51783
G0 F6000 X296.448 Y264.77
G1 F1200 X295.228 Y263.55 E212.57522
G0 F6000 X294.662 Y263.55
G1 F1200 X296.448 Y265.336 E212.65922
G0 F6000 X296.448 Y265.901
G1 F1200 X294.097 Y263.55 E212.76981
G0 F6000 X293.531 Y263.55
G1 F1200 X296.448 Y266.467 E212.90701
G0 F6000 X296.448 Y267.033
G1 F1200 X292.965 Y263.55 E213.07084
G0 F6000 X292.399 Y263.55
G1 F1200 X296.448 Y267.598 E213.26127
G0 F6000 X296.448 Y268.164
G1 F1200 X291.834 Y263.55 E213.4783
G0 F6000 X291.268 Y263.55
G1 F1200 X296.448 Y268.73 E213.72195
G0 F6000 X296.448 Y269.295
G1 F1200 X290.702 Y263.55 E213.9922
G0 F6000 X290.137 Y263.55
G1 F1200 X296.448 Y269.861 E214.28905
G0 F6000 X296.448 Y270.427
G1 F1200 X289.571 Y263.55 E214.61253
G0 F6000 X289.005 Y263.55
G1 F1200 X296.448 Y270.993 E214.96262
G0 F6000 X296.448 Y271.558
G1 F1200 X288.44 Y263.55 E215.33929
G0 F6000 X287.874 Y263.55
G1 F1200 X296.448 Y272.124 E215.74259
G0 F6000 X296.448 Y272.69
G1 F1200 X287.308 Y263.55 E216.17251
G0 F6000 X286.743 Y263.55
G1 F1200 X296.448 Y273.255 E216.629
G0 F6000 X296.448 Y273.821
G1 F1200 X286.177 Y263.55 E217.11212
G0 F6000 X285.611 Y263.55
G1 F1200 X296.448 Y274.387 E217.62186
G0 F6000 X296.448 Y274.952
G1 F1200 X285.046 Y263.55 E218.15817
G0 F6000 X284.48 Y263.55
G1 F1200 X296.448 Y275.518 E218.72111
G0 F6000 X296.448 Y276.084
G1 F1200 X283.914 Y263.55 E219.31067
G0 F6000 X283.349 Y263.55
G1 F1200 X296.448 Y276.649 E219.92681
G0 F6000 X296.448 Y277.215
G1 F1200 X282.783 Y263.55 E220.56957
G0 F6000 X282.217 Y263.55
G1 F1200 X296.448 Y277.781 E221.23895
G0 F6000 X296.448 Y278.346
G1 F1200 X281.651 Y263.55 E221.93493
G0 F6000 X281.086 Y263.55
G1 F1200 X296.448 Y278.912 E222.65751
G0 F6000 X296.448 Y279.478
G1 F1200 X280.52 Y263.55 E223.40672
G0 F6000 X279.954 Y263.55
G1 F1200 X296.448 Y280.043 E224.18252
G0 F6000 X296.448 Y280.609
G1 F1200 X279.389 Y263.55 E224.98492
G0 F6000 X278.823 Y263.55
G1 F1200 X296.448 Y281.175 E225.81395
G0 F6000 X296.448 Y281.741
G1 F1200 X278.257 Y263.55 E226.6696
G0 F6000 X277.692 Y263.55
G1 F1200 X296.448 Y282.306 E227.55182
G0 F6000 X296.448 Y282.872
G1 F1200 X277.126 Y263.55 E228.46067
G0 F6000 X276.56 Y263.55
G1 F1200 X296.448 Y283.438 E229.39614
G0 F6000 X296.448 Y284.003
G1 F1200 X275.995 Y263.55 E230.35819
G0 F6000 X275.429 Y263.55
G1 F1200 X296.448 Y284.569 E231.34686
G0 F6000 X296.448 Y285.135
G1 F1200 X274.863 Y263.55 E232.36215
G0 F6000 X274.298 Y263.55
G1 F1200 X296.448 Y285.7 E233.40402
G0 F6000 X296.448 Y286.266
G1 F1200 X273.732 Y263.55 E234.47251
G0 F6000 X273.166 Y263.55
G1 F1200 X296.448 Y286.832 E235.56762
G0 F6000 X296.448 Y287.397
G1 F1200 X272.6 Y263.55 E236.68934
G0 F6000 X272.035 Y263.55
G1 F1200 X296.448 Y287.963 E237.83765
G0 F6000 X296.448 Y288.529
G1 F1200 X271.469 Y263.55 E239.01258
G0 F6000 X270.903 Y263.55
G1 F1200 X296.448 Y289.094 E240.21412
G0 F6000 X296.448 Y289.66
G1 F1200 X270.338 Y263.55 E241.44225
G0 F6000 X269.772 Y263.55
G1 F1200 X296.448 Y290.226 E242.69701
G0 F6000 X296.105 Y290.449
G1 F1200 X269.549 Y263.892 E243.94615
G0 F6000 X269.549 Y264.457
G1 F1200 X295.54 Y290.449 E245.16871
G0 F6000 X294.974 Y290.449
G1 F1200 X269.549 Y265.023 E246.36464
G0 F6000 X269.549 Y265.589
G1 F1200 X294.408 Y290.449 E247.53396
G0 F6000 X293.843 Y290.449
G1 F1200 X269.549 Y266.154 E248.6767
G0 F6000 X269.549 Y266.72
G1 F1200 X293.277 Y290.449 E249.79281
G0 F6000 X292.711 Y290.449
G1 F1200 X269.549 Y267.286 E250.88231
G0 F6000 X269.549 Y267.852
G1 F1200 X292.146 Y290.449 E251.9452
G0 F6000 X291.58 Y290.449
G1 F1200 X269.549 Y268.417 E252.98149
G0 F6000 X269.549 Y268.983
G1 F1200 X291.014 Y290.449 E253.99117
G0 F6000 X290.449 Y290.449
G1 F1200 X269.549 Y269.549 E254.97424
G0 F6000 X269.549 Y270.114
G1 F1200 X289.883 Y290.449 E255.93071
G0 F6000 X289.317 Y290.449
G1 F1200 X269.549 Y270.68 E256.86056
G0 F6000 X269.549 Y271.246
