;FLAVOR:Marlin
;TIME:1478
;Filament used: 0.669606m
;Layer height: 0.2
;MINX:1.2
;MINY:1.7
;MINZ:0.2
;MAXX:302.8
;MAXY:264.3
;MAXZ:0.2
;Generated with Cura_SteamEngine master
M140 S62
M105
M190 S62
M104 S200
M105
M109 S200
M82 ;absolute extrusion mode
M201 X500.00 Y500.00 Z100.00 E5000.00 ;Setup machine max acceleration
M203 X500.00 Y500.00 Z10.00 E50.00 ;Setup machine max feedrate
M204 P500.00 R1000.00 T500.00 ;Setup Print/Retract/Travel acceleration
M205 X8.00 Y8.00 Z0.40 E5.00 ;Setup Jerk
M220 S100 ;Reset Feedrate
M221 S100 ;Reset Flowrate

G28 ;Home

G92 E0 ;Reset Extruder
G1 Z2.0 F3000 ;Move Z Axis up
G1 X10.1 Y20 Z0.28 F5000.0 ;Move to start position
G1 X10.1 Y200.0 Z0.28 F1500.0 E15 ;Draw the first line
G1 X10.4 Y200.0 Z0.28 F5000.0 ;Move to side a little
G1 X10.4 Y20 Z0.28 F1500.0 E30 ;Draw the second line
G92 E0 ;Reset Extruder
G1 Z2.0 F3000 ;Move Z Axis up

G92 E0
G92 E0
G1 F2700 E-5
;LAYER_COUNT:1
;LAYER:0
M107
;MESH:dimension_test.stl
G0 F6000 X30.4 Y30.9 Z0.2
;TYPE:WALL-INNER
G1 F2700 E0
G1 F900 X1.6 Y30.9 E0.95789
G1 X1.6 Y2.1 E1.91578
G1 X30.4 Y2.1 E2.87368
G1 X30.4 Y30.9 E3.83157
G1 F2700 E-1.16843
G0 F6000 X1.672 Y31.172
G0 X1.672 Y105.328
G0 X30.4 Y105.6
G1 F2700 E3.83157
G1 F900 X30.4 Y134.4 E4.78946
G1 X1.6 Y134.4 E5.74735
G1 X1.6 Y105.6 E6.70524
G1 X30.4 Y105.6 E7.66314
G1 F2700 E2.66314
G0 F6000 X30.4 Y134.66
G0 X1.672 Y134.672
G0 X1.672 Y234.828
G0 X30.4 Y235.1
G1 F2700 E7.66314
G1 F900 X30.4 Y263.9 E8.62103
G1 X1.6 Y263.9 E9.57892
G1 X1.6 Y235.1 E10.53681
G1 X30.4 Y235.1 E11.4947
G1 F2700 E6.4947
G0 F6000 X30.672 Y263.828
G0 X137.328 Y263.828
G0 X137.6 Y235.1
G1 F2700 E11.4947
G1 F900 X166.4 Y235.1 E12.45259
G1 X166.4 Y263.9 E13.41049
G1 X137.6 Y263.9 E14.36838
G1 X137.6 Y235.1 E15.32627
G1 F2700 E10.32627
G0 F6000 X166.66 Y235.1
G0 X166.672 Y263.828
G0 X273.328 Y263.828
G0 X273.6 Y235.1
G1 F2700 E15.32627
G1 F900 X302.4 Y235.1 E16.28416
G1 X302.4 Y263.9 E17.24205
G1 X273.6 Y263.9 E18.19995
G1 X273.6 Y235.1 E19.15784
G1 F2700 E14.15784
G0 F6000 X302.328 Y234.828
G0 X302.328 Y134.672
G0 X273.6 Y134.66
G0 X273.6 Y105.6
G1 F2700 E19.15784
G1 F900 X302.4 Y105.6 E20.11573
G1 X302.4 Y134.4 E21.07362
G1 X273.6 Y134.4 E22.03151
G1 X273.6 Y105.6 E22.98941
G1 F2700 E17.98941
G0 F6000 X302.328 Y105.328
G0 X302.328 Y31.172
G0 X273.6 Y30.9
G1 F2700 E22.98941
G1 F900 X273.6 Y2.1 E23.9473
G1 X302.4 Y2.1 E24.90519
G1 X302.4 Y30.9 E25.86308
G1 X273.6 Y30.9 E26.82097
G1 F2700 E21.82097
G0 F6000 X273.328 Y2.172
G0 X166.672 Y2.172
G0 X166.66 Y30.9
G0 X137.6 Y30.9
G1 F2700 E26.82097
G1 F900 X137.6 Y2.1 E27.77886
G1 X166.4 Y2.1 E28.73676
G1 X166.4 Y30.9 E29.69465
G1 X137.6 Y30.9 E30.65254
G1 F2700 E25.65254
G0 F6000 X137.328 Y2.172
G0 X30.672 Y2.172
G0 X30.672 Y31.172
G0 X1.672 Y31.172
G0 X1.672 Y105.328
G0 X1.672 Y234.828
G0 X30.672 Y234.828
G0 X30.672 Y263.828
G0 X137.328 Y263.828
G0 X137.328 Y234.828
G0 X166.218 Y235.282
G0 X166.6 Y263.7
G0 X166.8 Y263.7
;TYPE:WALL-OUTER
G1 F2700 E30.65254
G1 F900 X273.2 Y263.7 E34.19142
G1 X273.2 Y234.7 E35.15596
G1 X302.2 Y234.7 E36.12051
G1 X302.2 Y134.8 E39.44319
G1 X273.2 Y134.8 E40.40774
G1 X273.2 Y105.2 E41.39224
G1 X302.2 Y105.2 E42.35678
G1 X302.2 Y31.3 E44.81471
G1 X273.2 Y31.3 E45.77925
G1 X273.2 Y2.3 E46.74379
G1 X166.8 Y2.3 E50.28267
G1 X166.8 Y31.3 E51.24722
G1 X137.2 Y31.3 E52.23172
G1 X137.2 Y2.3 E53.19626
G1 X30.8 Y2.3 E56.73514
G1 X30.8 Y31.3 E57.69968
G1 X1.8 Y31.3 E58.66423
G1 X1.8 Y105.2 E61.12215
G1 X30.8 Y105.2 E62.08669
G1 X30.8 Y134.8 E63.07119
G1 X1.8 Y134.8 E64.03574
G1 X1.8 Y234.7 E67.35843
G1 X30.8 Y234.7 E68.32297
G1 X30.8 Y263.7 E69.28751
G1 X137.2 Y263.7 E72.82639
G1 X137.2 Y234.7 E73.79094
G1 X166.8 Y234.7 E74.77544
G1 X166.8 Y263.7 E75.73998
G1 F2700 E70.73998
G0 F6000 X166.6 Y263.7
G0 X166.657 Y263.803
G0 X302.63 Y264.13
G0 X302.8 Y264.3
G1 F2700 E75.73998
G1 F900 X1.2 Y264.3 E85.77124
G1 X1.2 Y1.7 E94.50535
G1 X302.8 Y1.7 E104.5366
G1 X302.8 Y264.3 E113.27072
G0 F6000 X302.63 Y264.13
G0 X302.29 Y263.51
G0 X302.01 Y263.51
;TYPE:SKIN
G1 F900 X273.99 Y263.51 E114.20266
G1 X273.99 Y235.49 E115.13461
G1 X302.01 Y235.49 E116.06656
G1 X302.01 Y263.51 E116.99851
G0 F6000 X302.29 Y263.51
G0 X302.29 Y236.229
G0 X301.849 Y236.229
G1 F900 X301.269 Y235.65 E117.02577
G0 F6000 X300.704 Y235.65
G1 F900 X301.849 Y236.795 E117.07963
G0 F6000 X301.849 Y237.36
G1 F900 X300.138 Y235.65 E117.16008
G0 F6000 X299.572 Y235.65
G1 F900 X301.849 Y237.926 E117.26716
G0 F6000 X301.849 Y238.492
G1 F900 X299.007 Y235.65 E117.40084
G0 F6000 X298.441 Y235.65
G1 F900 X301.849 Y239.057 E117.56112
G0 F6000 X301.849 Y239.623
G1 F900 X297.875 Y235.65 E117.74802
G0 F6000 X297.31 Y235.65
G1 F900 X301.849 Y240.189 E117.96152
G0 F6000 X301.849 Y240.755
G1 F900 X296.744 Y235.65 E118.20165
G0 F6000 X296.178 Y235.65
G1 F900 X301.849 Y241.32 E118.46837
G0 F6000 X301.849 Y241.886
G1 F900 X295.613 Y235.65 E118.76169
G0 F6000 X295.047 Y235.65
G1 F900 X301.849 Y242.452 E119.08164
G0 F6000 X301.849 Y243.017
G1 F900 X294.481 Y235.65 E119.42818
G0 F6000 X293.916 Y235.65
G1 F900 X301.849 Y243.583 E119.80133
G0 F6000 X301.849 Y244.149
G1 F900 X293.35 Y235.65 E120.20109
G0 F6000 X292.784 Y235.65
G1 F900 X301.849 Y244.714 E120.62746
G0 F6000 X301.849 Y245.28
G1 F900 X292.218 Y235.65 E121.08045
G0 F6000 X291.653 Y235.65
G1 F900 X301.849 Y245.846 E121.56004
G0 F6000 X301.849 Y246.411
G1 F900 X291.087 Y235.65 E122.06622
G0 F6000 X290.521 Y235.65
G1 F900 X301.849 Y246.977 E122.59903
G0 F6000 X301.849 Y247.543
G1 F900 X289.956 Y235.65 E123.15845
G0 F6000 X289.39 Y235.65
G1 F900 X301.849 Y248.108 E123.74445
G0 F6000 X301.849 Y248.674
G1 F900 X288.824 Y235.65 E124.35709
G0 F6000 X288.259 Y235.65
G1 F900 X301.849 Y249.24 E124.99632
G0 F6000 X301.849 Y249.805
G1 F900 X287.693 Y235.65 E125.66215
G0 F6000 X287.127 Y235.65
G1 F900 X301.849 Y250.371 E126.3546
G0 F6000 X301.849 Y250.937
G1 F900 X286.562 Y235.65 E127.07366
G0 F6000 X285.996 Y235.65
G1 F900 X301.849 Y251.503 E127.81934
G0 F6000 X301.849 Y252.068
G1 F900 X285.43 Y235.65 E128.59161
G0 F6000 X284.865 Y235.65
G1 F900 X301.849 Y252.634 E129.39049
G0 F6000 X301.849 Y253.2
G1 F900 X284.299 Y235.65 E130.21598
G0 F6000 X283.733 Y235.65
G1 F900 X301.849 Y253.765 E131.06808
G0 F6000 X301.849 Y254.331
G1 F900 X283.167 Y235.65 E131.9468
G0 F6000 X282.602 Y235.65
G1 F900 X301.849 Y254.897 E132.85212
G0 F6000 X301.849 Y255.462
G1 F900 X282.036 Y235.65 E133.78404
G0 F6000 X281.47 Y235.65
G1 F900 X301.849 Y256.028 E134.74258
G0 F6000 X301.849 Y256.594
G1 F900 X280.905 Y235.65 E135.72773
G0 F6000 X280.339 Y235.65
G1 F900 X301.849 Y257.159 E136.73947
G0 F6000 X301.849 Y257.725
G1 F900 X279.773 Y235.65 E137.77783
G0 F6000 X279.208 Y235.65
G1 F900 X301.849 Y258.291 E138.84279
G0 F6000 X301.849 Y258.856
G1 F900 X278.642 Y235.65 E139.93436
G0 F6000 X278.076 Y235.65
G1 F900 X301.849 Y259.422 E141.05254
G0 F6000 X301.849 Y259.988
G1 F900 X277.511 Y235.65 E142.19733
G0 F6000 X276.945 Y235.65
G1 F900 X301.849 Y260.553 E143.36871
G0 F6000 X301.849 Y261.119
G1 F900 X276.379 Y235.65 E144.56672
G0 F6000 X275.814 Y235.65
G1 F900 X301.849 Y261.685 E145.79132
G0 F6000 X301.849 Y262.251
G1 F900 X275.248 Y235.65 E147.04255
G0 F6000 X274.682 Y235.65
G1 F900 X301.849 Y262.816 E148.32038
G0 F6000 X301.816 Y263.349
G1 F900 X274.148 Y235.682 E149.62178
G0 F6000 X274.148 Y236.247
G1 F900 X301.25 Y263.349 E150.89657
G0 F6000 X300.685 Y263.349
G1 F900 X274.148 Y236.813 E152.14477
G0 F6000 X274.148 Y237.379
G1 F900 X300.119 Y263.349 E153.36634
G0 F6000 X299.553 Y263.349
G1 F900 X274.148 Y237.944 E154.56131
G0 F6000 X274.148 Y238.51
G1 F900 X298.988 Y263.349 E155.72969
G0 F6000 X298.422 Y263.349
G1 F900 X274.148 Y239.076 E156.87144
G0 F6000 X274.148 Y239.642
G1 F900 X297.856 Y263.349 E157.98657
G0 F6000 X297.291 Y263.349
G1 F900 X274.148 Y240.207 E159.07512
G0 F6000 X274.148 Y240.773
G1 F900 X296.725 Y263.349 E160.13705
G0 F6000 X296.159 Y263.349
G1 F900 X274.148 Y241.339 E161.17235
G0 F6000 X274.148 Y241.904
G1 F900 X295.593 Y263.349 E162.18106
G0 F6000 X295.028 Y263.349
G1 F900 X274.148 Y242.47 E163.16317
G0 F6000 X274.148 Y243.036
G1 F900 X294.462 Y263.349 E164.11865
G0 F6000 X293.896 Y263.349
G1 F900 X274.148 Y243.601 E165.04754
G0 F6000 X274.148 Y244.167
G1 F900 X293.331 Y263.349 E165.94983
G0 F6000 X292.765 Y263.349
G1 F900 X274.148 Y244.733 E166.82549
G0 F6000 X274.148 Y245.298
G1 F900 X292.199 Y263.349 E167.67455
G0 F6000 X291.634 Y263.349
G1 F900 X274.148 Y245.864 E168.49702
G0 F6000 X274.148 Y246.43
G1 F900 X291.068 Y263.349 E169.29286
G0 F6000 X290.502 Y263.349
G1 F900 X274.148 Y246.995 E170.0621
G0 F6000 X274.148 Y247.561
G1 F900 X289.937 Y263.349 E170.80474
G0 F6000 X289.371 Y263.349
G1 F900 X274.148 Y248.127 E171.52076
G0 F6000 X274.148 Y248.692
G1 F900 X288.805 Y263.349 E172.21018
G0 F6000 X288.24 Y263.349
G1 F900 X274.148 Y249.258 E172.873
G0 F6000 X274.148 Y249.824
G1 F900 X287.674 Y263.349 E173.5092
G0 F6000 X287.108 Y263.349
G1 F900 X274.148 Y250.39 E174.11878
G0 F6000 X274.148 Y250.955
G1 F900 X286.543 Y263.349 E174.70178
G0 F6000 X285.977 Y263.349
G1 F900 X274.148 Y251.521 E175.25815
G0 F6000 X274.148 Y252.087
G1 F900 X285.411 Y263.349 E175.78791
G0 F6000 X284.845 Y263.349
G1 F900 X274.148 Y252.652 E176.29106
G0 F6000 X274.148 Y253.218
G1 F900 X284.28 Y263.349 E176.76761
G0 F6000 X283.714 Y263.349
G1 F900 X274.148 Y253.784 E177.21755
G0 F6000 X274.148 Y254.349
G1 F900 X283.148 Y263.349 E177.64088
G0 F6000 X282.583 Y263.349
G1 F900 X274.148 Y254.915 E178.03761
G0 F6000 X274.148 Y255.481
G1 F900 X282.017 Y263.349 E178.40772
G0 F6000 X281.451 Y263.349
G1 F900 X274.148 Y256.046 E178.75123
G0 F6000 X274.148 Y256.612
G1 F900 X280.886 Y263.349 E179.06814
G0 F6000 X280.32 Y263.349
G1 F900 X274.148 Y257.178 E179.35843
G0 F6000 X274.148 Y257.743
G1 F900 X279.754 Y263.349 E179.62212
G0 F6000 X279.189 Y263.349
G1 F900 X274.148 Y258.309 E179.85921
G0 F6000 X274.148 Y258.875
G1 F900 X278.623 Y263.349 E180.06968
G0 F6000 X278.057 Y263.349
G1 F900 X274.148 Y259.441 E180.25352
G0 F6000 X274.148 Y260.006
G1 F900 X277.492 Y263.349 E180.41079
G0 F6000 X276.926 Y263.349
G1 F900 X274.148 Y260.572 E180.54144
G0 F6000 X274.148 Y261.138
G1 F900 X276.36 Y263.349 E180.64546
G0 F6000 X275.794 Y263.349
G1 F900 X274.148 Y261.703 E180.72288
G0 F6000 X274.148 Y262.269
G1 F900 X275.229 Y263.349 E180.7737
G0 F6000 X274.663 Y263.349
G1 F900 X274.148 Y262.835 E180.7979
G1 F2700 E175.7979
G0 F6000 X273.71 Y262.835
G0 X273.71 Y234.84
G0 X302.328 Y234.828
G0 X302.328 Y134.672
G0 X273.71 Y134.66
G0 X273.71 Y134.01
G0 X273.99 Y134.01
G1 F2700 E180.7979
G1 F900 X273.99 Y105.99 E181.72985
G1 X302.01 Y105.99 E182.6618
G1 X302.01 Y134.01 E183.59375
G1 X273.99 Y134.01 E184.5257
G0 F6000 X274.705 Y133.849
G1 F900 X274.148 Y133.293 E184.55188
G0 F6000 X274.148 Y132.727
G1 F900 X275.271 Y133.849 E184.60468
G0 F6000 X275.836 Y133.849
G1 F900 X274.148 Y132.161 E184.68407
G0 F6000 X274.148 Y131.596
G1 F900 X276.402 Y133.849 E184.79007
G0 F6000 X276.968 Y133.849
G1 F900 X274.148 Y131.03 E184.92269
G0 F6000 X274.148 Y130.464
G1 F900 X277.533 Y133.849 E185.08191
G0 F6000 X278.099 Y133.849
G1 F900 X274.148 Y129.899 E185.26773
G0 F6000 X274.148 Y129.333
G1 F900 X278.665 Y133.849 E185.48017
G0 F6000 X279.23 Y133.849
G1 F900 X274.148 Y128.767 E185.71922
G0 F6000 X274.148 Y128.201
G1 F900 X279.796 Y133.849 E185.98488
G0 F6000 X280.362 Y133.849
G1 F900 X274.148 Y127.636 E186.27714
G0 F6000 X274.148 Y127.07
G1 F900 X280.927 Y133.849 E186.59601
G0 F6000 X281.493 Y133.849
G1 F900 X274.148 Y126.504 E186.94149
G0 F6000 X274.148 Y125.939
G1 F900 X282.059 Y133.849 E187.31358
G0 F6000 X282.624 Y133.849
G1 F900 X274.148 Y125.373 E187.71226
G0 F6000 X274.148 Y124.807
G1 F900 X283.19 Y133.849 E188.13757
G0 F6000 X283.756 Y133.849
G1 F900 X274.148 Y124.242 E188.58948
G0 F6000 X274.148 Y123.676
G1 F900 X284.321 Y133.849 E189.06799
G0 F6000 X284.887 Y133.849
G1 F900 X274.148 Y123.11 E189.57312
G0 F6000 X274.148 Y122.545
G1 F900 X285.453 Y133.849 E190.10484
G0 F6000 X286.019 Y133.849
G1 F900 X274.148 Y121.979 E190.6632
G0 F6000 X274.148 Y121.413
G1 F900 X286.584 Y133.849 E191.24815
G0 F6000 X287.15 Y133.849
G1 F900 X274.148 Y120.848 E191.8597
G0 F6000 X274.148 Y120.282
G1 F900 X287.716 Y133.849 E192.49787
G0 F6000 X288.281 Y133.849
G1 F900 X274.148 Y119.716 E193.16265
G0 F6000 X274.148 Y119.151
G1 F900 X288.847 Y133.849 E193.85402
G0 F6000 X289.413 Y133.849
G1 F900 X274.148 Y118.585 E194.57201
G0 F6000 X274.148 Y118.019
G1 F900 X289.978 Y133.849 E195.31661
G0 F6000 X290.544 Y133.849
G1 F900 X274.148 Y117.453 E196.08783
G0 F6000 X274.148 Y116.888
G1 F900 X291.11 Y133.849 E196.88564
G0 F6000 X291.675 Y133.849
G1 F900 X274.148 Y116.322 E197.71006
G0 F6000 X274.148 Y115.756
G1 F900 X292.241 Y133.849 E198.5611
G0 F6000 X292.807 Y133.849
G1 F900 X274.148 Y115.191 E199.43874
G0 F6000 X274.148 Y114.625
G1 F900 X293.372 Y133.849 E200.34297
G0 F6000 X293.938 Y133.849
G1 F900 X274.148 Y114.059 E201.27384
G0 F6000 X274.148 Y113.494
G1 F900 X294.504 Y133.849 E202.2313
G0 F6000 X295.07 Y133.849
G1 F900 X274.148 Y112.928 E203.21538
G0 F6000 X274.148 Y112.362
G1 F900 X295.635 Y133.849 E204.22606
G0 F6000 X296.201 Y133.849
G1 F900 X274.148 Y111.797 E205.26334
G0 F6000 X274.148 Y111.231
G1 F900 X296.767 Y133.849 E206.32725
G0 F6000 X297.332 Y133.849
G1 F900 X274.148 Y110.665 E207.41775
G0 F6000 X274.148 Y110.1
G1 F900 X297.898 Y133.849 E208.53486
G0 F6000 X298.464 Y133.849
G1 F900 X274.148 Y109.534 E209.67858
G0 F6000 X274.148 Y108.968
G1 F900 X299.029 Y133.849 E210.84891
G0 F6000 X299.595 Y133.849
G1 F900 X274.148 Y108.403 E212.04583
G0 F6000 X274.148 Y107.837
G1 F900 X300.161 Y133.849 E213.26938
G0 F6000 X300.726 Y133.849
G1 F900 X274.148 Y107.271 E214.51953
G0 F6000 X274.148 Y106.705
G1 F900 X301.292 Y133.849 E215.7963
G0 F6000 X301.849 Y133.84
G1 F900 X274.158 Y106.15 E217.09878
G0 F6000 X274.724 Y106.15
G1 F900 X301.849 Y133.274 E218.37463
G0 F6000 X301.849 Y132.709
G1 F900 X275.29 Y106.15 E219.62388
G0 F6000 X275.855 Y106.15
G1 F900 X301.849 Y132.143 E220.84654
G0 F6000 X301.849 Y131.577
G1 F900 X276.421 Y106.15 E222.04257
G0 F6000 X276.987 Y106.15
G1 F900 X301.849 Y131.012 E223.212
G0 F6000 X301.849 Y130.446
G1 F900 X277.552 Y106.15 E224.35484
G0 F6000 X278.118 Y106.15
G1 F900 X301.849 Y129.88 E225.47105
G0 F6000 X301.849 Y129.314
G1 F900 X278.684 Y106.15 E226.56063
G0 F6000 X279.249 Y106.15
G1 F900 X301.849 Y128.749 E227.62364
G0 F6000 X301.849 Y128.183
G1 F900 X279.815 Y106.15 E228.66003
G0 F6000 X280.381 Y106.15
G1 F900 X301.849 Y127.617 E229.6698
G0 F6000 X301.849 Y127.052
G1 F900 X280.946 Y106.15 E230.65299
G0 F6000 X281.512 Y106.15
G1 F900 X301.849 Y126.486 E231.60955
G0 F6000 X301.849 Y125.92
G1 F900 X282.078 Y106.15 E232.5395
G0 F6000 X282.644 Y106.15
G1 F900 X301.849 Y125.355 E233.44284
G0 F6000 X301.849 Y124.789
G1 F900 X283.209 Y106.15 E234.31959
G0 F6000 X283.775 Y106.15
G1 F900 X301.849 Y124.223 E235.16971
G0 F6000 X301.849 Y123.658
G1 F900 X284.341 Y106.15 E235.99323
G0 F6000 X284.906 Y106.15
G1 F900 X301.849 Y123.092 E236.79015
G0 F6000 X301.849 Y122.526
G1 F900 X285.472 Y106.15 E237.56045
G0 F6000 X286.038 Y106.15
G1 F900 X301.849 Y121.961 E238.30416
G0 F6000 X301.849 Y121.395
G1 F900 X286.603 Y106.15 E239.02126
G0 F6000 X287.169 Y106.15
G1 F900 X301.849 Y120.829 E239.71174
G0 F6000 X301.849 Y120.264
G1 F900 X287.735 Y106.15 E240.37562
G0 F6000 X288.3 Y106.15
G1 F900 X301.849 Y119.698 E241.0129
G0 F6000 X301.849 Y119.132
G1 F900 X288.866 Y106.15 E241.62355
G0 F6000 X289.432 Y106.15
G1 F900 X301.849 Y118.566 E242.20759
G0 F6000 X301.849 Y118.001
G1 F900 X289.997 Y106.15 E242.76504
G0 F6000 X290.563 Y106.15
G1 F900 X301.849 Y117.435 E243.29588
G0 F6000 X301.849 Y116.869
G1 F900 X291.129 Y106.15 E243.80009
G0 F6000 X291.694 Y106.15
G1 F900 X301.849 Y116.304 E244.27773
G0 F6000 X301.849 Y115.738
G1 F900 X292.26 Y106.15 E244.72874
G0 F6000 X292.826 Y106.15
G1 F900 X301.849 Y115.172 E245.15313
G0 F6000 X301.849 Y114.607
G1 F900 X293.392 Y106.15 E245.55092
G0 F6000 X293.957 Y106.15
G1 F900 X301.849 Y114.041 E245.92212
G0 F6000 X301.849 Y113.475
G1 F900 X294.523 Y106.15 E246.26669
G0 F6000 X295.089 Y106.15
