;FLAVOR:Marlin
;TIME:14153
;Filament used: 6.99471m
;Layer height: 0.2
;MINX:1.2
;MINY:1.2
;MINZ:0.2
;MAXX:296.8
;MAXY:284.8
;MAXZ:0.2
;Generated with Cura_SteamEngine master
M140 S62
M105
M190 S62
M104 S200
M105
M109 S200
M82 ;absolute extrusion mode
M201 X500.00 Y500.00 Z100.00 E5000.00 ;Setup machine max acceleration
M203 X500.00 Y500.00 Z10.00 E50.00 ;Setup machine max feedrate
M204 P500.00 R1000.00 T500.00 ;Setup Print/Retract/Travel acceleration
M205 X8.00 Y8.00 Z0.40 E5.00 ;Setup Jerk
M220 S100 ;Reset Feedrate
M221 S100 ;Reset Flowrate

G28 ;Home

G92 E0 ;Reset Extruder
G1 Z2.0 F3000 ;Move Z Axis up
G1 X10.1 Y20 Z0.28 F5000.0 ;Move to start position
G1 X10.1 Y200.0 Z0.28 F1500.0 E15 ;Draw the first line
G1 X10.4 Y200.0 Z0.28 F5000.0 ;Move to side a little
G1 X10.4 Y20 Z0.28 F1500.0 E30 ;Draw the second line
G92 E0 ;Reset Extruder
G1 Z2.0 F3000 ;Move Z Axis up

G92 E0
G92 E0
G1 F2700 E-5
;LAYER_COUNT:1
;LAYER:0
M107
;MESH:really_big_square.stl
G0 F6000 X296.4 Y284.4 Z0.2
;TYPE:WALL-INNER
G1 F2700 E0
G1 F900 X1.6 Y284.4 E9.80509
G1 X1.6 Y1.6 E19.21105
G1 X296.4 Y1.6 E29.01614
G1 X296.4 Y284.4 E38.42211
G0 F6000 X296.8 Y284.8
;TYPE:WALL-OUTER
G1 F900 X1.2 Y284.8 E48.2538
G1 X1.2 Y1.2 E57.68638
G1 X296.8 Y1.2 E67.51807
G1 X296.8 Y284.8 E76.95065
G0 F6000 X296.53 Y284.53
G0 X296.29 Y284.01
G0 X296.01 Y284.01
;TYPE:SKIN
G1 F900 X1.99 Y284.01 E86.72979
G1 X1.99 Y1.99 E96.10982
G1 X296.01 Y1.99 E105.88896
G1 X296.01 Y284.01 E115.26898
G1 F2700 E110.26898
G0 F6000 X296.29 Y284.01
G0 X296.29 Y2.258
G0 X295.849 Y2.258
G1 F2700 E115.26898
G1 F900 X295.74 Y2.149 E115.27411
G0 F6000 X295.174 Y2.149
G1 F900 X295.849 Y2.824 E115.30586
G0 F6000 X295.849 Y3.389
G1 F900 X294.608 Y2.149 E115.36421
G0 F6000 X294.043 Y2.149
G1 F900 X295.849 Y3.955 E115.44916
G0 F6000 X295.849 Y4.521
G1 F900 X293.477 Y2.149 E115.56073
G0 F6000 X292.911 Y2.149
G1 F900 X295.849 Y5.086 E115.6989
G0 F6000 X295.849 Y5.652
G1 F900 X292.346 Y2.149 E115.86367
G0 F6000 X291.78 Y2.149
G1 F900 X295.849 Y6.218 E116.05507
G0 F6000 X295.849 Y6.783
G1 F900 X291.214 Y2.149 E116.27306
G0 F6000 X290.649 Y2.149
G1 F900 X295.849 Y7.349 E116.51765
G0 F6000 X295.849 Y7.915
G1 F900 X290.083 Y2.149 E116.78887
G0 F6000 X289.517 Y2.149
G1 F900 X295.849 Y8.481 E117.0867
G0 F6000 X295.849 Y9.046
G1 F900 X288.952 Y2.149 E117.41112
G0 F6000 X288.386 Y2.149
G1 F900 X295.849 Y9.612 E117.76215
G0 F6000 X295.849 Y10.178
G1 F900 X287.82 Y2.149 E118.13981
G0 F6000 X287.255 Y2.149
G1 F900 X295.849 Y10.743 E118.54405
G0 F6000 X295.849 Y11.309
G1 F900 X286.689 Y2.149 E118.97491
G0 F6000 X286.123 Y2.149
G1 F900 X295.849 Y11.875 E119.43239
G0 F6000 X295.849 Y12.44
G1 F900 X285.558 Y2.149 E119.91645
G0 F6000 X284.992 Y2.149
G1 F900 X295.849 Y13.006 E120.42713
G0 F6000 X295.849 Y13.572
G1 F900 X284.426 Y2.149 E120.96443
G0 F6000 X283.86 Y2.149
G1 F900 X295.849 Y14.137 E121.52833
G0 F6000 X295.849 Y14.703
G1 F900 X283.295 Y2.149 E122.11883
G0 F6000 X282.729 Y2.149
G1 F900 X295.849 Y15.269 E122.73596
G0 F6000 X295.849 Y15.834
G1 F900 X282.163 Y2.149 E123.37968
G0 F6000 X281.598 Y2.149
G1 F900 X295.849 Y16.4 E124.05
G0 F6000 X295.849 Y16.966
G1 F900 X281.032 Y2.149 E124.74695
G0 F6000 X280.466 Y2.149
G1 F900 X295.849 Y17.532 E125.47052
G0 F6000 X295.849 Y18.097
G1 F900 X279.901 Y2.149 E126.22066
G0 F6000 X279.335 Y2.149
G1 F900 X295.849 Y18.663 E126.99743
G0 F6000 X295.849 Y19.229
G1 F900 X278.769 Y2.149 E127.80082
G0 F6000 X278.204 Y2.149
G1 F900 X295.849 Y19.794 E128.63079
G0 F6000 X295.849 Y20.36
G1 F900 X277.638 Y2.149 E129.48738
G0 F6000 X277.072 Y2.149
G1 F900 X295.849 Y20.926 E130.37059
G0 F6000 X295.849 Y21.491
G1 F900 X276.507 Y2.149 E131.28038
G0 F6000 X275.941 Y2.149
G1 F900 X295.849 Y22.057 E132.21679
G0 F6000 X295.849 Y22.623
G1 F900 X275.375 Y2.149 E133.17983
G0 F6000 X274.809 Y2.149
G1 F900 X295.849 Y23.188 E134.16946
G0 F6000 X295.849 Y23.754
G1 F900 X274.244 Y2.149 E135.18569
G0 F6000 X273.678 Y2.149
G1 F900 X295.849 Y24.32 E136.22855
G0 F6000 X295.849 Y24.885
G1 F900 X273.112 Y2.149 E137.298
G0 F6000 X272.547 Y2.149
G1 F900 X295.849 Y25.451 E138.39406
G0 F6000 X295.849 Y26.017
G1 F900 X271.981 Y2.149 E139.51674
G0 F6000 X271.415 Y2.149
G1 F900 X295.849 Y26.582 E140.66601
G0 F6000 X295.849 Y27.148
G1 F900 X270.85 Y2.149 E141.84189
G0 F6000 X270.284 Y2.149
G1 F900 X295.849 Y27.714 E143.04439
G0 F6000 X295.849 Y28.28
G1 F900 X269.718 Y2.149 E144.27351
G0 F6000 X269.153 Y2.149
G1 F900 X295.849 Y28.845 E145.52921
G0 F6000 X295.849 Y29.411
G1 F900 X268.587 Y2.149 E146.81153
G0 F6000 X268.021 Y2.149
G1 F900 X295.849 Y29.977 E148.12047
G0 F6000 X295.849 Y30.542
G1 F900 X267.456 Y2.149 E149.45599
G0 F6000 X266.89 Y2.149
G1 F900 X295.849 Y31.108 E150.81814
G0 F6000 X295.849 Y31.674
G1 F900 X266.324 Y2.149 E152.2069
G0 F6000 X265.759 Y2.149
G1 F900 X295.849 Y32.239 E153.62224
G0 F6000 X295.849 Y32.805
G1 F900 X265.193 Y2.149 E155.06421
G0 F6000 X264.627 Y2.149
G1 F900 X295.849 Y33.371 E156.53279
G0 F6000 X295.849 Y33.936
G1 F900 X264.061 Y2.149 E158.02798
G0 F6000 X263.496 Y2.149
G1 F900 X295.849 Y34.502 E159.54977
G0 F6000 X295.849 Y35.068
G1 F900 X262.93 Y2.149 E161.09818
G0 F6000 X262.364 Y2.149
G1 F900 X295.849 Y35.633 E162.67318
G0 F6000 X295.849 Y36.199
G1 F900 X261.799 Y2.149 E164.27479
G0 F6000 X261.233 Y2.149
G1 F900 X295.849 Y36.765 E165.90302
G0 F6000 X295.849 Y37.33
G1 F900 X260.667 Y2.149 E167.55785
G0 F6000 X260.102 Y2.149
G1 F900 X295.849 Y37.896 E169.23928
G0 F6000 X295.849 Y38.462
G1 F900 X259.536 Y2.149 E170.94733
G0 F6000 X258.97 Y2.149
G1 F900 X295.849 Y39.028 E172.68201
G0 F6000 X295.849 Y39.593
G1 F900 X258.405 Y2.149 E174.44326
G0 F6000 X257.839 Y2.149
G1 F900 X295.849 Y40.159 E176.23113
G0 F6000 X295.849 Y40.725
G1 F900 X257.273 Y2.149 E178.04563
G0 F6000 X256.708 Y2.149
G1 F900 X295.849 Y41.29 E179.8867
G0 F6000 X295.849 Y41.856
G1 F900 X256.142 Y2.149 E181.7544
G0 F6000 X255.576 Y2.149
G1 F900 X295.849 Y42.422 E183.64872
G0 F6000 X295.849 Y42.987
G1 F900 X255.01 Y2.149 E185.56963
G0 F6000 X254.445 Y2.149
G1 F900 X295.849 Y43.553 E187.51715
G0 F6000 X295.849 Y44.119
G1 F900 X253.879 Y2.149 E189.49129
G0 F6000 X253.313 Y2.149
G1 F900 X295.849 Y44.684 E191.49203
G0 F6000 X295.849 Y45.25
G1 F900 X252.748 Y2.149 E193.51937
G0 F6000 X252.182 Y2.149
G1 F900 X295.849 Y45.816 E195.57333
G0 F6000 X295.849 Y46.381
G1 F900 X251.616 Y2.149 E197.65389
G0 F6000 X251.051 Y2.149
G1 F900 X295.849 Y46.947 E199.76105
G0 F6000 X295.849 Y47.513
G1 F900 X250.485 Y2.149 E201.89484
G0 F6000 X249.919 Y2.149
G1 F900 X295.849 Y48.079 E204.05524
G0 F6000 X295.849 Y48.644
G1 F900 X249.354 Y2.149 E206.24223
G0 F6000 X248.788 Y2.149
G1 F900 X295.849 Y49.21 E208.45583
G0 F6000 X295.849 Y49.776
G1 F900 X248.222 Y2.149 E210.69606
G0 F6000 X247.657 Y2.149
G1 F900 X295.849 Y50.341 E212.96286
G0 F6000 X295.849 Y50.907
G1 F900 X247.091 Y2.149 E215.25629
G0 F6000 X246.525 Y2.149
G1 F900 X295.849 Y51.473 E217.57634
G0 F6000 X295.849 Y52.038
G1 F900 X245.96 Y2.149 E219.92296
G0 F6000 X245.394 Y2.149
G1 F900 X295.849 Y52.604 E222.29621
G0 F6000 X295.849 Y53.17
G1 F900 X244.828 Y2.149 E224.69608
G0 F6000 X244.262 Y2.149
G1 F900 X295.849 Y53.735 E227.12256
G0 F6000 X295.849 Y54.301
G1 F900 X243.697 Y2.149 E229.57563
G0 F6000 X243.131 Y2.149
G1 F900 X295.849 Y54.867 E232.05532
G0 F6000 X295.849 Y55.432
G1 F900 X242.565 Y2.149 E234.56161
G0 F6000 X242 Y2.149
G1 F900 X295.849 Y55.998 E237.0945
G0 F6000 X295.849 Y56.564
G1 F900 X241.434 Y2.149 E239.65402
G0 F6000 X240.868 Y2.149
G1 F900 X295.849 Y57.129 E242.24013
G0 F6000 X295.849 Y57.695
G1 F900 X240.303 Y2.149 E244.85285
G0 F6000 X239.737 Y2.149
G1 F900 X295.849 Y58.261 E247.49218
G0 F6000 X295.849 Y58.827
G1 F900 X239.171 Y2.149 E250.15814
G0 F6000 X238.606 Y2.149
G1 F900 X295.849 Y59.392 E252.85068
G0 F6000 X295.849 Y59.958
G1 F900 X238.04 Y2.149 E255.56983
G0 F6000 X237.474 Y2.149
G1 F900 X295.849 Y60.524 E258.31562
G0 F6000 X295.849 Y61.089
G1 F900 X236.909 Y2.149 E261.08797
G0 F6000 X236.343 Y2.149
G1 F900 X295.849 Y61.655 E263.88695
G0 F6000 X295.849 Y62.221
G1 F900 X235.777 Y2.149 E266.71255
G0 F6000 X235.211 Y2.149
G1 F900 X295.849 Y62.786 E269.56476
G0 F6000 X295.849 Y63.352
G1 F900 X234.646 Y2.149 E272.44356
G0 F6000 X234.08 Y2.149
G1 F900 X295.849 Y63.918 E275.34898
G0 F6000 X295.849 Y64.483
G1 F900 X233.514 Y2.149 E278.28101
G0 F6000 X232.949 Y2.149
G1 F900 X295.849 Y65.049 E281.23963
G0 F6000 X295.849 Y65.615
G1 F900 X232.383 Y2.149 E284.22488
G0 F6000 X231.817 Y2.149
G1 F900 X295.849 Y66.18 E287.23672
G0 F6000 X295.849 Y66.746
G1 F900 X231.252 Y2.149 E290.27517
G0 F6000 X230.686 Y2.149
G1 F900 X295.849 Y67.312 E293.34023
G0 F6000 X295.849 Y67.878
G1 F900 X230.12 Y2.149 E296.43192
G0 F6000 X229.555 Y2.149
G1 F900 X295.849 Y68.443 E299.55019
G0 F6000 X295.849 Y69.009
G1 F900 X228.989 Y2.149 E302.69508
G0 F6000 X228.423 Y2.149
G1 F900 X295.849 Y69.575 E305.86659
G0 F6000 X295.849 Y70.14
G1 F900 X227.858 Y2.149 E309.06468
G0 F6000 X227.292 Y2.149
G1 F900 X295.849 Y70.706 E312.28939
G0 F6000 X295.849 Y71.272
G1 F900 X226.726 Y2.149 E315.54073
G0 F6000 X226.161 Y2.149
G1 F900 X295.849 Y71.837 E318.81864
G0 F6000 X295.849 Y72.403
G1 F900 X225.595 Y2.149 E322.12317
G0 F6000 X225.029 Y2.149
G1 F900 X295.849 Y72.969 E325.45432
G0 F6000 X295.849 Y73.534
G1 F900 X224.463 Y2.149 E328.81208
G0 F6000 X223.898 Y2.149
G1 F900 X295.849 Y74.1 E332.19643
G0 F6000 X295.849 Y74.666
G1 F900 X223.332 Y2.149 E335.60741
G0 F6000 X222.766 Y2.149
G1 F900 X295.849 Y75.231 E339.04499
G0 F6000 X295.849 Y75.797
G1 F900 X222.201 Y2.149 E342.50916
G0 F6000 X221.635 Y2.149
G1 F900 X295.849 Y76.363 E345.99996
G0 F6000 X295.849 Y76.928
G1 F900 X221.069 Y2.149 E349.51736
G0 F6000 X220.504 Y2.149
G1 F900 X295.849 Y77.494 E353.06136
G0 F6000 X295.849 Y78.06
G1 F900 X219.938 Y2.149 E356.63198
G0 F6000 X219.372 Y2.149
G1 F900 X295.849 Y78.626 E360.22922
G0 F6000 X295.849 Y79.191
G1 F900 X218.807 Y2.149 E363.85304
G0 F6000 X218.241 Y2.149
G1 F900 X295.849 Y79.757 E367.50349
G0 F6000 X295.849 Y80.323
G1 F900 X217.675 Y2.149 E371.18055
G0 F6000 X217.11 Y2.149
G1 F900 X295.849 Y80.888 E374.88419
G0 F6000 X295.849 Y81.454
G1 F900 X216.544 Y2.149 E378.61446
G0 F6000 X215.978 Y2.149
G1 F900 X295.849 Y82.02 E382.37134
G0 F6000 X295.849 Y82.585
G1 F900 X215.413 Y2.149 E386.15481
G0 F6000 X214.847 Y2.149
G1 F900 X295.849 Y83.151 E389.96489
G0 F6000 X295.849 Y83.717
G1 F900 X214.281 Y2.149 E393.8016
G0 F6000 X213.715 Y2.149
G1 F900 X295.849 Y84.282 E397.66491
G0 F6000 X295.849 Y84.848
G1 F900 X213.15 Y2.149 E401.55482
G0 F6000 X212.584 Y2.149
G1 F900 X295.849 Y85.414 E405.47135
G0 F6000 X295.849 Y85.979
G1 F900 X212.018 Y2.149 E409.41448
G0 F6000 X211.453 Y2.149
G1 F900 X295.849 Y86.545 E413.3842
G0 F6000 X295.849 Y87.111
G1 F900 X210.887 Y2.149 E417.38056
G0 F6000 X210.321 Y2.149
G1 F900 X295.849 Y87.676 E421.40351
G0 F6000 X295.849 Y88.242
G1 F900 X209.756 Y2.149 E425.45306
G0 F6000 X209.19 Y2.149
G1 F900 X295.849 Y88.808 E429.52923
G0 F6000 X295.849 Y89.374
G1 F900 X208.624 Y2.149 E433.63203
G0 F6000 X208.059 Y2.149
G1 F900 X295.849 Y89.939 E437.7614
G0 F6000 X295.849 Y90.505
G1 F900 X207.493 Y2.149 E441.9174
G0 F6000 X206.927 Y2.149
G1 F900 X295.849 Y91.071 E446.10002
G0 F6000 X295.849 Y91.636
G1 F900 X206.362 Y2.149 E450.30921
G0 F6000 X205.796 Y2.149
G1 F900 X295.849 Y92.202 E454.54503
G0 F6000 X295.849 Y92.768
G1 F900 X205.23 Y2.149 E458.80747
G0 F6000 X204.664 Y2.149
G1 F900 X295.849 Y93.333 E463.09651
G0 F6000 X295.849 Y93.899
G1 F900 X204.099 Y2.149 E467.41214
G0 F6000 X203.533 Y2.149
G1 F900 X295.849 Y94.465 E471.75441
G0 F6000 X295.849 Y95.03
G1 F900 X202.967 Y2.149 E476.12327
G0 F6000 X202.402 Y2.149
G1 F900 X295.849 Y95.596 E480.51873
G0 F6000 X295.849 Y96.162
G1 F900 X201.836 Y2.149 E484.94081
G0 F6000 X201.27 Y2.149
G1 F900 X295.849 Y96.727 E489.38949
G0 F6000 X295.849 Y97.293
G1 F900 X200.705 Y2.149 E493.86478
G0 F6000 X200.139 Y2.149
G1 F900 X295.849 Y97.859 E498.36668
G0 F6000 X295.849 Y98.425
G1 F900 X199.573 Y2.149 E502.89521
G0 F6000 X199.008 Y2.149
G1 F900 X295.849 Y98.99 E507.45031
G0 F6000 X295.849 Y99.556
G1 F900 X198.442 Y2.149 E512.03204
G0 F6000 X197.876 Y2.149
G1 F900 X295.849 Y100.122 E516.64039
G0 F6000 X295.849 Y100.687
G1 F900 X197.311 Y2.149 E521.27531
G0 F6000 X196.745 Y2.149
G1 F900 X295.849 Y101.253 E525.93686
G0 F6000 X295.849 Y101.819
G1 F900 X196.179 Y2.149 E530.62503
G0 F6000 X195.614 Y2.149
G1 F900 X295.849 Y102.384 E535.33978
G0 F6000 X295.849 Y102.95
G1 F900 X195.048 Y2.149 E540.08115
G0 F6000 X194.482 Y2.149
G1 F900 X295.849 Y103.516 E544.84914
G0 F6000 X295.849 Y104.081
G1 F900 X193.916 Y2.149 E549.64374
G0 F6000 X193.351 Y2.149
G1 F900 X295.849 Y104.647 E554.46493
G0 F6000 X295.849 Y105.213
G1 F900 X192.785 Y2.149 E559.31274
G0 F6000 X192.219 Y2.149
G1 F900 X295.849 Y105.778 E564.18716
G0 F6000 X295.849 Y106.344
G1 F900 X191.654 Y2.149 E569.08817
G0 F6000 X191.088 Y2.149
G1 F900 X295.849 Y106.91 E574.0158
G0 F6000 X295.849 Y107.475
G1 F900 X190.522 Y2.149 E578.97004
G0 F6000 X189.957 Y2.149
G1 F900 X295.849 Y108.041 E583.95088
G0 F6000 X295.849 Y108.607
G1 F900 X189.391 Y2.149 E588.95833
G0 F6000 X188.825 Y2.149
G1 F900 X295.849 Y109.173 E593.99241
G0 F6000 X295.849 Y109.738
G1 F900 X188.26 Y2.149 E599.05307
G0 F6000 X187.694 Y2.149
G1 F900 X295.849 Y110.304 E604.14035
G0 F6000 X295.849 Y110.87
G1 F900 X187.128 Y2.149 E609.25425
G0 F6000 X186.563 Y2.149
G1 F900 X295.849 Y111.435 E614.39473
G0 F6000 X295.849 Y112.001
G1 F900 X185.997 Y2.149 E619.56183
G0 F6000 X185.431 Y2.149
G1 F900 X295.849 Y112.567 E624.75556
G0 F6000 X295.849 Y113.132
G1 F900 X184.865 Y2.149 E629.97588
G0 F6000 X184.3 Y2.149
G1 F900 X295.849 Y113.698 E635.2228
G0 F6000 X295.849 Y114.264
G1 F900 X183.734 Y2.149 E640.49635
G0 F6000 X183.168 Y2.149
G1 F900 X295.849 Y114.829 E645.79649
G0 F6000 X295.849 Y115.395
G1 F900 X182.603 Y2.149 E651.12324
G0 F6000 X182.037 Y2.149
G1 F900 X295.849 Y115.961 E656.47661
G0 F6000 X295.849 Y116.526
G1 F900 X181.471 Y2.149 E661.85657
G0 F6000 X180.906 Y2.149
G1 F900 X295.849 Y117.092 E667.26314
G0 F6000 X295.849 Y117.658
G1 F900 X180.34 Y2.149 E672.69633
G0 F6000 X179.774 Y2.149
G1 F900 X295.849 Y118.224 E678.15614
G0 F6000 X295.849 Y118.789
G1 F900 X179.209 Y2.149 E683.64253
G0 F6000 X178.643 Y2.149
G1 F900 X295.849 Y119.355 E689.15554
G0 F6000 X295.849 Y119.921
G1 F900 X178.077 Y2.149 E694.69517
G0 F6000 X177.512 Y2.149
G1 F900 X295.849 Y120.486 E700.26138
G0 F6000 X295.849 Y121.052
G1 F900 X176.946 Y2.149 E705.85422
G0 F6000 X176.38 Y2.149
G1 F900 X295.849 Y121.618 E711.47367
G0 F6000 X295.849 Y122.183
G1 F900 X175.815 Y2.149 E717.1197
G0 F6000 X175.249 Y2.149
G1 F900 X295.849 Y122.749 E722.79236
G0 F6000 X295.849 Y123.315
G1 F900 X174.683 Y2.149 E728.49163
G0 F6000 X174.117 Y2.149
G1 F900 X295.849 Y123.88 E734.21751
G0 F6000 X295.849 Y124.446
G1 F900 X173.552 Y2.149 E739.96999
G0 F6000 X172.986 Y2.149
G1 F900 X295.849 Y125.012 E745.74909
G0 F6000 X295.849 Y125.577
G1 F900 X172.42 Y2.149 E751.55478
G0 F6000 X171.855 Y2.149
G1 F900 X295.849 Y126.143 E757.38708
G0 F6000 X295.849 Y126.709
G1 F900 X171.289 Y2.149 E763.246
G0 F6000 X170.723 Y2.149
G1 F900 X295.849 Y127.274 E769.13152
G0 F6000 X295.849 Y127.84
G1 F900 X170.158 Y2.149 E775.04364
G0 F6000 X169.592 Y2.149
G1 F900 X295.849 Y128.406 E780.98238
G0 F6000 X295.849 Y128.972
G1 F900 X169.026 Y2.149 E786.94775
G0 F6000 X168.461 Y2.149
G1 F900 X295.849 Y129.537 E792.93969
G0 F6000 X295.849 Y130.103
G1 F900 X167.895 Y2.149 E798.95825
G0 F6000 X167.329 Y2.149
G1 F900 X295.849 Y130.669 E805.00344
G0 F6000 X295.849 Y131.234
G1 F900 X166.764 Y2.149 E811.0752
G0 F6000 X166.198 Y2.149
G1 F900 X295.849 Y131.8 E817.17359
G0 F6000 X295.849 Y132.366
G1 F900 X165.632 Y2.149 E823.2986
G0 F6000 X165.067 Y2.149
G1 F900 X295.849 Y132.931 E829.45018
G0 F6000 X295.849 Y133.497
G1 F900 X164.501 Y2.149 E835.62839
G0 F6000 X163.935 Y2.149
G1 F900 X295.849 Y134.063 E841.83322
G0 F6000 X295.849 Y134.628
G1 F900 X163.369 Y2.149 E848.06465
G0 F6000 X162.804 Y2.149
G1 F900 X295.849 Y135.194 E854.32268
G0 F6000 X295.849 Y135.76
G1 F900 X162.238 Y2.149 E860.60733
G0 F6000 X161.672 Y2.149
