;FLAVOR:Marlin
;TIME:1479
;Filament used: 0.672227m
;Layer height: 0.2
;MINX:1.2
;MINY:1.2
;MINZ:0.2
;MAXX:296.8
;MAXY:284.8
;MAXZ:0.2
;Generated with Cura_SteamEngine master
M140 S62
M105
M190 S62
M104 S200
M105
M109 S200
M82 ;absolute extrusion mode
M201 X500.00 Y500.00 Z100.00 E5000.00 ;Setup machine max acceleration
M203 X500.00 Y500.00 Z10.00 E50.00 ;Setup machine max feedrate
M204 P500.00 R1000.00 T500.00 ;Setup Print/Retract/Travel acceleration
M205 X8.00 Y8.00 Z0.40 E5.00 ;Setup Jerk
M220 S100 ;Reset Feedrate
M221 S100 ;Reset Flowrate

G28 ;Home

G92 E0 ;Reset Extruder
G1 Z2.0 F3000 ;Move Z Axis up
G1 X10.1 Y20 Z0.28 F5000.0 ;Move to start position
G1 X10.1 Y200.0 Z0.28 F1500.0 E15 ;Draw the first line
G1 X10.4 Y200.0 Z0.28 F5000.0 ;Move to side a little
G1 X10.4 Y20 Z0.28 F1500.0 E30 ;Draw the second line
G92 E0 ;Reset Extruder
G1 Z2.0 F3000 ;Move Z Axis up

G92 E0
G92 E0
G1 F2700 E-5
;LAYER_COUNT:1
;LAYER:0
M107
;MESH:dimension_test.stl
G0 F6000 X30.4 Y30.4 Z0.2
;TYPE:WALL-INNER
G1 F2700 E0
G1 F900 X1.6 Y30.4 E0.95789
G1 X1.6 Y1.6 E1.91578
G1 X30.4 Y1.6 E2.87368
G1 X30.4 Y30.4 E3.83157
G1 F2700 E-1.16843
G0 F6000 X1.672 Y30.672
G0 X1.672 Y115.328
G0 X30.4 Y115.6
G1 F2700 E3.83157
G1 F900 X30.4 Y144.4 E4.78946
G1 X1.6 Y144.4 E5.74735
G1 X1.6 Y115.6 E6.70524
G1 X30.4 Y115.6 E7.66314
G1 F2700 E2.66314
G0 F6000 X1.672 Y115.328
G0 X1.672 Y30.672
G0 X30.672 Y30.672
G0 X30.672 Y1.672
G0 X134.328 Y1.672
G0 X134.6 Y30.4
G1 F2700 E7.66314
G1 F900 X134.6 Y1.6 E8.62103
G1 X163.4 Y1.6 E9.57892
G1 X163.4 Y30.4 E10.53681
G1 X134.6 Y30.4 E11.4947
G1 F2700 E6.4947
G0 F6000 X163.66 Y30.4
G0 X163.672 Y1.672
G0 X267.328 Y1.672
G0 X267.6 Y30.4
G1 F2700 E11.4947
G1 F900 X267.6 Y1.6 E12.45259
G1 X296.4 Y1.6 E13.41049
G1 X296.4 Y30.4 E14.36838
G1 X267.6 Y30.4 E15.32627
G1 F2700 E10.32627
G0 F6000 X296.328 Y30.672
G0 X296.328 Y115.328
G0 X267.6 Y115.6
G1 F2700 E15.32627
G1 F900 X296.4 Y115.6 E16.28416
G1 X296.4 Y144.4 E17.24205
G1 X267.6 Y144.4 E18.19995
G1 X267.6 Y115.6 E19.15784
G1 F2700 E14.15784
G0 F6000 X267.6 Y144.66
G0 X296.328 Y144.672
G0 X296.328 Y255.328
G0 X267.6 Y255.6
G1 F2700 E19.15784
G1 F900 X296.4 Y255.6 E20.11573
G1 X296.4 Y284.4 E21.07362
G1 X267.6 Y284.4 E22.03151
G1 X267.6 Y255.6 E22.98941
G1 F2700 E17.98941
G0 F6000 X267.328 Y284.328
G0 X163.672 Y284.328
G0 X163.66 Y255.6
G0 X134.6 Y255.6
G1 F2700 E22.98941
G1 F900 X163.4 Y255.6 E23.9473
G1 X163.4 Y284.4 E24.90519
G1 X134.6 Y284.4 E25.86308
G1 X134.6 Y255.6 E26.82097
G1 F2700 E21.82097
G0 F6000 X134.328 Y284.328
G0 X30.672 Y284.328
G0 X30.4 Y255.6
G1 F2700 E26.82097
G1 F900 X30.4 Y284.4 E27.77886
G1 X1.6 Y284.4 E28.73676
G1 X1.6 Y255.6 E29.69465
G1 X30.4 Y255.6 E30.65254
G1 F2700 E25.65254
G0 F6000 X30.672 Y284.328
G0 X134.328 Y284.328
G0 X163.6 Y284.2
G0 X163.8 Y284.2
;TYPE:WALL-OUTER
G1 F2700 E30.65254
G1 F900 X267.2 Y284.2 E34.09164
G1 X267.2 Y255.2 E35.05618
G1 X296.2 Y255.2 E36.02073
G1 X296.2 Y144.8 E39.69265
G1 X267.2 Y144.8 E40.65719
G1 X267.2 Y115.2 E41.64169
G1 X296.2 Y115.2 E42.60623
G1 X296.2 Y30.8 E45.41339
G1 X267.2 Y30.8 E46.37793
G1 X267.2 Y1.8 E47.34248
G1 X163.8 Y1.8 E50.78157
G1 X163.8 Y30.8 E51.74612
G1 X134.2 Y30.8 E52.73062
G1 X134.2 Y1.8 E53.69516
G1 X30.8 Y1.8 E57.13426
G1 X30.8 Y30.8 E58.0988
G1 X1.8 Y30.8 E59.06335
G1 X1.8 Y115.2 E61.8705
G1 X30.8 Y115.2 E62.83505
G1 X30.8 Y144.8 E63.81955
G1 X1.8 Y144.8 E64.78409
G1 X1.8 Y255.2 E68.45601
G1 X30.8 Y255.2 E69.42055
G1 X30.8 Y284.2 E70.3851
G1 X134.2 Y284.2 E73.8242
G1 X134.2 Y255.2 E74.78874
G1 X163.8 Y255.2 E75.77324
G1 X163.8 Y284.2 E76.73778
G1 F2700 E71.73778
G0 F6000 X163.6 Y284.2
G0 X163.657 Y284.303
G0 X296.63 Y284.63
G0 X296.8 Y284.8
G1 F2700 E76.73778
G1 F900 X1.2 Y284.8 E86.56948
G1 X1.2 Y1.2 E96.00205
G1 X296.8 Y1.2 E105.83375
G1 X296.8 Y284.8 E115.26632
G0 F6000 X296.63 Y284.63
G0 X296.29 Y284.01
G0 X296.01 Y284.01
;TYPE:SKIN
G1 F900 X267.99 Y284.01 E116.19827
G1 X267.99 Y255.99 E117.13022
G1 X296.01 Y255.99 E118.06217
G1 X296.01 Y284.01 E118.99412
G0 F6000 X296.29 Y284.01
G0 X296.29 Y256.251
G0 X295.849 Y256.251
G1 F900 X295.748 Y256.15 E118.99887
G0 F6000 X295.182 Y256.15
G1 F900 X295.849 Y256.816 E119.03022
G0 F6000 X295.849 Y257.382
G1 F900 X294.616 Y256.15 E119.08819
G0 F6000 X294.051 Y256.15
G1 F900 X295.849 Y257.948 E119.17277
G0 F6000 X295.849 Y258.513
G1 F900 X293.485 Y256.15 E119.28394
G0 F6000 X292.919 Y256.15
G1 F900 X295.849 Y259.079 E119.42173
G0 F6000 X295.849 Y259.645
G1 F900 X292.354 Y256.15 E119.58613
G0 F6000 X291.788 Y256.15
G1 F900 X295.849 Y260.211 E119.77714
G0 F6000 X295.849 Y260.776
G1 F900 X291.222 Y256.15 E119.99476
G0 F6000 X290.656 Y256.15
G1 F900 X295.849 Y261.342 E120.239
G0 F6000 X295.849 Y261.908
G1 F900 X290.091 Y256.15 E120.50984
G0 F6000 X289.525 Y256.15
G1 F900 X295.849 Y262.473 E120.80728
G0 F6000 X295.849 Y263.039
G1 F900 X288.959 Y256.15 E121.13134
G0 F6000 X288.394 Y256.15
G1 F900 X295.849 Y263.605 E121.482
G0 F6000 X295.849 Y264.17
G1 F900 X287.828 Y256.15 E121.85926
G0 F6000 X287.262 Y256.15
G1 F900 X295.849 Y264.736 E122.26314
G0 F6000 X295.849 Y265.302
G1 F900 X286.697 Y256.15 E122.69362
G0 F6000 X286.131 Y256.15
G1 F900 X295.849 Y265.867 E123.1507
G0 F6000 X295.849 Y266.433
G1 F900 X285.565 Y256.15 E123.63441
G0 F6000 X285 Y256.15
G1 F900 X295.849 Y266.999 E124.14471
G0 F6000 X295.849 Y267.564
G1 F900 X284.434 Y256.15 E124.68161
G0 F6000 X283.868 Y256.15
G1 F900 X295.849 Y268.13 E125.24514
G0 F6000 X295.849 Y268.696
G1 F900 X283.303 Y256.15 E125.83527
G0 F6000 X282.737 Y256.15
G1 F900 X295.849 Y269.262 E126.45201
G0 F6000 X295.849 Y269.827
G1 F900 X282.171 Y256.15 E127.09536
G0 F6000 X281.605 Y256.15
G1 F900 X295.849 Y270.393 E127.76533
G0 F6000 X295.849 Y270.959
G1 F900 X281.04 Y256.15 E128.4619
G0 F6000 X280.474 Y256.15
G1 F900 X295.849 Y271.524 E129.18507
G0 F6000 X295.849 Y272.09
G1 F900 X279.908 Y256.15 E129.93486
G0 F6000 X279.343 Y256.15
G1 F900 X295.849 Y272.656 E130.71126
G0 F6000 X295.849 Y273.221
G1 F900 X278.777 Y256.15 E131.51425
G0 F6000 X278.211 Y256.15
G1 F900 X295.849 Y273.787 E132.34386
G0 F6000 X295.849 Y274.353
G1 F900 X277.646 Y256.15 E133.20007
G0 F6000 X277.08 Y256.15
G1 F900 X295.849 Y274.918 E134.08289
G0 F6000 X295.849 Y275.484
G1 F900 X276.514 Y256.15 E134.99232
G0 F6000 X275.949 Y256.15
G1 F900 X295.849 Y276.05 E135.92836
G0 F6000 X295.849 Y276.615
G1 F900 X275.383 Y256.15 E136.89099
G0 F6000 X274.817 Y256.15
G1 F900 X295.849 Y277.181 E137.88025
G0 F6000 X295.849 Y277.747
G1 F900 X274.252 Y256.15 E138.89611
G0 F6000 X273.686 Y256.15
G1 F900 X295.849 Y278.312 E139.93856
G0 F6000 X295.849 Y278.878
G1 F900 X273.12 Y256.15 E141.00764
G0 F6000 X272.555 Y256.15
G1 F900 X295.849 Y279.444 E142.10332
G0 F6000 X295.849 Y280.01
G1 F900 X271.989 Y256.15 E143.22562
G0 F6000 X271.423 Y256.15
G1 F900 X295.849 Y280.575 E144.37452
G0 F6000 X295.849 Y281.141
G1 F900 X270.857 Y256.15 E145.55004
G0 F6000 X270.292 Y256.15
G1 F900 X295.849 Y281.707 E146.75217
G0 F6000 X295.849 Y282.272
G1 F900 X269.726 Y256.15 E147.98089
G0 F6000 X269.16 Y256.15
G1 F900 X295.849 Y282.838 E149.23623
G0 F6000 X295.849 Y283.404
G1 F900 X268.595 Y256.15 E150.51818
G0 F6000 X268.149 Y256.27
G1 F900 X295.728 Y283.848 E151.81539
G0 F6000 X295.162 Y283.848
G1 F900 X268.149 Y256.836 E153.08597
G0 F6000 X268.149 Y257.401
G1 F900 X294.596 Y283.848 E154.32996
G0 F6000 X294.031 Y283.848
G1 F900 X268.149 Y257.967 E155.54734
G0 F6000 X268.149 Y258.533
G1 F900 X293.465 Y283.848 E156.73811
G0 F6000 X292.899 Y283.848
G1 F900 X268.149 Y259.098 E157.90227
G0 F6000 X268.149 Y259.664
G1 F900 X292.334 Y283.848 E159.03984
G0 F6000 X291.768 Y283.848
G1 F900 X268.149 Y260.23 E160.15078
G0 F6000 X268.149 Y260.795
G1 F900 X291.202 Y283.848 E161.23512
G0 F6000 X290.637 Y283.848
G1 F900 X268.149 Y261.361 E162.29286
G0 F6000 X268.149 Y261.927
G1 F900 X290.071 Y283.848 E163.32398
G0 F6000 X289.505 Y283.848
G1 F900 X268.149 Y262.492 E164.32851
G0 F6000 X268.149 Y263.058
G1 F900 X288.94 Y283.848 E165.30643
G0 F6000 X288.374 Y283.848
G1 F900 X268.149 Y263.624 E166.25773
G0 F6000 X268.149 Y264.189
G1 F900 X287.808 Y283.848 E167.18242
G0 F6000 X287.243 Y283.848
G1 F900 X268.149 Y264.755 E168.08052
G0 F6000 X268.149 Y265.321
G1 F900 X286.677 Y283.848 E168.952
G0 F6000 X286.111 Y283.848
G1 F900 X268.149 Y265.886 E169.79688
G0 F6000 X268.149 Y266.452
G1 F900 X285.545 Y283.848 E170.61513
G0 F6000 X284.98 Y283.848
G1 F900 X268.149 Y267.018 E171.40679
G0 F6000 X268.149 Y267.584
G1 F900 X284.414 Y283.848 E172.17182
G0 F6000 X283.848 Y283.848
G1 F900 X268.149 Y268.149 E172.91025
G0 F6000 X268.149 Y268.715
G1 F900 X283.283 Y283.848 E173.62209
G0 F6000 X282.717 Y283.848
G1 F900 X268.149 Y269.281 E174.3073
G0 F6000 X268.149 Y269.846
G1 F900 X282.151 Y283.848 E174.96591
G0 F6000 X281.586 Y283.848
G1 F900 X268.149 Y270.412 E175.59792
G0 F6000 X268.149 Y270.978
G1 F900 X281.02 Y283.848 E176.20331
G0 F6000 X280.454 Y283.848
G1 F900 X268.149 Y271.543 E176.7821
G0 F6000 X268.149 Y272.109
G1 F900 X279.889 Y283.848 E177.33429
G0 F6000 X279.323 Y283.848
G1 F900 X268.149 Y272.675 E177.85986
G0 F6000 X268.149 Y273.24
G1 F900 X278.757 Y283.848 E178.35882
G0 F6000 X278.192 Y283.848
G1 F900 X268.149 Y273.806 E178.83119
G0 F6000 X268.149 Y274.372
G1 F900 X277.626 Y283.848 E179.27694
G0 F6000 X277.06 Y283.848
G1 F900 X268.149 Y274.937 E179.69608
G0 F6000 X268.149 Y275.503
G1 F900 X276.495 Y283.848 E180.08863
G0 F6000 X275.929 Y283.848
G1 F900 X268.149 Y276.069 E180.45455
G0 F6000 X268.149 Y276.635
G1 F900 X275.363 Y283.848 E180.79385
G0 F6000 X274.797 Y283.848
G1 F900 X268.149 Y277.2 E181.10656
G0 F6000 X268.149 Y277.766
G1 F900 X274.232 Y283.848 E181.39266
G0 F6000 X273.666 Y283.848
G1 F900 X268.149 Y278.332 E181.65214
G0 F6000 X268.149 Y278.897
G1 F900 X273.1 Y283.848 E181.88502
G0 F6000 X272.535 Y283.848
G1 F900 X268.149 Y279.463 E182.0913
G0 F6000 X268.149 Y280.029
G1 F900 X271.969 Y283.848 E182.27096
G0 F6000 X271.403 Y283.848
G1 F900 X268.149 Y280.594 E182.42401
G0 F6000 X268.149 Y281.16
G1 F900 X270.838 Y283.848 E182.55047
G0 F6000 X270.272 Y283.848
G1 F900 X268.149 Y281.726 E182.65031
G0 F6000 X268.149 Y282.291
G1 F900 X269.706 Y283.848 E182.72354
G0 F6000 X269.141 Y283.848
G1 F900 X268.149 Y282.857 E182.77018
G0 F6000 X268.149 Y283.423
G1 F900 X268.575 Y283.848 E182.7902
G1 F2700 E177.7902
G0 F6000 X268.575 Y284.29
G0 X267.328 Y284.328
G0 X163.672 Y284.328
G0 X163.29 Y284.01
G0 X163.01 Y284.01
G1 F2700 E182.7902
G1 F900 X134.99 Y284.01 E183.72215
G1 X134.99 Y255.99 E184.65409
G1 X163.01 Y255.99 E185.58604
G1 X163.01 Y284.01 E186.51799
G0 F6000 X163.29 Y284.01
G0 X163.29 Y256.754
G0 X162.85 Y256.754
G1 F900 X162.245 Y256.149 E186.54645
G0 F6000 X161.679 Y256.149
G1 F900 X162.85 Y257.319 E186.60151
G0 F6000 X162.85 Y257.885
G1 F900 X161.114 Y256.149 E186.68316
G0 F6000 X160.548 Y256.149
G1 F900 X162.85 Y258.451 E186.79144
G0 F6000 X162.85 Y259.016
G1 F900 X159.982 Y256.149 E186.92632
G0 F6000 X159.417 Y256.149
G1 F900 X162.85 Y259.582 E187.0878
G0 F6000 X162.85 Y260.148
G1 F900 X158.851 Y256.149 E187.2759
G0 F6000 X158.285 Y256.149
G1 F900 X162.85 Y260.713 E187.4906
G0 F6000 X162.85 Y261.279
G1 F900 X157.72 Y256.149 E187.7319
G0 F6000 X157.154 Y256.149
G1 F900 X162.85 Y261.845 E187.99982
G0 F6000 X162.85 Y262.41
G1 F900 X156.588 Y256.149 E188.29434
G0 F6000 X156.023 Y256.149
G1 F900 X162.85 Y262.976 E188.61546
G0 F6000 X162.85 Y263.542
G1 F900 X155.457 Y256.149 E188.96321
G0 F6000 X154.891 Y256.149
G1 F900 X162.85 Y264.107 E189.33755
G0 F6000 X162.85 Y264.673
G1 F900 X154.326 Y256.149 E189.73849
G0 F6000 X153.76 Y256.149
G1 F900 X162.85 Y265.239 E190.16606
G0 F6000 X162.85 Y265.804
G1 F900 X153.194 Y256.149 E190.62022
G0 F6000 X152.628 Y256.149
G1 F900 X162.85 Y266.37 E191.10101
G0 F6000 X162.85 Y266.936
G1 F900 X152.063 Y256.149 E191.6084
G0 F6000 X151.497 Y256.149
G1 F900 X162.85 Y267.502 E192.14241
G0 F6000 X162.85 Y268.067
G1 F900 X150.931 Y256.149 E192.70302
G0 F6000 X150.366 Y256.149
G1 F900 X162.85 Y268.633 E193.29023
G0 F6000 X162.85 Y269.199
G1 F900 X149.8 Y256.149 E193.90406
G0 F6000 X149.234 Y256.149
G1 F900 X162.85 Y269.764 E194.54449
G0 F6000 X162.85 Y270.33
G1 F900 X148.669 Y256.149 E195.21152
G0 F6000 X148.103 Y256.149
G1 F900 X162.85 Y270.896 E195.90518
G0 F6000 X162.85 Y271.461
G1 F900 X147.537 Y256.149 E196.62543
G0 F6000 X146.972 Y256.149
G1 F900 X162.85 Y272.027 E197.37228
G0 F6000 X162.85 Y272.593
G1 F900 X146.406 Y256.149 E198.14576
G0 F6000 X145.84 Y256.149
G1 F900 X162.85 Y273.158 E198.94583
G0 F6000 X162.85 Y273.724
G1 F900 X145.275 Y256.149 E199.77251
G0 F6000 X144.709 Y256.149
G1 F900 X162.85 Y274.29 E200.6258
G0 F6000 X162.85 Y274.855
G1 F900 X144.143 Y256.149 E201.5057
G0 F6000 X143.578 Y256.149
G1 F900 X162.85 Y275.421 E202.4122
G0 F6000 X162.85 Y275.987
G1 F900 X143.012 Y256.149 E203.34531
G0 F6000 X142.446 Y256.149
G1 F900 X162.85 Y276.552 E204.30503
G0 F6000 X162.85 Y277.118
G1 F900 X141.88 Y256.149 E205.29137
G0 F6000 X141.315 Y256.149
G1 F900 X162.85 Y277.684 E206.30431
G0 F6000 X162.85 Y278.25
G1 F900 X140.749 Y256.149 E207.34388
G0 F6000 X140.183 Y256.149
G1 F900 X162.85 Y278.815 E208.41004
G0 F6000 X162.85 Y279.381
G1 F900 X139.618 Y256.149 E209.5028
G0 F6000 X139.052 Y256.149
G1 F900 X162.85 Y279.947 E210.62219
G0 F6000 X162.85 Y280.512
G1 F900 X138.486 Y256.149 E211.76817
G0 F6000 X137.921 Y256.149
G1 F900 X162.85 Y281.078 E212.94075
G0 F6000 X162.85 Y281.644
G1 F900 X137.355 Y256.149 E214.13996
G0 F6000 X136.789 Y256.149
G1 F900 X162.85 Y282.209 E215.36577
G0 F6000 X162.85 Y282.775
G1 F900 X136.224 Y256.149 E216.61817
G0 F6000 X135.658 Y256.149
G1 F900 X162.85 Y283.341 E217.8972
G0 F6000 X162.792 Y283.848
G1 F900 X135.15 Y256.206 E219.1974
G0 F6000 X135.15 Y256.772
G1 F900 X162.226 Y283.848 E220.47097
G0 F6000 X161.66 Y283.848
G1 F900 X135.15 Y257.338 E221.71792
G0 F6000 X135.15 Y257.903
G1 F900 X161.095 Y283.848 E222.93829
G0 F6000 X160.529 Y283.848
G1 F900 X135.15 Y258.469 E224.13204
G0 F6000 X135.15 Y259.035
G1 F900 X159.963 Y283.848 E225.29917
G0 F6000 X159.398 Y283.848
G1 F900 X135.15 Y259.6 E226.43972
G0 F6000 X135.15 Y260.166
G1 F900 X158.832 Y283.848 E227.55365
G0 F6000 X158.266 Y283.848
G1 F900 X135.15 Y260.732 E228.64095
G0 F6000 X135.15 Y261.297
G1 F900 X157.701 Y283.848 E229.70168
G0 F6000 X157.135 Y283.848
G1 F900 X135.15 Y261.863 E230.73579
G0 F6000 X135.15 Y262.429
G1 F900 X156.569 Y283.848 E231.74328
G0 F6000 X156.004 Y283.848
G1 F900 X135.15 Y262.994 E232.72418
G0 F6000 X135.15 Y263.56
G1 F900 X155.438 Y283.848 E233.67847
G0 F6000 X154.872 Y283.848
G1 F900 X135.15 Y264.126 E234.60613
G0 F6000 X135.15 Y264.691
G1 F900 X154.306 Y283.848 E235.50719
G0 F6000 X153.741 Y283.848
G1 F900 X135.15 Y265.257 E236.38166
G0 F6000 X135.15 Y265.823
G1 F900 X153.175 Y283.848 E237.2295
G0 F6000 X152.609 Y283.848
G1 F900 X135.15 Y266.389 E238.05072
G0 F6000 X135.15 Y266.954
G1 F900 X152.044 Y283.848 E238.84536
G0 F6000 X151.478 Y283.848
G1 F900 X135.15 Y267.52 E239.61338
G0 F6000 X135.15 Y268.086
G1 F900 X150.912 Y283.848 E240.35477
G0 F6000 X150.347 Y283.848
G1 F900 X135.15 Y268.651 E241.06959
G0 F6000 X135.15 Y269.217
G1 F900 X149.781 Y283.848 E241.75779
G0 F6000 X149.215 Y283.848
G1 F900 X135.15 Y269.783 E242.41937
G0 F6000 X135.15 Y270.348
G1 F900 X148.65 Y283.848 E243.05436
G0 F6000 X148.084 Y283.848
G1 F900 X135.15 Y270.914 E243.66274
G0 F6000 X135.15 Y271.48
G1 F900 X147.518 Y283.848 E244.24449
G0 F6000 X146.953 Y283.848
G1 F900 X135.15 Y272.045 E244.79967
G0 F6000 X135.15 Y272.611
G1 F900 X146.387 Y283.848 E245.32822
G0 F6000 X145.821 Y283.848
G1 F900 X135.15 Y273.177 E245.83015
G0 F6000 X135.15 Y273.742
G1 F900 X145.255 Y283.848 E246.30549
G0 F6000 X144.69 Y283.848
G1 F900 X135.15 Y274.308 E246.75422
G0 F6000 X135.15 Y274.874
G1 F900 X144.124 Y283.848 E247.17633
G0 F6000 X143.558 Y283.848
G1 F900 X135.15 Y275.44 E247.57181
G0 F6000 X135.15 Y276.005
G1 F900 X142.993 Y283.848 E247.94073
G0 F6000 X142.427 Y283.848
G1 F900 X135.15 Y276.571 E248.28301
G0 F6000 X135.15 Y277.137
G1 F900 X141.861 Y283.848 E248.59868
G0 F6000 X141.296 Y283.848
G1 F900 X135.15 Y277.702 E248.88777
G0 F6000 X135.15 Y278.268
