;FLAVOR:Marlin
;TIME:10654
;Filament used: 7.04358m
;Layer height: 0.2
;MINX:106.5
;MINY:106.5
;MINZ:0.2
;MAXX:193.5
;MAXY:193.5
;MAXZ:60
;Generated with Cura_SteamEngine master
M140 S55
M105
M190 S55
M104 S210
M105
M109 S210
M82 ;absolute extrusion mode
M201 X500.00 Y500.00 Z100.00 E5000.00 ;Setup machine max acceleration
M203 X500.00 Y500.00 Z10.00 E50.00 ;Setup machine max feedrate
M204 P500.00 R1000.00 T500.00 ;Setup Print/Retract/Travel acceleration
M205 X8.00 Y8.00 Z0.40 E5.00 ;Setup Jerk
M220 S100 ;Reset Feedrate
M221 S100 ;Reset Flowrate

G28 ;Home

G92 E0 ;Reset Extruder
G1 Z2.0 F3000 ;Move Z Axis up
G1 X10.1 Y20 Z0.28 F5000.0 ;Move to start position
G1 X10.1 Y200.0 Z0.28 F1500.0 E15 ;Draw the first line
G1 X10.4 Y200.0 Z0.28 F5000.0 ;Move to side a little
G1 X10.4 Y20 Z0.28 F1500.0 E30 ;Draw the second line
G92 E0 ;Reset Extruder
G1 Z2.0 F3000 ;Move Z Axis up

G92 E0
G92 E0
G1 F2700 E-5
;LAYER_COUNT:300
;LAYER:0
M107
G0 F6000 X109.698 Y109.764 Z0.2
;TYPE:SKIRT
G1 F2700 E0
G1 F1200 X110.386 Y109.127 E0.03119
G1 X111.126 Y108.551 E0.06237
G1 X111.912 Y108.039 E0.09357
G1 X112.739 Y107.597 E0.12476
G1 X113.601 Y107.227 E0.15596
G1 X114.491 Y106.931 E0.18716
G1 X115.403 Y106.713 E0.21835
G1 X116.33 Y106.572 E0.24953
G1 X117.201 Y106.513 E0.27857
G1 X117.522 Y106.504 E0.28925
G1 X117.83 Y106.5 E0.29949
G1 X181.793 Y106.5 E2.42691
G1 X182.649 Y106.511 E2.45539
G1 X183.585 Y106.565 E2.48657
G1 X184.513 Y106.697 E2.51774
G1 X185.427 Y106.909 E2.54895
G1 X186.319 Y107.198 E2.58014
G1 X187.184 Y107.561 E2.61134
G1 X188.014 Y107.997 E2.64252
G1 X188.805 Y108.502 E2.67373
G1 X189.549 Y109.073 E2.70493
G1 X190.242 Y109.705 E2.73612
G1 X190.879 Y110.393 E2.76731
G1 X191.454 Y111.134 E2.7985
G1 X191.965 Y111.92 E2.82969
G1 X192.407 Y112.748 E2.8609
G1 X192.776 Y113.61 E2.89209
G1 X193.071 Y114.5 E2.92327
G1 X193.289 Y115.412 E2.95446
G1 X193.429 Y116.34 E2.98568
G1 X193.487 Y117.201 E3.01438
G1 X193.496 Y117.521 E3.02503
G1 X193.5 Y117.83 E3.0353
G1 X193.499 Y181.9 E5.16628
G1 X193.49 Y182.627 E5.19046
G1 X193.439 Y183.564 E5.22167
G1 X193.307 Y184.492 E5.25285
G1 X193.098 Y185.406 E5.28403
G1 X192.811 Y186.299 E5.31523
G1 X192.449 Y187.165 E5.34645
G1 X192.015 Y187.996 E5.37763
G1 X191.511 Y188.787 E5.40883
G1 X190.942 Y189.532 E5.44001
G1 X190.311 Y190.227 E5.47123
G1 X189.624 Y190.865 E5.50241
G1 X188.885 Y191.442 E5.5336
G1 X188.099 Y191.954 E5.5648
G1 X187.273 Y192.397 E5.59597
G1 X186.411 Y192.769 E5.6272
G1 X185.522 Y193.065 E5.65836
G1 X184.61 Y193.285 E5.68956
G1 X183.683 Y193.426 E5.72075
G1 X182.799 Y193.487 E5.75022
G1 X182.478 Y193.496 E5.7609
G1 X182.17 Y193.5 E5.77115
G1 X118.065 Y193.499 E7.90329
G1 X117.367 Y193.49 E7.92651
G1 X116.431 Y193.438 E7.95769
G1 X115.502 Y193.306 E7.9889
G1 X114.588 Y193.096 E8.02009
G1 X113.695 Y192.809 E8.05128
G1 X112.83 Y192.446 E8.08249
G1 X111.999 Y192.012 E8.11367
G1 X111.208 Y191.508 E8.14486
G1 X110.463 Y190.938 E8.17606
G1 X109.769 Y190.307 E8.20726
G1 X109.132 Y189.62 E8.23842
G1 X108.555 Y188.88 E8.26963
G1 X108.043 Y188.094 E8.30083
G1 X107.6 Y187.267 E8.33203
G1 X107.229 Y186.406 E8.36322
G1 X106.933 Y185.516 E8.39441
G1 X106.714 Y184.604 E8.42561
G1 X106.573 Y183.677 E8.45679
G1 X106.513 Y182.788 E8.48643
G1 X106.504 Y182.455 E8.49751
G1 X106.5 Y182.158 E8.50739
G1 X106.501 Y118.025 E10.64046
G1 X106.51 Y117.36 E10.66258
G1 X106.563 Y116.424 E10.69376
G1 X106.695 Y115.495 E10.72497
G1 X106.906 Y114.581 E10.75617
G1 X107.194 Y113.689 E10.78735
G1 X107.557 Y112.824 E10.81855
G1 X107.992 Y111.993 E10.84974
G1 X108.496 Y111.203 E10.88091
G1 X109.066 Y110.458 E10.91211
G1 X109.698 Y109.764 E10.94333
G0 F6000 X110.089 Y109.939
G1 F1200 X110.774 Y109.323 E10.97397
G1 X111.51 Y108.77 E11.00459
G1 X112.291 Y108.282 E11.03522
G1 X113.111 Y107.864 E11.06583
G1 X113.965 Y107.519 E11.09647
G1 X114.845 Y107.249 E11.12708
G1 X115.745 Y107.057 E11.15769
G1 X116.659 Y106.943 E11.18833
G1 X117.212 Y106.913 E11.20675
G1 X117.533 Y106.904 E11.21743
G1 X117.83 Y106.9 E11.22731
G1 X181.793 Y106.9 E13.35472
G1 X182.643 Y106.911 E13.383
G1 X183.562 Y106.964 E13.41361
G1 X184.473 Y107.097 E13.44423
G1 X185.369 Y107.308 E13.47485
G1 X186.243 Y107.596 E13.50546
G1 X187.09 Y107.959 E13.53611
G1 X187.901 Y108.394 E13.56672
G1 X188.671 Y108.898 E13.59733
G1 X189.395 Y109.467 E13.62795
G1 X190.067 Y110.097 E13.65859
G1 X190.682 Y110.782 E13.68921
G1 X191.235 Y111.518 E13.71983
G1 X191.722 Y112.299 E13.75044
G1 X192.139 Y113.12 E13.78107
G1 X192.484 Y113.974 E13.8117
G1 X192.753 Y114.854 E13.84231
G1 X192.945 Y115.755 E13.87295
G1 X193.058 Y116.668 E13.90355
G1 X193.087 Y117.212 E13.92166
G1 X193.096 Y117.532 E13.93231
G1 X193.1 Y117.83 E13.94222
G1 X193.099 Y181.895 E16.07303
G1 X193.09 Y182.622 E16.09722
G1 X193.039 Y183.541 E16.12783
G1 X192.908 Y184.453 E16.15847
G1 X192.698 Y185.349 E16.18908
G1 X192.412 Y186.224 E16.2197
G1 X192.051 Y187.071 E16.25032
G1 X191.617 Y187.883 E16.28095
G1 X191.115 Y188.655 E16.31158
G1 X190.547 Y189.38 E16.34221
G1 X189.919 Y190.053 E16.37282
G1 X189.235 Y190.669 E16.40344
G1 X188.5 Y191.223 E16.43405
G1 X187.72 Y191.712 E16.46467
G1 X186.9 Y192.131 E16.4953
G1 X186.047 Y192.477 E16.52592
G1 X185.167 Y192.748 E16.55654
G1 X184.267 Y192.941 E16.58716
G1 X183.353 Y193.056 E16.61779
G1 X182.788 Y193.087 E16.63662
G1 X182.467 Y193.096 E16.6473
G1 X182.17 Y193.1 E16.65717
G1 X118.07 Y193.099 E18.78915
G1 X117.372 Y193.09 E18.81237
G1 X116.453 Y193.038 E18.84298
G1 X115.542 Y192.907 E18.87359
G1 X114.646 Y192.697 E18.9042
G1 X113.771 Y192.41 E18.93483
G1 X112.924 Y192.048 E18.96547
G1 X112.112 Y191.614 E18.99609
G1 X111.341 Y191.112 E19.02669
G1 X110.616 Y190.544 E19.05732
G1 X109.943 Y189.915 E19.08796
G1 X109.328 Y189.231 E19.11855
G1 X108.774 Y188.496 E19.14917
G1 X108.286 Y187.715 E19.1798
G1 X107.867 Y186.895 E19.21043
G1 X107.521 Y186.042 E19.24104
G1 X107.251 Y185.162 E19.27166
G1 X107.058 Y184.261 E19.3023
G1 X106.944 Y183.348 E19.33291
G1 X106.913 Y182.777 E19.35193
G1 X106.904 Y182.444 E19.36301
G1 X106.9 Y182.158 E19.37252
G1 X106.901 Y118.031 E21.50539
G1 X106.91 Y117.366 E21.52751
G1 X106.962 Y116.446 E21.55816
G1 X107.094 Y115.535 E21.58878
G1 X107.305 Y114.639 E21.61939
G1 X107.592 Y113.764 E21.65002
G1 X107.955 Y112.918 E21.68064
G1 X108.389 Y112.106 E21.71126
G1 X108.892 Y111.335 E21.74188
G1 X109.461 Y110.611 E21.77251
G1 X110.089 Y109.939 E21.8031
G0 F6000 X110.481 Y110.117
G1 F1200 X111.162 Y109.524 E21.83313
G1 X111.894 Y108.994 E21.86319
G1 X112.669 Y108.531 E21.89322
G1 X113.482 Y108.138 E21.92325
G1 X114.327 Y107.818 E21.9533
G1 X115.196 Y107.575 E21.98332
G1 X116.084 Y107.409 E22.01336
G1 X117.223 Y107.313 E22.05138
G1 X117.544 Y107.304 E22.06206
G1 X117.83 Y107.3 E22.07157
G1 X181.793 Y107.3 E24.19899
G1 X182.637 Y107.311 E24.22707
G1 X183.539 Y107.364 E24.25712
G1 X184.432 Y107.496 E24.28714
G1 X185.31 Y107.707 E24.31718
G1 X186.166 Y107.995 E24.34722
G1 X186.993 Y108.357 E24.37724
G1 X187.785 Y108.792 E24.40729
G1 X188.536 Y109.294 E24.43734
G1 X189.239 Y109.861 E24.46738
G1 X189.889 Y110.488 E24.49742
G1 X190.481 Y111.17 E24.52745
G1 X191.011 Y111.901 E24.55749
G1 X191.473 Y112.677 E24.58752
G1 X191.866 Y113.49 E24.61756
G1 X192.184 Y114.335 E24.64759
G1 X192.427 Y115.205 E24.67763
G1 X192.592 Y116.093 E24.70767
G1 X192.687 Y117.223 E24.74539
G1 X192.696 Y117.543 E24.75603
G1 X192.7 Y117.83 E24.76558
G1 X192.699 Y181.89 E26.89623
G1 X192.69 Y182.617 E26.92041
G1 X192.639 Y183.519 E26.95046
G1 X192.508 Y184.413 E26.98051
G1 X192.299 Y185.291 E27.01053
G1 X192.013 Y186.148 E27.04058
G1 X191.652 Y186.976 E27.07062
G1 X191.22 Y187.768 E27.10062
G1 X190.719 Y188.52 E27.13068
G1 X190.153 Y189.224 E27.16072
G1 X189.528 Y189.875 E27.19074
G1 X188.847 Y190.469 E27.22079
G1 X188.116 Y191 E27.25085
G1 X187.342 Y191.464 E27.28086
G1 X186.529 Y191.858 E27.31091
G1 X185.685 Y192.178 E27.34093
G1 X184.815 Y192.423 E27.37099
G1 X183.928 Y192.589 E27.40101
G1 X182.777 Y192.687 E27.43943
G1 X182.456 Y192.696 E27.45011
G1 X182.17 Y192.7 E27.45962
G1 X118.075 Y192.699 E29.59143
G1 X117.377 Y192.69 E29.61465
G1 X116.476 Y192.639 E29.64466
G1 X115.582 Y192.507 E29.67472
G1 X114.704 Y192.298 E29.70474
G1 X113.847 Y192.011 E29.7348
G1 X113.02 Y191.65 E29.76481
G1 X112.227 Y191.217 E29.79486
G1 X111.476 Y190.716 E29.82489
G1 X110.772 Y190.15 E29.85493
G1 X110.121 Y189.524 E29.88497
G1 X109.528 Y188.843 E29.915
G1 X108.998 Y188.112 E29.94504
G1 X108.534 Y187.337 E29.97508
G1 X108.14 Y186.524 E30.00513
G1 X107.82 Y185.68 E30.03515
G1 X107.576 Y184.81 E30.0652
G1 X107.41 Y183.922 E30.09525
G1 X107.313 Y182.767 E30.1338
G1 X107.304 Y182.434 E30.14488
G1 X107.3 Y182.158 E30.15406
G1 X107.301 Y118.036 E32.28677
G1 X107.31 Y117.371 E32.30889
G1 X107.362 Y116.469 E32.33894
G1 X107.494 Y115.576 E32.36896
G1 X107.704 Y114.698 E32.39899
G1 X107.991 Y113.841 E32.42905
G1 X108.353 Y113.014 E32.45907
G1 X108.786 Y112.222 E32.48909
G1 X109.288 Y111.471 E32.51914
G1 X109.855 Y110.767 E32.5492
G1 X110.481 Y110.117 E32.57922
G1 F2700 E27.57922
G0 F6000 X176.076 Y167.409
G1 F2700 E32.57922
G1 F1200 X176.752 Y166.847 E32.60846
G1 X176.727 Y167.198 E32.62016
G1 X176.737 Y167.617 E32.6341
G1 X176.749 Y167.713 E32.63732
G1 X176.492 Y167.558 E32.6473
G1 X176.099 Y167.413 E32.66123
G1 X176.076 Y167.409 E32.66201
G0 F6000 X176.083 Y167.825
G1 F1200 X175.712 Y167.749 E32.67461
G1 X175.333 Y167.753 E32.68721
G1 X174.963 Y167.836 E32.69982
G1 X174.903 Y167.863 E32.70201
G1 X176.925 Y166.184 E32.78943
G1 X177.19 Y165.912 E32.80206
G1 X177.224 Y165.857 E32.80421
G1 X177.126 Y167.226 E32.84986
G1 X177.134 Y167.569 E32.86127
G1 X177.284 Y168.819 E32.90314
G1 X177.245 Y169 E32.9093
G1 X177.182 Y168.807 E32.91605
G1 X176.992 Y168.479 E32.92866
G1 X176.738 Y168.198 E32.94126
G1 X176.43 Y167.977 E32.95387
G1 X176.083 Y167.825 E32.96647
G0 F6000 X176.017 Y168.225
G1 F1200 X175.691 Y168.149 E32.9776
G1 X175.357 Y168.153 E32.98871
G1 X175.034 Y168.235 E32.9998
G1 X174.739 Y168.392 E33.01091
G1 X174.499 Y168.604 E33.02156
G1 X171.777 Y171.623 E33.15676
G1 X171.699 Y171.718 E33.16085
G1 X169.806 Y174.231 E33.26549
G1 X169.638 Y174.52 E33.27661
G1 X169.544 Y174.84 E33.2877
G1 X169.528 Y175.174 E33.29883
G1 X169.593 Y175.506 E33.31008
G1 X169.786 Y176.099 E33.33082
G1 X169.734 Y176.26 E33.33645
G1 X169.598 Y176.358 E33.34202
G1 X169.226 Y176.355 E33.35439
G1 X168.315 Y175.77 E33.3904
G1 X168.015 Y175.624 E33.4015
G1 X167.688 Y175.554 E33.41262
G1 X167.201 Y175.595 E33.42888
G1 X166.351 Y175.82 E33.45812
G1 X165.922 Y176.015 E33.4738
G1 X163.829 Y177.437 E33.55796
G1 X162.21 Y177.663 E33.61233
G1 X136.541 Y177.663 E34.46608
G1 X132.269 Y177.65 E34.60817
G1 X128.61 Y177.581 E34.72989
G1 X127.204 Y176.668 E34.78565
G1 X126.86 Y175.69 E34.82013
G1 X126.909 Y174.755 E34.85127
G1 X126.887 Y174.421 E34.8624
G1 X126.786 Y174.103 E34.8735
G1 X126.613 Y173.817 E34.88462
G1 X126.383 Y173.586 E34.89546
G1 X123.297 Y171.13 E35.02664
G1 X122.928 Y170.17 E35.06085
G1 X123.021 Y167.184 E35.16021
G1 X123.014 Y166.992 E35.1666
G1 X122.593 Y163.032 E35.29905
G1 X122.365 Y159.134 E35.42892
G1 X122.251 Y155.204 E35.55969
G1 X122.395 Y151.289 E35.68999
G1 X122.418 Y147.161 E35.82729
G1 X122.251 Y143.375 E35.95334
G1 X122.251 Y139.507 E36.08199
G1 X122.406 Y136.779 E36.17287
G1 X123.69 Y133.295 E36.29636
G1 X123.741 Y133.124 E36.3023
G1 X124.28 Y130.773 E36.38252
G1 X125.079 Y129.463 E36.43356
G1 X125.147 Y129.337 E36.43832
G1 X125.763 Y128.046 E36.4859
G1 X126.708 Y127.064 E36.53122
G1 X126.909 Y126.798 E36.54231
G1 X127.071 Y126.374 E36.55741
G1 X127.749 Y123.053 E36.67015
G1 X128.684 Y122.455 E36.70706
G1 X131.855 Y122.338 E36.8126
G1 X136.239 Y122.47 E36.95848
G1 X136.418 Y122.464 E36.96443
G1 X137.714 Y122.337 E37.00775
G1 X141.876 Y122.337 E37.14618
G1 X142.017 Y122.439 E37.15196
G1 X142.069 Y122.6 E37.15759
G1 X142.017 Y122.761 E37.16322
G1 X141.876 Y122.863 E37.16901
G1 X138.28 Y122.863 E37.28861
G1 X138.141 Y122.87 E37.29324
G1 X134.039 Y123.279 E37.43035
G1 X132.557 Y122.923 E37.48104
G1 X132.153 Y122.886 E37.49454
G1 X129.309 Y123.042 E37.58927
G1 X128.98 Y123.1 E37.60038
G1 X128.674 Y123.234 E37.61149
G1 X128.409 Y123.437 E37.62259
G1 X128.199 Y123.697 E37.63371
G1 X128.02 Y124.133 E37.64939
G1 X127.267 Y127.477 E37.76339
G1 X125.79 Y129.597 E37.84933
G1 X125.639 Y129.877 E37.85991
G1 X124.204 Y133.461 E37.98831
G1 X124.16 Y133.589 E37.99282
G1 X123.075 Y137.304 E38.12154
G1 X123.019 Y137.671 E38.13389
G1 X122.95 Y141.578 E38.26386
G1 X122.788 Y145.481 E38.39378
G1 X122.788 Y145.594 E38.39754
G1 X122.948 Y149.683 E38.53364
G1 X122.797 Y153.443 E38.6588
G1 X122.797 Y153.551 E38.6624
G1 X122.949 Y157.609 E38.79746
G1 X122.968 Y160.337 E38.8882
G1 X122.979 Y160.499 E38.8936
G1 X123.244 Y162.649 E38.96565
G1 X123.573 Y166.714 E39.10129
G1 X123.804 Y168.693 E39.16756
G1 X123.755 Y169.931 E39.20877
G1 X123.782 Y170.264 E39.21988
G1 X123.887 Y170.581 E39.23099
G1 X124.064 Y170.864 E39.24209
G1 X124.254 Y171.058 E39.25112
G1 X126.89 Y173.271 E39.36559
G1 X127.647 Y175.048 E39.42984
G1 X127.631 Y175.435 E39.44272
G1 X127.657 Y175.768 E39.45383
G1 X127.762 Y176.086 E39.46497
G1 X127.938 Y176.369 E39.47605
G1 X128.177 Y176.603 E39.48718
G1 X128.464 Y176.774 E39.49829
G1 X128.784 Y176.871 E39.50941
G1 X128.986 Y176.892 E39.51616
G1 X133.095 Y177.022 E39.6529
G1 X136.834 Y177.125 E39.77731
G1 X137.013 Y177.137 E39.78327
G1 X161.841 Y177.137 E40.60906
G1 X162.173 Y177.097 E40.62018
G1 X162.361 Y177.037 E40.62674
G1 X164.608 Y176.138 E40.70724
G1 X164.875 Y175.996 E40.71729
G1 X166.381 Y174.971 E40.77789
G1 X167.528 Y174.75 E40.81674
G1 X167.846 Y174.648 E40.82784
G1 X168.18 Y174.433 E40.84106
G1 X170.241 Y172.645 E40.93181
G1 X170.466 Y172.397 E40.94294
G1 X170.655 Y172.021 E40.95694
G1 X170.737 Y171.768 E40.96579
G1 X172.531 Y170.056 E41.04826
G1 X172.642 Y169.937 E41.05368
G1 X174.549 Y167.638 E41.15302
G1 X176.67 Y165.876 E41.24474
G1 X176.899 Y165.633 E41.25584
G1 X177.065 Y165.343 E41.26695
G1 X177.157 Y165.022 E41.27806
G1 X177.175 Y164.788 E41.28587
G1 X177.144 Y160.95 E41.41352
G1 X177.129 Y156.947 E41.54666
G1 X177.051 Y152.656 E41.68941
G1 X177.051 Y148.485 E41.82814
G1 X177.192 Y144.603 E41.95734
G1 X177.193 Y144.521 E41.96006
G1 X177.107 Y140.636 E42.08931
G1 X177.094 Y140.475 E42.09468
G1 X176.729 Y137.837 E42.18326
G1 X176.668 Y137.579 E42.19208
G1 X175.774 Y134.947 E42.28453
G1 X175.629 Y134.645 E42.29567
G1 X175.469 Y134.439 E42.30435
G1 X173.474 Y132.313 E42.40132
G1 X172.783 Y131.214 E42.44449
G1 X172.579 Y130.96 E42.45533
G1 X170.831 Y129.244 E42.5368
G1 X170.126 Y126.948 E42.61669
G1 X170.028 Y124.858 E42.68628
G1 X169.973 Y124.528 E42.6974
G1 X169.841 Y124.221 E42.70852
G1 X169.641 Y123.954 E42.71961
G1 X169.382 Y123.742 E42.73075
G1 X169.124 Y123.613 E42.74034
G1 X167.543 Y123.017 E42.79654
G1 X167.067 Y122.927 E42.81265
G1 X162.426 Y122.869 E42.96702
G1 X162.277 Y122.761 E42.97314
G1 X162.225 Y122.6 E42.97877
G1 X162.277 Y122.439 E42.9844
G1 X162.418 Y122.337 E42.99018
G1 X167.045 Y122.337 E43.14408
G1 X169.639 Y123.06 E43.23364
G1 X170.302 Y123.263 E43.25671
G1 X170.631 Y123.322 E43.26782
G1 X171.006 Y123.293 E43.28033
G1 X175.276 Y122.376 E43.42559
G1 X175.801 Y122.513 E43.44364
G1 X176.65 Y123.306 E43.48228
G1 X177.649 Y126.144 E43.58235
G1 X177.562 Y126.463 E43.59334
G1 X177.451 Y126.543 E43.5979
G1 X177.283 Y126.543 E43.60348
G1 X177.135 Y126.436 E43.60956
G1 X176.306 Y123.978 E43.69584
G1 X176.163 Y123.677 E43.70692
G1 X175.951 Y123.418 E43.71805
G1 X175.685 Y123.216 E43.72916
G1 X175.378 Y123.084 E43.74027
G1 X175.049 Y123.028 E43.75137
G1 X174.649 Y123.066 E43.76474
G1 X172.153 Y123.674 E43.85018
G1 X171.84 Y123.791 E43.8613
G1 X171.564 Y123.979 E43.8724
G1 X171.34 Y124.227 E43.88352
G1 X171.181 Y124.521 E43.89464
G1 X171.102 Y124.809 E43.90457
G1 X170.797 Y126.681 E43.96765
G1 X170.783 Y127.015 E43.97877
G1 X170.907 Y127.491 E43.99513
G1 X171.606 Y129.012 E44.05081
G1 X171.89 Y129.419 E44.06731
G1 X173.974 Y131.494 E44.16513
G1 X174.604 Y132.564 E44.20643
G1 X174.835 Y132.858 E44.21886
G1 X175.999 Y133.989 E44.27284
G1 X177.133 Y136.627 E44.36835
