;FLAVOR:Marlin
;TIME:1524
;Filament used: 0.934428m
;Layer height: 0.2
;MINX:106.5
;MINY:106.5
;MINZ:0.2
;MAXX:193.5
;MAXY:193.5
;MAXZ:2
;Generated with Cura_SteamEngine master
M140 S55
M105
M190 S55
M104 S210
M105
M109 S210
M82 ;absolute extrusion mode
M201 X500.00 Y500.00 Z100.00 E5000.00 ;Setup machine max acceleration
M203 X500.00 Y500.00 Z10.00 E50.00 ;Setup machine max feedrate
M204 P500.00 R1000.00 T500.00 ;Setup Print/Retract/Travel acceleration
M205 X8.00 Y8.00 Z0.40 E5.00 ;Setup Jerk
M220 S100 ;Reset Feedrate
M221 S100 ;Reset Flowrate

G28 ;Home

G92 E0 ;Reset Extruder
G1 Z2.0 F3000 ;Move Z Axis up
G1 X10.1 Y20 Z0.28 F5000.0 ;Move to start position
G1 X10.1 Y200.0 Z0.28 F1500.0 E15 ;Draw the first line
G1 X10.4 Y200.0 Z0.28 F5000.0 ;Move to side a little
G1 X10.4 Y20 Z0.28 F1500.0 E30 ;Draw the second line
G92 E0 ;Reset Extruder
G1 Z2.0 F3000 ;Move Z Axis up

G92 E0
G92 E0
G1 F2700 E-5
;LAYER_COUNT:10
;LAYER:0
M107
G0 F6000 X109.698 Y109.764 Z0.2
;TYPE:SKIRT
G1 F2700 E0
G1 F1200 X110.386 Y109.127 E0.03119
G1 X111.126 Y108.551 E0.06237
G1 X111.912 Y108.039 E0.09357
G1 X112.739 Y107.597 E0.12476
G1 X113.601 Y107.227 E0.15596
G1 X114.491 Y106.931 E0.18716
G1 X115.403 Y106.713 E0.21835
G1 X116.33 Y106.572 E0.24953
G1 X117.201 Y106.513 E0.27857
G1 X117.522 Y106.504 E0.28925
G1 X117.83 Y106.5 E0.29949
G1 X181.793 Y106.5 E2.42691
G1 X182.649 Y106.511 E2.45539
G1 X183.585 Y106.565 E2.48657
G1 X184.513 Y106.697 E2.51774
G1 X185.427 Y106.909 E2.54895
G1 X186.319 Y107.198 E2.58014
G1 X187.184 Y107.561 E2.61134
G1 X188.014 Y107.997 E2.64252
G1 X188.805 Y108.502 E2.67373
G1 X189.549 Y109.073 E2.70493
G1 X190.242 Y109.705 E2.73612
G1 X190.879 Y110.393 E2.76731
G1 X191.454 Y111.134 E2.7985
G1 X191.965 Y111.92 E2.82969
G1 X192.407 Y112.748 E2.8609
G1 X192.776 Y113.61 E2.89209
G1 X193.071 Y114.5 E2.92327
G1 X193.289 Y115.412 E2.95446
G1 X193.429 Y116.34 E2.98568
G1 X193.487 Y117.201 E3.01438
G1 X193.496 Y117.521 E3.02503
G1 X193.5 Y117.83 E3.0353
G1 X193.499 Y181.9 E5.16628
G1 X193.49 Y182.627 E5.19046
G1 X193.439 Y183.564 E5.22167
G1 X193.307 Y184.492 E5.25285
G1 X193.098 Y185.406 E5.28403
G1 X192.811 Y186.299 E5.31523
G1 X192.449 Y187.165 E5.34645
G1 X192.015 Y187.996 E5.37763
G1 X191.511 Y188.787 E5.40883
G1 X190.942 Y189.532 E5.44001
G1 X190.311 Y190.227 E5.47123
G1 X189.624 Y190.865 E5.50241
G1 X188.885 Y191.442 E5.5336
G1 X188.099 Y191.954 E5.5648
G1 X187.273 Y192.397 E5.59597
G1 X186.411 Y192.769 E5.6272
G1 X185.522 Y193.065 E5.65836
G1 X184.61 Y193.285 E5.68956
G1 X183.683 Y193.426 E5.72075
G1 X182.799 Y193.487 E5.75022
G1 X182.478 Y193.496 E5.7609
G1 X182.17 Y193.5 E5.77115
G1 X118.065 Y193.499 E7.90329
G1 X117.367 Y193.49 E7.92651
G1 X116.431 Y193.438 E7.95769
G1 X115.502 Y193.306 E7.9889
G1 X114.588 Y193.096 E8.02009
G1 X113.695 Y192.809 E8.05128
G1 X112.83 Y192.446 E8.08249
G1 X111.999 Y192.012 E8.11367
G1 X111.208 Y191.508 E8.14486
G1 X110.463 Y190.938 E8.17606
G1 X109.769 Y190.307 E8.20726
G1 X109.132 Y189.62 E8.23842
G1 X108.555 Y188.88 E8.26963
G1 X108.043 Y188.094 E8.30083
G1 X107.6 Y187.267 E8.33203
G1 X107.229 Y186.406 E8.36322
G1 X106.933 Y185.516 E8.39441
G1 X106.714 Y184.604 E8.42561
G1 X106.573 Y183.677 E8.45679
G1 X106.513 Y182.788 E8.48643
G1 X106.504 Y182.455 E8.49751
G1 X106.5 Y182.158 E8.50739
G1 X106.501 Y118.025 E10.64046
G1 X106.51 Y117.36 E10.66258
G1 X106.563 Y116.424 E10.69376
G1 X106.695 Y115.495 E10.72497
G1 X106.906 Y114.581 E10.75617
G1 X107.194 Y113.689 E10.78735
G1 X107.557 Y112.824 E10.81855
G1 X107.992 Y111.993 E10.84974
G1 X108.496 Y111.203 E10.88091
G1 X109.066 Y110.458 E10.91211
G1 X109.698 Y109.764 E10.94333
G0 F6000 X110.089 Y109.939
G1 F1200 X110.774 Y109.323 E10.97397
G1 X111.51 Y108.77 E11.00459
G1 X112.291 Y108.282 E11.03522
G1 X113.111 Y107.864 E11.06583
G1 X113.965 Y107.519 E11.09647
G1 X114.845 Y107.249 E11.12708
G1 X115.745 Y107.057 E11.15769
G1 X116.659 Y106.943 E11.18833
G1 X117.212 Y106.913 E11.20675
G1 X117.533 Y106.904 E11.21743
G1 X117.83 Y106.9 E11.22731
G1 X181.793 Y106.9 E13.35472
G1 X182.643 Y106.911 E13.383
G1 X183.562 Y106.964 E13.41361
G1 X184.473 Y107.097 E13.44423
G1 X185.369 Y107.308 E13.47485
G1 X186.243 Y107.596 E13.50546
G1 X187.09 Y107.959 E13.53611
G1 X187.901 Y108.394 E13.56672
G1 X188.671 Y108.898 E13.59733
G1 X189.395 Y109.467 E13.62795
G1 X190.067 Y110.097 E13.65859
G1 X190.682 Y110.782 E13.68921
G1 X191.235 Y111.518 E13.71983
G1 X191.722 Y112.299 E13.75044
G1 X192.139 Y113.12 E13.78107
G1 X192.484 Y113.974 E13.8117
G1 X192.753 Y114.854 E13.84231
G1 X192.945 Y115.755 E13.87295
G1 X193.058 Y116.668 E13.90355
G1 X193.087 Y117.212 E13.92166
G1 X193.096 Y117.532 E13.93231
G1 X193.1 Y117.83 E13.94222
G1 X193.099 Y181.895 E16.07303
G1 X193.09 Y182.622 E16.09722
G1 X193.039 Y183.541 E16.12783
G1 X192.908 Y184.453 E16.15847
G1 X192.698 Y185.349 E16.18908
G1 X192.412 Y186.224 E16.2197
G1 X192.051 Y187.071 E16.25032
G1 X191.617 Y187.883 E16.28095
G1 X191.115 Y188.655 E16.31158
G1 X190.547 Y189.38 E16.34221
G1 X189.919 Y190.053 E16.37282
G1 X189.235 Y190.669 E16.40344
G1 X188.5 Y191.223 E16.43405
G1 X187.72 Y191.712 E16.46467
G1 X186.9 Y192.131 E16.4953
G1 X186.047 Y192.477 E16.52592
G1 X185.167 Y192.748 E16.55654
G1 X184.267 Y192.941 E16.58716
G1 X183.353 Y193.056 E16.61779
G1 X182.788 Y193.087 E16.63662
G1 X182.467 Y193.096 E16.6473
G1 X182.17 Y193.1 E16.65717
G1 X118.07 Y193.099 E18.78915
G1 X117.372 Y193.09 E18.81237
G1 X116.453 Y193.038 E18.84298
G1 X115.542 Y192.907 E18.87359
G1 X114.646 Y192.697 E18.9042
G1 X113.771 Y192.41 E18.93483
G1 X112.924 Y192.048 E18.96547
G1 X112.112 Y191.614 E18.99609
G1 X111.341 Y191.112 E19.02669
G1 X110.616 Y190.544 E19.05732
G1 X109.943 Y189.915 E19.08796
G1 X109.328 Y189.231 E19.11855
G1 X108.774 Y188.496 E19.14917
G1 X108.286 Y187.715 E19.1798
G1 X107.867 Y186.895 E19.21043
G1 X107.521 Y186.042 E19.24104
G1 X107.251 Y185.162 E19.27166
G1 X107.058 Y184.261 E19.3023
G1 X106.944 Y183.348 E19.33291
G1 X106.913 Y182.777 E19.35193
G1 X106.904 Y182.444 E19.36301
G1 X106.9 Y182.158 E19.37252
G1 X106.901 Y118.031 E21.50539
G1 X106.91 Y117.366 E21.52751
G1 X106.962 Y116.446 E21.55816
G1 X107.094 Y115.535 E21.58878
G1 X107.305 Y114.639 E21.61939
G1 X107.592 Y113.764 E21.65002
G1 X107.955 Y112.918 E21.68064
G1 X108.389 Y112.106 E21.71126
G1 X108.892 Y111.335 E21.74188
G1 X109.461 Y110.611 E21.77251
G1 X110.089 Y109.939 E21.8031
G0 F6000 X110.481 Y110.117
G1 F1200 X111.162 Y109.524 E21.83313
G1 X111.894 Y108.994 E21.86319
G1 X112.669 Y108.531 E21.89322
G1 X113.482 Y108.138 E21.92325
G1 X114.327 Y107.818 E21.9533
G1 X115.196 Y107.575 E21.98332
G1 X116.084 Y107.409 E22.01336
G1 X117.223 Y107.313 E22.05138
G1 X117.544 Y107.304 E22.06206
G1 X117.83 Y107.3 E22.07157
G1 X181.793 Y107.3 E24.19899
G1 X182.637 Y107.311 E24.22707
G1 X183.539 Y107.364 E24.25712
G1 X184.432 Y107.496 E24.28714
G1 X185.31 Y107.707 E24.31718
G1 X186.166 Y107.995 E24.34722
G1 X186.993 Y108.357 E24.37724
G1 X187.785 Y108.792 E24.40729
G1 X188.536 Y109.294 E24.43734
G1 X189.239 Y109.861 E24.46738
G1 X189.889 Y110.488 E24.49742
G1 X190.481 Y111.17 E24.52745
G1 X191.011 Y111.901 E24.55749
G1 X191.473 Y112.677 E24.58752
G1 X191.866 Y113.49 E24.61756
G1 X192.184 Y114.335 E24.64759
G1 X192.427 Y115.205 E24.67763
G1 X192.592 Y116.093 E24.70767
G1 X192.687 Y117.223 E24.74539
G1 X192.696 Y117.543 E24.75603
G1 X192.7 Y117.83 E24.76558
G1 X192.699 Y181.89 E26.89623
G1 X192.69 Y182.617 E26.92041
G1 X192.639 Y183.519 E26.95046
G1 X192.508 Y184.413 E26.98051
G1 X192.299 Y185.291 E27.01053
G1 X192.013 Y186.148 E27.04058
G1 X191.652 Y186.976 E27.07062
G1 X191.22 Y187.768 E27.10062
G1 X190.719 Y188.52 E27.13068
G1 X190.153 Y189.224 E27.16072
G1 X189.528 Y189.875 E27.19074
G1 X188.847 Y190.469 E27.22079
G1 X188.116 Y191 E27.25085
G1 X187.342 Y191.464 E27.28086
G1 X186.529 Y191.858 E27.31091
G1 X185.685 Y192.178 E27.34093
G1 X184.815 Y192.423 E27.37099
G1 X183.928 Y192.589 E27.40101
G1 X182.777 Y192.687 E27.43943
G1 X182.456 Y192.696 E27.45011
G1 X182.17 Y192.7 E27.45962
G1 X118.075 Y192.699 E29.59143
G1 X117.377 Y192.69 E29.61465
G1 X116.476 Y192.639 E29.64466
G1 X115.582 Y192.507 E29.67472
G1 X114.704 Y192.298 E29.70474
G1 X113.847 Y192.011 E29.7348
G1 X113.02 Y191.65 E29.76481
G1 X112.227 Y191.217 E29.79486
G1 X111.476 Y190.716 E29.82489
G1 X110.772 Y190.15 E29.85493
G1 X110.121 Y189.524 E29.88497
G1 X109.528 Y188.843 E29.915
G1 X108.998 Y188.112 E29.94504
G1 X108.534 Y187.337 E29.97508
G1 X108.14 Y186.524 E30.00513
G1 X107.82 Y185.68 E30.03515
G1 X107.576 Y184.81 E30.0652
G1 X107.41 Y183.922 E30.09525
G1 X107.313 Y182.767 E30.1338
G1 X107.304 Y182.434 E30.14488
G1 X107.3 Y182.158 E30.15406
G1 X107.301 Y118.036 E32.28677
G1 X107.31 Y117.371 E32.30889
G1 X107.362 Y116.469 E32.33894
G1 X107.494 Y115.576 E32.36896
G1 X107.704 Y114.698 E32.39899
G1 X107.991 Y113.841 E32.42905
G1 X108.353 Y113.014 E32.45907
G1 X108.786 Y112.222 E32.48909
G1 X109.288 Y111.471 E32.51914
G1 X109.855 Y110.767 E32.5492
G1 X110.481 Y110.117 E32.57922
G1 F2700 E27.57922
;MESH:testpiece.stl
G0 F6000 X173.111 Y126.35
G0 X171.847 Y127.084
G0 X173.901 Y128.311
;TYPE:WALL-INNER
G1 F2700 E32.57922
G1 F1200 X174.375 Y128.352 E32.59504
G1 X174.849 Y128.311 E32.61087
G1 X175.309 Y128.188 E32.6267
G1 X175.739 Y127.987 E32.64249
G1 X176.128 Y127.715 E32.65828
G1 X176.465 Y127.378 E32.67413
G1 X176.737 Y126.988 E32.68994
G1 X176.938 Y126.559 E32.7057
G1 X177.061 Y126.099 E32.72154
G1 X177.102 Y125.625 E32.73736
G1 X177.061 Y125.151 E32.75319
G1 X176.938 Y124.691 E32.76902
G1 X176.737 Y124.261 E32.78481
G1 X176.465 Y123.872 E32.8006
G1 X176.128 Y123.535 E32.81645
G1 X175.739 Y123.263 E32.83224
G1 X175.309 Y123.062 E32.84802
G1 X174.849 Y122.939 E32.86386
G1 X174.375 Y122.898 E32.87969
G1 X173.901 Y122.939 E32.89551
G1 X173.441 Y123.062 E32.91135
G1 X173.012 Y123.263 E32.9271
G1 X172.622 Y123.535 E32.94292
G1 X172.285 Y123.872 E32.95877
G1 X172.013 Y124.261 E32.97456
G1 X171.812 Y124.691 E32.99035
G1 X171.689 Y125.151 E33.00618
G1 X171.648 Y125.625 E33.02201
G1 X171.689 Y126.099 E33.03783
G1 X171.812 Y126.559 E33.05367
G1 X172.013 Y126.988 E33.06943
G1 X172.285 Y127.378 E33.08524
G1 X172.622 Y127.715 E33.10109
G1 X173.012 Y127.987 E33.11691
G1 X173.441 Y128.188 E33.13266
G1 X173.901 Y128.311 E33.1485
G0 F6000 X173.971 Y127.916
;TYPE:WALL-OUTER
G1 F1200 X174.375 Y127.951 E33.16199
G1 X174.779 Y127.916 E33.17548
G1 X175.171 Y127.811 E33.18897
G1 X175.538 Y127.639 E33.20245
G1 X175.87 Y127.407 E33.21592
G1 X176.157 Y127.12 E33.22942
G1 X176.389 Y126.787 E33.24292
G1 X176.561 Y126.421 E33.25637
G1 X176.666 Y126.029 E33.26987
G1 X176.701 Y125.625 E33.28336
G1 X176.666 Y125.221 E33.29685
G1 X176.561 Y124.829 E33.31034
G1 X176.389 Y124.462 E33.32382
G1 X176.157 Y124.13 E33.33729
G1 X175.87 Y123.843 E33.35079
G1 X175.538 Y123.611 E33.36427
G1 X175.171 Y123.439 E33.37775
G1 X174.779 Y123.334 E33.39124
G1 X174.375 Y123.299 E33.40473
G1 X173.971 Y123.334 E33.41822
G1 X173.579 Y123.439 E33.43172
G1 X173.213 Y123.611 E33.44517
G1 X172.88 Y123.843 E33.45867
G1 X172.593 Y124.13 E33.47216
G1 X172.361 Y124.462 E33.48564
G1 X172.189 Y124.829 E33.49912
G1 X172.084 Y125.221 E33.51261
G1 X172.049 Y125.625 E33.5261
G1 X172.084 Y126.029 E33.53959
G1 X172.189 Y126.421 E33.55309
G1 X172.361 Y126.787 E33.56654
G1 X172.593 Y127.12 E33.58004
G1 X172.88 Y127.407 E33.59354
G1 X173.213 Y127.639 E33.60703
G1 X173.579 Y127.811 E33.62048
G1 X173.971 Y127.916 E33.63398
G0 F6000 X173.895 Y128.349
G1 F2700 E28.63398
G0 F6000 X172.499 Y127.862
G0 X173.435 Y126.74
G0 X166.099 Y126.74
G0 X164.162 Y125.46
G0 X135.838 Y125.46
G0 X133.902 Y126.74
G0 X125.565 Y126.74
G0 X126.501 Y127.862
G0 X125.099 Y128.311
;TYPE:WALL-INNER
G1 F2700 E33.63398
G1 F1200 X125.559 Y128.188 E33.64982
G1 X125.988 Y127.987 E33.66558
G1 X126.378 Y127.715 E33.68139
G1 X126.715 Y127.378 E33.69724
G1 X126.987 Y126.988 E33.71306
G1 X127.188 Y126.559 E33.72881
G1 X127.311 Y126.099 E33.74465
G1 X127.352 Y125.625 E33.76048
G1 X127.311 Y125.151 E33.7763
G1 X127.188 Y124.691 E33.79214
G1 X126.987 Y124.261 E33.80792
G1 X126.715 Y123.872 E33.82371
G1 X126.378 Y123.535 E33.83956
G1 X125.988 Y123.263 E33.85538
G1 X125.559 Y123.062 E33.87113
G1 X125.099 Y122.939 E33.88697
G1 X124.625 Y122.898 E33.9028
G1 X124.151 Y122.939 E33.91862
G1 X123.691 Y123.062 E33.93446
G1 X123.261 Y123.263 E33.95024
G1 X122.872 Y123.535 E33.96603
G1 X122.535 Y123.872 E33.98188
G1 X122.263 Y124.261 E33.99767
G1 X122.062 Y124.691 E34.01346
G1 X121.939 Y125.151 E34.02929
G1 X121.898 Y125.625 E34.04512
G1 X121.939 Y126.099 E34.06094
G1 X122.062 Y126.559 E34.07678
G1 X122.263 Y126.988 E34.09254
G1 X122.535 Y127.378 E34.10835
G1 X122.872 Y127.715 E34.1242
G1 X123.261 Y127.987 E34.13999
G1 X123.691 Y128.188 E34.15578
G1 X124.151 Y128.311 E34.17162
G1 X124.625 Y128.352 E34.18744
G1 X125.099 Y128.311 E34.20326
G0 F6000 X125.029 Y127.916
;TYPE:WALL-OUTER
G1 F1200 X125.421 Y127.811 E34.21676
G1 X125.787 Y127.639 E34.23021
G1 X126.12 Y127.407 E34.24371
G1 X126.407 Y127.12 E34.25721
G1 X126.639 Y126.787 E34.27071
G1 X126.811 Y126.421 E34.28416
G1 X126.916 Y126.029 E34.29766
G1 X126.951 Y125.625 E34.31114
G1 X126.916 Y125.221 E34.32463
G1 X126.811 Y124.829 E34.33813
G1 X126.639 Y124.462 E34.35161
G1 X126.407 Y124.13 E34.36508
G1 X126.12 Y123.843 E34.37858
G1 X125.787 Y123.611 E34.39208
G1 X125.421 Y123.439 E34.40553
G1 X125.029 Y123.334 E34.41903
G1 X124.625 Y123.299 E34.43251
G1 X124.221 Y123.334 E34.446
G1 X123.829 Y123.439 E34.4595
G1 X123.462 Y123.611 E34.47298
G1 X123.13 Y123.843 E34.48645
G1 X122.843 Y124.13 E34.49995
G1 X122.611 Y124.462 E34.51342
G1 X122.439 Y124.829 E34.5269
G1 X122.334 Y125.221 E34.5404
G1 X122.299 Y125.625 E34.55389
G1 X122.334 Y126.029 E34.56738
G1 X122.439 Y126.421 E34.58087
G1 X122.611 Y126.787 E34.59432
G1 X122.843 Y127.12 E34.60782
G1 X123.13 Y127.407 E34.62132
G1 X123.462 Y127.639 E34.63479
G1 X123.829 Y127.811 E34.64827
G1 X124.221 Y127.916 E34.66177
G1 X124.625 Y127.951 E34.67526
G1 X125.029 Y127.916 E34.68875
G0 F6000 X125.105 Y128.349
G1 F2700 E29.68875
G0 F6000 X124.625 Y128.543
G0 X124.625 Y127.082
G0 X124.625 Y137.495
G0 X123.377 Y140.304
G0 X123.377 Y159.696
G0 X124.625 Y162.504
G0 X124.625 Y173.918
G0 X124.625 Y172.457
G0 X126.274 Y173.409
G0 X126.591 Y173.726
G0 X127.037 Y174.497
G0 X127.192 Y175.375
G0 X127.153 Y175.82
G0 X127.037 Y176.253
G0 X126.591 Y177.024
G0 X126.306 Y177.309
G0 X125.099 Y178.061
;TYPE:WALL-INNER
G1 F2700 E34.68875
G1 F1200 X125.559 Y177.938 E34.70458
G1 X125.988 Y177.737 E34.72034
G1 X126.378 Y177.465 E34.73615
G1 X126.715 Y177.128 E34.75201
G1 X126.987 Y176.739 E34.76779
G1 X127.188 Y176.309 E34.78358
G1 X127.311 Y175.849 E34.79942
G1 X127.352 Y175.375 E34.81524
G1 X127.311 Y174.901 E34.83107
G1 X127.188 Y174.441 E34.8469
G1 X126.987 Y174.012 E34.86266
G1 X126.715 Y173.622 E34.87847
G1 X126.378 Y173.285 E34.89433
G1 X125.988 Y173.013 E34.91014
G1 X125.559 Y172.812 E34.9259
G1 X125.099 Y172.689 E34.94174
G1 X124.625 Y172.648 E34.95756
G1 X124.151 Y172.689 E34.97338
G1 X123.691 Y172.812 E34.98922
G1 X123.261 Y173.013 E35.00501
G1 X122.872 Y173.285 E35.0208
G1 X122.535 Y173.622 E35.03665
G1 X122.263 Y174.012 E35.05246
G1 X122.062 Y174.441 E35.06822
G1 X121.939 Y174.901 E35.08406
G1 X121.898 Y175.375 E35.09988
G1 X121.939 Y175.849 E35.1157
G1 X122.062 Y176.309 E35.13154
G1 X122.263 Y176.739 E35.14733
G1 X122.535 Y177.128 E35.16312
G1 X122.872 Y177.465 E35.17897
G1 X123.261 Y177.737 E35.19475
G1 X123.691 Y177.938 E35.21054
G1 X124.151 Y178.061 E35.22638
G1 X124.625 Y178.102 E35.2422
G1 X125.099 Y178.061 E35.25803
G0 F6000 X125.029 Y177.666
;TYPE:WALL-OUTER
G1 F1200 X125.421 Y177.561 E35.27152
G1 X125.787 Y177.389 E35.28498
G1 X126.12 Y177.157 E35.29847
G1 X126.407 Y176.87 E35.31197
G1 X126.639 Y176.538 E35.32544
G1 X126.811 Y176.171 E35.33893
G1 X126.916 Y175.779 E35.35242
G1 X126.951 Y175.375 E35.36591
G1 X126.916 Y174.971 E35.3794
G1 X126.811 Y174.579 E35.3929
G1 X126.639 Y174.213 E35.40635
G1 X126.407 Y173.88 E35.41984
G1 X126.12 Y173.593 E35.43334
G1 X125.787 Y173.361 E35.44684
G1 X125.421 Y173.189 E35.46029
G1 X125.029 Y173.084 E35.47379
