;FLAVOR:Marlin
;TIME:18939
;Filament used: 17.0253m
;Layer height: 0.2
;MINX:11.676
;MINY:129.5
;MINZ:0.2
;MAXX:288.22
;MAXY:170.5
;MAXZ:19
;Generated with Cura_SteamEngine master
M140 S55
M105
M190 S55
M104 S210
M105
M109 S210
M82 ;absolute extrusion mode
M201 X500.00 Y500.00 Z100.00 E5000.00 ;Setup machine max acceleration
M203 X500.00 Y500.00 Z10.00 E50.00 ;Setup machine max feedrate
M204 P500.00 R1000.00 T500.00 ;Setup Print/Retract/Travel acceleration
M205 X8.00 Y8.00 Z0.40 E5.00 ;Setup Jerk
M220 S100 ;Reset Feedrate
M221 S100 ;Reset Flowrate

G28 ;Home

G92 E0 ;Reset Extruder
G1 Z2.0 F3000 ;Move Z Axis up
G1 X10.1 Y20 Z0.28 F5000.0 ;Move to start position
G1 X10.1 Y200.0 Z0.28 F1500.0 E15 ;Draw the first line
G1 X10.4 Y200.0 Z0.28 F5000.0 ;Move to side a little
G1 X10.4 Y20 Z0.28 F1500.0 E30 ;Draw the second line
G92 E0 ;Reset Extruder
G1 Z2.0 F3000 ;Move Z Axis up

G92 E0
G92 E0
G1 F2700 E-5
;LAYER_COUNT:95
;LAYER:0
M107
G0 F6000 X23.123 Y131.274 Z0.2
;TYPE:SKIRT
G1 F2700 E0
G1 F1200 X24.142 Y131.188 E0.03401
G1 X25.613 Y131.132 E0.08297
G1 X25.889 Y131.133 E0.09215
G1 X28.06 Y131.068 E0.16439
G1 X29.127 Y131.051 E0.19989
G1 X31.609 Y130.942 E0.28252
G1 X32.623 Y130.872 E0.31632
G1 X33.234 Y130.84 E0.33667
G1 X34.45 Y130.846 E0.37712
G1 X35.429 Y130.907 E0.40974
G1 X36.465 Y130.987 E0.4443
G1 X39.179 Y131.12 E0.53468
G1 X41.704 Y131.172 E0.61868
G1 X44.373 Y131.15 E0.70745
G1 X45.484 Y131.157 E0.74441
G1 X46.538 Y131.178 E0.77947
G1 X49.058 Y131.147 E0.86329
G1 X49.593 Y131.147 E0.88109
G1 X49.894 Y131.151 E0.8911
G1 X50.34 Y131.163 E0.90594
G1 X52.91 Y131.197 E0.99142
G1 X55.442 Y131.158 E1.07565
G1 X57.99 Y131.048 E1.16047
G1 X59.346 Y130.96 E1.20567
G1 X60.102 Y130.905 E1.23088
G1 X61.353 Y130.885 E1.27249
G1 X62.799 Y130.945 E1.32063
G1 X63.142 Y130.961 E1.33205
G1 X65.682 Y131.021 E1.41655
G1 X68.209 Y131.01 E1.5006
G1 X71.089 Y130.911 E1.59645
G1 X71.301 Y130.907 E1.6035
G1 X72.345 Y130.937 E1.63824
G1 X75.087 Y131.146 E1.7297
G1 X77.57 Y131.265 E1.81238
G1 X77.964 Y131.278 E1.8255
G1 X80.531 Y131.328 E1.91089
G1 X83.059 Y131.306 E1.99497
G1 X85.57 Y131.214 E2.07855
G1 X88.459 Y131.021 E2.17485
G1 X88.816 Y130.992 E2.18676
G1 X90.061 Y130.96 E2.22819
G1 X91.274 Y130.998 E2.26855
G1 X93.812 Y131.042 E2.35298
G1 X96.316 Y131.016 E2.43626
G1 X99.36 Y130.889 E2.5376
G1 X99.98 Y130.853 E2.55825
G1 X101.206 Y130.851 E2.59903
G1 X101.413 Y130.862 E2.60592
G1 X104.041 Y130.969 E2.6934
G1 X106.533 Y131.001 E2.7763
G1 X109.042 Y130.961 E2.85976
G1 X111.512 Y130.836 E2.94201
G1 X111.892 Y130.833 E2.95465
G1 X112.89 Y130.778 E2.9879
G1 X113.828 Y130.766 E3.0191
G1 X114.435 Y130.801 E3.03932
G1 X114.84 Y130.836 E3.05284
G1 X117.371 Y131.019 E3.13724
G1 X119.914 Y131.129 E3.2219
G1 X122.447 Y131.169 E3.30616
G1 X124.939 Y131.137 E3.38905
G1 X126.552 Y131.074 E3.44274
G1 X126.78 Y131.068 E3.45033
G1 X128.249 Y131.041 E3.49919
G1 X128.735 Y131.039 E3.51536
G1 X129.11 Y131.043 E3.52783
G1 X131.703 Y131.045 E3.61407
G1 X134.222 Y130.975 E3.69789
G1 X136.744 Y130.832 E3.78191
G1 X139.267 Y130.619 E3.86612
G1 X141.751 Y130.337 E3.94927
G1 X144.282 Y129.979 E4.03429
G1 X145.705 Y129.744 E4.08226
G1 X146.162 Y129.666 E4.09768
G1 X147.092 Y129.547 E4.12886
G1 X147.701 Y129.513 E4.14915
G1 X148.02 Y129.504 E4.15976
G1 X148.33 Y129.5 E4.17007
G1 X150.449 Y129.501 E4.24055
G1 X151.153 Y129.511 E4.26397
G1 X152.09 Y129.564 E4.29518
G1 X153.011 Y129.696 E4.32613
G1 X155.689 Y130.157 E4.41651
G1 X158.209 Y130.515 E4.50117
G1 X160.665 Y130.795 E4.58338
G1 X163.219 Y131.011 E4.66863
G1 X165.689 Y131.151 E4.75092
G1 X167.189 Y131.192 E4.80083
G1 X168.045 Y131.227 E4.82932
G1 X170.558 Y131.291 E4.91293
G1 X174.224 Y131.259 E5.03487
G1 X175.743 Y131.256 E5.08539
G1 X176.003 Y131.24 E5.09405
G1 X177.453 Y131.242 E5.14228
G1 X177.897 Y131.234 E5.15705
G1 X179.657 Y131.179 E5.21562
G1 X180.638 Y131.161 E5.24825
G1 X182.159 Y131.113 E5.29887
G1 X183.115 Y131.096 E5.33067
G1 X185.665 Y131.086 E5.41548
G1 X188.174 Y131.003 E5.49898
G1 X189.435 Y130.928 E5.54099
G1 X190.185 Y130.893 E5.56596
G1 X191.125 Y130.889 E5.59723
G1 X191.944 Y130.921 E5.62449
G1 X194.549 Y130.985 E5.71116
G1 X196.939 Y130.975 E5.79065
G1 X197.865 Y130.984 E5.82145
G1 X200.616 Y130.972 E5.91295
G1 X201.732 Y130.953 E5.95007
G1 X202.369 Y130.96 E5.97126
G1 X203.599 Y131.011 E6.01221
G1 X204.084 Y131.037 E6.02836
G1 X206.584 Y131.104 E6.11154
G1 X209.079 Y131.1 E6.19453
G1 X212.005 Y131.003 E6.2919
G1 X212.364 Y130.995 E6.30384
G1 X212.776 Y130.992 E6.31755
G1 X212.992 Y130.994 E6.32473
G1 X215.316 Y131.04 E6.40204
G1 X218.13 Y131.013 E6.49564
G1 X218.448 Y131.015 E6.50622
G1 X221.105 Y131.067 E6.59461
G1 X223.674 Y131.043 E6.68005
G1 X225.46 Y130.982 E6.73949
G1 X225.737 Y130.977 E6.74871
G1 X226.045 Y130.976 E6.75895
G1 X227.196 Y130.988 E6.79724
G1 X227.939 Y131.005 E6.82195
G1 X230.464 Y130.993 E6.90594
G1 X233.03 Y130.907 E6.99133
G1 X234.754 Y130.81 E7.04876
G1 X235.913 Y130.805 E7.08731
G1 X236.542 Y130.837 E7.10826
G1 X238.239 Y130.945 E7.16481
G1 X240.733 Y131.033 E7.24782
G1 X243.244 Y131.05 E7.33133
G1 X246.439 Y130.972 E7.43763
G1 X246.79 Y130.957 E7.44932
G1 X247.1 Y130.949 E7.45963
G1 X247.778 Y130.941 E7.48218
G1 X249.372 Y130.942 E7.5352
G1 X251.137 Y130.885 E7.59394
G1 X252.45 Y130.855 E7.63762
G1 X253.058 Y130.858 E7.65784
G1 X254.336 Y130.901 E7.70037
G1 X254.478 Y130.908 E7.7051
G1 X257.02 Y130.962 E7.78967
G1 X257.799 Y130.958 E7.81558
G1 X259.717 Y130.976 E7.87937
G1 X262.528 Y130.962 E7.97287
G1 X263.174 Y130.95 E7.99436
G1 X263.482 Y130.948 E8.0046
G1 X264.548 Y130.958 E8.04006
G1 X267.118 Y130.945 E8.12554
G1 X269.629 Y130.86 E8.2091
G1 X272.573 Y130.674 E8.30721
G1 X273.365 Y130.611 E8.33364
G1 X274.016 Y130.579 E8.35532
G1 X274.631 Y130.567 E8.37578
G1 X275.005 Y130.566 E8.38822
G1 X275.143 Y130.568 E8.39281
G1 X276.08 Y130.622 E8.42402
G1 X277.008 Y130.755 E8.4552
G1 X277.922 Y130.967 E8.48641
G1 X278.814 Y131.255 E8.51759
G1 X279.679 Y131.619 E8.5488
G1 X280.238 Y131.903 E8.56965
G1 X281.016 Y132.326 E8.59911
G1 X281.295 Y132.483 E8.60976
G1 X281.905 Y132.838 E8.63323
G1 X282.695 Y133.344 E8.66443
G1 X283.438 Y133.915 E8.6956
G1 X284.131 Y134.548 E8.72682
G1 X284.767 Y135.237 E8.758
G1 X285.342 Y135.978 E8.7892
G1 X285.852 Y136.765 E8.82039
G1 X286.128 Y137.264 E8.83936
G1 X286.253 Y137.504 E8.84836
G1 X286.49 Y137.986 E8.86622
G1 X286.733 Y138.514 E8.88555
G1 X287.088 Y139.382 E8.91675
G1 X287.368 Y140.277 E8.94794
G1 X287.618 Y141.48 E8.9888
G1 X287.766 Y142.476 E9.02229
G1 X287.972 Y144.033 E9.07453
G1 X288.004 Y144.3 E9.08348
G1 X288.065 Y144.877 E9.10277
G1 X288.127 Y145.538 E9.12485
G1 X288.184 Y146.238 E9.14821
G1 X288.22 Y147.175 E9.1794
G1 X288.199 Y147.813 E9.20063
G1 X288.112 Y149.214 E9.24732
G1 X288.106 Y149.456 E9.25537
G1 X287.959 Y151.878 E9.33608
G1 X287.919 Y152.836 E9.36797
G1 X287.853 Y155.681 E9.46262
G1 X287.837 Y156.182 E9.47929
G1 X287.768 Y157.117 E9.51047
G1 X287.618 Y158.043 E9.54167
G1 X287.38 Y158.989 E9.57412
G1 X287.172 Y159.683 E9.59821
G1 X287.06 Y160.034 E9.61047
G1 X286.922 Y160.444 E9.62486
G1 X286.585 Y161.319 E9.65604
G1 X286.175 Y162.163 E9.68725
G1 X285.695 Y162.968 E9.71842
G1 X285.148 Y163.73 E9.74962
G1 X284.537 Y164.442 E9.78083
G1 X283.869 Y165.1 E9.81201
G1 X283.146 Y165.698 E9.84322
G1 X282.661 Y166.045 E9.86306
G1 X282.058 Y166.453 E9.88727
G1 X281.777 Y166.638 E9.89846
G1 X281.254 Y166.969 E9.91905
G1 X280.44 Y167.436 E9.95026
G1 X279.59 Y167.833 E9.98146
G1 X278.71 Y168.155 E10.01263
G1 X277.805 Y168.401 E10.04382
G1 X276.882 Y168.57 E10.07503
G1 X275.987 Y168.657 E10.10494
G1 X275.028 Y168.711 E10.13689
G1 X272.417 Y168.894 E10.22394
G1 X271.714 Y168.959 E10.24742
G1 X271.311 Y168.99 E10.26087
G1 X270.026 Y169.013 E10.30361
G1 X269.515 Y168.992 E10.32062
G1 X267.642 Y168.893 E10.38301
G1 X265.109 Y168.831 E10.46728
G1 X262.624 Y168.84 E10.54993
G1 X262.075 Y168.86 E10.5682
G1 X261.907 Y168.859 E10.57379
G1 X260.531 Y168.892 E10.61957
G1 X260.212 Y168.895 E10.63018
G1 X259.044 Y168.889 E10.66903
G1 X256.518 Y168.913 E10.75305
G1 X255.606 Y168.947 E10.7834
G1 X254.624 Y168.97 E10.81607
G1 X254.004 Y168.967 E10.83669
G1 X252.728 Y168.924 E10.87916
G1 X252.281 Y168.903 E10.89404
G1 X249.75 Y168.856 E10.97824
G1 X247.241 Y168.88 E11.06169
G1 X245.264 Y168.949 E11.12749
G1 X244.651 Y168.977 E11.1479
G1 X244.299 Y168.988 E11.15961
G1 X243.881 Y168.992 E11.17351
G1 X243.522 Y168.989 E11.18545
G1 X242.712 Y168.974 E11.2124
G1 X242.382 Y168.964 E11.22338
G1 X239.48 Y168.919 E11.31991
G1 X239.297 Y168.914 E11.326
G1 X238.981 Y168.901 E11.33652
G1 X238.094 Y168.851 E11.36607
G1 X235.547 Y168.744 E11.45086
G1 X232.999 Y168.71 E11.53561
G1 X231.773 Y168.723 E11.57639
G1 X230.117 Y168.712 E11.63147
G1 X229.687 Y168.703 E11.64578
G1 X227.173 Y168.724 E11.72939
G1 X224.669 Y168.816 E11.81273
G1 X223.326 Y168.908 E11.85751
G1 X221.94 Y168.988 E11.90368
G1 X221.268 Y169.006 E11.92604
G1 X220.665 Y168.989 E11.94611
G1 X220.318 Y168.97 E11.95766
G1 X217.727 Y168.867 E12.04391
G1 X215.472 Y168.837 E12.11892
G1 X214.993 Y168.836 E12.13485
G1 X214.568 Y168.828 E12.14899
G1 X210.601 Y168.793 E12.28094
G1 X209.466 Y168.806 E12.31869
G1 X206.912 Y168.872 E12.40366
G1 X204.994 Y168.982 E12.46756
G1 X204.087 Y169.025 E12.49776
G1 X203.139 Y169.029 E12.52929
G1 X202.66 Y169.009 E12.54524
G1 X200.634 Y168.904 E12.61271
G1 X198.096 Y168.843 E12.69715
G1 X195.596 Y168.852 E12.7803
G1 X194.293 Y168.874 E12.82365
G1 X194.085 Y168.875 E12.83056
G1 X193.232 Y168.89 E12.85894
G1 X192.88 Y168.891 E12.87065
G1 X189.192 Y168.832 E12.99333
G1 X187.805 Y168.84 E13.03946
G1 X187.229 Y168.828 E13.05862
G1 X186.733 Y168.805 E13.07514
G1 X184.164 Y168.723 E13.16062
G1 X182.313 Y168.709 E13.22219
G1 X181.025 Y168.712 E13.26503
G1 X176.322 Y168.752 E13.42146
G1 X176.086 Y168.759 E13.42931
G1 X173.508 Y168.868 E13.51513
G1 X171.79 Y168.982 E13.5724
G1 X170.84 Y169.053 E13.60408
G1 X169.912 Y169.083 E13.63497
G1 X168.809 Y169.072 E13.67165
G1 X166.163 Y169.083 E13.75966
G1 X163.676 Y169.164 E13.84242
G1 X161.124 Y169.32 E13.92746
G1 X158.631 Y169.543 E14.01071
G1 X156.161 Y169.834 E14.09343
G1 X153.611 Y170.208 E14.17915
G1 X152.956 Y170.317 E14.20124
G1 X152.626 Y170.367 E14.21234
G1 X151.411 Y170.482 E14.25293
G1 X150.955 Y170.496 E14.2681
G1 X150.532 Y170.5 E14.28217
G1 X148.538 Y170.499 E14.34849
G1 X147.827 Y170.488 E14.37214
G1 X146.891 Y170.433 E14.40333
G1 X146.291 Y170.356 E14.42345
G1 X145.035 Y170.158 E14.46574
G1 X144.413 Y170.052 E14.48673
G1 X141.947 Y169.705 E14.56955
G1 X139.434 Y169.423 E14.65366
G1 X136.143 Y169.16 E14.76347
G1 X135.483 Y169.119 E14.78546
G1 X132.94 Y168.997 E14.87014
G1 X130.42 Y168.948 E14.95397
G1 X127.859 Y168.972 E15.03915
G1 X125.371 Y169.064 E15.12196
G1 X122.829 Y169.231 E15.20669
G1 X121.891 Y169.306 E15.23799
G1 X121.232 Y169.339 E15.25994
G1 X120.297 Y169.321 E15.29104
G1 X119.088 Y169.247 E15.33133
G1 X116.402 Y169.119 E15.42076
G1 X114.598 Y169.078 E15.48078
G1 X113.939 Y169.07 E15.5027
G1 X113.619 Y169.062 E15.51335
G1 X112.479 Y169.013 E15.5513
G1 X109.931 Y168.934 E15.63609
G1 X107.407 Y168.926 E15.72004
G1 X104.95 Y168.989 E15.80178
G1 X104.135 Y169.036 E15.82893
G1 X103.993 Y169.038 E15.83366
G1 X102.634 Y169.102 E15.87891
G1 X101.538 Y169.099 E15.91536
G1 X98.834 Y168.956 E16.00542
G1 X96.314 Y168.895 E16.08926
G1 X93.79 Y168.904 E16.17321
G1 X93.214 Y168.922 E16.19238
G1 X92.231 Y168.937 E16.22508
G1 X91.941 Y168.937 E16.23472
G1 X90.732 Y168.923 E16.27494
G1 X89.576 Y168.894 E16.3134
G1 X87.919 Y168.891 E16.36851
G1 X86.659 Y168.899 E16.41042
G1 X84.606 Y168.884 E16.4787
G1 X82.085 Y168.938 E16.56257
G1 X79.587 Y169.061 E16.64576
G1 X76.053 Y169.356 E16.76371
G1 X74.959 Y169.393 E16.80011
G1 X73.862 Y169.375 E16.83661
G1 X73.286 Y169.356 E16.85577
G1 X72.426 Y169.314 E16.88441
G1 X72.105 Y169.293 E16.89511
G1 X71.217 Y169.222 E16.92474
G1 X69.994 Y169.109 E16.96559
G1 X67.501 Y168.948 E17.04868
G1 X64.98 Y168.857 E17.13258
G1 X62.457 Y168.837 E17.2165
G1 X59.89 Y168.89 E17.3019
G1 X58.971 Y168.929 E17.33249
G1 X58.63 Y168.939 E17.34384
G1 X58.301 Y168.942 E17.35478
G1 X57.325 Y168.936 E17.38724
G1 X54.703 Y168.956 E17.47446
G1 X53.148 Y169.013 E17.52621
G1 X52.679 Y169.024 E17.54181
G1 X52.303 Y169.026 E17.55432
G1 X50.902 Y169.011 E17.60092
G1 X50.689 Y169.007 E17.608
G1 X49.349 Y168.967 E17.65259
G1 X46.82 Y168.962 E17.73671
G1 X44.345 Y169.027 E17.81906
G1 X43.352 Y169.088 E17.85214
G1 X42.945 Y169.096 E17.86568
G1 X41.802 Y169.154 E17.90375
G1 X40.875 Y169.162 E17.93458
G1 X40.333 Y169.143 E17.95262
G1 X38.476 Y169.055 E18.01445
G1 X36.198 Y169.014 E18.09023
G1 X35.689 Y168.999 E18.10717
G1 X35.374 Y168.985 E18.11766
G1 X34.74 Y168.948 E18.13878
G1 X32.094 Y168.831 E18.22687
G1 X30.599 Y168.799 E18.27661
G1 X28.024 Y168.803 E18.36225
G1 X24.958 Y168.894 E18.46427
G1 X24.02 Y168.882 E18.49547
G1 X23.087 Y168.79 E18.52666
G1 X22.165 Y168.619 E18.55784
G1 X21.559 Y168.461 E18.57867
G1 X21.114 Y168.329 E18.59411
G1 X20.814 Y168.234 E18.60458
G1 X19.977 Y167.953 E18.63394
G1 X19.102 Y167.616 E18.66513
G1 X18.259 Y167.205 E18.69632
G1 X17.454 Y166.724 E18.72751
G1 X16.693 Y166.176 E18.7587
G1 X15.981 Y165.565 E18.78991
G1 X15.324 Y164.896 E18.8211
G1 X14.727 Y164.173 E18.85228
G1 X14.193 Y163.402 E18.88348
G1 X13.726 Y162.588 E18.91469
G1 X13.417 Y161.939 E18.9386
G1 X12.977 Y160.933 E18.97512
G1 X12.807 Y160.528 E18.98973
G1 X12.503 Y159.765 E19.01704
G1 X12.194 Y158.88 E19.04822
G1 X11.961 Y157.971 E19.07943
G1 X11.807 Y157.046 E19.11062
G1 X11.724 Y155.676 E19.15627
G1 X11.73 Y152.991 E19.24557
G1 X11.701 Y151.97 E19.27955
G1 X11.703 Y151.831 E19.28417
G1 X11.676 Y150.45 E19.33011
G1 X11.697 Y149.528 E19.36078
G1 X11.736 Y148.916 E19.38118
G1 X11.871 Y146.258 E19.4697
G1 X11.921 Y144.313 E19.53441
G1 X12.007 Y143.188 E19.57194
G1 X12.011 Y143.157 E19.57298
G1 X12.241 Y141.932 E19.61444
G1 X12.436 Y141.141 E19.64153
G1 X12.712 Y139.994 E19.68077
G1 X12.97 Y139.093 E19.71194
G1 X13.304 Y138.216 E19.74315
G1 X13.712 Y137.372 E19.77433
G1 X14.19 Y136.565 E19.80553
G1 X14.735 Y135.801 E19.83674
G1 X15.343 Y135.087 E19.86793
G1 X16.01 Y134.428 E19.89912
G1 X16.73 Y133.827 E19.93031
G1 X17.499 Y133.29 E19.96151
G1 X18.311 Y132.821 E19.9927
G1 X19.16 Y132.422 E20.0239
G1 X19.771 Y132.188 E20.04566
G1 X20.565 Y131.91 E20.07364
G1 X20.932 Y131.789 E20.08649
G1 X21.292 Y131.677 E20.09903
G1 X22.199 Y131.436 E20.13025
G1 X23.123 Y131.274 E20.16145
G0 F6000 X23.208 Y131.667
G1 F1200 X24.157 Y131.588 E20.19312
G1 X25.628 Y131.532 E20.24208
G1 X25.892 Y131.533 E20.25086
G1 X28.066 Y131.468 E20.3232
G1 X29.114 Y131.451 E20.35806
G1 X31.653 Y131.34 E20.44259
G1 X32.65 Y131.271 E20.47583
G1 X33.254 Y131.239 E20.49595
G1 X34.426 Y131.246 E20.53493
G1 X35.398 Y131.306 E20.56732
G1 X36.541 Y131.392 E20.60545
G1 X39.187 Y131.52 E20.69355
G1 X41.699 Y131.572 E20.77712
G1 X44.371 Y131.55 E20.866
G1 X45.476 Y131.557 E20.90275
G1 X46.535 Y131.578 E20.93798
G1 X49.058 Y131.547 E21.0219
G1 X49.593 Y131.547 E21.03969
G1 X49.883 Y131.551 E21.04934
G1 X50.323 Y131.563 E21.06398
G1 X52.911 Y131.597 E21.15007
G1 X55.465 Y131.558 E21.23502
G1 X57.988 Y131.449 E21.31902
G1 X59.372 Y131.359 E21.36514
G1 X60.131 Y131.304 E21.39046
G1 X61.337 Y131.285 E21.43057
G1 X62.78 Y131.345 E21.47861
G1 X63.113 Y131.361 E21.4897
G1 X65.675 Y131.421 E21.57493
G1 X68.191 Y131.41 E21.65862
G1 X70.931 Y131.315 E21.7498
G1 X71.309 Y131.307 E21.76238
G1 X72.315 Y131.336 E21.79585
G1 X75.038 Y131.544 E21.88668
G1 X77.611 Y131.666 E21.97236
G1 X77.942 Y131.678 E21.98337
G1 X80.526 Y131.728 E22.06933
G1 X83.076 Y131.706 E22.15415
G1 X85.611 Y131.613 E22.23852
G1 X88.39 Y131.428 E22.33116
G1 X88.849 Y131.39 E22.34647
G1 X90.048 Y131.36 E22.38637
G1 X91.254 Y131.398 E22.4265
G1 X93.81 Y131.442 E22.51152
G1 X96.305 Y131.416 E22.59451
G1 X99.46 Y131.284 E22.69954
G1 X100.003 Y131.253 E22.71763
G1 X101.184 Y131.25 E22.75691
G1 X101.449 Y131.264 E22.76574
G1 X104.02 Y131.369 E22.85132
G1 X106.534 Y131.401 E22.93494
G1 X109.068 Y131.361 E23.01923
G1 X111.532 Y131.236 E23.10129
G1 X111.895 Y131.233 E23.11337
