;FLAVOR:Marlin
;TIME:1146
;Filament used: 0.622547m
;Layer height: 0.2
;MINX:122.2
;MINY:133.5
;MINZ:0.2
;MAXX:177.8
;MAXY:166.575
;MAXZ:8
;Generated with Cura_SteamEngine 5.3.0
M140 S60
M105
M190 S60
M104 S210
M105
M109 S210
M82 ;absolute extrusion mode
M220 S100 ;Reset Feedrate
M221 S100 ;Reset Flowrate

M280 P0 S160 ;reset bltouch
G28 ;Home
G29 A ; enable UBL
G92 E0 ;Reset Extruder
G1 Z2.0 F3000 ;Move Z Axis up
G1 X10.1 Y20 Z0.28 F5000.0 ;Move to start position
G1 X10.1 Y200.0 Z0.28 F1500.0 E15 ;Draw the first line
G1 X10.4 Y200.0 Z0.28 F5000.0 ;Move to side a little
G1 X10.4 Y20 Z0.28 F1500.0 E30 ;Draw the second line
G92 E0 ;Reset Extruder
G1 Z2.0 F3000 ;Move Z Axis up
G92 E0
G92 E0
G1 F2100 E-1.5
;LAYER_COUNT:40
;LAYER:0
M107
G0 F6000 X135.819 Y136.524 Z0.2
;TYPE:SKIRT
G1 F2100 E0
G1 F1200 X137.394 Y135.05 E0.07175
G1 X139.266 Y133.938 E0.14417
G1 X141.453 Y133.5 E0.21835
G1 X145.954 Y133.5 E0.36805
G1 X147.842 Y133.964 E0.43272
G1 X149.115 Y134.625 E0.48043
G1 X158.753 Y134.625 E0.80099
G1 X160.649 Y135.091 E0.86593
G1 X162.676 Y136.144 E0.9419
G1 X164.15 Y137.719 E1.01365
G1 X165.262 Y139.591 E1.08606
G1 X165.7 Y141.778 E1.16025
G1 X165.7 Y148.974 E1.39959
G1 X170.853 Y148.975 E1.57098
G1 X172.749 Y149.441 E1.63592
G1 X174.776 Y150.494 E1.71189
G1 X176.25 Y152.069 E1.78364
G1 X177.362 Y153.941 E1.85606
G1 X177.8 Y156.128 E1.93024
G1 X177.8 Y159.628 E2.04665
G1 X177.334 Y161.524 E2.11159
G1 X176.281 Y163.551 E2.18756
G1 X174.706 Y165.025 E2.25931
G1 X172.834 Y166.137 E2.33173
G1 X170.647 Y166.575 E2.40591
G1 X129.147 Y166.575 E3.78621
G1 X127.251 Y166.109 E3.85115
G1 X125.224 Y165.056 E3.92712
G1 X123.75 Y163.481 E3.99887
G1 X122.638 Y161.609 E4.07129
G1 X122.2 Y159.422 E4.14547
G1 X122.2 Y155.922 E4.26188
G1 X122.666 Y154.026 E4.32682
G1 X123.719 Y151.999 E4.40279
G1 X125.294 Y150.525 E4.47454
G1 X127.166 Y149.413 E4.54696
G1 X129.353 Y148.975 E4.62114
G1 X134.3 Y148.975 E4.78568
G1 X134.3 Y140.447 E5.06932
G1 X134.766 Y138.551 E5.13426
G1 X135.819 Y136.524 E5.21023
G0 F6000 X136.142 Y136.769
G1 F1200 X137.635 Y135.372 E5.27824
G1 X139.412 Y134.316 E5.34699
G1 X141.491 Y133.9 E5.41751
G1 X145.908 Y133.9 E5.56442
G1 X147.699 Y134.34 E5.62576
G1 X149.018 Y135.025 E5.67519
G1 X158.707 Y135.025 E5.99745
G1 X160.506 Y135.467 E6.05906
G1 X162.431 Y136.467 E6.13121
G1 X163.828 Y137.96 E6.19922
G1 X164.884 Y139.737 E6.26797
G1 X165.3 Y141.816 E6.33849
G1 X165.3 Y148.984 E6.5769
G1 X165.204 Y149.374 E6.59026
G1 X170.807 Y149.375 E6.77661
G1 X172.606 Y149.817 E6.83823
G1 X174.531 Y150.817 E6.91038
G1 X175.928 Y152.31 E6.97838
G1 X176.984 Y154.087 E7.04713
G1 X177.4 Y156.166 E7.11765
G1 X177.4 Y159.582 E7.23127
G1 X176.958 Y161.381 E7.29288
G1 X175.958 Y163.306 E7.36503
G1 X174.465 Y164.703 E7.43304
G1 X172.688 Y165.759 E7.50179
G1 X170.609 Y166.175 E7.57231
G1 X129.193 Y166.175 E8.94981
G1 X127.394 Y165.733 E9.01143
G1 X125.469 Y164.733 E9.08358
G1 X124.072 Y163.24 E9.15158
G1 X123.016 Y161.463 E9.22033
G1 X122.6 Y159.384 E9.29085
G1 X122.6 Y155.968 E9.40447
G1 X123.042 Y154.169 E9.46608
G1 X124.042 Y152.244 E9.53823
G1 X125.535 Y150.847 E9.60624
G1 X127.312 Y149.791 E9.67499
G1 X129.391 Y149.375 E9.74551
G1 X134.7 Y149.375 E9.92209
G1 X134.7 Y140.493 E10.2175
G1 X135.142 Y138.694 E10.27912
G1 X136.142 Y136.769 E10.35127
G0 F6000 X136.465 Y137.014
G1 F1200 X137.876 Y135.694 E10.41553
G1 X139.558 Y134.695 E10.4806
G1 X141.53 Y134.3 E10.54749
G1 X145.862 Y134.3 E10.69157
G1 X147.556 Y134.716 E10.74959
G1 X148.921 Y135.425 E10.80075
G1 X158.66 Y135.425 E11.12467
G1 X160.364 Y135.844 E11.18303
G1 X162.186 Y136.79 E11.25131
G1 X163.506 Y138.201 E11.31558
G1 X164.505 Y139.883 E11.38065
G1 X164.9 Y141.855 E11.44754
G1 X164.9 Y148.937 E11.68309
G1 X164.694 Y149.774 E11.71176
G1 X170.76 Y149.775 E11.91351
G1 X172.464 Y150.194 E11.97187
G1 X174.286 Y151.14 E12.04016
G1 X175.606 Y152.551 E12.10442
G1 X176.605 Y154.233 E12.16949
G1 X177 Y156.205 E12.23638
G1 X177 Y159.535 E12.34714
G1 X176.581 Y161.239 E12.4055
G1 X175.635 Y163.061 E12.47378
G1 X174.224 Y164.381 E12.53804
G1 X172.542 Y165.38 E12.60311
G1 X170.57 Y165.775 E12.67
G1 X129.24 Y165.775 E14.04465
G1 X127.536 Y165.356 E14.10301
G1 X125.714 Y164.41 E14.17129
G1 X124.394 Y162.999 E14.23555
G1 X123.395 Y161.317 E14.30062
G1 X123 Y159.345 E14.36751
G1 X123 Y156.015 E14.47827
G1 X123.419 Y154.311 E14.53663
G1 X124.365 Y152.489 E14.60491
G1 X125.776 Y151.169 E14.66918
G1 X127.458 Y150.17 E14.73425
G1 X129.43 Y149.775 E14.80114
G1 X135.1 Y149.775 E14.98972
G1 X135.1 Y140.54 E15.29688
G1 X135.519 Y138.836 E15.35524
G1 X136.465 Y137.014 E15.42352
G0 F6000 X136.788 Y137.259
G1 F1200 X135.895 Y138.979 E15.48798
G1 X135.5 Y140.586 E15.54302
G1 X135.5 Y149.832 E15.85055
G1 X135.569 Y150.175 E15.86218
G1 X129.468 Y150.175 E16.0651
G1 X127.604 Y150.548 E16.12833
G1 X126.017 Y151.491 E16.18973
G1 X124.688 Y152.734 E16.25025
G1 X123.795 Y154.454 E16.31471
G1 X123.4 Y156.061 E16.36975
G1 X123.4 Y159.307 E16.47771
G1 X123.773 Y161.171 E16.54094
G1 X124.716 Y162.758 E16.60234
G1 X125.959 Y164.087 E16.66286
G1 X127.679 Y164.98 E16.72732
G1 X129.286 Y165.375 E16.78236
G1 X170.532 Y165.375 E18.15421
G1 X172.396 Y165.002 E18.21743
G1 X173.983 Y164.059 E18.27883
G1 X175.312 Y162.816 E18.33935
G1 X176.205 Y161.096 E18.40381
G1 X176.6 Y159.489 E18.45885
G1 X176.6 Y156.243 E18.56682
G1 X176.227 Y154.379 E18.63004
G1 X175.284 Y152.792 E18.69144
G1 X174.041 Y151.463 E18.75196
G1 X172.321 Y150.57 E18.81642
G1 X170.714 Y150.175 E18.87146
G1 X164.184 Y150.174 E19.08865
G1 X164.5 Y148.89 E19.13263
G1 X164.5 Y141.893 E19.36535
G1 X164.127 Y140.029 E19.42858
G1 X163.184 Y138.442 E19.48998
G1 X161.941 Y137.113 E19.5505
G1 X160.221 Y136.22 E19.61496
G1 X158.614 Y135.825 E19.67
G1 X148.824 Y135.825 E19.99562
G1 X147.413 Y135.092 E20.0485
G1 X145.816 Y134.7 E20.10319
G1 X141.568 Y134.7 E20.24448
G1 X139.704 Y135.073 E20.30771
G1 X138.117 Y136.016 E20.36911
G1 X136.788 Y137.259 E20.42963
G0 F6000 X137.111 Y137.504
G1 F1200 X138.358 Y136.338 E20.48641
G1 X139.85 Y135.451 E20.54414
G1 X141.606 Y135.1 E20.6037
G1 X145.77 Y135.1 E20.7422
G1 X147.27 Y135.468 E20.79357
G1 X148.589 Y136.149 E20.84294
G1 X148.702 Y136.225 E20.84747
G1 X158.568 Y136.225 E21.17562
G1 X160.078 Y136.596 E21.22733
G1 X161.696 Y137.436 E21.28797
G1 X162.862 Y138.683 E21.34475
G1 X163.749 Y140.175 E21.40248
G1 X164.1 Y141.931 E21.46204
G1 X164.1 Y148.843 E21.69193
G1 X163.74 Y150.307 E21.74208
G1 X163.614 Y150.574 E21.7519
G1 X170.668 Y150.575 E21.98651
G1 X172.178 Y150.946 E22.03823
G1 X173.796 Y151.786 E22.09887
G1 X174.962 Y153.033 E22.15565
G1 X175.849 Y154.525 E22.21338
G1 X176.2 Y156.281 E22.27294
G1 X176.2 Y159.443 E22.37811
G1 X175.829 Y160.953 E22.42982
G1 X174.989 Y162.571 E22.49046
G1 X173.742 Y163.737 E22.54724
G1 X172.25 Y164.624 E22.60497
G1 X170.494 Y164.975 E22.66453
G1 X129.332 Y164.975 E24.03359
G1 X127.822 Y164.604 E24.0853
G1 X126.204 Y163.764 E24.14594
G1 X125.038 Y162.517 E24.20272
G1 X124.151 Y161.025 E24.26045
G1 X123.8 Y159.269 E24.32001
G1 X123.8 Y156.107 E24.42518
G1 X124.171 Y154.597 E24.4769
G1 X125.011 Y152.979 E24.53753
G1 X126.258 Y151.813 E24.59431
G1 X127.75 Y150.926 E24.65204
G1 X129.506 Y150.575 E24.7116
G1 X136.056 Y150.575 E24.92946
G1 X135.9 Y149.794 E24.95595
G1 X135.9 Y140.632 E25.26068
G1 X136.271 Y139.122 E25.31239
G1 X137.111 Y137.504 E25.37303
G0 F6000 X137.434 Y137.749
G1 F1200 X138.599 Y136.66 E25.42607
G1 X139.996 Y135.829 E25.48013
G1 X141.644 Y135.5 E25.53603
G1 X145.724 Y135.5 E25.67173
G1 X147.127 Y135.844 E25.71977
G1 X148.405 Y136.504 E25.76762
G1 X148.57 Y136.625 E25.77442
G1 X158.521 Y136.625 E26.10539
G1 X159.936 Y136.973 E26.15386
G1 X161.451 Y137.759 E26.21062
G1 X162.54 Y138.924 E26.26367
G1 X163.371 Y140.321 E26.31773
G1 X163.7 Y141.969 E26.37362
G1 X163.7 Y148.796 E26.60069
G1 X163.352 Y150.211 E26.64916
G1 X162.957 Y150.974 E26.67773
G1 X170.621 Y150.975 E26.93264
G1 X172.036 Y151.323 E26.9811
G1 X173.551 Y152.109 E27.03787
G1 X174.64 Y153.274 E27.09091
G1 X175.471 Y154.671 E27.14497
G1 X175.8 Y156.319 E27.20087
G1 X175.8 Y159.396 E27.30321
G1 X175.452 Y160.811 E27.35168
G1 X174.666 Y162.326 E27.40844
G1 X173.501 Y163.415 E27.46148
G1 X172.104 Y164.246 E27.51555
G1 X170.456 Y164.575 E27.57144
G1 X129.379 Y164.575 E28.93767
G1 X127.964 Y164.227 E28.98613
G1 X126.449 Y163.441 E29.0429
G1 X125.36 Y162.276 E29.09594
G1 X124.529 Y160.879 E29.15
G1 X124.2 Y159.231 E29.2059
G1 X124.2 Y156.154 E29.30824
G1 X124.548 Y154.739 E29.35671
G1 X125.334 Y153.224 E29.41347
G1 X126.499 Y152.135 E29.46651
G1 X127.896 Y151.304 E29.52058
G1 X129.544 Y150.975 E29.57647
G1 X136.543 Y150.975 E29.80926
G1 X136.3 Y149.756 E29.8506
G1 X136.3 Y140.679 E30.1525
G1 X136.648 Y139.264 E30.20097
G1 X137.434 Y137.749 E30.25774
G0 F6000 X137.757 Y137.994
G1 F1200 X138.838 Y136.984 E30.30694
G1 X140.144 Y136.207 E30.35749
G1 X141.682 Y135.9 E30.40965
G1 X145.678 Y135.9 E30.54256
G1 X146.986 Y136.221 E30.58735
G1 X148.222 Y136.859 E30.63361
G1 X148.431 Y137.025 E30.64249
G1 X158.475 Y137.025 E30.97656
G1 X159.793 Y137.349 E31.0217
G1 X161.206 Y138.082 E31.07464
G1 X162.216 Y139.163 E31.12385
G1 X162.993 Y140.469 E31.17439
G1 X163.3 Y142.007 E31.22655
G1 X163.3 Y148.75 E31.45083
G1 X162.976 Y150.068 E31.49597
G1 X162.299 Y151.374 E31.5449
G1 X170.575 Y151.375 E31.82016
G1 X171.893 Y151.699 E31.8653
G1 X173.306 Y152.432 E31.91824
G1 X174.316 Y153.513 E31.96745
G1 X175.093 Y154.819 E32.01799
G1 X175.4 Y156.357 E32.07016
G1 X175.4 Y159.35 E32.1697
G1 X175.076 Y160.668 E32.21485
G1 X174.343 Y162.081 E32.26779
G1 X173.262 Y163.091 E32.317
G1 X171.956 Y163.868 E32.36754
G1 X170.418 Y164.175 E32.4197
G1 X129.425 Y164.175 E33.78314
G1 X128.107 Y163.851 E33.82828
G1 X126.694 Y163.118 E33.88122
G1 X125.684 Y162.037 E33.93043
G1 X124.907 Y160.731 E33.98097
G1 X124.6 Y159.193 E34.03313
G1 X124.6 Y156.2 E34.13268
G1 X124.924 Y154.882 E34.17782
G1 X125.657 Y153.469 E34.23077
G1 X126.738 Y152.459 E34.27997
G1 X128.044 Y151.682 E34.33052
G1 X129.582 Y151.375 E34.38268
G1 X137.078 Y151.375 E34.632
G1 X136.993 Y151.186 E34.63889
G1 X136.7 Y149.718 E34.68868
G1 X136.7 Y140.725 E34.98779
G1 X137.024 Y139.407 E35.03293
G1 X137.757 Y137.994 E35.08587
G0 F6000 X138.08 Y138.239
G1 F1200 X139.077 Y137.308 E35.13124
G1 X140.292 Y136.585 E35.17827
G1 X141.72 Y136.3 E35.2267
G1 X145.632 Y136.3 E35.35681
G1 X146.843 Y136.597 E35.39829
G1 X148.038 Y137.214 E35.44302
G1 X148.283 Y137.425 E35.45377
G1 X158.429 Y137.425 E35.79123
G1 X159.65 Y137.725 E35.83305
G1 X160.961 Y138.405 E35.88217
G1 X161.892 Y139.402 E35.92754
G1 X162.615 Y140.617 E35.97456
G1 X162.9 Y142.045 E36.02299
G1 X162.9 Y148.704 E36.24447
G1 X162.6 Y149.925 E36.28629
G1 X161.921 Y151.234 E36.33534
G1 X161.5 Y151.627 E36.35449
G1 X161.5 Y151.774 E36.35938
G1 X170.529 Y151.775 E36.65969
G1 X171.75 Y152.075 E36.70151
G1 X173.061 Y152.755 E36.75063
G1 X173.992 Y153.752 E36.796
G1 X174.715 Y154.967 E36.84302
G1 X175 Y156.395 E36.89145
G1 X175 Y159.304 E36.98821
G1 X174.7 Y160.525 E37.03003
G1 X174.02 Y161.836 E37.07915
G1 X173.023 Y162.767 E37.12452
G1 X171.808 Y163.49 E37.17154
G1 X170.38 Y163.775 E37.21997
G1 X129.471 Y163.775 E38.58061
G1 X128.25 Y163.475 E38.62243
G1 X126.939 Y162.795 E38.67155
G1 X126.008 Y161.798 E38.71692
G1 X125.285 Y160.583 E38.76395
G1 X125 Y159.155 E38.81238
G1 X125 Y156.246 E38.90913
G1 X125.3 Y155.025 E38.95095
G1 X125.98 Y153.714 E39.00007
G1 X126.977 Y152.783 E39.04544
G1 X128.192 Y152.06 E39.09247
G1 X129.62 Y151.775 E39.1409
G1 X137.782 Y151.775 E39.41237
G1 X137.385 Y151.108 E39.43819
G1 X137.1 Y149.68 E39.48662
G1 X137.1 Y140.771 E39.78293
G1 X137.4 Y139.55 E39.82475
G1 X138.08 Y138.239 E39.87387
G0 F6000 X138.403 Y138.484
G1 F1200 X139.316 Y137.632 E39.91541
G1 X140.44 Y136.963 E39.95891
G1 X141.758 Y136.7 E40.00361
G1 X145.582 Y136.7 E40.1308
G1 X146.704 Y136.975 E40.16922
G1 X147.854 Y137.569 E40.21227
G1 X148.124 Y137.825 E40.22465
G1 X158.383 Y137.825 E40.56586
G1 X159.507 Y138.101 E40.60436
G1 X160.716 Y138.728 E40.64965
G1 X161.568 Y139.641 E40.69119
G1 X162.237 Y140.765 E40.73469
G1 X162.5 Y142.083 E40.7794
G1 X162.5 Y148.658 E40.99808
G1 X162.224 Y149.782 E41.03658
G1 X161.598 Y150.989 E41.0818
G1 X161.1 Y151.454 E41.10446
G1 X161.1 Y152.174 E41.12841
G1 X170.483 Y152.175 E41.44049
G1 X171.607 Y152.451 E41.47898
G1 X172.816 Y153.078 E41.52428
G1 X173.668 Y153.991 E41.56582
G1 X174.337 Y155.115 E41.60932
G1 X174.6 Y156.433 E41.65402
G1 X174.6 Y159.258 E41.74798
G1 X174.324 Y160.382 E41.78648
G1 X173.697 Y161.591 E41.83177
G1 X172.784 Y162.443 E41.87331
G1 X171.66 Y163.112 E41.91681
G1 X170.342 Y163.375 E41.96152
G1 X129.517 Y163.375 E43.31936
G1 X128.393 Y163.099 E43.35786
G1 X127.184 Y162.472 E43.40315
G1 X126.332 Y161.559 E43.44469
G1 X125.663 Y160.435 E43.48819
G1 X125.4 Y159.117 E43.53289
G1 X125.4 Y156.292 E43.62685
G1 X125.676 Y155.168 E43.66535
G1 X126.303 Y153.959 E43.71065
G1 X127.216 Y153.107 E43.75218
G1 X128.34 Y152.438 E43.79569
G1 X129.658 Y152.175 E43.84039
G1 X138.486 Y152.175 E44.13401
G1 X137.763 Y150.96 E44.18103
G1 X137.5 Y149.642 E44.22573
G1 X137.5 Y140.817 E44.51925
G1 X137.776 Y139.693 E44.55775
G1 X138.403 Y138.484 E44.60305
G0 F6000 X138.725 Y138.731
G1 F1200 X139.558 Y137.954 E44.64093
G1 X140.588 Y137.341 E44.6808
G1 X141.796 Y137.1 E44.72177
G1 X145.536 Y137.1 E44.84616
G1 X146.563 Y137.352 E44.88133
G1 X147.671 Y137.924 E44.92281
G1 X147.949 Y138.225 E44.93644
G1 X158.336 Y138.225 E45.28191
G1 X159.365 Y138.478 E45.31715
G1 X160.469 Y139.05 E45.35851
G1 X161.246 Y139.883 E45.3964
G1 X161.859 Y140.913 E45.43626
G1 X162.1 Y142.121 E45.47723
G1 X162.1 Y148.611 E45.69309
G1 X161.847 Y149.64 E45.72833
G1 X161.276 Y150.742 E45.76961
G1 X160.7 Y151.279 E45.79581
G1 X160.7 Y152.574 E45.83888
G1 X170.436 Y152.575 E46.1627
G1 X171.465 Y152.828 E46.19794
G1 X172.569 Y153.4 E46.2393
G1 X173.346 Y154.233 E46.27719
G1 X173.959 Y155.263 E46.31705
G1 X174.2 Y156.471 E46.35802
G1 X174.2 Y159.211 E46.44915
G1 X173.947 Y160.24 E46.4844
G1 X173.375 Y161.344 E46.52575
G1 X172.542 Y162.121 E46.56364
G1 X171.512 Y162.734 E46.60351
G1 X170.304 Y162.975 E46.64448
G1 X129.564 Y162.975 E47.99949
G1 X128.535 Y162.722 E48.03474
G1 X127.431 Y162.15 E48.07609
G1 X126.654 Y161.317 E48.11398
G1 X126.041 Y160.287 E48.15385
G1 X125.8 Y159.079 E48.19482
G1 X125.8 Y156.339 E48.28595
G1 X126.053 Y155.31 E48.32119
G1 X126.625 Y154.206 E48.36255
G1 X127.458 Y153.429 E48.40044
G1 X128.488 Y152.816 E48.4403
G1 X129.696 Y152.575 E48.48127
G1 X139.437 Y152.575 E48.80526
G1 X138.754 Y151.842 E48.83858
G1 X138.141 Y150.812 E48.87845
G1 X137.9 Y149.604 E48.91942
G1 X137.9 Y140.864 E49.21011
G1 X138.153 Y139.835 E49.24536
G1 X138.725 Y138.731 E49.28671
G0 F6000 X139.047 Y138.978
G1 F1200 X139.8 Y138.276 E49.32095
G1 X140.736 Y137.719 E49.35718
G1 X141.834 Y137.5 E49.39442
G1 X145.49 Y137.5 E49.51602
G1 X146.42 Y137.728 E49.54786
G1 X147.425 Y138.247 E49.58549
G1 X147.774 Y138.625 E49.6026
G1 X158.29 Y138.625 E49.95236
G1 X159.222 Y138.854 E49.98428
G1 X160.222 Y139.372 E50.02174
G1 X160.924 Y140.125 E50.05598
G1 X161.481 Y141.061 E50.09221
G1 X161.7 Y142.159 E50.12944
G1 X161.7 Y148.565 E50.34251
G1 X161.471 Y149.497 E50.37443
G1 X160.954 Y150.495 E50.41181
G1 X160.3 Y151.104 E50.44153
G1 X160.3 Y152.974 E50.50373
G1 X170.39 Y152.975 E50.83933
G1 X171.322 Y153.204 E50.87125
G1 X172.322 Y153.722 E50.9087
G1 X173.024 Y154.475 E50.94294
G1 X173.581 Y155.411 E50.97917
G1 X173.8 Y156.509 E51.01641
G1 X173.8 Y159.165 E51.10475
G1 X173.571 Y160.097 E51.13667
G1 X173.053 Y161.097 E51.17413
G1 X172.3 Y161.799 E51.20837
G1 X171.364 Y162.356 E51.24459
G1 X170.266 Y162.575 E51.28183
G1 X129.61 Y162.575 E52.63406
G1 X128.678 Y162.346 E52.66598
G1 X127.678 Y161.828 E52.70344
G1 X126.976 Y161.075 E52.73768
G1 X126.419 Y160.139 E52.7739
G1 X126.2 Y159.041 E52.81114
G1 X126.2 Y156.385 E52.89948
G1 X126.429 Y155.453 E52.9314
G1 X126.947 Y154.453 E52.96886
G1 X127.7 Y153.751 E53.0031
G1 X128.636 Y153.194 E53.03933
G1 X129.734 Y152.975 E53.07656
G1 X140.699 Y152.975 E53.44126
G1 X140.7 Y152.83 E53.44608
G1 X139.778 Y152.354 E53.4806
