;FLAVOR:Marlin
;TIME:2878
;Filament used: 0.955753m
;Layer height: 0.12
;MINX:122.2
;MINY:131.2
;MINZ:0.12
;MAXX:177.8
;MAXY:168.8
;MAXZ:14.04
;Generated with Cura_SteamEngine 5.3.0
M140 S60
M105
M190 S60
M104 S210
M105
M109 S210
M82 ;absolute extrusion mode
M220 S100 ;Reset Feedrate
M221 S100 ;Reset Flowrate

M280 P0 S160 ;reset bltouch
G28 ;Home
G29 A ; enable UBL
G92 E0 ;Reset Extruder
G1 Z2.0 F3000 ;Move Z Axis up
G1 X10.1 Y20 Z0.28 F5000.0 ;Move to start position
G1 X10.1 Y200.0 Z0.28 F1500.0 E15 ;Draw the first line
G1 X10.4 Y200.0 Z0.28 F5000.0 ;Move to side a little
G1 X10.4 Y20 Z0.28 F1500.0 E30 ;Draw the second line
G92 E0 ;Reset Extruder
G1 Z2.0 F3000 ;Move Z Axis up
G92 E0
G92 E0
G1 F2100 E-1.5
;LAYER_COUNT:117
;LAYER:0
M107
G0 F6000 X141.344 Y134.224 Z0.12
;TYPE:SKIRT
G1 F2100 E0
G1 F1200 X142.919 Y132.75 E0.04305
G1 X144.791 Y131.638 E0.0865
G1 X146.978 Y131.2 E0.13101
G1 X154.228 Y131.2 E0.27569
G1 X156.124 Y131.666 E0.31466
G1 X158.151 Y132.719 E0.36024
G1 X159.625 Y134.294 E0.40329
G1 X160.737 Y136.166 E0.44674
G1 X161.175 Y138.353 E0.49125
G1 X161.172 Y141.804 E0.56012
G1 X161.862 Y142.963 E0.58704
G1 X162.3 Y145.152 E0.63159
G1 X162.3 Y149.654 E0.72143
G1 X161.92 Y151.2 E0.7532
G1 X170.853 Y151.2 E0.93147
G1 X172.749 Y151.666 E0.97043
G1 X174.776 Y152.719 E1.01601
G1 X176.25 Y154.294 E1.05906
G1 X177.362 Y156.166 E1.10251
G1 X177.8 Y158.353 E1.14702
G1 X177.8 Y161.853 E1.21687
G1 X177.334 Y163.749 E1.25583
G1 X176.281 Y165.776 E1.30141
G1 X174.706 Y167.25 E1.34446
G1 X172.834 Y168.362 E1.38791
G1 X170.647 Y168.8 E1.43243
G1 X129.147 Y168.8 E2.2606
G1 X127.251 Y168.334 E2.29957
G1 X125.224 Y167.281 E2.34515
G1 X123.75 Y165.706 E2.3882
G1 X122.638 Y163.834 E2.43165
G1 X122.2 Y161.647 E2.47616
G1 X122.2 Y158.147 E2.54601
G1 X122.666 Y156.251 E2.58497
G1 X123.719 Y154.224 E2.63055
G1 X125.294 Y152.75 E2.6736
G1 X127.166 Y151.638 E2.71705
G1 X129.353 Y151.2 E2.76156
G1 X139.051 Y151.2 E2.9551
G1 X138.7 Y149.448 E2.99076
G1 X138.7 Y144.946 E3.0806
G1 X139.164 Y143.058 E3.1194
G1 X139.825 Y141.785 E3.14802
G1 X139.825 Y138.147 E3.22062
G1 X140.291 Y136.251 E3.25958
G1 X141.344 Y134.224 E3.30517
G0 F6000 X141.667 Y134.469
G1 F1200 X143.16 Y133.072 E3.34597
G1 X144.937 Y132.016 E3.38722
G1 X147.016 Y131.6 E3.42953
G1 X154.182 Y131.6 E3.57254
G1 X155.981 Y132.042 E3.60951
G1 X157.906 Y133.042 E3.6528
G1 X159.303 Y134.535 E3.6936
G1 X160.359 Y136.312 E3.73485
G1 X160.775 Y138.391 E3.77716
G1 X160.772 Y141.915 E3.84749
G1 X161.484 Y143.111 E3.87526
G1 X161.9 Y145.19 E3.91757
G1 X161.9 Y149.607 E4.00572
G1 X161.469 Y151.36 E4.04175
G1 X161.357 Y151.6 E4.04703
G1 X170.807 Y151.6 E4.23562
G1 X172.606 Y152.042 E4.27258
G1 X174.531 Y153.042 E4.31587
G1 X175.928 Y154.535 E4.35668
G1 X176.984 Y156.312 E4.39793
G1 X177.4 Y158.391 E4.44024
G1 X177.4 Y161.807 E4.50841
G1 X176.958 Y163.606 E4.54538
G1 X175.958 Y165.531 E4.58867
G1 X174.465 Y166.928 E4.62947
G1 X172.688 Y167.984 E4.67072
G1 X170.609 Y168.4 E4.71303
G1 X129.193 Y168.4 E5.53953
G1 X127.394 Y167.958 E5.5765
G1 X125.469 Y166.958 E5.61979
G1 X124.072 Y165.465 E5.6606
G1 X123.016 Y163.688 E5.70185
G1 X122.6 Y161.609 E5.74416
G1 X122.6 Y158.193 E5.81233
G1 X123.042 Y156.394 E5.8493
G1 X124.042 Y154.469 E5.89259
G1 X125.535 Y153.072 E5.93339
G1 X127.312 Y152.016 E5.97464
G1 X129.391 Y151.6 E6.01695
G1 X139.583 Y151.6 E6.22035
G1 X139.503 Y151.421 E6.22426
G1 X139.1 Y149.409 E6.26521
G1 X139.1 Y144.992 E6.35335
G1 X139.54 Y143.201 E6.39016
G1 X140.225 Y141.882 E6.41982
G1 X140.225 Y138.193 E6.49344
G1 X140.667 Y136.394 E6.5304
G1 X141.667 Y134.469 E6.57369
G0 F6000 X141.99 Y134.714
G1 F1200 X143.401 Y133.394 E6.61225
G1 X145.083 Y132.395 E6.65129
G1 X147.055 Y132 E6.69143
G1 X154.135 Y132 E6.83272
G1 X155.839 Y132.419 E6.86773
G1 X157.661 Y133.365 E6.9087
G1 X158.981 Y134.776 E6.94726
G1 X159.98 Y136.458 E6.9863
G1 X160.375 Y138.43 E7.02644
G1 X160.372 Y142.026 E7.0982
G1 X161.106 Y143.259 E7.12684
G1 X161.5 Y145.228 E7.16691
G1 X161.5 Y149.56 E7.25336
G1 X161.081 Y151.264 E7.28838
G1 X160.7 Y152 E7.30491
G1 X170.76 Y152 E7.50567
G1 X172.464 Y152.419 E7.54069
G1 X174.286 Y153.365 E7.58166
G1 X175.606 Y154.776 E7.62022
G1 X176.605 Y156.458 E7.65926
G1 X177 Y158.43 E7.69939
G1 X177 Y161.76 E7.76585
G1 X176.581 Y163.464 E7.80087
G1 X175.635 Y165.286 E7.84183
G1 X174.224 Y166.606 E7.88039
G1 X172.542 Y167.605 E7.91943
G1 X170.57 Y168 E7.95957
G1 X129.24 Y168 E8.78435
G1 X127.536 Y167.581 E8.81937
G1 X125.714 Y166.635 E8.86034
G1 X124.394 Y165.224 E8.8989
G1 X123.395 Y163.542 E8.93794
G1 X123 Y161.57 E8.97807
G1 X123 Y158.24 E9.04453
G1 X123.419 Y156.536 E9.07955
G1 X124.365 Y154.714 E9.12051
G1 X125.776 Y153.394 E9.15907
G1 X127.458 Y152.395 E9.19811
G1 X129.43 Y152 E9.23825
G1 X140.285 Y152 E9.45487
G1 X139.895 Y151.342 E9.47014
G1 X139.5 Y149.37 E9.51027
G1 X139.5 Y145.038 E9.59672
G1 X139.916 Y143.344 E9.63153
G1 X140.625 Y141.979 E9.66223
G1 X140.625 Y138.24 E9.73684
G1 X141.044 Y136.536 E9.77186
G1 X141.99 Y134.714 E9.81283
G0 F6000 X142.313 Y134.959
G1 F1200 X143.642 Y133.716 E9.84914
G1 X145.229 Y132.773 E9.88598
G1 X147.093 Y132.4 E9.92392
G1 X154.089 Y132.4 E10.06353
G1 X155.696 Y132.795 E10.09656
G1 X157.416 Y133.688 E10.13523
G1 X158.659 Y135.017 E10.17154
G1 X159.602 Y136.604 E10.20838
G1 X159.975 Y138.468 E10.24632
G1 X159.972 Y142.137 E10.31954
G1 X160.728 Y143.407 E10.34903
G1 X161.1 Y145.266 E10.38687
G1 X161.1 Y149.514 E10.47164
G1 X160.705 Y151.121 E10.50466
G1 X160.042 Y152.4 E10.53341
G1 X170.714 Y152.4 E10.74638
G1 X172.321 Y152.795 E10.77941
G1 X174.041 Y153.688 E10.81808
G1 X175.284 Y155.017 E10.8544
G1 X176.227 Y156.604 E10.89124
G1 X176.6 Y158.468 E10.92917
G1 X176.6 Y161.714 E10.99395
G1 X176.205 Y163.321 E11.02697
G1 X175.312 Y165.041 E11.06565
G1 X173.983 Y166.284 E11.10196
G1 X172.396 Y167.227 E11.1388
G1 X170.532 Y167.6 E11.17674
G1 X129.286 Y167.6 E11.99985
G1 X127.679 Y167.205 E12.03287
G1 X125.959 Y166.312 E12.07155
G1 X124.716 Y164.983 E12.10786
G1 X123.773 Y163.396 E12.1447
G1 X123.4 Y161.532 E12.18263
G1 X123.4 Y158.286 E12.24741
G1 X123.795 Y156.679 E12.28044
G1 X124.688 Y154.959 E12.31911
G1 X126.017 Y153.716 E12.35542
G1 X127.604 Y152.773 E12.39226
G1 X129.468 Y152.4 E12.4302
G1 X140.988 Y152.4 E12.66009
G1 X140.273 Y151.196 E12.68804
G1 X139.9 Y149.332 E12.72597
G1 X139.9 Y145.084 E12.81075
G1 X140.292 Y143.487 E12.84356
G1 X141.025 Y142.076 E12.87529
G1 X141.025 Y138.286 E12.95093
G1 X141.42 Y136.679 E12.98395
G1 X142.313 Y134.959 E13.02263
G0 F6000 X142.636 Y135.204
G1 F1200 X143.883 Y134.038 E13.0567
G1 X145.375 Y133.151 E13.09133
G1 X147.131 Y132.8 E13.12707
G1 X154.043 Y132.8 E13.26501
G1 X155.553 Y133.171 E13.29604
G1 X157.171 Y134.011 E13.33242
G1 X158.337 Y135.258 E13.36649
G1 X159.224 Y136.75 E13.40113
G1 X159.575 Y138.506 E13.43686
G1 X159.572 Y142.248 E13.51154
G1 X160.35 Y143.555 E13.54189
G1 X160.7 Y145.304 E13.57749
G1 X160.7 Y149.468 E13.66058
G1 X160.329 Y150.978 E13.69161
G1 X159.521 Y152.535 E13.72662
G1 X159.271 Y152.8 E13.73389
G1 X170.668 Y152.8 E13.96133
G1 X172.178 Y153.171 E13.99236
G1 X173.796 Y154.011 E14.02874
G1 X174.962 Y155.258 E14.06281
G1 X175.849 Y156.75 E14.09745
G1 X176.2 Y158.506 E14.13318
G1 X176.2 Y161.668 E14.19629
G1 X175.829 Y163.178 E14.22732
G1 X174.989 Y164.796 E14.2637
G1 X173.742 Y165.962 E14.29777
G1 X172.25 Y166.849 E14.3324
G1 X170.494 Y167.2 E14.36814
G1 X129.332 Y167.2 E15.18957
G1 X127.822 Y166.829 E15.2206
G1 X126.204 Y165.989 E15.25698
G1 X125.038 Y164.742 E15.29105
G1 X124.151 Y163.25 E15.32569
G1 X123.8 Y161.494 E15.36143
G1 X123.8 Y158.332 E15.42453
G1 X124.171 Y156.822 E15.45556
G1 X125.011 Y155.204 E15.49194
G1 X126.258 Y154.038 E15.52601
G1 X127.75 Y153.151 E15.56065
G1 X129.506 Y152.8 E15.59638
G1 X141.779 Y152.8 E15.84131
G1 X141.538 Y152.542 E15.84835
G1 X140.651 Y151.05 E15.88299
G1 X140.3 Y149.294 E15.91873
G1 X140.3 Y145.13 E16.00182
G1 X140.668 Y143.63 E16.03264
G1 X141.349 Y142.311 E16.06227
G1 X141.425 Y142.198 E16.06499
G1 X141.425 Y138.332 E16.14214
G1 X141.796 Y136.822 E16.17317
G1 X142.636 Y135.204 E16.20955
G0 F6000 X142.959 Y135.449
G1 F1200 X144.124 Y134.36 E16.24137
G1 X145.521 Y133.529 E16.27381
G1 X147.169 Y133.2 E16.30735
G1 X153.996 Y133.2 E16.44359
G1 X155.411 Y133.548 E16.47267
G1 X156.926 Y134.334 E16.50673
G1 X158.015 Y135.499 E16.53855
G1 X158.846 Y136.896 E16.57099
G1 X159.175 Y138.544 E16.60452
G1 X159.172 Y142.359 E16.68066
G1 X159.972 Y143.703 E16.71187
G1 X160.3 Y145.342 E16.74523
G1 X160.3 Y149.421 E16.82663
G1 X159.952 Y150.836 E16.85571
G1 X159.166 Y152.351 E16.88977
G1 X158.258 Y153.2 E16.91457
G1 X170.621 Y153.2 E17.16129
G1 X172.036 Y153.548 E17.19037
G1 X173.551 Y154.334 E17.22443
G1 X174.64 Y155.499 E17.25625
G1 X175.471 Y156.896 E17.28869
G1 X175.8 Y158.544 E17.32223
G1 X175.8 Y161.621 E17.38363
G1 X175.452 Y163.036 E17.41271
G1 X174.666 Y164.551 E17.44677
G1 X173.501 Y165.64 E17.4786
G1 X172.104 Y166.471 E17.51104
G1 X170.456 Y166.8 E17.54457
G1 X129.379 Y166.8 E18.36431
G1 X127.964 Y166.452 E18.39339
G1 X126.449 Y165.666 E18.42745
G1 X125.36 Y164.501 E18.45927
G1 X124.529 Y163.104 E18.49171
G1 X124.2 Y161.456 E18.52525
G1 X124.2 Y158.379 E18.58665
G1 X124.548 Y156.964 E18.61573
G1 X125.334 Y155.449 E18.64979
G1 X126.499 Y154.36 E18.68162
G1 X127.896 Y153.529 E18.71405
G1 X129.544 Y153.2 E18.74759
G1 X142.7 Y153.2 E19.01013
G1 X141.86 Y152.301 E19.03469
G1 X141.029 Y150.904 E19.06712
G1 X140.7 Y149.256 E19.10066
G1 X140.7 Y145.176 E19.18208
G1 X141.044 Y143.773 E19.21091
G1 X141.704 Y142.495 E19.23961
G1 X141.825 Y142.33 E19.2437
G1 X141.825 Y138.379 E19.32254
G1 X142.173 Y136.964 E19.35162
G1 X142.959 Y135.449 E19.38568
G0 F6000 X143.282 Y135.694
G1 F1200 X144.363 Y134.684 E19.41521
G1 X145.669 Y133.907 E19.44553
G1 X147.207 Y133.6 E19.47683
G1 X153.95 Y133.6 E19.61139
G1 X155.268 Y133.924 E19.63848
G1 X156.681 Y134.657 E19.67025
G1 X157.691 Y135.738 E19.69977
G1 X158.468 Y137.044 E19.7301
G1 X158.775 Y138.582 E19.76139
G1 X158.772 Y142.515 E19.83988
G1 X158.88 Y142.651 E19.84335
G1 X159.594 Y143.851 E19.87121
G1 X159.9 Y145.38 E19.90233
G1 X159.9 Y149.375 E19.98205
G1 X159.576 Y150.693 E20.00914
G1 X158.843 Y152.106 E20.04091
G1 X157.762 Y153.116 E20.07043
G1 X156.948 Y153.6 E20.08933
G1 X170.575 Y153.6 E20.36127
G1 X171.893 Y153.924 E20.38836
G1 X173.306 Y154.657 E20.42012
G1 X174.316 Y155.738 E20.44964
G1 X175.093 Y157.044 E20.47997
G1 X175.4 Y158.582 E20.51127
G1 X175.4 Y161.575 E20.571
G1 X175.076 Y162.893 E20.59808
G1 X174.343 Y164.306 E20.62985
G1 X173.262 Y165.316 E20.65937
G1 X171.956 Y166.093 E20.6897
G1 X170.418 Y166.4 E20.721
G1 X129.425 Y166.4 E21.53906
G1 X128.107 Y166.076 E21.56614
G1 X126.694 Y165.343 E21.59791
G1 X125.684 Y164.262 E21.62743
G1 X124.907 Y162.956 E21.65776
G1 X124.6 Y161.418 E21.68906
G1 X124.6 Y158.425 E21.74878
G1 X124.924 Y157.107 E21.77587
G1 X125.657 Y155.694 E21.80764
G1 X126.738 Y154.684 E21.83716
G1 X128.044 Y153.907 E21.86749
G1 X129.582 Y153.6 E21.89878
G1 X144.074 Y153.6 E22.18799
G1 X143.194 Y153.143 E22.20777
G1 X142.184 Y152.062 E22.2373
G1 X141.407 Y150.756 E22.26762
G1 X141.1 Y149.218 E22.29892
G1 X141.1 Y145.222 E22.37867
G1 X141.421 Y143.914 E22.40554
G1 X142.059 Y142.678 E22.4333
G1 X142.225 Y142.469 E22.43863
G1 X142.225 Y138.425 E22.51933
G1 X142.549 Y137.107 E22.54642
G1 X143.282 Y135.694 E22.57818
G0 F6000 X143.605 Y135.939
G1 F1200 X144.602 Y135.008 E22.6054
G1 X145.817 Y134.285 E22.63362
G1 X147.245 Y134 E22.66268
G1 X153.904 Y134 E22.79557
G1 X155.125 Y134.3 E22.82066
G1 X156.436 Y134.98 E22.85013
G1 X157.367 Y135.977 E22.87735
G1 X158.09 Y137.192 E22.90557
G1 X158.375 Y138.62 E22.93463
G1 X158.372 Y142.659 E23.01523
G1 X158.536 Y142.856 E23.02034
G1 X159.216 Y143.999 E23.04688
G1 X159.5 Y145.418 E23.07576
G1 X159.5 Y149.329 E23.15381
G1 X159.2 Y150.55 E23.1789
G1 X158.52 Y151.861 E23.20838
G1 X157.523 Y152.792 E23.2356
G1 X156.308 Y153.515 E23.26381
G1 X154.88 Y153.8 E23.29287
G1 X145.971 Y153.8 E23.47066
G1 X144.75 Y153.5 E23.49575
G1 X143.439 Y152.82 E23.52522
G1 X142.508 Y151.823 E23.55245
G1 X141.785 Y150.608 E23.58066
G1 X141.5 Y149.18 E23.60972
G1 X141.5 Y145.268 E23.68779
G1 X141.797 Y144.057 E23.71267
G1 X142.414 Y142.862 E23.73951
G1 X142.625 Y142.617 E23.74596
G1 X142.625 Y138.471 E23.8287
G1 X142.925 Y137.25 E23.85379
G1 X143.605 Y135.939 E23.88326
G0 F6000 X143.928 Y136.184
G1 F1200 X144.841 Y135.332 E23.90818
G1 X145.965 Y134.663 E23.93429
G1 X147.283 Y134.4 E23.96111
G1 X153.858 Y134.4 E24.09232
G1 X154.982 Y134.676 E24.11542
G1 X156.191 Y135.303 E24.1426
G1 X157.043 Y136.216 E24.16752
G1 X157.712 Y137.34 E24.19362
G1 X157.975 Y138.658 E24.22044
G1 X157.972 Y142.811 E24.30332
G1 X158.192 Y143.06 E24.30995
G1 X158.837 Y144.145 E24.33514
G1 X159.1 Y145.457 E24.36184
G1 X159.1 Y149.283 E24.43819
G1 X158.824 Y150.407 E24.46129
G1 X158.197 Y151.616 E24.48847
G1 X157.284 Y152.468 E24.51339
G1 X156.16 Y153.137 E24.53949
G1 X154.842 Y153.4 E24.56631
G1 X146.017 Y153.4 E24.74243
G1 X144.893 Y153.124 E24.76552
G1 X143.684 Y152.497 E24.7927
G1 X142.832 Y151.584 E24.81762
G1 X142.163 Y150.46 E24.84372
G1 X141.9 Y149.142 E24.87055
G1 X141.9 Y145.318 E24.94686
G1 X142.175 Y144.196 E24.96991
G1 X142.769 Y143.046 E24.99574
G1 X143.025 Y142.776 E25.00317
G1 X143.025 Y138.517 E25.08816
G1 X143.301 Y137.393 E25.11126
G1 X143.928 Y136.184 E25.13843
G0 F6000 X144.25 Y136.431
G1 F1200 X145.083 Y135.654 E25.16117
G1 X146.113 Y135.041 E25.18509
G1 X147.321 Y134.8 E25.20967
G1 X153.811 Y134.8 E25.33918
G1 X154.84 Y135.053 E25.36033
G1 X155.944 Y135.625 E25.38514
G1 X156.721 Y136.458 E25.40788
G1 X157.334 Y137.488 E25.4318
G1 X157.575 Y138.696 E25.45638
G1 X157.572 Y142.967 E25.54161
G1 X157.848 Y143.265 E25.54972
G1 X158.459 Y144.292 E25.57356
G1 X158.7 Y145.496 E25.59807
G1 X158.7 Y149.236 E25.6727
G1 X158.447 Y150.265 E25.69385
G1 X157.875 Y151.369 E25.71866
G1 X157.042 Y152.146 E25.74139
G1 X156.012 Y152.759 E25.76531
G1 X154.804 Y153 E25.7899
G1 X146.064 Y153 E25.96431
G1 X145.035 Y152.747 E25.98546
G1 X143.931 Y152.175 E26.01027
G1 X143.154 Y151.342 E26.033
G1 X142.541 Y150.312 E26.05692
G1 X142.3 Y149.104 E26.08151
G1 X142.3 Y145.364 E26.15614
G1 X142.552 Y144.337 E26.17724
G1 X143.124 Y143.229 E26.20213
G1 X143.425 Y142.951 E26.21031
G1 X143.425 Y138.564 E26.29785
G1 X143.678 Y137.535 E26.319
G1 X144.25 Y136.431 E26.34381
G0 F6000 X144.572 Y136.678
G1 F1200 X145.325 Y135.976 E26.36436
G1 X146.261 Y135.419 E26.38609
G1 X147.359 Y135.2 E26.40844
G1 X153.765 Y135.2 E26.53627
G1 X154.697 Y135.429 E26.55543
G1 X155.697 Y135.947 E26.5779
G1 X156.399 Y136.7 E26.59845
G1 X156.956 Y137.636 E26.62018
G1 X157.175 Y138.734 E26.64252
G1 X157.172 Y143.123 E26.73011
G1 X157.526 Y143.505 E26.74051
G1 X158.081 Y144.438 E26.76217
G1 X158.3 Y145.534 E26.78447
G1 X158.3 Y149.19 E26.85743
G1 X158.071 Y150.122 E26.87659
G1 X157.553 Y151.122 E26.89906
G1 X156.8 Y151.824 E26.9196
G1 X155.864 Y152.381 E26.94134
G1 X154.766 Y152.6 E26.96368
G1 X146.11 Y152.6 E27.13642
G1 X145.178 Y152.371 E27.15558
G1 X144.178 Y151.853 E27.17805
G1 X143.476 Y151.1 E27.19859
G1 X142.919 Y150.164 E27.22033
G1 X142.7 Y149.066 E27.24267
G1 X142.7 Y145.41 E27.31563
G1 X142.928 Y144.48 E27.33474
G1 X143.447 Y143.475 E27.35731
G1 X143.825 Y143.126 E27.36758
G1 X143.825 Y138.61 E27.4577
G1 X144.054 Y137.678 E27.47686
G1 X144.572 Y136.678 E27.49933
G0 F6000 X144.894 Y136.925
G1 F1200 X145.567 Y136.298 E27.51769
G1 X146.409 Y135.797 E27.53724
G1 X147.397 Y135.6 E27.55734
G1 X153.719 Y135.6 E27.68351
G1 X154.554 Y135.805 E27.70066
G1 X155.45 Y136.269 E27.7208
G1 X156.077 Y136.942 E27.73916
G1 X156.578 Y137.784 E27.75871
G1 X156.775 Y138.772 E27.77881
G1 X156.772 Y143.28 E27.86877
G1 X157.204 Y143.745 E27.88144
G1 X157.703 Y144.584 E27.90092
G1 X157.9 Y145.572 E27.92103
G1 X157.9 Y149.144 E27.99231
G1 X157.695 Y149.979 E28.00947
G1 X157.231 Y150.875 E28.0296
G1 X156.558 Y151.502 E28.04796
G1 X155.716 Y152.003 E28.06751
G1 X154.728 Y152.2 E28.08762
G1 X146.156 Y152.2 E28.25868
G1 X145.321 Y151.995 E28.27584
G1 X144.425 Y151.531 E28.29597
G1 X143.798 Y150.858 E28.31433
G1 X143.297 Y150.016 E28.33388
