;FLAVOR:Marlin
;TIME:10527
;Filament used: 3.52638m
;Layer height: 0.12
;MINX:121.7
;MINY:134.625
;MINZ:0.12
;MAXX:178.3
;MAXY:166.425
;MAXZ:53.04
;Generated with Cura_SteamEngine 5.3.0
M140 S60
M105
M190 S60
M104 S210
M105
M109 S210
M82 ;absolute extrusion mode
M220 S100 ;Reset Feedrate
M221 S100 ;Reset Flowrate

M280 P0 S160 ;reset bltouch
G28 ;Home
G29 A ; enable UBL
G92 E0 ;Reset Extruder
G1 Z2.0 F3000 ;Move Z Axis up
G1 X10.1 Y20 Z0.28 F5000.0 ;Move to start position
G1 X10.1 Y200.0 Z0.28 F1500.0 E15 ;Draw the first line
G1 X10.4 Y200.0 Z0.28 F5000.0 ;Move to side a little
G1 X10.4 Y20 Z0.28 F1500.0 E30 ;Draw the second line
G92 E0 ;Reset Extruder
G1 Z2.0 F3000 ;Move Z Axis up
G92 E0
G92 E0
G1 F2100 E-1.5
;LAYER_COUNT:442
;LAYER:0
M107
G0 F6000 X135.819 Y137.649 Z0.12
;TYPE:SKIRT
G1 F2100 E0
G1 F1200 X137.394 Y136.175 E0.04305
G1 X139.266 Y135.063 E0.0865
G1 X141.453 Y134.625 E0.13101
G1 X152.953 Y134.625 E0.36051
G1 X154.849 Y135.091 E0.39947
G1 X156.876 Y136.144 E0.44505
G1 X158.35 Y137.719 E0.4881
G1 X159.462 Y139.591 E0.53155
G1 X159.9 Y141.778 E0.57606
G1 X159.9 Y148.825 E0.71669
G1 X171.353 Y148.825 E0.94525
G1 X173.249 Y149.291 E0.98421
G1 X175.276 Y150.344 E1.0298
G1 X176.75 Y151.919 E1.07284
G1 X177.862 Y153.791 E1.1163
G1 X178.3 Y155.978 E1.16081
G1 X178.3 Y159.478 E1.23065
G1 X177.834 Y161.374 E1.26962
G1 X176.781 Y163.401 E1.3152
G1 X175.206 Y164.875 E1.35825
G1 X173.334 Y165.987 E1.4017
G1 X171.147 Y166.425 E1.44621
G1 X128.647 Y166.425 E2.29434
G1 X126.751 Y165.959 E2.33331
G1 X124.724 Y164.906 E2.37889
G1 X123.25 Y163.331 E2.42194
G1 X122.138 Y161.459 E2.46539
G1 X121.7 Y159.272 E2.5099
G1 X121.7 Y155.772 E2.57975
G1 X122.166 Y153.876 E2.61871
G1 X123.219 Y151.849 E2.66429
G1 X124.794 Y150.375 E2.70734
G1 X126.666 Y149.263 E2.75079
G1 X128.853 Y148.825 E2.7953
G1 X134.304 Y148.825 E2.90408
G1 X134.3 Y141.572 E3.04883
G1 X134.766 Y139.676 E3.08779
G1 X135.819 Y137.649 E3.13337
G0 F6000 X136.142 Y137.894
G1 F1200 X137.635 Y136.497 E3.17418
G1 X139.412 Y135.441 E3.21543
G1 X141.491 Y135.025 E3.25774
G1 X152.907 Y135.025 E3.48556
G1 X154.706 Y135.467 E3.52253
G1 X156.631 Y136.467 E3.56581
G1 X158.028 Y137.96 E3.60662
G1 X159.084 Y139.737 E3.64787
G1 X159.5 Y141.816 E3.69018
G1 X159.5 Y148.936 E3.83227
G1 X159.44 Y149.225 E3.83816
G1 X171.307 Y149.225 E4.07498
G1 X173.106 Y149.667 E4.11195
G1 X175.031 Y150.667 E4.15524
G1 X176.428 Y152.16 E4.19604
G1 X177.484 Y153.937 E4.23729
G1 X177.9 Y156.016 E4.2796
G1 X177.9 Y159.432 E4.34777
G1 X177.458 Y161.231 E4.38474
G1 X176.458 Y163.156 E4.42803
G1 X174.965 Y164.553 E4.46883
G1 X173.188 Y165.609 E4.51008
G1 X171.109 Y166.025 E4.55239
G1 X128.693 Y166.025 E5.39885
G1 X126.894 Y165.583 E5.43582
G1 X124.969 Y164.583 E5.47911
G1 X123.572 Y163.09 E5.51991
G1 X122.516 Y161.313 E5.56116
G1 X122.1 Y159.234 E5.60348
G1 X122.1 Y155.818 E5.67165
G1 X122.542 Y154.019 E5.70861
G1 X123.542 Y152.094 E5.7519
G1 X125.035 Y150.697 E5.79271
G1 X126.812 Y149.641 E5.83396
G1 X128.891 Y149.225 E5.87627
G1 X134.788 Y149.225 E5.99395
G1 X134.7 Y148.783 E6.00294
G1 X134.7 Y141.618 E6.14593
G1 X135.142 Y139.819 E6.1829
G1 X136.142 Y137.894 E6.22619
G0 F6000 X136.465 Y138.139
G1 F1200 X137.876 Y136.819 E6.26475
G1 X139.558 Y135.82 E6.30379
G1 X141.53 Y135.425 E6.34392
G1 X152.86 Y135.425 E6.57002
G1 X154.564 Y135.844 E6.60504
G1 X156.386 Y136.79 E6.64601
G1 X157.706 Y138.201 E6.68457
G1 X158.705 Y139.883 E6.72361
G1 X159.1 Y141.855 E6.76375
G1 X159.1 Y148.936 E6.90505
G1 X158.931 Y149.625 E6.91921
G1 X171.26 Y149.625 E7.16525
G1 X172.964 Y150.044 E7.20027
G1 X174.786 Y150.99 E7.24124
G1 X176.106 Y152.401 E7.2798
G1 X177.105 Y154.083 E7.31884
G1 X177.5 Y156.055 E7.35897
G1 X177.5 Y159.385 E7.42543
G1 X177.081 Y161.089 E7.46044
G1 X176.135 Y162.911 E7.50141
G1 X174.724 Y164.231 E7.53997
G1 X173.042 Y165.23 E7.57901
G1 X171.07 Y165.625 E7.61915
G1 X128.74 Y165.625 E8.46389
G1 X127.036 Y165.206 E8.49891
G1 X125.214 Y164.26 E8.53987
G1 X123.894 Y162.849 E8.57843
G1 X122.895 Y161.167 E8.61747
G1 X122.5 Y159.195 E8.65761
G1 X122.5 Y155.865 E8.72406
G1 X122.919 Y154.161 E8.75908
G1 X123.865 Y152.339 E8.80005
G1 X125.276 Y151.019 E8.83861
G1 X126.958 Y150.02 E8.87765
G1 X128.93 Y149.625 E8.91778
G1 X135.276 Y149.625 E9.04442
G1 X135.1 Y148.745 E9.06233
G1 X135.1 Y141.665 E9.20362
G1 X135.519 Y139.961 E9.23864
G1 X136.465 Y138.139 E9.27961
G0 F6000 X136.788 Y138.384
G1 F1200 X138.117 Y137.141 E9.31592
G1 X139.704 Y136.198 E9.35276
G1 X141.568 Y135.825 E9.3907
G1 X152.814 Y135.825 E9.61512
G1 X154.421 Y136.22 E9.64815
G1 X156.141 Y137.113 E9.68682
G1 X157.384 Y138.442 E9.72314
G1 X158.327 Y140.029 E9.75998
G1 X158.7 Y141.893 E9.79791
G1 X158.7 Y148.89 E9.93754
G1 X158.421 Y150.025 E9.96087
G1 X171.214 Y150.025 E10.21617
G1 X172.821 Y150.42 E10.24919
G1 X174.541 Y151.313 E10.28787
G1 X175.784 Y152.642 E10.32418
G1 X176.727 Y154.229 E10.36102
G1 X177.1 Y156.093 E10.39896
G1 X177.1 Y159.339 E10.46373
G1 X176.705 Y160.946 E10.49676
G1 X175.812 Y162.666 E10.53543
G1 X174.483 Y163.909 E10.57175
G1 X172.896 Y164.852 E10.60859
G1 X171.032 Y165.225 E10.64652
G1 X128.786 Y165.225 E11.48959
G1 X127.179 Y164.83 E11.52261
G1 X125.459 Y163.937 E11.56128
G1 X124.216 Y162.608 E11.5976
G1 X123.273 Y161.021 E11.63444
G1 X122.9 Y159.157 E11.67237
G1 X122.9 Y155.911 E11.73715
G1 X123.295 Y154.304 E11.77017
G1 X124.188 Y152.584 E11.80885
G1 X125.517 Y151.341 E11.84516
G1 X127.104 Y150.398 E11.882
G1 X128.968 Y150.025 E11.91994
G1 X135.763 Y150.025 E12.05554
G1 X135.5 Y148.707 E12.08236
G1 X135.5 Y141.711 E12.22197
G1 X135.895 Y140.104 E12.255
G1 X136.788 Y138.384 E12.29367
G0 F6000 X137.111 Y138.629
G1 F1200 X138.358 Y137.463 E12.32774
G1 X139.85 Y136.576 E12.36238
G1 X141.606 Y136.225 E12.39812
G1 X152.768 Y136.225 E12.62087
G1 X154.278 Y136.596 E12.6519
G1 X155.896 Y137.436 E12.68828
G1 X157.062 Y138.683 E12.72235
G1 X157.949 Y140.175 E12.75699
G1 X158.3 Y141.931 E12.79272
G1 X158.3 Y148.843 E12.93066
G1 X157.911 Y150.425 E12.96317
G1 X171.168 Y150.425 E13.22773
G1 X172.678 Y150.796 E13.25876
G1 X174.296 Y151.636 E13.29514
G1 X175.462 Y152.883 E13.32921
G1 X176.349 Y154.375 E13.36385
G1 X176.7 Y156.131 E13.39958
G1 X176.7 Y159.293 E13.46268
G1 X176.329 Y160.803 E13.49371
G1 X175.489 Y162.421 E13.53009
G1 X174.242 Y163.587 E13.56416
G1 X172.75 Y164.474 E13.5988
G1 X170.994 Y164.825 E13.63454
G1 X128.832 Y164.825 E14.47593
G1 X127.322 Y164.454 E14.50696
G1 X125.704 Y163.614 E14.54334
G1 X124.538 Y162.367 E14.57741
G1 X123.651 Y160.875 E14.61204
G1 X123.3 Y159.119 E14.64778
G1 X123.3 Y155.957 E14.71088
G1 X123.671 Y154.447 E14.74191
G1 X124.511 Y152.829 E14.77829
G1 X125.758 Y151.663 E14.81236
G1 X127.25 Y150.776 E14.847
G1 X129.006 Y150.425 E14.88274
G1 X136.251 Y150.425 E15.02732
G1 X135.9 Y148.669 E15.06305
G1 X135.9 Y141.757 E15.20099
G1 X136.271 Y140.247 E15.23202
G1 X137.111 Y138.629 E15.2684
G0 F6000 X137.434 Y138.874
G1 F1200 X138.599 Y137.785 E15.30023
G1 X139.996 Y136.954 E15.33266
G1 X141.644 Y136.625 E15.3662
G1 X152.721 Y136.625 E15.58725
G1 X154.136 Y136.973 E15.61633
G1 X155.651 Y137.759 E15.65039
G1 X156.74 Y138.924 E15.68222
G1 X157.571 Y140.321 E15.71466
G1 X157.9 Y141.969 E15.74819
G1 X157.9 Y148.796 E15.88443
G1 X157.552 Y150.211 E15.91351
G1 X157.234 Y150.825 E15.92731
G1 X171.121 Y150.825 E16.20444
G1 X172.536 Y151.173 E16.23352
G1 X174.051 Y151.959 E16.26758
G1 X175.14 Y153.124 E16.29941
G1 X175.971 Y154.521 E16.33184
G1 X176.3 Y156.169 E16.36538
G1 X176.3 Y159.246 E16.42679
G1 X175.952 Y160.661 E16.45586
G1 X175.166 Y162.176 E16.48992
G1 X174.001 Y163.265 E16.52175
G1 X172.604 Y164.096 E16.55419
G1 X170.956 Y164.425 E16.58772
G1 X128.879 Y164.425 E17.42742
G1 X127.464 Y164.077 E17.4565
G1 X125.949 Y163.291 E17.49056
G1 X124.86 Y162.126 E17.52238
G1 X124.029 Y160.729 E17.55482
G1 X123.7 Y159.081 E17.58835
G1 X123.7 Y156.004 E17.64976
G1 X124.048 Y154.589 E17.67884
G1 X124.834 Y153.074 E17.7129
G1 X125.999 Y151.985 E17.74472
G1 X127.396 Y151.154 E17.77716
G1 X129.044 Y150.825 E17.8107
G1 X136.954 Y150.825 E17.96855
G1 X136.629 Y150.279 E17.98123
G1 X136.3 Y148.631 E18.01477
G1 X136.3 Y141.804 E18.15101
G1 X136.648 Y140.389 E18.18009
G1 X137.434 Y138.874 E18.21415
G0 F6000 X137.757 Y139.119
G1 F1200 X138.838 Y138.109 E18.24367
G1 X140.144 Y137.332 E18.274
G1 X141.682 Y137.025 E18.30529
G1 X152.675 Y137.025 E18.52467
G1 X153.993 Y137.349 E18.55176
G1 X155.406 Y138.082 E18.58352
G1 X156.416 Y139.163 E18.61305
G1 X157.193 Y140.469 E18.64337
G1 X157.5 Y142.007 E18.67467
G1 X157.5 Y148.75 E18.80923
G1 X157.176 Y150.068 E18.83632
G1 X156.576 Y151.225 E18.86233
G1 X171.075 Y151.225 E19.15167
G1 X172.393 Y151.549 E19.17876
G1 X173.806 Y152.282 E19.21052
G1 X174.816 Y153.363 E19.24005
G1 X175.593 Y154.669 E19.27037
G1 X175.9 Y156.207 E19.30167
G1 X175.9 Y159.2 E19.3614
G1 X175.576 Y160.518 E19.38849
G1 X174.843 Y161.931 E19.42025
G1 X173.762 Y162.941 E19.44978
G1 X172.456 Y163.718 E19.4801
G1 X170.918 Y164.025 E19.5114
G1 X128.925 Y164.025 E20.34942
G1 X127.607 Y163.701 E20.3765
G1 X126.194 Y162.968 E20.40827
G1 X125.184 Y161.887 E20.43779
G1 X124.407 Y160.581 E20.46812
G1 X124.1 Y159.043 E20.49941
G1 X124.1 Y156.05 E20.55914
G1 X124.424 Y154.732 E20.58623
G1 X125.157 Y153.319 E20.61799
G1 X126.238 Y152.309 E20.64752
G1 X127.544 Y151.532 E20.67784
G1 X129.082 Y151.225 E20.70914
G1 X137.658 Y151.225 E20.88029
G1 X137.007 Y150.131 E20.90569
G1 X136.7 Y148.593 E20.93699
G1 X136.7 Y141.85 E21.07155
G1 X137.024 Y140.532 E21.09864
G1 X137.757 Y139.119 E21.1304
G0 F6000 X138.08 Y139.364
G1 F1200 X137.4 Y140.675 E21.15988
G1 X137.1 Y141.896 E21.18497
G1 X137.1 Y148.555 E21.31785
G1 X137.385 Y149.983 E21.34691
G1 X138.11 Y151.201 E21.3752
G1 X138.505 Y151.625 E21.38676
G1 X129.12 Y151.625 E21.57405
G1 X127.692 Y151.91 E21.60311
G1 X126.477 Y152.633 E21.63133
G1 X125.48 Y153.564 E21.65855
G1 X124.8 Y154.875 E21.68802
G1 X124.5 Y156.096 E21.71311
G1 X124.5 Y159.005 E21.77116
G1 X124.785 Y160.433 E21.80022
G1 X125.508 Y161.648 E21.82844
G1 X126.439 Y162.645 E21.85566
G1 X127.75 Y163.325 E21.88513
G1 X128.971 Y163.625 E21.91022
G1 X170.88 Y163.625 E22.74656
G1 X172.308 Y163.34 E22.77562
G1 X173.523 Y162.617 E22.80384
G1 X174.52 Y161.686 E22.83106
G1 X175.2 Y160.375 E22.86053
G1 X175.5 Y159.154 E22.88562
G1 X175.5 Y156.245 E22.94368
G1 X175.215 Y154.817 E22.97273
G1 X174.492 Y153.602 E23.00095
G1 X173.561 Y152.605 E23.02817
G1 X172.25 Y151.925 E23.05764
G1 X171.029 Y151.625 E23.08273
G1 X155.704 Y151.625 E23.38856
G1 X156.12 Y151.236 E23.39993
G1 X156.8 Y149.925 E23.4294
G1 X157.1 Y148.704 E23.45449
G1 X157.1 Y142.045 E23.58738
G1 X156.815 Y140.617 E23.61644
G1 X156.092 Y139.402 E23.64465
G1 X155.161 Y138.405 E23.67187
G1 X153.85 Y137.725 E23.70135
G1 X152.629 Y137.425 E23.72644
G1 X141.72 Y137.425 E23.94414
G1 X140.292 Y137.71 E23.9732
G1 X139.077 Y138.433 E24.00141
G1 X138.08 Y139.364 E24.02864
G0 F6000 X138.403 Y139.609
G1 F1200 X139.316 Y138.757 E24.05356
G1 X140.44 Y138.088 E24.07966
G1 X141.758 Y137.825 E24.10648
G1 X152.583 Y137.825 E24.3225
G1 X153.707 Y138.101 E24.3456
G1 X154.916 Y138.728 E24.37278
G1 X155.768 Y139.641 E24.3977
G1 X156.437 Y140.765 E24.4238
G1 X156.7 Y142.083 E24.45062
G1 X156.7 Y148.658 E24.58184
G1 X156.424 Y149.782 E24.60493
G1 X155.797 Y150.991 E24.63211
G1 X154.884 Y151.843 E24.65703
G1 X154.578 Y152.025 E24.66414
G1 X170.983 Y152.025 E24.99152
G1 X172.107 Y152.301 E25.01461
G1 X173.316 Y152.928 E25.04179
G1 X174.168 Y153.841 E25.06671
G1 X174.837 Y154.965 E25.09282
G1 X175.1 Y156.283 E25.11964
G1 X175.1 Y159.108 E25.17601
G1 X174.824 Y160.232 E25.19911
G1 X174.197 Y161.441 E25.22629
G1 X173.284 Y162.293 E25.25121
G1 X172.16 Y162.962 E25.27731
G1 X170.842 Y163.225 E25.30413
G1 X129.017 Y163.225 E26.1388
G1 X127.893 Y162.949 E26.16189
G1 X126.684 Y162.322 E26.18907
G1 X125.832 Y161.409 E26.21399
G1 X125.163 Y160.285 E26.2401
G1 X124.9 Y158.967 E26.26692
G1 X124.9 Y156.142 E26.32329
G1 X125.176 Y155.018 E26.34639
G1 X125.803 Y153.809 E26.37357
G1 X126.716 Y152.957 E26.39849
G1 X127.84 Y152.288 E26.42459
G1 X129.158 Y152.025 E26.45141
G1 X139.579 Y152.025 E26.65937
G1 X139.284 Y151.873 E26.666
G1 X138.432 Y150.959 E26.69093
G1 X137.763 Y149.835 E26.71704
G1 X137.5 Y148.517 E26.74386
G1 X137.5 Y141.942 E26.87507
G1 X137.776 Y140.818 E26.89816
G1 X138.403 Y139.609 E26.92534
G0 F6000 X138.725 Y139.856
G1 F1200 X139.558 Y139.079 E26.94808
G1 X140.588 Y138.466 E26.972
G1 X141.796 Y138.225 E26.99658
G1 X152.536 Y138.225 E27.21091
G1 X153.565 Y138.478 E27.23205
G1 X154.669 Y139.05 E27.25687
G1 X155.446 Y139.883 E27.2796
G1 X156.059 Y140.913 E27.30352
G1 X156.3 Y142.121 E27.3281
G1 X156.3 Y148.611 E27.45761
G1 X156.047 Y149.64 E27.47876
G1 X155.475 Y150.744 E27.50357
G1 X154.642 Y151.521 E27.52631
G1 X153.612 Y152.134 E27.55023
G1 X152.404 Y152.375 E27.57481
G1 X141.664 Y152.375 E27.78914
G1 X140.635 Y152.122 E27.81028
G1 X139.531 Y151.55 E27.8351
G1 X138.754 Y150.717 E27.85783
G1 X138.141 Y149.687 E27.88175
G1 X137.9 Y148.479 E27.90633
G1 X137.9 Y141.989 E28.03584
G1 X138.153 Y140.96 E28.05699
G1 X138.725 Y139.856 E28.0818
G0 F6000 X139.047 Y140.103
G1 F1200 X139.8 Y139.401 E28.10235
G1 X140.736 Y138.844 E28.12408
G1 X141.834 Y138.625 E28.14643
G1 X152.49 Y138.625 E28.35908
G1 X153.422 Y138.854 E28.37823
G1 X154.422 Y139.372 E28.40071
G1 X155.124 Y140.125 E28.42125
G1 X155.681 Y141.061 E28.44299
G1 X155.9 Y142.159 E28.46533
G1 X155.9 Y148.565 E28.59317
G1 X155.671 Y149.497 E28.61232
G1 X155.153 Y150.497 E28.6348
G1 X154.4 Y151.199 E28.65534
G1 X153.464 Y151.756 E28.67708
G1 X152.366 Y151.975 E28.69942
G1 X141.71 Y151.975 E28.91207
G1 X140.778 Y151.746 E28.93122
G1 X139.778 Y151.228 E28.9537
G1 X139.076 Y150.475 E28.97424
G1 X138.519 Y149.539 E28.99598
G1 X138.3 Y148.441 E29.01832
G1 X138.3 Y142.035 E29.14616
G1 X138.529 Y141.103 E29.16531
G1 X139.047 Y140.103 E29.18779
G0 F6000 X139.369 Y140.35
G1 F1200 X140.042 Y139.723 E29.20614
G1 X140.884 Y139.222 E29.2257
G1 X141.872 Y139.025 E29.2458
G1 X152.444 Y139.025 E29.45678
G1 X153.279 Y139.23 E29.47393
G1 X154.175 Y139.694 E29.49407
G1 X154.802 Y140.367 E29.51243
G1 X155.303 Y141.209 E29.53198
G1 X155.5 Y142.197 E29.55208
G1 X155.5 Y148.519 E29.67825
G1 X155.295 Y149.354 E29.6954
G1 X154.831 Y150.25 E29.71554
G1 X154.158 Y150.877 E29.7339
G1 X153.316 Y151.378 E29.75345
G1 X152.328 Y151.575 E29.77355
G1 X141.756 Y151.575 E29.98453
G1 X140.921 Y151.37 E30.00169
G1 X140.025 Y150.906 E30.02182
G1 X139.398 Y150.233 E30.04018
G1 X138.897 Y149.391 E30.05973
G1 X138.7 Y148.403 E30.07984
G1 X138.7 Y142.081 E30.206
G1 X138.905 Y141.246 E30.22316
G1 X139.369 Y140.35 E30.24329
G0 F6000 X139.691 Y140.597
G1 F1200 X140.284 Y140.045 E30.25946
G1 X141.032 Y139.6 E30.27683
G1 X141.91 Y139.425 E30.2947
G1 X152.398 Y139.425 E30.50399
G1 X153.136 Y139.606 E30.51916
G1 X153.928 Y140.016 E30.53696
G1 X154.48 Y140.609 E30.55312
G1 X154.925 Y141.357 E30.57049
G1 X155.1 Y142.235 E30.58836
G1 X155.1 Y148.473 E30.71284
G1 X154.919 Y149.211 E30.72801
G1 X154.509 Y150.003 E30.74581
G1 X153.916 Y150.555 E30.76197
G1 X153.168 Y151 E30.77934
G1 X152.29 Y151.175 E30.79721
G1 X141.802 Y151.175 E31.00651
G1 X141.064 Y150.994 E31.02167
G1 X140.272 Y150.584 E31.03947
G1 X139.72 Y149.991 E31.05564
G1 X139.275 Y149.243 E31.07301
G1 X139.1 Y148.365 E31.09087
G1 X139.1 Y142.127 E31.21536
G1 X139.281 Y141.389 E31.23052
G1 X139.691 Y140.597 E31.24832
G0 F6000 X140.014 Y140.842
G1 F1200 X140.523 Y140.369 E31.26219
G1 X141.18 Y139.978 E31.27744
G1 X141.948 Y139.825 E31.29307
G1 X152.348 Y139.825 E31.50061
G1 X152.997 Y139.984 E31.51395
G1 X153.683 Y140.339 E31.52936
G1 X154.156 Y140.848 E31.54323
G1 X154.547 Y141.505 E31.55849
G1 X154.7 Y142.273 E31.57411
G1 X154.7 Y148.423 E31.69684
G1 X154.541 Y149.072 E31.71018
G1 X154.186 Y149.758 E31.72559
G1 X153.677 Y150.231 E31.73946
G1 X153.02 Y150.622 E31.75472
G1 X152.252 Y150.775 E31.77034
G1 X141.852 Y150.775 E31.97789
G1 X141.203 Y150.616 E31.99122
G1 X140.517 Y150.261 E32.00664
G1 X140.044 Y149.752 E32.0205
G1 X139.653 Y149.095 E32.03576
G1 X139.5 Y148.327 E32.05139
G1 X139.5 Y142.177 E32.17412
