;FLAVOR:Marlin
;TIME:3840
;Filament used: 2.67371m
;Layer height: 0.2
;MINX:118.5
;MINY:112.505
;MINZ:0.2
;MAXX:181.5
;MAXY:186.065
;MAXZ:12
;Generated with Cura_SteamEngine master
M140 S55
M105
M190 S55
M104 S210
M105
M109 S210
M82 ;absolute extrusion mode
M201 X500.00 Y500.00 Z100.00 E5000.00 ;Setup machine max acceleration
M203 X500.00 Y500.00 Z10.00 E50.00 ;Setup machine max feedrate
M204 P500.00 R1000.00 T500.00 ;Setup Print/Retract/Travel acceleration
M205 X8.00 Y8.00 Z0.40 E5.00 ;Setup Jerk
M220 S100 ;Reset Feedrate
M221 S100 ;Reset Flowrate

G28 ;safe homing
G90 ;absolute positioning
G0 X0 Y0 F5000.0 ; move to bottom-left corner for nozzle wipe
M220 S100 ;Reset Feedrate

G92 E0 ;Reset Extruder
G1 Z2.0 F3000 ;Move Z Axis up
G1 X10.1 Y20 Z0.28 F5000.0 ;Move to start position
G1 X10.1 Y200.0 Z0.28 F1500.0 E15 ;Draw the first line
G1 X10.4 Y200.0 Z0.28 F5000.0 ;Move to side a little
G1 X10.4 Y20 Z0.28 F1500.0 E30 ;Draw the second line
G92 E0 ;Reset Extruder
G1 Z2.0 F3000 ;Move Z Axis up
G92 E0
G92 E0
G1 F2700 E-5
;LAYER_COUNT:60
;LAYER:0
M107
G0 F6000 X121.698 Y115.769 Z0.2
;TYPE:SKIRT
G1 F2700 E0
G1 F1200 X122.386 Y115.132 E0.03119
G1 X123.126 Y114.556 E0.06237
G1 X123.912 Y114.044 E0.09357
G1 X124.739 Y113.602 E0.12476
G1 X125.601 Y113.232 E0.15596
G1 X126.491 Y112.936 E0.18716
G1 X127.403 Y112.718 E0.21835
G1 X128.33 Y112.577 E0.24953
G1 X129.201 Y112.518 E0.27857
G1 X129.522 Y112.509 E0.28925
G1 X129.83 Y112.505 E0.29949
G1 X169.793 Y112.505 E1.62867
G1 X170.649 Y112.516 E1.65714
G1 X171.585 Y112.57 E1.68833
G1 X172.513 Y112.702 E1.7195
G1 X173.427 Y112.914 E1.75071
G1 X174.319 Y113.203 E1.78189
G1 X175.184 Y113.566 E1.8131
G1 X176.014 Y114.002 E1.84428
G1 X176.805 Y114.507 E1.87549
G1 X177.549 Y115.078 E1.90668
G1 X178.242 Y115.71 E1.93788
G1 X178.879 Y116.398 E1.96906
G1 X179.454 Y117.139 E2.00026
G1 X179.965 Y117.925 E2.03144
G1 X180.407 Y118.753 E2.06266
G1 X180.776 Y119.615 E2.09385
G1 X181.071 Y120.505 E2.12503
G1 X181.289 Y121.417 E2.15622
G1 X181.429 Y122.345 E2.18743
G1 X181.487 Y123.206 E2.21614
G1 X181.496 Y123.526 E2.22678
G1 X181.5 Y123.835 E2.23706
G1 X181.499 Y163.92 E3.57029
G1 X181.489 Y164.648 E3.59451
G1 X181.436 Y165.584 E3.62569
G1 X181.304 Y166.513 E3.6569
G1 X181.093 Y167.427 E3.6881
G1 X180.805 Y168.319 E3.71928
G1 X180.441 Y169.184 E3.75049
G1 X180.006 Y170.015 E3.78169
G1 X179.501 Y170.805 E3.81287
G1 X178.931 Y171.55 E3.84407
G1 X178.3 Y172.243 E3.87524
G1 X177.612 Y172.88 E3.90643
G1 X176.872 Y173.457 E3.93764
G1 X176.085 Y173.968 E3.96885
G1 X175.321 Y174.38 E3.99772
G1 X174.607 Y174.729 E4.02415
G1 X173.499 Y175.251 E4.06489
G1 X171.255 Y176.384 E4.1485
G1 X169.016 Y177.595 E4.23316
G1 X166.864 Y178.839 E4.31584
G1 X164.716 Y180.164 E4.39978
G1 X162.624 Y181.535 E4.48297
G1 X159.981 Y183.392 E4.5904
G1 X159.209 Y183.953 E4.62214
G1 X158.427 Y184.472 E4.65336
G1 X157.604 Y184.922 E4.68456
G1 X156.746 Y185.3 E4.71574
G1 X155.859 Y185.604 E4.74693
G1 X154.949 Y185.831 E4.77812
G1 X154.023 Y185.98 E4.80932
G1 X153.113 Y186.049 E4.83967
G1 X152.727 Y186.059 E4.85251
G1 X152.182 Y186.065 E4.87064
G1 X147.738 Y186.065 E5.01845
G1 X147.081 Y186.055 E5.0403
G1 X146.144 Y186 E5.07152
G1 X145.216 Y185.867 E5.1027
G1 X144.303 Y185.654 E5.13389
G1 X143.41 Y185.365 E5.1651
G1 X142.546 Y185.001 E5.19629
G1 X141.716 Y184.564 E5.22749
G1 X140.722 Y183.911 E5.26704
G1 X140.44 Y183.703 E5.2787
G1 X138.376 Y182.222 E5.36319
G1 X136.279 Y180.806 E5.44735
G1 X134.145 Y179.451 E5.53142
G1 X131.979 Y178.161 E5.61527
G1 X129.77 Y176.926 E5.69945
G1 X127.552 Y175.77 E5.78264
G1 X125.168 Y174.61 E5.87082
G1 X124.821 Y174.447 E5.88357
G1 X123.99 Y174.012 E5.91477
G1 X123.2 Y173.507 E5.94595
G1 X122.455 Y172.937 E5.97715
G1 X121.762 Y172.305 E6.00835
G1 X121.125 Y171.617 E6.03953
G1 X120.549 Y170.877 E6.07072
G1 X120.038 Y170.09 E6.10193
G1 X119.596 Y169.263 E6.13312
G1 X119.226 Y168.401 E6.16432
G1 X118.931 Y167.511 E6.1955
G1 X118.713 Y166.599 E6.22669
G1 X118.573 Y165.671 E6.25791
G1 X118.515 Y164.824 E6.28614
G1 X118.505 Y164.488 E6.29732
G1 X118.5 Y164.161 E6.3082
G1 X118.501 Y124.03 E7.64296
G1 X118.51 Y123.365 E7.66508
G1 X118.563 Y122.429 E7.69627
G1 X118.695 Y121.5 E7.72747
G1 X118.906 Y120.586 E7.75867
G1 X119.194 Y119.694 E7.78985
G1 X119.557 Y118.829 E7.82105
G1 X119.992 Y117.998 E7.85225
G1 X120.496 Y117.208 E7.88341
G1 X121.066 Y116.463 E7.91461
G1 X121.698 Y115.769 E7.94583
G0 F6000 X122.089 Y115.944
G1 F1200 X122.774 Y115.328 E7.97647
G1 X123.51 Y114.775 E8.00709
G1 X124.291 Y114.287 E8.03772
G1 X125.111 Y113.869 E8.06834
G1 X125.965 Y113.524 E8.09897
G1 X126.845 Y113.254 E8.12959
G1 X127.745 Y113.062 E8.16019
G1 X128.659 Y112.948 E8.19083
G1 X129.212 Y112.918 E8.20925
G1 X129.533 Y112.909 E8.21993
G1 X129.83 Y112.905 E8.22981
G1 X169.793 Y112.905 E9.55898
G1 X170.643 Y112.916 E9.58726
G1 X171.562 Y112.969 E9.61787
G1 X172.473 Y113.102 E9.64849
G1 X173.369 Y113.313 E9.67911
G1 X174.243 Y113.601 E9.70972
G1 X175.09 Y113.964 E9.74037
G1 X175.901 Y114.399 E9.77098
G1 X176.671 Y114.903 E9.80159
G1 X177.395 Y115.472 E9.83221
G1 X178.067 Y116.102 E9.86285
G1 X178.682 Y116.787 E9.89347
G1 X179.235 Y117.523 E9.92409
G1 X179.722 Y118.304 E9.9547
G1 X180.139 Y119.125 E9.98533
G1 X180.484 Y119.979 E10.01596
G1 X180.753 Y120.859 E10.04657
G1 X180.945 Y121.76 E10.07721
G1 X181.058 Y122.673 E10.10781
G1 X181.087 Y123.217 E10.12592
G1 X181.096 Y123.537 E10.13657
G1 X181.1 Y123.835 E10.14648
G1 X181.099 Y163.915 E11.47955
G1 X181.089 Y164.643 E11.50377
G1 X181.036 Y165.562 E11.53438
G1 X180.904 Y166.473 E11.565
G1 X180.693 Y167.369 E11.59562
G1 X180.406 Y168.244 E11.62624
G1 X180.043 Y169.09 E11.65686
G1 X179.609 Y169.902 E11.68749
G1 X179.105 Y170.672 E11.71809
G1 X178.537 Y171.397 E11.74873
G1 X177.908 Y172.069 E11.77934
G1 X177.223 Y172.684 E11.80996
G1 X176.487 Y173.237 E11.84058
G1 X175.706 Y173.725 E11.87121
G1 X175.145 Y174.02 E11.89229
G1 X174.289 Y174.437 E11.92396
G1 X173.328 Y174.889 E11.95928
G1 X171.064 Y176.032 E12.04363
G1 X168.832 Y177.24 E12.12805
G1 X166.66 Y178.495 E12.21148
G1 X164.483 Y179.838 E12.29656
G1 X162.39 Y181.211 E12.37981
G1 X159.807 Y183.025 E12.48479
G1 X158.974 Y183.63 E12.51903
G1 X158.206 Y184.138 E12.54966
G1 X157.397 Y184.578 E12.58029
G1 X156.553 Y184.946 E12.61091
G1 X155.681 Y185.239 E12.64151
G1 X154.786 Y185.456 E12.67214
G1 X153.876 Y185.594 E12.70275
G1 X153.1 Y185.649 E12.72863
G1 X152.722 Y185.659 E12.74121
G1 X152.181 Y185.665 E12.7592
G1 X147.744 Y185.665 E12.90678
G1 X147.087 Y185.655 E12.92863
G1 X146.168 Y185.601 E12.95925
G1 X145.257 Y185.467 E12.98987
G1 X144.361 Y185.255 E13.0205
G1 X143.487 Y184.966 E13.05112
G1 X142.641 Y184.602 E13.08175
G1 X141.83 Y184.167 E13.11236
G1 X140.959 Y183.589 E13.14712
G1 X140.67 Y183.376 E13.15907
G1 X138.587 Y181.882 E13.24432
G1 X136.496 Y180.469 E13.32826
G1 X134.359 Y179.112 E13.41246
G1 X132.173 Y177.81 E13.49708
G1 X129.997 Y176.595 E13.57998
G1 X127.733 Y175.414 E13.66491
G1 X125.366 Y174.263 E13.75245
G1 X124.991 Y174.086 E13.76624
G1 X124.176 Y173.657 E13.79687
G1 X123.402 Y173.16 E13.82747
G1 X122.673 Y172.597 E13.8581
G1 X121.996 Y171.973 E13.88872
G1 X121.375 Y171.293 E13.91935
G1 X120.816 Y170.562 E13.94996
G1 X120.323 Y169.784 E13.98059
G1 X119.899 Y168.967 E14.01121
G1 X119.547 Y168.116 E14.04184
G1 X119.271 Y167.238 E14.07245
G1 X119.071 Y166.339 E14.10308
G1 X118.951 Y165.427 E14.13368
G1 X118.915 Y164.812 E14.15417
G1 X118.905 Y164.476 E14.16535
G1 X118.9 Y164.161 E14.17583
G1 X118.901 Y124.036 E15.51039
G1 X118.91 Y123.371 E15.53251
G1 X118.962 Y122.451 E15.56316
G1 X119.094 Y121.54 E15.59377
G1 X119.305 Y120.644 E15.62439
G1 X119.592 Y119.769 E15.65502
G1 X119.955 Y118.923 E15.68564
G1 X120.389 Y118.111 E15.71626
G1 X120.892 Y117.34 E15.74688
G1 X121.461 Y116.616 E15.77751
G1 X122.089 Y115.944 E15.8081
G0 F6000 X122.481 Y116.122
G1 F1200 X123.162 Y115.529 E15.83813
G1 X123.894 Y114.999 E15.86819
G1 X124.669 Y114.536 E15.89821
G1 X125.482 Y114.143 E15.92825
G1 X126.327 Y113.823 E15.9583
G1 X127.196 Y113.58 E15.98831
G1 X128.084 Y113.414 E16.01836
G1 X129.223 Y113.318 E16.05638
G1 X129.544 Y113.309 E16.06706
G1 X129.83 Y113.305 E16.07657
G1 X169.793 Y113.305 E17.40575
G1 X170.637 Y113.316 E17.43382
G1 X171.539 Y113.369 E17.46387
G1 X172.432 Y113.501 E17.4939
G1 X173.31 Y113.712 E17.52393
G1 X174.166 Y114 E17.55397
G1 X174.993 Y114.362 E17.584
G1 X175.785 Y114.797 E17.61405
G1 X176.536 Y115.299 E17.64409
G1 X177.239 Y115.866 E17.67413
G1 X177.889 Y116.493 E17.70417
G1 X178.481 Y117.175 E17.73421
G1 X179.011 Y117.906 E17.76424
G1 X179.473 Y118.682 E17.79428
G1 X179.866 Y119.495 E17.82431
G1 X180.184 Y120.34 E17.85434
G1 X180.427 Y121.21 E17.88438
G1 X180.592 Y122.098 E17.91442
G1 X180.687 Y123.228 E17.95214
G1 X180.696 Y123.548 E17.96279
G1 X180.7 Y123.835 E17.97234
G1 X180.699 Y163.909 E19.3052
G1 X180.689 Y164.637 E19.32942
G1 X180.637 Y165.539 E19.35947
G1 X180.505 Y166.432 E19.38949
G1 X180.294 Y167.31 E19.41953
G1 X180.007 Y168.167 E19.44959
G1 X179.645 Y168.994 E19.47961
G1 X179.212 Y169.786 E19.50963
G1 X178.709 Y170.537 E19.5397
G1 X178.143 Y171.24 E19.56972
G1 X177.517 Y171.891 E19.59975
G1 X176.835 Y172.483 E19.62979
G1 X176.104 Y173.013 E19.65982
G1 X174.969 Y173.661 E19.70329
G1 X174.118 Y174.076 E19.73478
G1 X173.141 Y174.536 E19.7707
G1 X170.858 Y175.689 E19.85577
G1 X168.663 Y176.876 E19.93876
G1 X166.43 Y178.166 E20.02454
G1 X164.301 Y179.479 E20.10773
G1 X162.17 Y180.877 E20.1925
G1 X159.492 Y182.758 E20.30135
G1 X158.738 Y183.306 E20.33235
G1 X157.985 Y183.804 E20.36237
G1 X157.191 Y184.234 E20.39241
G1 X156.361 Y184.591 E20.42246
G1 X155.504 Y184.874 E20.45248
G1 X154.624 Y185.08 E20.48254
G1 X153.73 Y185.207 E20.51257
G1 X153.086 Y185.249 E20.53403
G1 X152.717 Y185.259 E20.54631
G1 X152.181 Y185.265 E20.56414
G1 X147.75 Y185.265 E20.71152
G1 X147.093 Y185.255 E20.73337
G1 X146.191 Y185.201 E20.76342
G1 X145.298 Y185.068 E20.79345
G1 X144.42 Y184.856 E20.8235
G1 X143.564 Y184.568 E20.85353
G1 X142.737 Y184.204 E20.88359
G1 X141.946 Y183.77 E20.9136
G1 X141.196 Y183.267 E20.94363
G1 X140.888 Y183.04 E20.95636
G1 X138.822 Y181.558 E21.04092
G1 X136.704 Y180.127 E21.12594
G1 X134.556 Y178.764 E21.21055
G1 X132.394 Y177.475 E21.29427
G1 X130.171 Y176.234 E21.37895
G1 X127.914 Y175.057 E21.46361
G1 X125.534 Y173.899 E21.55164
G1 X125.162 Y173.724 E21.56532
G1 X124.363 Y173.303 E21.59535
G1 X123.604 Y172.813 E21.6254
G1 X122.891 Y172.258 E21.65545
G1 X122.231 Y171.642 E21.68548
G1 X121.627 Y170.97 E21.71553
G1 X121.086 Y170.248 E21.74554
G1 X120.61 Y169.48 E21.77559
G1 X120.204 Y168.673 E21.80564
G1 X119.871 Y167.834 E21.83566
G1 X119.614 Y166.968 E21.86571
G1 X119.434 Y166.083 E21.89575
G1 X119.315 Y164.8 E21.9386
G1 X119.305 Y164.464 E21.94978
G1 X119.3 Y164.161 E21.95986
G1 X119.301 Y124.041 E23.29426
G1 X119.31 Y123.376 E23.31638
G1 X119.362 Y122.474 E23.34643
G1 X119.494 Y121.581 E23.37645
G1 X119.704 Y120.703 E23.40648
G1 X119.991 Y119.846 E23.43654
G1 X120.353 Y119.019 E23.46656
G1 X120.786 Y118.227 E23.49659
G1 X121.288 Y117.476 E23.52663
G1 X121.855 Y116.772 E23.5567
G1 X122.481 Y116.122 E23.58671
G1 F2700 E18.58671
G0 F6000 X128.839 Y164.662
G0 X129.343 Y165.166
G0 X146.472 Y173.542
G0 X148.125 Y173.889
G1 F2700 E23.58671
G1 F1200 X151.875 Y173.888 E23.71144
G1 X151.875 Y174.065 E23.71732
G1 X148.125 Y174.066 E23.84205
G1 X148.125 Y173.889 E23.84794
G0 F6000 X147.725 Y173.489
G1 F1200 X152.275 Y173.488 E23.99927
G1 X152.275 Y174.465 E24.03176
G1 X147.725 Y174.466 E24.1831
G1 X147.725 Y173.489 E24.21559
G0 F6000 X147.325 Y173.089
G1 F1200 X152.675 Y173.088 E24.39354
G1 X152.675 Y174.855 E24.45231
G1 X152.665 Y174.865 E24.45278
G1 X147.325 Y174.866 E24.63039
G1 X147.325 Y173.089 E24.68949
G0 F6000 X147.325 Y172.689
;TYPE:SUPPORT-INTERFACE
G1 F1200 X147.325 Y165.505 E24.92843
G1 X152.675 Y165.505 E25.10637
G1 X152.675 Y172.688 E25.34528
G1 X147.325 Y172.689 E25.52322
G0 F6000 X147.525 Y171.521
G1 F1200 X152.474 Y166.571 E25.75603
G0 F6000 X152.474 Y166.051
G1 F1200 X152.128 Y165.704 E25.77233
G0 F6000 X149.947 Y165.704
G1 F1200 X147.525 Y168.127 E25.88627
G0 F6000 X147.525 Y167.889
G1 F1200 X152.122 Y172.487 E26.10253
G0 F6000 X149.951 Y172.488
G1 F1200 X152.474 Y169.965 E26.2212
G0 F6000 X152.474 Y169.445
G1 F1200 X148.734 Y165.704 E26.39714
G1 F2700 E21.39714
G0 F6000 X146.46 Y165.704
G0 X146.46 Y171.283
G0 X147.525 Y171.283
G1 F2700 E26.39714
G1 F1200 X148.729 Y172.488 E26.4538
G1 F2700 E21.4538
;MESH:arducam_mount.stl
G0 F6000 X148.73 Y173.553
G0 X163.905 Y130.781
G0 X163.47 Y132.174
G0 X163.921 Y132.083
;TYPE:WALL-INNER
G1 F2700 E26.4538
G1 F1200 X164.322 Y132.106 E26.46716
G1 X164.655 Y132.07 E26.4783
G1 X165.051 Y131.966 E26.49192
G1 X165.422 Y131.794 E26.50552
G1 X165.693 Y131.611 E26.51639
G1 X165.944 Y131.386 E26.5276
G1 X166.154 Y131.134 E26.53852
G1 X166.328 Y130.856 E26.54942
G1 X166.487 Y130.48 E26.563
G1 X166.565 Y130.163 E26.57386
G1 X166.6 Y129.831 E26.58496
G1 X166.579 Y129.426 E26.59845
G1 X166.507 Y129.099 E26.60959
G1 X166.364 Y128.725 E26.62291
G1 X166.195 Y128.433 E26.63413
G1 X165.939 Y128.119 E26.6476
G1 X165.634 Y127.853 E26.66106
G1 X165.283 Y127.642 E26.67468
G1 X164.972 Y127.518 E26.68582
G1 X164.579 Y127.427 E26.69924
G1 X164.178 Y127.404 E26.7126
G1 X163.845 Y127.44 E26.72374
G1 X163.449 Y127.544 E26.73735
G1 X163.078 Y127.716 E26.75095
G1 X162.807 Y127.899 E26.76183
G1 X162.556 Y128.124 E26.77304
G1 X162.346 Y128.376 E26.78395
G1 X162.172 Y128.654 E26.79486
G1 X162.013 Y129.03 E26.80844
G1 X161.935 Y129.347 E26.8193
G1 X161.9 Y129.676 E26.8303
G1 X161.921 Y130.083 E26.84386
G1 X161.993 Y130.411 E26.85502
G1 X162.136 Y130.785 E26.86834
G1 X162.305 Y131.077 E26.87956
G1 X162.558 Y131.389 E26.89292
G1 X162.866 Y131.657 E26.9065
G1 X163.217 Y131.868 E26.92012
G1 X163.528 Y131.992 E26.93126
G1 X163.921 Y132.083 E26.94468
G0 F6000 X163.978 Y131.686
;TYPE:WALL-OUTER
G1 F1200 X164.312 Y131.705 E26.9558
G1 X164.582 Y131.676 E26.96484
G1 X164.915 Y131.588 E26.97629
G1 X165.225 Y131.444 E26.98766
G1 X165.447 Y131.295 E26.99655
G1 X165.655 Y131.108 E27.00586
G1 X165.829 Y130.899 E27.0149
G1 X165.972 Y130.671 E27.02385
G1 X166.106 Y130.354 E27.0353
G1 X166.17 Y130.094 E27.0442
G1 X166.199 Y129.82 E27.05337
G1 X166.181 Y129.48 E27.06469
G1 X166.123 Y129.214 E27.07375
G1 X166.002 Y128.898 E27.085
G1 X165.865 Y128.661 E27.09411
G1 X165.651 Y128.398 E27.10538
G1 X165.398 Y128.178 E27.11654
G1 X165.105 Y128.002 E27.1279
G1 X164.852 Y127.901 E27.13696
G1 X164.522 Y127.824 E27.14824
G1 X164.188 Y127.805 E27.15936
G1 X163.918 Y127.834 E27.16839
G1 X163.585 Y127.922 E27.17985
G1 X163.275 Y128.066 E27.19122
G1 X163.053 Y128.215 E27.20011
G1 X162.845 Y128.402 E27.20941
G1 X162.671 Y128.611 E27.21846
G1 X162.528 Y128.839 E27.22741
G1 X162.394 Y129.156 E27.23886
G1 X162.33 Y129.416 E27.24776
G1 X162.301 Y129.687 E27.25683
G1 X162.319 Y130.03 E27.26825
G1 X162.377 Y130.296 E27.27731
G1 X162.498 Y130.612 E27.28856
G1 X162.635 Y130.849 E27.29767
G1 X162.847 Y131.11 E27.30885
G1 X163.102 Y131.332 E27.3201
G1 X163.395 Y131.508 E27.33146
G1 X163.648 Y131.609 E27.34052
G1 X163.978 Y131.686 E27.3518
G0 F6000 X163.916 Y132.121
G1 F2700 E22.3518
G0 F6000 X162.753 Y131.812
G0 X163.613 Y130.631
G0 X136.702 Y130.273
G0 X137.998 Y130.944
G0 X136.551 Y131.966
;TYPE:WALL-INNER
G1 F2700 E27.3518
G1 F1200 X136.922 Y131.794 E27.3654
G1 X137.193 Y131.611 E27.37627
G1 X137.444 Y131.386 E27.38748
G1 X137.654 Y131.134 E27.39839
G1 X137.828 Y130.856 E27.4093
G1 X137.987 Y130.48 E27.42288
G1 X138.065 Y130.163 E27.43374
G1 X138.1 Y129.831 E27.44484
G1 X138.079 Y129.426 E27.45833
G1 X138.007 Y129.099 E27.46947
G1 X137.864 Y128.725 E27.48278
G1 X137.695 Y128.433 E27.49401
G1 X137.439 Y128.119 E27.50748
G1 X137.134 Y127.853 E27.52094
G1 X136.783 Y127.642 E27.53456
G1 X136.472 Y127.518 E27.5457
G1 X136.079 Y127.427 E27.55911
G1 X135.678 Y127.404 E27.57247
G1 X135.345 Y127.44 E27.58361
G1 X134.949 Y127.544 E27.59723
G1 X134.578 Y127.716 E27.61083
G1 X134.307 Y127.899 E27.62171
G1 X134.056 Y128.124 E27.63292
G1 X133.846 Y128.376 E27.64383
G1 X133.672 Y128.654 E27.65474
