;FLAVOR:Marlin
;TIME:1691
;Filament used: 0.893598m
;Layer height: 0.2
;MINX:122.2
;MINY:131.2
;MINZ:0.2
;MAXX:177.8
;MAXY:168.8
;MAXZ:14
;Generated with Cura_SteamEngine 5.3.0
M140 S60
M105
M190 S60
M104 S210
M105
M109 S210
M82 ;absolute extrusion mode
M220 S100 ;Reset Feedrate
M221 S100 ;Reset Flowrate

M280 P0 S160 ;reset bltouch
G28 ;Home
G29 A ; enable UBL
G92 E0 ;Reset Extruder
G1 Z2.0 F3000 ;Move Z Axis up
G1 X10.1 Y20 Z0.28 F5000.0 ;Move to start position
G1 X10.1 Y200.0 Z0.28 F1500.0 E15 ;Draw the first line
G1 X10.4 Y200.0 Z0.28 F5000.0 ;Move to side a little
G1 X10.4 Y20 Z0.28 F1500.0 E30 ;Draw the second line
G92 E0 ;Reset Extruder
G1 Z2.0 F3000 ;Move Z Axis up
G92 E0
G92 E0
G1 F2100 E-1.5
;LAYER_COUNT:70
;LAYER:0
M107
G0 F6000 X141.344 Y134.224 Z0.2
;TYPE:SKIRT
G1 F2100 E0
G1 F1200 X140.291 Y136.251 E0.07597
G1 X139.825 Y138.147 E0.14091
G1 X139.825 Y141.785 E0.26191
G1 X139.164 Y143.058 E0.30962
G1 X138.7 Y144.946 E0.37428
G1 X138.7 Y147.724 E0.46668
G1 X138.221 Y148.171 E0.48847
G1 X137.165 Y150.203 E0.56464
G1 X136.92 Y151.2 E0.59878
G1 X129.353 Y151.2 E0.85046
G1 X127.166 Y151.638 E0.92465
G1 X125.294 Y152.75 E0.99707
G1 X123.719 Y154.224 E1.06881
G1 X122.666 Y156.251 E1.14479
G1 X122.2 Y158.147 E1.20972
G1 X122.2 Y161.647 E1.32613
G1 X122.638 Y163.834 E1.40032
G1 X123.75 Y165.706 E1.47274
G1 X125.224 Y167.281 E1.54449
G1 X127.251 Y168.334 E1.62046
G1 X129.147 Y168.8 E1.6854
G1 X170.647 Y168.8 E3.06569
G1 X172.834 Y168.362 E3.13988
G1 X174.706 Y167.25 E3.2123
G1 X176.281 Y165.776 E3.28404
G1 X177.334 Y163.749 E3.36002
G1 X177.8 Y161.853 E3.42495
G1 X177.8 Y158.353 E3.54136
G1 X177.362 Y156.166 E3.61555
G1 X176.25 Y154.294 E3.68797
G1 X174.776 Y152.719 E3.75971
G1 X172.749 Y151.666 E3.83569
G1 X170.853 Y151.2 E3.90063
G1 X164.079 Y151.199 E4.12593
G1 X163.863 Y150.123 E4.16243
G1 X162.755 Y148.259 E4.23455
G1 X162.3 Y147.767 E4.25684
G1 X162.3 Y145.152 E4.34382
G1 X161.862 Y142.963 E4.41807
G1 X161.172 Y141.804 E4.46293
G1 X161.175 Y138.353 E4.57771
G1 X160.737 Y136.166 E4.6519
G1 X159.625 Y134.294 E4.72432
G1 X158.151 Y132.719 E4.79606
G1 X156.124 Y131.666 E4.87204
G1 X154.228 Y131.2 E4.93697
G1 X146.978 Y131.2 E5.17811
G1 X144.791 Y131.638 E5.25229
G1 X142.919 Y132.75 E5.32471
G1 X141.344 Y134.224 E5.39646
G0 F6000 X141.667 Y134.469
G1 F1200 X143.16 Y133.072 E5.46447
G1 X144.937 Y132.016 E5.53322
G1 X147.016 Y131.6 E5.60374
G1 X154.182 Y131.6 E5.84208
G1 X155.981 Y132.042 E5.90369
G1 X157.906 Y133.042 E5.97584
G1 X159.303 Y134.535 E6.04385
G1 X160.359 Y136.312 E6.1126
G1 X160.775 Y138.391 E6.18312
G1 X160.772 Y141.915 E6.30033
G1 X161.484 Y143.111 E6.34662
G1 X161.9 Y145.19 E6.41714
G1 X161.9 Y147.923 E6.50804
G1 X162.432 Y148.499 E6.53412
G1 X163.484 Y150.269 E6.6026
G1 X163.751 Y151.599 E6.64772
G1 X170.807 Y151.6 E6.8824
G1 X172.606 Y152.042 E6.94402
G1 X174.531 Y153.042 E7.01617
G1 X175.928 Y154.535 E7.08417
G1 X176.984 Y156.312 E7.15293
G1 X177.4 Y158.391 E7.22344
G1 X177.4 Y161.807 E7.33706
G1 X176.958 Y163.606 E7.39868
G1 X175.958 Y165.531 E7.47083
G1 X174.465 Y166.928 E7.53883
G1 X172.688 Y167.984 E7.60758
G1 X170.609 Y168.4 E7.6781
G1 X129.193 Y168.4 E9.0556
G1 X127.394 Y167.958 E9.11722
G1 X125.469 Y166.958 E9.18937
G1 X124.072 Y165.465 E9.25737
G1 X123.016 Y163.688 E9.32612
G1 X122.6 Y161.609 E9.39664
G1 X122.6 Y158.193 E9.51026
G1 X123.042 Y156.394 E9.57187
G1 X124.042 Y154.469 E9.64402
G1 X125.535 Y153.072 E9.71203
G1 X127.312 Y152.016 E9.78078
G1 X129.391 Y151.6 E9.8513
G1 X137.233 Y151.6 E10.11213
G1 X137.541 Y150.346 E10.15507
G1 X138.544 Y148.416 E10.22742
G1 X139.1 Y147.897 E10.25271
G1 X139.1 Y144.992 E10.34933
G1 X139.54 Y143.201 E10.41067
G1 X140.225 Y141.882 E10.46011
G1 X140.225 Y138.193 E10.5828
G1 X140.667 Y136.394 E10.64442
G1 X141.667 Y134.469 E10.71657
G0 F6000 X141.99 Y134.714
G1 F1200 X143.401 Y133.394 E10.78083
G1 X145.083 Y132.395 E10.8459
G1 X147.055 Y132 E10.91279
G1 X154.135 Y132 E11.14827
G1 X155.839 Y132.419 E11.20664
G1 X157.661 Y133.365 E11.27492
G1 X158.981 Y134.776 E11.33918
G1 X159.98 Y136.458 E11.40425
G1 X160.375 Y138.43 E11.47114
G1 X160.372 Y142.026 E11.59075
G1 X161.106 Y143.259 E11.63847
G1 X161.5 Y145.228 E11.70526
G1 X161.5 Y148.079 E11.80008
G1 X162.11 Y148.739 E11.82998
G1 X163.106 Y150.415 E11.89482
G1 X163.423 Y151.999 E11.94855
G1 X170.76 Y152 E12.19258
G1 X172.464 Y152.419 E12.25094
G1 X174.286 Y153.365 E12.31922
G1 X175.606 Y154.776 E12.38349
G1 X176.605 Y156.458 E12.44855
G1 X177 Y158.43 E12.51545
G1 X177 Y161.76 E12.6262
G1 X176.581 Y163.464 E12.68457
G1 X175.635 Y165.286 E12.75285
G1 X174.224 Y166.606 E12.81711
G1 X172.542 Y167.605 E12.88218
G1 X170.57 Y168 E12.94907
G1 X129.24 Y168 E14.32371
G1 X127.536 Y167.581 E14.38208
G1 X125.714 Y166.635 E14.45036
G1 X124.394 Y165.224 E14.51462
G1 X123.395 Y163.542 E14.57969
G1 X123 Y161.57 E14.64658
G1 X123 Y158.24 E14.75734
G1 X123.419 Y156.536 E14.8157
G1 X124.365 Y154.714 E14.88398
G1 X125.776 Y153.394 E14.94825
G1 X127.458 Y152.395 E15.01331
G1 X129.43 Y152 E15.0802
G1 X137.546 Y152 E15.35014
G1 X137.918 Y150.488 E15.40193
G1 X138.867 Y148.661 E15.47041
G1 X139.5 Y148.07 E15.49921
G1 X139.5 Y145.038 E15.60006
G1 X139.916 Y143.344 E15.65807
G1 X140.625 Y141.979 E15.70923
G1 X140.625 Y138.24 E15.83359
G1 X141.044 Y136.536 E15.89196
G1 X141.99 Y134.714 E15.96024
G0 F6000 X142.313 Y134.959
G1 F1200 X143.642 Y133.716 E16.02076
G1 X145.229 Y132.773 E16.08216
G1 X147.093 Y132.4 E16.14539
G1 X154.089 Y132.4 E16.37807
G1 X155.696 Y132.795 E16.43311
G1 X157.416 Y133.688 E16.49757
G1 X158.659 Y135.017 E16.55809
G1 X159.602 Y136.604 E16.61949
G1 X159.975 Y138.468 E16.68272
G1 X159.972 Y142.137 E16.80475
G1 X160.728 Y143.407 E16.85391
G1 X161.1 Y145.266 E16.91697
G1 X161.1 Y148.235 E17.01571
G1 X161.787 Y148.979 E17.0494
G1 X162.728 Y150.561 E17.11062
G1 X163.095 Y152.399 E17.17296
G1 X170.714 Y152.4 E17.42637
G1 X172.321 Y152.795 E17.48141
G1 X174.041 Y153.688 E17.54586
G1 X175.284 Y155.017 E17.60639
G1 X176.227 Y156.604 E17.66779
G1 X176.6 Y158.468 E17.73101
G1 X176.6 Y161.714 E17.83898
G1 X176.205 Y163.321 E17.89402
G1 X175.312 Y165.041 E17.95847
G1 X173.983 Y166.284 E18.019
G1 X172.396 Y167.227 E18.0804
G1 X170.532 Y167.6 E18.14362
G1 X129.286 Y167.6 E19.51547
G1 X127.679 Y167.205 E19.57051
G1 X125.959 Y166.312 E19.63497
G1 X124.716 Y164.983 E19.69549
G1 X123.773 Y163.396 E19.75689
G1 X123.4 Y161.532 E19.82012
G1 X123.4 Y158.286 E19.92808
G1 X123.795 Y156.679 E19.98312
G1 X124.688 Y154.959 E20.04758
G1 X126.017 Y153.716 E20.1081
G1 X127.604 Y152.773 E20.1695
G1 X129.468 Y152.4 E20.23272
G1 X137.9 Y152.4 E20.51317
G1 X137.912 Y152.187 E20.52027
G1 X138.295 Y150.63 E20.5736
G1 X139.19 Y148.906 E20.63821
G1 X139.9 Y148.243 E20.67052
G1 X139.9 Y145.084 E20.77559
G1 X140.292 Y143.487 E20.83028
G1 X141.025 Y142.076 E20.88316
G1 X141.025 Y138.286 E21.00922
G1 X141.42 Y136.679 E21.06426
G1 X142.313 Y134.959 E21.12872
G0 F6000 X142.636 Y135.204
G1 F1200 X143.883 Y134.038 E21.1855
G1 X145.375 Y133.151 E21.24323
G1 X147.131 Y132.8 E21.30279
G1 X154.043 Y132.8 E21.53268
G1 X155.553 Y133.171 E21.5844
G1 X157.171 Y134.011 E21.64504
G1 X158.337 Y135.258 E21.70182
G1 X159.224 Y136.75 E21.75955
G1 X159.575 Y138.506 E21.81911
G1 X159.572 Y142.248 E21.94357
G1 X160.35 Y143.555 E21.99416
G1 X160.7 Y145.304 E22.05348
G1 X160.7 Y148.391 E22.15616
G1 X161.463 Y149.217 E22.19356
G1 X162.35 Y150.708 E22.25126
G1 X162.7 Y152.451 E22.31039
G1 X162.7 Y152.799 E22.32197
G1 X170.668 Y152.8 E22.58698
G1 X172.178 Y153.171 E22.6387
G1 X173.796 Y154.011 E22.69933
G1 X174.962 Y155.258 E22.75612
G1 X175.849 Y156.75 E22.81385
G1 X176.2 Y158.506 E22.87341
G1 X176.2 Y161.668 E22.97858
G1 X175.829 Y163.178 E23.03029
G1 X174.989 Y164.796 E23.09093
G1 X173.742 Y165.962 E23.14771
G1 X172.25 Y166.849 E23.20544
G1 X170.494 Y167.2 E23.265
G1 X129.332 Y167.2 E24.63405
G1 X127.822 Y166.829 E24.68577
G1 X126.204 Y165.989 E24.74641
G1 X125.038 Y164.742 E24.80319
G1 X124.151 Y163.25 E24.86092
G1 X123.8 Y161.494 E24.92048
G1 X123.8 Y158.332 E25.02565
G1 X124.171 Y156.822 E25.07736
G1 X125.011 Y155.204 E25.138
G1 X126.258 Y154.038 E25.19478
G1 X127.75 Y153.151 E25.25251
G1 X129.506 Y152.8 E25.31207
G1 X138.299 Y152.8 E25.60453
G1 X138.3 Y152.282 E25.62176
G1 X138.671 Y150.773 E25.67344
G1 X139.513 Y149.151 E25.73423
G1 X140.3 Y148.416 E25.77004
G1 X140.3 Y145.13 E25.87933
G1 X140.668 Y143.63 E25.9307
G1 X141.349 Y142.311 E25.98008
G1 X141.425 Y142.198 E25.98461
G1 X141.425 Y138.332 E26.11319
G1 X141.796 Y136.822 E26.16491
G1 X142.636 Y135.204 E26.22554
G0 F6000 X142.959 Y135.449
G1 F1200 X144.124 Y134.36 E26.27858
G1 X145.521 Y133.529 E26.33265
G1 X147.169 Y133.2 E26.38854
G1 X153.996 Y133.2 E26.61561
G1 X155.411 Y133.548 E26.66407
G1 X156.926 Y134.334 E26.72084
G1 X158.015 Y135.499 E26.77388
G1 X158.846 Y136.896 E26.82794
G1 X159.175 Y138.544 E26.88384
G1 X159.172 Y142.359 E27.01073
G1 X159.972 Y143.703 E27.06275
G1 X160.3 Y145.342 E27.11834
G1 X160.3 Y148.547 E27.22494
G1 X161.14 Y149.457 E27.26613
G1 X161.971 Y150.854 E27.32019
G1 X162.3 Y152.49 E27.3757
G1 X162.3 Y153.199 E27.39928
G1 X170.621 Y153.2 E27.67604
G1 X172.036 Y153.548 E27.7245
G1 X173.551 Y154.334 E27.78127
G1 X174.64 Y155.499 E27.83431
G1 X175.471 Y156.896 E27.88837
G1 X175.8 Y158.544 E27.94427
G1 X175.8 Y161.621 E28.04661
G1 X175.452 Y163.036 E28.09507
G1 X174.666 Y164.551 E28.15184
G1 X173.501 Y165.64 E28.20488
G1 X172.104 Y166.471 E28.25894
G1 X170.456 Y166.8 E28.31484
G1 X129.379 Y166.8 E29.68107
G1 X127.964 Y166.452 E29.72953
G1 X126.449 Y165.666 E29.7863
G1 X125.36 Y164.501 E29.83934
G1 X124.529 Y163.104 E29.8934
G1 X124.2 Y161.456 E29.9493
G1 X124.2 Y158.379 E30.05164
G1 X124.548 Y156.964 E30.1001
G1 X125.334 Y155.449 E30.15687
G1 X126.499 Y154.36 E30.20991
G1 X127.896 Y153.529 E30.26397
G1 X129.544 Y153.2 E30.31987
G1 X138.699 Y153.2 E30.62437
G1 X138.7 Y152.33 E30.6533
G1 X139.048 Y150.915 E30.70177
G1 X139.836 Y149.396 E30.75868
G1 X140.7 Y148.589 E30.79801
G1 X140.7 Y145.176 E30.91152
G1 X141.044 Y143.773 E30.95957
G1 X141.704 Y142.495 E31.00741
G1 X141.825 Y142.33 E31.01421
G1 X141.825 Y138.379 E31.14562
G1 X142.173 Y136.964 E31.19409
G1 X142.959 Y135.449 E31.25086
G0 F6000 X143.282 Y135.694
G1 F1200 X144.363 Y134.684 E31.30006
G1 X145.669 Y133.907 E31.35061
G1 X147.207 Y133.6 E31.40277
G1 X153.95 Y133.6 E31.62704
G1 X155.268 Y133.924 E31.67218
G1 X156.681 Y134.657 E31.72513
G1 X157.691 Y135.738 E31.77433
G1 X158.468 Y137.044 E31.82488
G1 X158.775 Y138.582 E31.87704
G1 X158.772 Y142.515 E32.00785
G1 X158.88 Y142.651 E32.01363
G1 X159.594 Y143.851 E32.06007
G1 X159.9 Y145.38 E32.11194
G1 X159.9 Y148.703 E32.22246
G1 X160.816 Y149.695 E32.26737
G1 X161.593 Y151.001 E32.31791
G1 X161.9 Y152.529 E32.36975
G1 X161.9 Y153.599 E32.40534
G1 X170.575 Y153.6 E32.69387
G1 X171.893 Y153.924 E32.73901
G1 X173.306 Y154.657 E32.79195
G1 X174.316 Y155.738 E32.84116
G1 X175.093 Y157.044 E32.8917
G1 X175.4 Y158.582 E32.94387
G1 X175.4 Y161.575 E33.04342
G1 X175.076 Y162.893 E33.08856
G1 X174.343 Y164.306 E33.1415
G1 X173.262 Y165.316 E33.19071
G1 X171.956 Y166.093 E33.24125
G1 X170.418 Y166.4 E33.29341
G1 X129.425 Y166.4 E34.65685
G1 X128.107 Y166.076 E34.70199
G1 X126.694 Y165.343 E34.75493
G1 X125.684 Y164.262 E34.80414
G1 X124.907 Y162.956 E34.85468
G1 X124.6 Y161.418 E34.90685
G1 X124.6 Y158.425 E35.00639
G1 X124.924 Y157.107 E35.05153
G1 X125.657 Y155.694 E35.10448
G1 X126.738 Y154.684 E35.15368
G1 X128.044 Y153.907 E35.20423
G1 X129.582 Y153.6 E35.25639
G1 X139.099 Y153.6 E35.57293
G1 X139.1 Y152.376 E35.61364
G1 X139.424 Y151.058 E35.65878
G1 X140.159 Y149.641 E35.71187
G1 X141.1 Y148.763 E35.75468
G1 X141.1 Y145.222 E35.87245
G1 X141.421 Y143.914 E35.91725
G1 X142.059 Y142.678 E35.96351
G1 X142.225 Y142.469 E35.97239
G1 X142.225 Y138.425 E36.10689
G1 X142.549 Y137.107 E36.15203
G1 X143.282 Y135.694 E36.20498
G0 F6000 X143.605 Y135.939
G1 F1200 X144.602 Y135.008 E36.25035
G1 X145.817 Y134.285 E36.29737
G1 X147.245 Y134 E36.3458
G1 X153.904 Y134 E36.56728
G1 X155.125 Y134.3 E36.6091
G1 X156.436 Y134.98 E36.65822
G1 X157.367 Y135.977 E36.70359
G1 X158.09 Y137.192 E36.75062
G1 X158.375 Y138.62 E36.79905
G1 X158.372 Y142.659 E36.93339
G1 X158.536 Y142.856 E36.94191
G1 X159.216 Y143.999 E36.98615
G1 X159.5 Y145.418 E37.03428
G1 X159.5 Y148.915 E37.15059
G1 X159.656 Y149.028 E37.157
G1 X160.492 Y149.933 E37.19798
G1 X161.215 Y151.148 E37.245
G1 X161.5 Y152.568 E37.29317
G1 X161.5 Y153.999 E37.34077
G1 X170.529 Y154 E37.64107
G1 X171.75 Y154.3 E37.68289
G1 X173.061 Y154.98 E37.73201
G1 X173.992 Y155.977 E37.77738
G1 X174.715 Y157.192 E37.82441
G1 X175 Y158.62 E37.87284
G1 X175 Y161.529 E37.96959
G1 X174.7 Y162.75 E38.01141
G1 X174.02 Y164.061 E38.06053
G1 X173.023 Y164.992 E38.1059
G1 X171.808 Y165.715 E38.15293
G1 X170.38 Y166 E38.20136
G1 X129.471 Y166 E39.562
G1 X128.25 Y165.7 E39.60382
G1 X126.939 Y165.02 E39.65294
G1 X126.008 Y164.023 E39.69831
G1 X125.285 Y162.808 E39.74533
G1 X125 Y161.38 E39.79376
G1 X125 Y158.471 E39.89052
G1 X125.3 Y157.25 E39.93234
G1 X125.98 Y155.939 E39.98146
G1 X126.977 Y155.008 E40.02683
G1 X128.192 Y154.285 E40.07385
G1 X129.62 Y154 E40.12228
G1 X139.499 Y154 E40.45086
G1 X139.5 Y152.422 E40.50335
G1 X139.8 Y151.201 E40.54516
G1 X140.481 Y149.888 E40.59436
G1 X141.5 Y148.938 E40.64069
G1 X141.5 Y145.268 E40.76276
G1 X141.797 Y144.057 E40.80423
G1 X142.414 Y142.862 E40.84896
G1 X142.625 Y142.617 E40.85972
G1 X142.625 Y138.471 E40.99761
G1 X142.925 Y137.25 E41.03943
G1 X143.605 Y135.939 E41.08855
G0 F6000 X143.928 Y136.184
G1 F1200 X144.841 Y135.332 E41.13009
G1 X145.965 Y134.663 E41.17359
G1 X147.283 Y134.4 E41.21829
G1 X153.858 Y134.4 E41.43698
G1 X154.982 Y134.676 E41.47547
G1 X156.191 Y135.303 E41.52077
G1 X157.043 Y136.216 E41.56231
G1 X157.712 Y137.34 E41.60581
G1 X157.975 Y138.658 E41.65051
G1 X157.972 Y142.811 E41.78864
G1 X158.192 Y143.06 E41.79969
G1 X158.837 Y144.145 E41.84167
G1 X159.1 Y145.457 E41.88618
G1 X159.1 Y149.138 E42.00861
G1 X159.362 Y149.3 E42.01886
G1 X160.17 Y150.174 E42.05844
G1 X160.837 Y151.295 E42.10183
G1 X161.1 Y152.607 E42.14634
G1 X161.1 Y154.399 E42.20594
G1 X170.483 Y154.4 E42.51802
G1 X171.607 Y154.676 E42.55651
G1 X172.816 Y155.303 E42.60181
G1 X173.668 Y156.216 E42.64334
G1 X174.337 Y157.34 E42.68685
G1 X174.6 Y158.658 E42.73155
G1 X174.6 Y161.483 E42.82551
G1 X174.324 Y162.607 E42.86401
G1 X173.697 Y163.816 E42.9093
G1 X172.784 Y164.668 E42.95084
G1 X171.66 Y165.337 E42.99434
G1 X170.342 Y165.6 E43.03904
G1 X129.517 Y165.6 E44.39689
G1 X128.393 Y165.324 E44.43538
G1 X127.184 Y164.697 E44.48068
G1 X126.332 Y163.784 E44.52222
G1 X125.663 Y162.66 E44.56572
G1 X125.4 Y161.342 E44.61042
G1 X125.4 Y158.517 E44.70438
G1 X125.676 Y157.393 E44.74288
G1 X126.303 Y156.184 E44.78818
G1 X127.216 Y155.332 E44.82971
G1 X128.34 Y154.663 E44.87322
G1 X129.658 Y154.4 E44.91792
G1 X139.899 Y154.4 E45.25853
G1 X139.9 Y152.468 E45.32279
G1 X140.176 Y151.344 E45.36129
G1 X140.803 Y150.135 E45.40658
G1 X141.687 Y149.311 E45.44678
G1 X141.9 Y149.177 E45.45515
G1 X141.9 Y145.318 E45.5835
G1 X142.175 Y144.196 E45.62192
G1 X142.769 Y143.046 E45.66497
G1 X143.025 Y142.776 E45.67735
G1 X143.025 Y138.517 E45.819
G1 X143.301 Y137.393 E45.8575
G1 X143.928 Y136.184 E45.90279
G0 F6000 X144.25 Y136.431
G1 F1200 X145.083 Y135.654 E45.94068
G1 X146.113 Y135.041 E45.98055
G1 X147.321 Y134.8 E46.02152
G1 X153.811 Y134.8 E46.23738
G1 X154.84 Y135.053 E46.27262
G1 X155.944 Y135.625 E46.31398
G1 X156.721 Y136.458 E46.35186
G1 X157.334 Y137.488 E46.39173
G1 X157.575 Y138.696 E46.4327
G1 X157.572 Y142.967 E46.57475
G1 X157.848 Y143.265 E46.58826
G1 X158.459 Y144.292 E46.62801
G1 X158.7 Y145.496 E46.66885
G1 X158.7 Y149.198 E46.79198
G1 X158.671 Y149.366 E46.79765
G1 X159.068 Y149.572 E46.81252
G1 X159.848 Y150.415 E46.85072
G1 X160.459 Y151.442 E46.89047
G1 X160.7 Y152.646 E46.93131
G1 X160.7 Y154.799 E47.00292
G1 X170.436 Y154.8 E47.32674
G1 X171.465 Y155.053 E47.36198
G1 X172.569 Y155.625 E47.40334
G1 X173.346 Y156.458 E47.44123
G1 X173.959 Y157.488 E47.48109
G1 X174.2 Y158.696 E47.52206
G1 X174.2 Y161.436 E47.61319
