;FLAVOR:Marlin
;TIME:9314
;Filament used: 6.22134m
;Layer height: 0.2
;MINX:61.3
;MINY:113.577
;MINZ:0.2
;MAXX:186.432
;MAXY:238.7
;MAXZ:16.8
;Generated with Cura_SteamEngine master
M140 S55
M105
M190 S55
M104 S210
M105
M109 S210
M82 ;absolute extrusion mode
M201 X500.00 Y500.00 Z100.00 E5000.00 ;Setup machine max acceleration
M203 X500.00 Y500.00 Z10.00 E50.00 ;Setup machine max feedrate
M204 P500.00 R1000.00 T500.00 ;Setup Print/Retract/Travel acceleration
M205 X8.00 Y8.00 Z0.40 E5.00 ;Setup Jerk
M220 S100 ;Reset Feedrate
M221 S100 ;Reset Flowrate

G28 ;Home

G92 E0 ;Reset Extruder
G1 Z2.0 F3000 ;Move Z Axis up
G1 X10.1 Y20 Z0.28 F5000.0 ;Move to start position
G1 X10.1 Y200.0 Z0.28 F1500.0 E15 ;Draw the first line
G1 X10.4 Y200.0 Z0.28 F5000.0 ;Move to side a little
G1 X10.4 Y20 Z0.28 F1500.0 E30 ;Draw the second line
G92 E0 ;Reset Extruder
G1 Z2.0 F3000 ;Move Z Axis up

G92 E0
G92 E0
G1 F2700 E-5
;LAYER_COUNT:85
;LAYER:0
M107
G0 F6000 X66.711 Y115.117 Z0.2
;TYPE:SKIRT
G1 F2700 E0
G1 F1200 X67.538 Y114.674 E0.0312
G1 X68.4 Y114.304 E0.0624
G1 X69.29 Y114.008 E0.0936
G1 X70.202 Y113.79 E0.12479
G1 X71.129 Y113.649 E0.15597
G1 X72.001 Y113.59 E0.18504
G1 X72.322 Y113.581 E0.19572
G1 X72.63 Y113.577 E0.20597
G1 X122.393 Y113.577 E1.86109
G1 X123.405 Y113.59 E1.89475
G1 X124.804 Y113.6 E1.94129
G1 X174.883 Y113.601 E3.60692
G1 X175.581 Y113.611 E3.63014
G1 X176.517 Y113.665 E3.66132
G1 X177.445 Y113.797 E3.6925
G1 X178.359 Y114.009 E3.72371
G1 X179.251 Y114.298 E3.75489
G1 X180.116 Y114.661 E3.78609
G1 X180.946 Y115.097 E3.81728
G1 X181.737 Y115.602 E3.84849
G1 X182.481 Y116.173 E3.87968
G1 X183.174 Y116.805 E3.91088
G1 X183.811 Y117.493 E3.94206
G1 X184.386 Y118.234 E3.97326
G1 X184.897 Y119.02 E4.00444
G1 X185.339 Y119.848 E4.03566
G1 X185.708 Y120.71 E4.06684
G1 X186.003 Y121.6 E4.09803
G1 X186.221 Y122.512 E4.12922
G1 X186.361 Y123.44 E4.16043
G1 X186.419 Y124.301 E4.18913
G1 X186.428 Y124.621 E4.19978
G1 X186.432 Y124.93 E4.21006
G1 X186.431 Y174.848 E5.87034
G1 X186.409 Y176.403 E5.92206
G1 X186.4 Y177.74 E5.96653
G1 X186.399 Y227.1 E7.60825
G1 X186.39 Y227.827 E7.63243
G1 X186.339 Y228.764 E7.66365
G1 X186.207 Y229.692 E7.69482
G1 X185.998 Y230.606 E7.72601
G1 X185.711 Y231.499 E7.7572
G1 X185.349 Y232.365 E7.78842
G1 X184.915 Y233.196 E7.8196
G1 X184.411 Y233.987 E7.8508
G1 X183.842 Y234.732 E7.88198
G1 X183.211 Y235.427 E7.9132
G1 X182.524 Y236.065 E7.94438
G1 X181.785 Y236.642 E7.97557
G1 X180.999 Y237.154 E8.00677
G1 X180.173 Y237.597 E8.03794
G1 X179.311 Y237.969 E8.06917
G1 X178.422 Y238.265 E8.10033
G1 X177.51 Y238.485 E8.13154
G1 X176.583 Y238.626 E8.16272
G1 X175.699 Y238.687 E8.19219
G1 X175.378 Y238.696 E8.20287
G1 X175.07 Y238.7 E8.21312
G1 X125.145 Y238.699 E9.87363
G1 X124.464 Y238.689 E9.89628
G1 X123.528 Y238.635 E9.92747
G1 X122.6 Y238.502 E9.95865
G1 X121.686 Y238.29 E9.98986
G1 X120.794 Y238.001 E10.02104
G1 X119.93 Y237.637 E10.05222
G1 X119.099 Y237.201 E10.08344
G1 X118.421 Y236.773 E10.1101
G1 X117.669 Y236.214 E10.14127
G1 X116.966 Y235.593 E10.17247
G1 X116.319 Y234.914 E10.20366
G1 X115.732 Y234.182 E10.23487
G1 X115.21 Y233.403 E10.26606
G1 X114.579 Y232.212 E10.31089
G1 X114.168 Y231.302 E10.3441
G1 X113.865 Y230.604 E10.36941
G1 X112.799 Y228.328 E10.453
G1 X111.666 Y226.076 E10.53685
G1 X110.473 Y223.865 E10.62041
G1 X109.207 Y221.668 E10.70474
G1 X107.9 Y219.541 E10.78778
G1 X106.521 Y217.434 E10.87153
G1 X105.081 Y215.365 E10.95537
G1 X103.586 Y213.34 E11.03909
G1 X102.045 Y211.371 E11.12225
G1 X100.418 Y209.409 E11.20703
G1 X98.764 Y207.527 E11.29036
G1 X97.053 Y205.687 E11.37393
G1 X95.282 Y203.888 E11.45789
G1 X93.476 Y202.154 E11.54116
G1 X91.612 Y200.463 E11.62487
G1 X89.687 Y198.813 E11.7092
G1 X87.732 Y197.231 E11.79284
G1 X85.726 Y195.7 E11.87678
G1 X83.701 Y194.244 E11.95973
G1 X81.599 Y192.819 E12.04419
G1 X79.491 Y191.477 E12.12731
G1 X77.338 Y190.191 E12.21072
G1 X75.117 Y188.947 E12.29539
G1 X72.898 Y187.785 E12.3787
G1 X70.655 Y186.691 E12.4617
G1 X68.147 Y185.555 E12.55328
G1 X67.924 Y185.458 E12.56137
G1 X67.081 Y185.047 E12.59256
G1 X66.275 Y184.567 E12.62376
G1 X65.514 Y184.019 E12.65495
G1 X64.802 Y183.409 E12.68613
G1 X64.144 Y182.74 E12.71734
G1 X63.546 Y182.018 E12.74853
G1 X63.012 Y181.247 E12.77972
G1 X62.545 Y180.434 E12.8109
G1 X62.149 Y179.583 E12.84212
G1 X61.827 Y178.703 E12.87329
G1 X61.581 Y177.798 E12.90448
G1 X61.413 Y176.875 E12.93569
G1 X61.315 Y175.71 E12.97457
G1 X61.305 Y175.387 E12.98532
G1 X61.3 Y175.047 E12.99663
G1 X61.301 Y125.106 E14.65767
G1 X61.31 Y124.438 E14.67989
G1 X61.363 Y123.501 E14.71111
G1 X61.495 Y122.573 E14.74228
G1 X61.706 Y121.659 E14.77348
G1 X61.993 Y120.766 E14.80468
G1 X62.356 Y119.902 E14.83585
G1 X62.791 Y119.071 E14.86705
G1 X63.296 Y118.28 E14.89826
G1 X63.866 Y117.535 E14.92946
G1 X64.497 Y116.842 E14.96063
G1 X65.185 Y116.204 E14.99184
G1 X65.925 Y115.628 E15.02303
G1 X66.711 Y115.117 E15.05421
G0 F6000 X67.09 Y115.36
G1 F1200 X67.911 Y114.942 E15.08485
G1 X68.764 Y114.596 E15.11547
G1 X69.644 Y114.326 E15.14608
G1 X70.545 Y114.134 E15.17672
G1 X71.458 Y114.02 E15.20733
G1 X72.012 Y113.99 E15.22578
G1 X72.333 Y113.981 E15.23646
G1 X72.63 Y113.977 E15.24634
G1 X122.393 Y113.977 E16.90146
G1 X123.396 Y113.99 E16.93483
G1 X124.801 Y114 E16.98156
G1 X174.877 Y114.001 E18.64709
G1 X175.575 Y114.011 E18.67031
G1 X176.494 Y114.064 E18.70093
G1 X177.405 Y114.197 E18.73155
G1 X178.301 Y114.408 E18.76217
G1 X179.175 Y114.696 E18.79277
G1 X180.022 Y115.059 E18.82342
G1 X180.833 Y115.494 E18.85403
G1 X181.603 Y115.998 E18.88464
G1 X182.327 Y116.567 E18.91527
G1 X182.999 Y117.197 E18.9459
G1 X183.614 Y117.882 E18.97652
G1 X184.167 Y118.618 E19.00714
G1 X184.654 Y119.399 E19.03775
G1 X185.071 Y120.22 E19.06838
G1 X185.416 Y121.074 E19.09902
G1 X185.685 Y121.954 E19.12962
G1 X185.877 Y122.855 E19.16026
G1 X185.99 Y123.768 E19.19086
G1 X186.019 Y124.312 E19.20898
G1 X186.028 Y124.632 E19.21963
G1 X186.032 Y124.93 E19.22954
G1 X186.031 Y174.842 E20.88962
G1 X186.009 Y176.397 E20.94134
G1 X186 Y177.737 E20.98591
G1 X185.999 Y227.095 E22.62757
G1 X185.99 Y227.822 E22.65175
G1 X185.939 Y228.741 E22.68236
G1 X185.808 Y229.653 E22.71301
G1 X185.598 Y230.549 E22.74361
G1 X185.312 Y231.424 E22.77423
G1 X184.951 Y232.271 E22.80486
G1 X184.517 Y233.083 E22.83548
G1 X184.015 Y233.855 E22.86611
G1 X183.447 Y234.58 E22.89674
G1 X182.819 Y235.253 E22.92736
G1 X182.135 Y235.869 E22.95797
G1 X181.4 Y236.423 E22.98858
G1 X180.62 Y236.912 E23.0192
G1 X179.8 Y237.331 E23.04983
G1 X178.947 Y237.677 E23.08045
G1 X178.067 Y237.948 E23.11107
G1 X177.167 Y238.141 E23.14169
G1 X176.253 Y238.256 E23.17233
G1 X175.688 Y238.287 E23.19115
G1 X175.367 Y238.296 E23.20183
G1 X175.07 Y238.3 E23.21171
G1 X125.151 Y238.299 E24.87202
G1 X124.47 Y238.289 E24.89467
G1 X123.551 Y238.235 E24.92529
G1 X122.64 Y238.102 E24.95591
G1 X121.744 Y237.891 E24.98653
G1 X120.87 Y237.602 E25.01715
G1 X120.024 Y237.239 E25.04776
G1 X119.213 Y236.804 E25.07837
G1 X118.646 Y236.442 E25.10075
G1 X117.907 Y235.893 E25.13137
G1 X117.219 Y235.281 E25.16199
G1 X116.587 Y234.612 E25.1926
G1 X116.015 Y233.891 E25.22321
G1 X115.507 Y233.123 E25.25384
G1 X114.943 Y232.047 E25.29425
G1 X114.535 Y231.143 E25.32723
G1 X114.236 Y230.454 E25.35222
G1 X113.153 Y228.144 E25.43707
G1 X112.025 Y225.9 E25.52061
G1 X110.814 Y223.655 E25.60545
G1 X109.557 Y221.475 E25.68914
G1 X108.241 Y219.334 E25.77273
G1 X106.84 Y217.192 E25.85786
G1 X105.411 Y215.138 E25.94108
G1 X103.895 Y213.085 E26.02596
G1 X102.352 Y211.114 E26.10922
G1 X100.725 Y209.153 E26.19397
G1 X99.075 Y207.274 E26.27714
G1 X97.332 Y205.399 E26.36228
G1 X95.579 Y203.619 E26.44538
G1 X93.739 Y201.852 E26.53023
G1 X91.876 Y200.162 E26.61389
G1 X89.936 Y198.499 E26.69887
G1 X87.981 Y196.918 E26.7825
G1 X85.98 Y195.391 E26.86622
G1 X83.914 Y193.904 E26.95088
G1 X81.849 Y192.505 E27.03384
G1 X79.689 Y191.13 E27.119
G1 X77.532 Y189.841 E27.20258
G1 X75.319 Y188.601 E27.28695
G1 X73.066 Y187.422 E27.37153
G1 X70.802 Y186.317 E27.45532
G1 X68.321 Y185.194 E27.5459
G1 X68.084 Y185.091 E27.55449
G1 X67.256 Y184.688 E27.58512
G1 X66.467 Y184.214 E27.61573
G1 X65.721 Y183.673 E27.64638
G1 X65.025 Y183.07 E27.67701
G1 X64.385 Y182.409 E27.70761
G1 X63.804 Y181.695 E27.73823
G1 X63.287 Y180.933 E27.76886
G1 X62.838 Y180.129 E27.79949
G1 X62.461 Y179.289 E27.83011
G1 X62.158 Y178.42 E27.86072
G1 X61.932 Y177.528 E27.89132
G1 X61.784 Y176.619 E27.92196
G1 X61.715 Y175.698 E27.95267
G1 X61.705 Y175.375 E27.96342
G1 X61.7 Y175.047 E27.97433
G1 X61.701 Y125.111 E29.63521
G1 X61.71 Y124.443 E29.65743
G1 X61.762 Y123.524 E29.68805
G1 X61.894 Y122.613 E29.71866
G1 X62.105 Y121.717 E29.74928
G1 X62.392 Y120.842 E29.77991
G1 X62.755 Y119.996 E29.81052
G1 X63.189 Y119.184 E29.84115
G1 X63.692 Y118.413 E29.87177
G1 X64.26 Y117.688 E29.9024
G1 X64.889 Y117.016 E29.93301
G1 X65.574 Y116.401 E29.96363
G1 X66.31 Y115.847 E29.99427
G1 X67.09 Y115.36 E30.02485
G0 F6000 X67.468 Y115.608
G1 F1200 X68.281 Y115.215 E30.05489
G1 X69.126 Y114.895 E30.08494
G1 X69.996 Y114.652 E30.11499
G1 X70.883 Y114.486 E30.145
G1 X72.023 Y114.39 E30.18305
G1 X72.344 Y114.381 E30.19373
G1 X72.63 Y114.377 E30.20324
G1 X122.393 Y114.377 E31.85837
G1 X123.387 Y114.39 E31.89143
G1 X124.798 Y114.4 E31.93836
G1 X174.871 Y114.401 E33.6038
G1 X175.569 Y114.411 E33.62702
G1 X176.471 Y114.464 E33.65707
G1 X177.364 Y114.596 E33.68709
G1 X178.242 Y114.807 E33.71713
G1 X179.098 Y115.095 E33.74716
G1 X179.925 Y115.457 E33.77719
G1 X180.717 Y115.892 E33.80724
G1 X181.468 Y116.394 E33.83729
G1 X182.171 Y116.961 E33.86733
G1 X182.821 Y117.588 E33.89737
G1 X183.413 Y118.27 E33.9274
G1 X183.943 Y119.001 E33.95743
G1 X184.405 Y119.777 E33.98747
G1 X184.798 Y120.59 E34.01751
G1 X185.116 Y121.435 E34.04754
G1 X185.359 Y122.305 E34.07758
G1 X185.524 Y123.193 E34.10762
G1 X185.619 Y124.323 E34.14534
G1 X185.628 Y124.643 E34.15598
G1 X185.632 Y124.93 E34.16553
G1 X185.631 Y174.836 E35.82541
G1 X185.609 Y176.391 E35.87714
G1 X185.6 Y177.734 E35.9218
G1 X185.599 Y227.09 E37.56339
G1 X185.59 Y227.817 E37.58757
G1 X185.539 Y228.719 E37.61762
G1 X185.408 Y229.613 E37.64767
G1 X185.199 Y230.491 E37.67769
G1 X184.913 Y231.348 E37.70774
G1 X184.552 Y232.176 E37.73779
G1 X184.12 Y232.968 E37.76779
G1 X183.619 Y233.72 E37.79785
G1 X183.053 Y234.424 E37.82789
G1 X182.428 Y235.075 E37.85791
G1 X181.747 Y235.669 E37.88796
G1 X181.016 Y236.2 E37.91801
G1 X180.242 Y236.664 E37.94803
G1 X179.429 Y237.058 E37.97808
G1 X178.585 Y237.378 E38.0081
G1 X177.715 Y237.623 E38.03816
G1 X176.828 Y237.789 E38.06817
G1 X175.677 Y237.887 E38.10659
G1 X175.356 Y237.896 E38.11727
G1 X175.07 Y237.9 E38.12679
G1 X125.157 Y237.899 E39.7869
G1 X124.476 Y237.889 E39.80955
G1 X123.575 Y237.836 E39.83957
G1 X122.681 Y237.703 E39.86963
G1 X121.803 Y237.492 E39.89967
G1 X120.947 Y237.204 E39.92971
G1 X120.12 Y236.841 E39.95975
G1 X119.329 Y236.406 E39.98977
G1 X118.871 Y236.111 E40.00789
G1 X118.147 Y235.572 E40.03791
G1 X117.473 Y234.97 E40.06797
G1 X116.855 Y234.311 E40.09802
G1 X116.298 Y233.6 E40.12806
G1 X115.806 Y232.843 E40.15809
G1 X115.308 Y231.881 E40.19412
G1 X114.902 Y230.984 E40.22686
G1 X114.589 Y230.262 E40.25304
G1 X113.516 Y227.973 E40.33712
G1 X112.391 Y225.736 E40.4204
G1 X111.169 Y223.471 E40.506
G1 X109.895 Y221.261 E40.59084
G1 X108.574 Y219.111 E40.67477
G1 X107.187 Y216.99 E40.75906
G1 X105.716 Y214.877 E40.84469
G1 X104.229 Y212.863 E40.92796
G1 X102.66 Y210.858 E41.01264
G1 X101.035 Y208.899 E41.09729
G1 X99.351 Y206.983 E41.18213
G1 X97.627 Y205.128 E41.26636
G1 X95.859 Y203.332 E41.35019
G1 X94.021 Y201.568 E41.43492
G1 X92.122 Y199.845 E41.5202
G1 X90.22 Y198.215 E41.60351
G1 X88.213 Y196.591 E41.68938
G1 X86.227 Y195.076 E41.77246
G1 X84.149 Y193.581 E41.85761
G1 X82.042 Y192.153 E41.94226
G1 X79.914 Y190.798 E42.02617
G1 X77.728 Y189.492 E42.11087
G1 X75.494 Y188.24 E42.19604
G1 X73.262 Y187.072 E42.27983
G1 X70.992 Y185.965 E42.36383
G1 X68.465 Y184.82 E42.4561
G1 X68.243 Y184.724 E42.46415
G1 X67.432 Y184.328 E42.49417
G1 X66.658 Y183.861 E42.52423
G1 X65.929 Y183.328 E42.55427
G1 X65.251 Y182.732 E42.58429
G1 X64.627 Y182.079 E42.61433
G1 X64.064 Y181.373 E42.64437
G1 X63.565 Y180.62 E42.67441
G1 X63.135 Y179.826 E42.70444
G1 X62.777 Y178.997 E42.73448
G1 X62.493 Y178.14 E42.76451
G1 X62.287 Y177.26 E42.79457
G1 X62.159 Y176.366 E42.8246
G1 X62.115 Y175.686 E42.84727
G1 X62.105 Y175.363 E42.85802
G1 X62.1 Y175.047 E42.86853
G1 X62.101 Y125.117 E44.52921
G1 X62.11 Y124.449 E44.55143
G1 X62.162 Y123.547 E44.58148
G1 X62.294 Y122.654 E44.6115
G1 X62.504 Y121.775 E44.64156
G1 X62.791 Y120.919 E44.67159
G1 X63.153 Y120.091 E44.70164
G1 X63.586 Y119.299 E44.73167
G1 X64.088 Y118.548 E44.76171
G1 X64.654 Y117.845 E44.79173
G1 X65.28 Y117.194 E44.82177
G1 X65.962 Y116.601 E44.85183
G1 X66.693 Y116.071 E44.88186
G1 X67.468 Y115.608 E44.91188
G1 F2700 E39.91188
;MESH:pegboard_2x2_test_45degree_3.5mmHeight.stl
G0 F6000 X72.72 Y123.912
G0 X72.72 Y124.997
G0 X122.318 Y125.359
G0 X122.5 Y174.777
;TYPE:WALL-INNER
G1 F2700 E44.91188
G1 F1200 X72.9 Y174.777 E46.56159
G1 X72.9 Y125.177 E48.21129
G1 X122.5 Y125.177 E49.86099
G1 X122.5 Y174.777 E51.5107
G0 F6000 X122.9 Y175.177
;TYPE:WALL-OUTER
G1 F1200 X72.5 Y175.177 E53.18701
G1 X72.5 Y124.777 E54.86332
G1 X122.9 Y124.777 E56.53963
G1 X122.9 Y175.177 E58.21594
G0 F6000 X122.63 Y174.907
G0 X122.39 Y174.387
G0 X122.11 Y174.387
;TYPE:SKIN
G1 F1200 X73.29 Y174.387 E59.8397
G1 X73.29 Y125.567 E61.46346
G1 X122.11 Y125.567 E63.08722
G1 X122.11 Y174.387 E64.71098
G1 F2700 E59.71098
G0 F6000 X122.39 Y174.387
G0 X122.39 Y125.91
G1 F2700 E64.71098
G0 F6000 X121.95 Y125.91
G1 F1200 X121.766 Y125.726 E64.71963
G0 F6000 X121.2 Y125.726
G1 F1200 X121.95 Y126.475 E64.75489
G0 F6000 X121.95 Y127.041
G1 F1200 X120.635 Y125.726 E64.81674
G0 F6000 X120.069 Y125.726
G1 F1200 X121.95 Y127.607 E64.90522
G0 F6000 X121.95 Y128.173
G1 F1200 X119.503 Y125.726 E65.02032
G0 F6000 X118.938 Y125.726
G1 F1200 X121.95 Y128.738 E65.16199
G0 F6000 X121.95 Y129.304
G1 F1200 X118.372 Y125.726 E65.33029
G0 F6000 X117.806 Y125.726
G1 F1200 X121.95 Y129.87 E65.52521
G0 F6000 X121.95 Y130.435
G1 F1200 X117.241 Y125.726 E65.74671
G0 F6000 X116.675 Y125.726
G1 F1200 X121.95 Y131.001 E65.99483
G0 F6000 X121.95 Y131.567
G1 F1200 X116.109 Y125.726 E66.26957
G0 F6000 X115.544 Y125.726
G1 F1200 X121.95 Y132.132 E66.57089
G0 F6000 X121.95 Y132.698
G1 F1200 X114.978 Y125.726 E66.89883
G0 F6000 X114.412 Y125.726
G1 F1200 X121.95 Y133.264 E67.25339
G0 F6000 X121.95 Y133.829
G1 F1200 X113.847 Y125.726 E67.63453
G0 F6000 X113.281 Y125.726
G1 F1200 X121.95 Y134.395 E68.0423
G0 F6000 X121.95 Y134.961
G1 F1200 X112.715 Y125.726 E68.47668
G0 F6000 X112.149 Y125.726
G1 F1200 X121.95 Y135.526 E68.93767
G0 F6000 X121.95 Y136.092
G1 F1200 X111.584 Y125.726 E69.42525
G0 F6000 X111.018 Y125.726
G1 F1200 X121.95 Y136.658 E69.93946
G0 F6000 X121.95 Y137.223
G1 F1200 X110.452 Y125.726 E70.48027
G0 F6000 X109.887 Y125.726
G1 F1200 X121.95 Y137.789 E71.04768
G0 F6000 X121.95 Y138.355
G1 F1200 X109.321 Y125.726 E71.64171
G0 F6000 X108.755 Y125.726
G1 F1200 X121.95 Y138.921 E72.26236
G0 F6000 X121.95 Y139.486
G1 F1200 X108.19 Y125.726 E72.90959
G0 F6000 X107.624 Y125.726
G1 F1200 X121.95 Y140.052 E73.58344
G0 F6000 X121.95 Y140.618
G1 F1200 X107.058 Y125.726 E74.28391
G0 F6000 X106.493 Y125.726
G1 F1200 X121.95 Y141.183 E75.01096
G0 F6000 X121.95 Y141.749
G1 F1200 X105.927 Y125.726 E75.76463
G0 F6000 X105.361 Y125.726
G1 F1200 X121.95 Y142.315 E76.54493
G0 F6000 X121.95 Y142.88
G1 F1200 X104.796 Y125.726 E77.3518
G0 F6000 X104.23 Y125.726
G1 F1200 X121.95 Y143.446 E78.1853
G0 F6000 X121.95 Y144.012
G1 F1200 X103.664 Y125.726 E79.04541
G0 F6000 X103.098 Y125.726
G1 F1200 X121.95 Y144.577 E79.93213
G0 F6000 X121.95 Y145.143
G1 F1200 X102.533 Y125.726 E80.84545
G0 F6000 X101.967 Y125.726
G1 F1200 X121.95 Y145.709 E81.78538
G0 F6000 X121.95 Y146.274
G1 F1200 X101.401 Y125.726 E82.75192
G0 F6000 X100.836 Y125.726
G1 F1200 X121.95 Y146.84 E83.74506
G0 F6000 X121.95 Y147.406
G1 F1200 X100.27 Y125.726 E84.76482
G0 F6000 X99.704 Y125.726
