;FLAVOR:Marlin
;TIME:6823
;Filament used: 4.58127m
;Layer height: 0.2
;MINX:113.6
;MINY:61.3
;MINZ:0.2
;MAXX:186.4
;MAXY:186.442
;MAXZ:17.8
;Generated with Cura_SteamEngine master
M140 S55
M105
M190 S55
M104 S210
M105
M109 S210
M82 ;absolute extrusion mode
M201 X500.00 Y500.00 Z100.00 E5000.00 ;Setup machine max acceleration
M203 X500.00 Y500.00 Z10.00 E50.00 ;Setup machine max feedrate
M204 P500.00 R1000.00 T500.00 ;Setup Print/Retract/Travel acceleration
M205 X8.00 Y8.00 Z0.40 E5.00 ;Setup Jerk
M220 S100 ;Reset Feedrate
M221 S100 ;Reset Flowrate

G28 ;Home

G92 E0 ;Reset Extruder
G1 Z2.0 F3000 ;Move Z Axis up
G1 X10.1 Y20 Z0.28 F5000.0 ;Move to start position
G1 X10.1 Y200.0 Z0.28 F1500.0 E15 ;Draw the first line
G1 X10.4 Y200.0 Z0.28 F5000.0 ;Move to side a little
G1 X10.4 Y20 Z0.28 F1500.0 E30 ;Draw the second line
G92 E0 ;Reset Extruder
G1 Z2.0 F3000 ;Move Z Axis up

G92 E0
G92 E0
G1 F2700 E-5
;LAYER_COUNT:89
;LAYER:0
M107
G0 F6000 X115.092 Y66.793 Z0.2
;TYPE:SKIRT
G1 F2700 E0
G1 F1200 X115.596 Y66.003 E0.03117
G1 X116.166 Y65.258 E0.06237
G1 X116.798 Y64.564 E0.09359
G1 X117.486 Y63.927 E0.12477
G1 X118.226 Y63.351 E0.15596
G1 X119.012 Y62.839 E0.18716
G1 X119.839 Y62.397 E0.21835
G1 X120.701 Y62.027 E0.24955
G1 X121.591 Y61.731 E0.28074
G1 X122.503 Y61.513 E0.31193
G1 X123.43 Y61.372 E0.34312
G1 X124.301 Y61.313 E0.37216
G1 X124.622 Y61.304 E0.38284
G1 X124.93 Y61.3 E0.39308
G1 X174.693 Y61.3 E2.0482
G1 X175.549 Y61.311 E2.07668
G1 X176.485 Y61.365 E2.10786
G1 X177.413 Y61.497 E2.13904
G1 X178.327 Y61.709 E2.17024
G1 X179.219 Y61.998 E2.20143
G1 X180.084 Y62.361 E2.23263
G1 X180.914 Y62.797 E2.26381
G1 X181.705 Y63.302 E2.29503
G1 X182.449 Y63.873 E2.32622
G1 X183.142 Y64.505 E2.35742
G1 X183.779 Y65.193 E2.3886
G1 X184.354 Y65.934 E2.4198
G1 X184.865 Y66.72 E2.45098
G1 X185.307 Y67.548 E2.4822
G1 X185.676 Y68.41 E2.51338
G1 X185.971 Y69.3 E2.54457
G1 X186.189 Y70.212 E2.57575
G1 X186.329 Y71.14 E2.60697
G1 X186.387 Y72.001 E2.63567
G1 X186.396 Y72.321 E2.64632
G1 X186.4 Y72.63 E2.6566
G1 X186.4 Y122.902 E4.32865
G1 X186.395 Y124.234 E4.37295
G1 X186.4 Y124.962 E4.39717
G1 X186.399 Y174.842 E6.05618
G1 X186.39 Y175.569 E6.08037
G1 X186.339 Y176.506 E6.11158
G1 X186.207 Y177.434 E6.14275
G1 X185.998 Y178.348 E6.17394
G1 X185.711 Y179.241 E6.20513
G1 X185.349 Y180.107 E6.23635
G1 X184.915 Y180.938 E6.26753
G1 X184.411 Y181.729 E6.29873
G1 X183.842 Y182.474 E6.32991
G1 X183.211 Y183.169 E6.36113
G1 X182.524 Y183.807 E6.39231
G1 X181.785 Y184.384 E6.4235
G1 X180.999 Y184.896 E6.4547
G1 X180.173 Y185.339 E6.48587
G1 X179.311 Y185.711 E6.5171
G1 X178.422 Y186.007 E6.54826
G1 X177.51 Y186.227 E6.57947
G1 X176.583 Y186.368 E6.61065
G1 X175.699 Y186.429 E6.64012
G1 X175.378 Y186.438 E6.6508
G1 X175.07 Y186.442 E6.66105
G1 X125.165 Y186.441 E8.3209
G1 X124.467 Y186.432 E8.34411
G1 X123.531 Y186.38 E8.37529
G1 X122.602 Y186.248 E8.4065
G1 X121.688 Y186.038 E8.43769
G1 X120.795 Y185.751 E8.46889
G1 X119.93 Y185.388 E8.50009
G1 X119.099 Y184.954 E8.53127
G1 X118.308 Y184.45 E8.56247
G1 X117.563 Y183.88 E8.59367
G1 X116.869 Y183.249 E8.62487
G1 X116.232 Y182.562 E8.65603
G1 X115.655 Y181.822 E8.68724
G1 X115.143 Y181.036 E8.71844
G1 X114.7 Y180.209 E8.74964
G1 X114.329 Y179.348 E8.78082
G1 X114.033 Y178.458 E8.81202
G1 X113.814 Y177.546 E8.84321
G1 X113.673 Y176.619 E8.8744
G1 X113.613 Y175.73 E8.90404
G1 X113.604 Y175.397 E8.91512
G1 X113.6 Y175.1 E8.925
G1 X113.6 Y124.84 E10.59665
G1 X113.605 Y123.508 E10.64095
G1 X113.6 Y122.78 E10.66517
G1 X113.601 Y72.825 E12.32668
G1 X113.61 Y72.16 E12.3488
G1 X113.663 Y71.224 E12.37998
G1 X113.795 Y70.295 E12.41119
G1 X114.006 Y69.381 E12.44239
G1 X114.294 Y68.489 E12.47356
G1 X114.657 Y67.624 E12.50476
G1 X115.092 Y66.793 E12.53596
G0 F6000 X115.489 Y66.906
G1 F1200 X115.992 Y66.135 E12.56658
G1 X116.561 Y65.411 E12.59721
G1 X117.189 Y64.739 E12.6278
G1 X117.874 Y64.123 E12.65844
G1 X118.61 Y63.57 E12.68906
G1 X119.391 Y63.082 E12.71969
G1 X120.211 Y62.664 E12.7503
G1 X121.065 Y62.319 E12.78093
G1 X121.945 Y62.049 E12.81155
G1 X122.845 Y61.857 E12.84216
G1 X123.759 Y61.743 E12.87279
G1 X124.312 Y61.713 E12.89121
G1 X124.633 Y61.704 E12.90189
G1 X124.93 Y61.7 E12.91177
G1 X174.693 Y61.7 E14.5669
G1 X175.543 Y61.711 E14.59517
G1 X176.462 Y61.764 E14.62579
G1 X177.373 Y61.897 E14.65641
G1 X178.269 Y62.108 E14.68702
G1 X179.143 Y62.396 E14.71763
G1 X179.99 Y62.759 E14.74828
G1 X180.801 Y63.194 E14.77889
G1 X181.571 Y63.698 E14.8095
G1 X182.295 Y64.267 E14.84013
G1 X182.967 Y64.897 E14.87076
G1 X183.582 Y65.582 E14.90138
G1 X184.135 Y66.318 E14.932
G1 X184.622 Y67.099 E14.96261
G1 X185.039 Y67.92 E14.99324
G1 X185.384 Y68.774 E15.02387
G1 X185.653 Y69.654 E15.05448
G1 X185.845 Y70.555 E15.08512
G1 X185.958 Y71.468 E15.11572
G1 X185.987 Y72.012 E15.13384
G1 X185.996 Y72.332 E15.14448
G1 X186 Y72.63 E15.1544
G1 X186 Y122.901 E16.82642
G1 X185.995 Y124.237 E16.87085
G1 X186 Y124.965 E16.89507
G1 X185.999 Y174.837 E18.55382
G1 X185.99 Y175.564 E18.578
G1 X185.939 Y176.483 E18.60861
G1 X185.808 Y177.395 E18.63926
G1 X185.598 Y178.291 E18.66987
G1 X185.312 Y179.166 E18.70048
G1 X184.951 Y180.013 E18.73111
G1 X184.517 Y180.825 E18.76173
G1 X184.015 Y181.597 E18.79236
G1 X183.447 Y182.322 E18.82299
G1 X182.819 Y182.995 E18.85361
G1 X182.135 Y183.611 E18.88422
G1 X181.4 Y184.165 E18.91483
G1 X180.62 Y184.654 E18.94545
G1 X179.8 Y185.073 E18.97608
G1 X178.947 Y185.419 E19.0067
G1 X178.067 Y185.69 E19.03732
G1 X177.167 Y185.883 E19.06794
G1 X176.253 Y185.998 E19.09858
G1 X175.688 Y186.029 E19.1174
G1 X175.367 Y186.038 E19.12808
G1 X175.07 Y186.042 E19.13796
G1 X125.17 Y186.041 E20.79764
G1 X124.472 Y186.032 E20.82086
G1 X123.553 Y185.98 E20.85147
G1 X122.642 Y185.849 E20.88208
G1 X121.746 Y185.639 E20.91269
G1 X120.871 Y185.352 E20.94332
G1 X120.024 Y184.99 E20.97395
G1 X119.212 Y184.556 E21.00458
G1 X118.441 Y184.054 E21.03518
G1 X117.716 Y183.486 E21.06581
G1 X117.043 Y182.857 E21.09645
G1 X116.428 Y182.173 E21.12704
G1 X115.874 Y181.438 E21.15766
G1 X115.386 Y180.657 E21.18829
G1 X114.967 Y179.837 E21.21891
G1 X114.621 Y178.984 E21.24953
G1 X114.351 Y178.104 E21.28014
G1 X114.158 Y177.203 E21.31079
G1 X114.044 Y176.29 E21.34139
G1 X114.013 Y175.719 E21.36041
G1 X114.004 Y175.386 E21.37149
G1 X114 Y175.1 E21.38101
G1 X114 Y124.841 E23.05263
G1 X114.005 Y123.505 E23.09706
G1 X114 Y122.777 E23.12128
G1 X114.001 Y72.831 E24.78249
G1 X114.01 Y72.166 E24.80461
G1 X114.062 Y71.246 E24.83526
G1 X114.194 Y70.335 E24.86587
G1 X114.405 Y69.439 E24.89649
G1 X114.692 Y68.564 E24.92712
G1 X115.055 Y67.718 E24.95774
G1 X115.489 Y66.906 E24.98836
G0 F6000 X115.886 Y67.022
G1 F1200 X116.388 Y66.271 E25.0184
G1 X116.955 Y65.567 E25.04847
G1 X117.581 Y64.917 E25.07848
G1 X118.262 Y64.324 E25.10852
G1 X118.994 Y63.794 E25.13858
G1 X119.769 Y63.331 E25.1686
G1 X120.582 Y62.938 E25.19864
G1 X121.427 Y62.618 E25.22869
G1 X122.296 Y62.375 E25.2587
G1 X123.184 Y62.209 E25.28875
G1 X124.323 Y62.113 E25.32676
G1 X124.644 Y62.104 E25.33745
G1 X124.93 Y62.1 E25.34696
G1 X174.693 Y62.1 E27.00208
G1 X175.537 Y62.111 E27.03016
G1 X176.439 Y62.164 E27.06021
G1 X177.332 Y62.296 E27.09023
G1 X178.21 Y62.507 E27.12027
G1 X179.066 Y62.795 E27.15031
G1 X179.893 Y63.157 E27.18033
G1 X180.685 Y63.592 E27.21039
G1 X181.436 Y64.094 E27.24043
G1 X182.139 Y64.661 E27.27047
G1 X182.789 Y65.288 E27.30051
G1 X183.381 Y65.97 E27.33055
G1 X183.911 Y66.701 E27.36058
G1 X184.373 Y67.477 E27.39061
G1 X184.766 Y68.29 E27.42065
G1 X185.084 Y69.135 E27.45068
G1 X185.327 Y70.005 E27.48072
G1 X185.492 Y70.893 E27.51076
G1 X185.587 Y72.023 E27.54848
G1 X185.596 Y72.343 E27.55913
G1 X185.6 Y72.63 E27.56867
G1 X185.6 Y122.899 E29.24063
G1 X185.595 Y124.24 E29.28523
G1 X185.6 Y124.968 E29.30944
G1 X185.599 Y174.832 E30.96793
G1 X185.59 Y175.559 E30.99211
G1 X185.539 Y176.461 E31.02216
G1 X185.408 Y177.355 E31.05221
G1 X185.199 Y178.233 E31.08223
G1 X184.913 Y179.09 E31.11228
G1 X184.552 Y179.918 E31.14232
G1 X184.12 Y180.71 E31.17232
G1 X183.619 Y181.462 E31.20238
G1 X183.053 Y182.166 E31.23242
G1 X182.428 Y182.817 E31.26244
G1 X181.747 Y183.411 E31.29249
G1 X181.016 Y183.942 E31.32255
G1 X180.242 Y184.406 E31.35256
G1 X179.429 Y184.8 E31.38261
G1 X178.585 Y185.12 E31.41263
G1 X177.715 Y185.365 E31.44269
G1 X176.828 Y185.531 E31.47271
G1 X175.677 Y185.629 E31.51113
G1 X175.356 Y185.638 E31.52181
G1 X175.07 Y185.642 E31.53132
G1 X125.175 Y185.641 E33.19084
G1 X124.477 Y185.632 E33.21405
G1 X123.576 Y185.581 E33.24407
G1 X122.682 Y185.449 E33.27412
G1 X121.804 Y185.24 E33.30414
G1 X120.947 Y184.953 E33.3342
G1 X120.12 Y184.592 E33.36422
G1 X119.327 Y184.159 E33.39427
G1 X118.576 Y183.658 E33.42429
G1 X117.872 Y183.092 E33.45434
G1 X117.221 Y182.466 E33.48438
G1 X116.628 Y181.785 E33.51441
G1 X116.098 Y181.054 E33.54444
G1 X115.634 Y180.279 E33.57448
G1 X115.24 Y179.466 E33.60453
G1 X114.92 Y178.622 E33.63455
G1 X114.676 Y177.752 E33.66461
G1 X114.51 Y176.864 E33.69465
G1 X114.413 Y175.709 E33.7332
G1 X114.404 Y175.376 E33.74428
G1 X114.4 Y175.1 E33.75347
G1 X114.4 Y124.843 E35.42502
G1 X114.405 Y123.502 E35.46962
G1 X114.4 Y122.774 E35.49384
G1 X114.401 Y72.836 E37.15478
G1 X114.41 Y72.171 E37.1769
G1 X114.462 Y71.269 E37.20695
G1 X114.594 Y70.376 E37.23698
G1 X114.804 Y69.498 E37.267
G1 X115.091 Y68.641 E37.29706
G1 X115.453 Y67.814 E37.32709
G1 X115.886 Y67.022 E37.35711
G1 F2700 E32.35711
;MESH:pegboard_2x2_test_45degree_2mm-depth.stl
G0 F6000 X123.935 Y72.72
G0 X125.02 Y72.72
G0 X174.618 Y73.082
G0 X174.8 Y122.5
;TYPE:WALL-INNER
G1 F2700 E37.35711
G1 F1200 X125.2 Y122.5 E39.00681
G1 X125.2 Y72.9 E40.65651
G1 X174.8 Y72.9 E42.30622
G1 X174.8 Y122.5 E43.95592
G0 F6000 X175.2 Y122.9
;TYPE:WALL-OUTER
G1 F1200 X124.8 Y122.9 E45.63223
G1 X124.8 Y72.5 E47.30854
G1 X175.2 Y72.5 E48.98485
G1 X175.2 Y122.9 E50.66116
G0 F6000 X174.93 Y122.63
G0 X174.69 Y122.11
G0 X174.41 Y122.11
;TYPE:SKIN
G1 F1200 X125.59 Y122.11 E52.28492
G1 X125.59 Y73.29 E53.90868
G1 X174.41 Y73.29 E55.53244
G1 X174.41 Y122.11 E57.1562
G1 F2700 E52.1562
G0 F6000 X174.69 Y122.11
G0 X174.69 Y73.557
G1 F2700 E57.1562
G0 F6000 X174.249 Y73.557
G1 F1200 X174.142 Y73.45 E57.16123
G0 F6000 X173.576 Y73.45
G1 F1200 X174.249 Y74.123 E57.19289
G0 F6000 X174.249 Y74.688
G1 F1200 X173.01 Y73.45 E57.25115
G0 F6000 X172.444 Y73.45
G1 F1200 X174.249 Y75.254 E57.33602
G0 F6000 X174.249 Y75.82
G1 F1200 X171.879 Y73.45 E57.4475
G0 F6000 X171.313 Y73.45
G1 F1200 X174.249 Y76.385 E57.58558
G0 F6000 X174.249 Y76.951
G1 F1200 X170.747 Y73.45 E57.75028
G0 F6000 X170.182 Y73.45
G1 F1200 X174.249 Y77.517 E57.94158
G0 F6000 X174.249 Y78.082
G1 F1200 X169.616 Y73.45 E58.15948
G0 F6000 X169.05 Y73.45
G1 F1200 X174.249 Y78.648 E58.404
G0 F6000 X174.249 Y79.214
G1 F1200 X168.485 Y73.45 E58.67512
G0 F6000 X167.919 Y73.45
G1 F1200 X174.249 Y79.78 E58.97286
G0 F6000 X174.249 Y80.345
G1 F1200 X167.353 Y73.45 E59.29721
G0 F6000 X166.788 Y73.45
G1 F1200 X174.249 Y80.911 E59.64815
G0 F6000 X174.249 Y81.477
G1 F1200 X166.222 Y73.45 E60.02571
G0 F6000 X165.656 Y73.45
G1 F1200 X174.249 Y82.042 E60.42988
G0 F6000 X174.249 Y82.608
G1 F1200 X165.091 Y73.45 E60.86064
G0 F6000 X164.525 Y73.45
G1 F1200 X174.249 Y83.174 E61.31803
G0 F6000 X174.249 Y83.739
G1 F1200 X163.959 Y73.45 E61.80202
G0 F6000 X163.393 Y73.45
G1 F1200 X174.249 Y84.305 E62.31263
G0 F6000 X174.249 Y84.871
G1 F1200 X162.828 Y73.45 E62.84983
G0 F6000 X162.262 Y73.45
G1 F1200 X174.249 Y85.436 E63.41364
G0 F6000 X174.249 Y86.002
G1 F1200 X161.696 Y73.45 E64.00407
G0 F6000 X161.131 Y73.45
G1 F1200 X174.249 Y86.568 E64.6211
G0 F6000 X174.249 Y87.133
G1 F1200 X160.565 Y73.45 E65.26473
G0 F6000 X159.999 Y73.45
G1 F1200 X174.249 Y87.699 E65.93499
G0 F6000 X174.249 Y88.265
G1 F1200 X159.434 Y73.45 E66.63184
G0 F6000 X158.868 Y73.45
G1 F1200 X174.249 Y88.83 E67.35529
G0 F6000 X174.249 Y89.396
G1 F1200 X158.302 Y73.45 E68.10537
G0 F6000 X157.737 Y73.45
G1 F1200 X174.249 Y89.962 E68.88204
G0 F6000 X174.249 Y90.528
G1 F1200 X157.171 Y73.45 E69.68534
G0 F6000 X156.605 Y73.45
G1 F1200 X174.249 Y91.093 E70.51523
G0 F6000 X174.249 Y91.659
G1 F1200 X156.04 Y73.45 E71.37173
G0 F6000 X155.474 Y73.45
G1 F1200 X174.249 Y92.225 E72.25485
G0 F6000 X174.249 Y92.79
G1 F1200 X154.908 Y73.45 E73.16456
G0 F6000 X154.343 Y73.45
G1 F1200 X174.249 Y93.356 E74.10088
G0 F6000 X174.249 Y93.922
G1 F1200 X153.777 Y73.45 E75.06382
G0 F6000 X153.211 Y73.45
G1 F1200 X174.249 Y94.487 E76.05336
G0 F6000 X174.249 Y95.053
G1 F1200 X152.645 Y73.45 E77.06952
G0 F6000 X152.08 Y73.45
G1 F1200 X174.249 Y95.619 E78.11228
G0 F6000 X174.249 Y96.184
G1 F1200 X151.514 Y73.45 E79.18165
G0 F6000 X150.948 Y73.45
G1 F1200 X174.249 Y96.75 E80.27763
G0 F6000 X174.249 Y97.316
G1 F1200 X150.383 Y73.45 E81.40021
G0 F6000 X149.817 Y73.45
G1 F1200 X174.249 Y97.881 E82.5494
G0 F6000 X174.249 Y98.447
G1 F1200 X149.251 Y73.45 E83.7252
G0 F6000 X148.686 Y73.45
G1 F1200 X174.249 Y99.013 E84.92761
G0 F6000 X174.249 Y99.579
G1 F1200 X148.12 Y73.45 E86.15664
G0 F6000 X147.554 Y73.45
G1 F1200 X174.249 Y100.144 E87.41226
G0 F6000 X174.249 Y100.71
G1 F1200 X146.989 Y73.45 E88.69449
G0 F6000 X146.423 Y73.45
G1 F1200 X174.249 Y101.276 E90.00334
G0 F6000 X174.249 Y101.841
G1 F1200 X145.857 Y73.45 E91.33879
G0 F6000 X145.292 Y73.45
G1 F1200 X174.249 Y102.407 E92.70084
G0 F6000 X174.249 Y102.973
G1 F1200 X144.726 Y73.45 E94.08951
G0 F6000 X144.16 Y73.45
G1 F1200 X174.249 Y103.538 E95.50478
G0 F6000 X174.249 Y104.104
G1 F1200 X143.595 Y73.45 E96.94665
G0 F6000 X143.029 Y73.45
G1 F1200 X174.249 Y104.67 E98.41514
G0 F6000 X174.249 Y105.235
G1 F1200 X142.463 Y73.45 E99.91023
G0 F6000 X141.897 Y73.45
G1 F1200 X174.249 Y105.801 E101.43195
G0 F6000 X174.249 Y106.367
G1 F1200 X141.332 Y73.45 E102.98027
G0 F6000 X140.766 Y73.45
G1 F1200 X174.249 Y106.932 E104.55518
G0 F6000 X174.249 Y107.498
G1 F1200 X140.2 Y73.45 E106.15672
G0 F6000 X139.635 Y73.45
G1 F1200 X174.249 Y108.064 E107.78485
G0 F6000 X174.249 Y108.629
G1 F1200 X139.069 Y73.45 E109.43959
G0 F6000 X138.503 Y73.45
G1 F1200 X174.249 Y109.195 E111.12095
G0 F6000 X174.249 Y109.761
G1 F1200 X137.938 Y73.45 E112.82891
G0 F6000 X137.372 Y73.45
G1 F1200 X174.249 Y110.327 E114.56349
G0 F6000 X174.249 Y110.892
G1 F1200 X136.806 Y73.45 E116.32467
G0 F6000 X136.241 Y73.45
G1 F1200 X174.249 Y111.458 E118.11245
G0 F6000 X174.249 Y112.024
G1 F1200 X135.675 Y73.45 E119.92685
G0 F6000 X135.109 Y73.45
G1 F1200 X174.249 Y112.589 E121.76785
G0 F6000 X174.249 Y113.155
G1 F1200 X134.544 Y73.45 E123.63545
G0 F6000 X133.978 Y73.45
G1 F1200 X174.249 Y113.721 E125.52968
G0 F6000 X174.249 Y114.286
G1 F1200 X133.412 Y73.45 E127.4505
G0 F6000 X132.846 Y73.45
G1 F1200 X174.249 Y114.852 E129.39795
G0 F6000 X174.249 Y115.418
G1 F1200 X132.281 Y73.45 E131.37199
G0 F6000 X131.715 Y73.45
G1 F1200 X174.249 Y115.983 E133.37264
G0 F6000 X174.249 Y116.549
G1 F1200 X131.149 Y73.45 E135.39991
G0 F6000 X130.584 Y73.45
G1 F1200 X174.249 Y117.115 E137.45378
G0 F6000 X174.249 Y117.68
G1 F1200 X130.018 Y73.45 E139.53424
G0 F6000 X129.452 Y73.45
G1 F1200 X174.249 Y118.246 E141.64133
G0 F6000 X174.249 Y118.812
G1 F1200 X128.887 Y73.45 E143.77502
G0 F6000 X128.321 Y73.45
G1 F1200 X174.249 Y119.378 E145.93533
G0 F6000 X174.249 Y119.943
G1 F1200 X127.755 Y73.45 E148.12225
G0 F6000 X127.19 Y73.45
G1 F1200 X174.249 Y120.509 E150.33576
G0 F6000 X174.249 Y121.075
G1 F1200 X126.624 Y73.45 E152.57589
G0 F6000 X126.058 Y73.45
G1 F1200 X174.249 Y121.64 E154.84262
G0 F6000 X173.992 Y121.949
G1 F1200 X125.749 Y73.705 E157.11185
G0 F6000 X125.749 Y74.271
G1 F1200 X173.427 Y121.949 E159.35448
G0 F6000 X172.861 Y121.949
G1 F1200 X125.749 Y74.837 E161.57048
G0 F6000 X125.749 Y75.403
G1 F1200 X172.295 Y121.949 E163.75986
G0 F6000 X171.73 Y121.949
G1 F1200 X125.749 Y75.968 E165.92267
G0 F6000 X125.749 Y76.534
G1 F1200 X171.164 Y121.949 E168.05885
G0 F6000 X170.598 Y121.949
G1 F1200 X125.749 Y77.1 E170.16841
G0 F6000 X125.749 Y77.665
G1 F1200 X170.033 Y121.949 E172.25139
G0 F6000 X169.467 Y121.949
G1 F1200 X125.749 Y78.231 E174.30775
G0 F6000 X125.749 Y78.797
G1 F1200 X168.901 Y121.949 E176.33749
G0 F6000 X168.335 Y121.949
