;FLAVOR:Marlin
;TIME:5963
;Filament used: 4.05933m
;Layer height: 0.2
;MINX:113.6
;MINY:61.3
;MINZ:0.2
;MAXX:186.4
;MAXY:186.4
;MAXZ:13.4
;Generated with Cura_SteamEngine master
M140 S55
M105
M190 S55
M104 S210
M105
M109 S210
M82 ;absolute extrusion mode
M201 X500.00 Y500.00 Z100.00 E5000.00 ;Setup machine max acceleration
M203 X500.00 Y500.00 Z10.00 E50.00 ;Setup machine max feedrate
M204 P500.00 R1000.00 T500.00 ;Setup Print/Retract/Travel acceleration
M205 X8.00 Y8.00 Z0.40 E5.00 ;Setup Jerk
M220 S100 ;Reset Feedrate
M221 S100 ;Reset Flowrate

G28 ;Home

G92 E0 ;Reset Extruder
G1 Z2.0 F3000 ;Move Z Axis up
G1 X10.1 Y20 Z0.28 F5000.0 ;Move to start position
G1 X10.1 Y200.0 Z0.28 F1500.0 E15 ;Draw the first line
G1 X10.4 Y200.0 Z0.28 F5000.0 ;Move to side a little
G1 X10.4 Y20 Z0.28 F1500.0 E30 ;Draw the second line
G92 E0 ;Reset Extruder
G1 Z2.0 F3000 ;Move Z Axis up

G92 E0
G92 E0
G1 F2700 E-5
;LAYER_COUNT:68
;LAYER:0
M107
G0 F6000 X115.092 Y66.793 Z0.2
;TYPE:SKIRT
G1 F2700 E0
G1 F1200 X115.596 Y66.003 E0.03117
G1 X116.166 Y65.258 E0.06237
G1 X116.798 Y64.564 E0.09359
G1 X117.486 Y63.927 E0.12477
G1 X118.226 Y63.351 E0.15596
G1 X119.012 Y62.839 E0.18716
G1 X119.839 Y62.397 E0.21835
G1 X120.701 Y62.027 E0.24955
G1 X121.591 Y61.731 E0.28074
G1 X122.503 Y61.513 E0.31193
G1 X123.43 Y61.372 E0.34312
G1 X124.301 Y61.313 E0.37216
G1 X124.622 Y61.304 E0.38284
G1 X124.93 Y61.3 E0.39308
G1 X174.693 Y61.3 E2.0482
G1 X175.549 Y61.311 E2.07668
G1 X176.485 Y61.365 E2.10786
G1 X177.413 Y61.497 E2.13904
G1 X178.327 Y61.709 E2.17024
G1 X179.219 Y61.998 E2.20143
G1 X180.084 Y62.361 E2.23263
G1 X180.914 Y62.797 E2.26381
G1 X181.705 Y63.302 E2.29503
G1 X182.449 Y63.873 E2.32622
G1 X183.142 Y64.505 E2.35742
G1 X183.779 Y65.193 E2.3886
G1 X184.354 Y65.934 E2.4198
G1 X184.865 Y66.72 E2.45098
G1 X185.307 Y67.548 E2.4822
G1 X185.676 Y68.41 E2.51338
G1 X185.971 Y69.3 E2.54457
G1 X186.189 Y70.212 E2.57575
G1 X186.329 Y71.14 E2.60697
G1 X186.387 Y72.001 E2.63567
G1 X186.396 Y72.321 E2.64632
G1 X186.4 Y72.63 E2.6566
G1 X186.4 Y122.866 E4.32745
G1 X186.395 Y124.237 E4.37305
G1 X186.4 Y124.945 E4.3966
G1 X186.399 Y174.8 E6.05479
G1 X186.39 Y175.527 E6.07897
G1 X186.339 Y176.464 E6.11018
G1 X186.207 Y177.392 E6.14136
G1 X185.998 Y178.306 E6.17254
G1 X185.711 Y179.199 E6.20374
G1 X185.349 Y180.065 E6.23496
G1 X184.915 Y180.896 E6.26614
G1 X184.411 Y181.687 E6.29733
G1 X183.842 Y182.432 E6.32851
G1 X183.211 Y183.127 E6.35973
G1 X182.524 Y183.765 E6.39092
G1 X181.785 Y184.342 E6.4221
G1 X180.999 Y184.854 E6.4533
G1 X180.173 Y185.297 E6.48448
G1 X179.311 Y185.669 E6.5157
G1 X178.422 Y185.965 E6.54687
G1 X177.51 Y186.185 E6.57807
G1 X176.583 Y186.326 E6.60926
G1 X175.699 Y186.387 E6.63873
G1 X175.378 Y186.396 E6.64941
G1 X175.07 Y186.4 E6.65965
G1 X125.165 Y186.399 E8.3195
G1 X124.467 Y186.39 E8.34272
G1 X123.531 Y186.338 E8.3739
G1 X122.602 Y186.206 E8.40511
G1 X121.688 Y185.996 E8.4363
G1 X120.795 Y185.709 E8.4675
G1 X119.93 Y185.346 E8.4987
G1 X119.099 Y184.912 E8.52988
G1 X118.308 Y184.408 E8.56107
G1 X117.563 Y183.838 E8.59227
G1 X116.869 Y183.207 E8.62347
G1 X116.232 Y182.52 E8.65463
G1 X115.655 Y181.78 E8.68584
G1 X115.143 Y180.994 E8.71704
G1 X114.7 Y180.167 E8.74824
G1 X114.329 Y179.306 E8.77943
G1 X114.033 Y178.416 E8.81062
G1 X113.814 Y177.504 E8.84182
G1 X113.673 Y176.577 E8.873
G1 X113.613 Y175.688 E8.90264
G1 X113.604 Y175.355 E8.91372
G1 X113.6 Y175.058 E8.9236
G1 X113.6 Y124.834 E10.59406
G1 X113.605 Y123.463 E10.63966
G1 X113.6 Y122.755 E10.6632
G1 X113.601 Y72.825 E12.32388
G1 X113.61 Y72.16 E12.346
G1 X113.663 Y71.224 E12.37718
G1 X113.795 Y70.295 E12.40839
G1 X114.006 Y69.381 E12.43959
G1 X114.294 Y68.489 E12.47077
G1 X114.657 Y67.624 E12.50197
G1 X115.092 Y66.793 E12.53317
G0 F6000 X115.489 Y66.906
G1 F1200 X115.992 Y66.135 E12.56378
G1 X116.561 Y65.411 E12.59441
G1 X117.189 Y64.739 E12.625
G1 X117.874 Y64.123 E12.65564
G1 X118.61 Y63.57 E12.68626
G1 X119.391 Y63.082 E12.71689
G1 X120.211 Y62.664 E12.74751
G1 X121.065 Y62.319 E12.77814
G1 X121.945 Y62.049 E12.80876
G1 X122.845 Y61.857 E12.83936
G1 X123.759 Y61.743 E12.87
G1 X124.312 Y61.713 E12.88842
G1 X124.633 Y61.704 E12.8991
G1 X124.93 Y61.7 E12.90898
G1 X174.693 Y61.7 E14.5641
G1 X175.543 Y61.711 E14.59238
G1 X176.462 Y61.764 E14.62299
G1 X177.373 Y61.897 E14.65361
G1 X178.269 Y62.108 E14.68423
G1 X179.143 Y62.396 E14.71484
G1 X179.99 Y62.759 E14.74549
G1 X180.801 Y63.194 E14.7761
G1 X181.571 Y63.698 E14.8067
G1 X182.295 Y64.267 E14.83733
G1 X182.967 Y64.897 E14.86797
G1 X183.582 Y65.582 E14.89859
G1 X184.135 Y66.318 E14.92921
G1 X184.622 Y67.099 E14.95982
G1 X185.039 Y67.92 E14.99045
G1 X185.384 Y68.774 E15.02108
G1 X185.653 Y69.654 E15.05169
G1 X185.845 Y70.555 E15.08233
G1 X185.958 Y71.468 E15.11292
G1 X185.987 Y72.012 E15.13104
G1 X185.996 Y72.332 E15.14169
G1 X186 Y72.63 E15.1516
G1 X186 Y122.865 E16.82243
G1 X185.995 Y124.24 E16.86816
G1 X186 Y124.948 E16.89171
G1 X185.999 Y174.795 E18.54963
G1 X185.99 Y175.522 E18.57381
G1 X185.939 Y176.441 E18.60442
G1 X185.808 Y177.353 E18.63507
G1 X185.598 Y178.249 E18.66567
G1 X185.312 Y179.124 E18.69629
G1 X184.951 Y179.971 E18.72692
G1 X184.517 Y180.783 E18.75754
G1 X184.015 Y181.555 E18.78817
G1 X183.447 Y182.28 E18.8188
G1 X182.819 Y182.953 E18.84941
G1 X182.135 Y183.569 E18.88003
G1 X181.4 Y184.123 E18.91064
G1 X180.62 Y184.612 E18.94126
G1 X179.8 Y185.031 E18.97189
G1 X178.947 Y185.377 E19.00251
G1 X178.067 Y185.648 E19.03313
G1 X177.167 Y185.841 E19.06375
G1 X176.253 Y185.956 E19.09439
G1 X175.688 Y185.987 E19.11321
G1 X175.367 Y185.996 E19.12389
G1 X175.07 Y186 E19.13377
G1 X125.17 Y185.999 E20.79345
G1 X124.472 Y185.99 E20.81666
G1 X123.553 Y185.938 E20.84728
G1 X122.642 Y185.807 E20.87789
G1 X121.746 Y185.597 E20.9085
G1 X120.871 Y185.31 E20.93913
G1 X120.024 Y184.948 E20.96976
G1 X119.212 Y184.514 E21.00039
G1 X118.441 Y184.012 E21.03099
G1 X117.716 Y183.444 E21.06162
G1 X117.043 Y182.815 E21.09226
G1 X116.428 Y182.131 E21.12285
G1 X115.874 Y181.396 E21.15346
G1 X115.386 Y180.615 E21.18409
G1 X114.967 Y179.795 E21.21472
G1 X114.621 Y178.942 E21.24534
G1 X114.351 Y178.062 E21.27595
G1 X114.158 Y177.161 E21.3066
G1 X114.044 Y176.248 E21.3372
G1 X114.013 Y175.677 E21.35622
G1 X114.004 Y175.344 E21.3673
G1 X114 Y175.058 E21.37682
G1 X114 Y124.835 E23.04724
G1 X114.005 Y123.46 E23.09297
G1 X114 Y122.752 E23.11652
G1 X114.001 Y72.831 E24.7769
G1 X114.01 Y72.166 E24.79902
G1 X114.062 Y71.246 E24.82967
G1 X114.194 Y70.335 E24.86029
G1 X114.405 Y69.439 E24.8909
G1 X114.692 Y68.564 E24.92153
G1 X115.055 Y67.718 E24.95215
G1 X115.489 Y66.906 E24.98277
G0 F6000 X115.886 Y67.022
G1 F1200 X116.388 Y66.271 E25.01282
G1 X116.955 Y65.567 E25.04288
G1 X117.581 Y64.917 E25.0729
G1 X118.262 Y64.324 E25.10293
G1 X118.994 Y63.794 E25.13299
G1 X119.769 Y63.331 E25.16301
G1 X120.582 Y62.938 E25.19305
G1 X121.427 Y62.618 E25.2231
G1 X122.296 Y62.375 E25.25311
G1 X123.184 Y62.209 E25.28316
G1 X124.323 Y62.113 E25.32118
G1 X124.644 Y62.104 E25.33186
G1 X124.93 Y62.1 E25.34137
G1 X174.693 Y62.1 E26.9965
G1 X175.537 Y62.111 E27.02457
G1 X176.439 Y62.164 E27.05462
G1 X177.332 Y62.296 E27.08465
G1 X178.21 Y62.507 E27.11468
G1 X179.066 Y62.795 E27.14472
G1 X179.893 Y63.157 E27.17474
G1 X180.685 Y63.592 E27.2048
G1 X181.436 Y64.094 E27.23484
G1 X182.139 Y64.661 E27.26488
G1 X182.789 Y65.288 E27.29492
G1 X183.381 Y65.97 E27.32496
G1 X183.911 Y66.701 E27.35499
G1 X184.373 Y67.477 E27.38503
G1 X184.766 Y68.29 E27.41506
G1 X185.084 Y69.135 E27.44509
G1 X185.327 Y70.005 E27.47513
G1 X185.492 Y70.893 E27.50517
G1 X185.587 Y72.023 E27.54289
G1 X185.596 Y72.343 E27.55354
G1 X185.6 Y72.63 E27.56308
G1 X185.6 Y122.863 E29.23384
G1 X185.595 Y124.243 E29.27974
G1 X185.6 Y124.951 E29.30329
G1 X185.599 Y174.79 E30.96094
G1 X185.59 Y175.517 E30.98512
G1 X185.539 Y176.419 E31.01517
G1 X185.408 Y177.313 E31.04522
G1 X185.199 Y178.191 E31.07524
G1 X184.913 Y179.048 E31.10529
G1 X184.552 Y179.876 E31.13533
G1 X184.12 Y180.668 E31.16534
G1 X183.619 Y181.42 E31.19539
G1 X183.053 Y182.124 E31.22544
G1 X182.428 Y182.775 E31.25545
G1 X181.747 Y183.369 E31.28551
G1 X181.016 Y183.9 E31.31556
G1 X180.242 Y184.364 E31.34558
G1 X179.429 Y184.758 E31.37562
G1 X178.585 Y185.078 E31.40565
G1 X177.715 Y185.323 E31.43571
G1 X176.828 Y185.489 E31.46572
G1 X175.677 Y185.587 E31.50414
G1 X175.356 Y185.596 E31.51482
G1 X175.07 Y185.6 E31.52434
G1 X125.175 Y185.599 E33.18385
G1 X124.477 Y185.59 E33.20707
G1 X123.576 Y185.539 E33.23708
G1 X122.682 Y185.407 E33.26714
G1 X121.804 Y185.198 E33.29716
G1 X120.947 Y184.911 E33.32722
G1 X120.12 Y184.55 E33.35723
G1 X119.327 Y184.117 E33.38728
G1 X118.576 Y183.616 E33.41731
G1 X117.872 Y183.05 E33.44735
G1 X117.221 Y182.424 E33.47739
G1 X116.628 Y181.743 E33.50743
G1 X116.098 Y181.012 E33.53746
G1 X115.634 Y180.237 E33.5675
G1 X115.24 Y179.424 E33.59755
G1 X114.92 Y178.58 E33.62757
G1 X114.676 Y177.71 E33.65762
G1 X114.51 Y176.822 E33.68767
G1 X114.413 Y175.667 E33.72622
G1 X114.404 Y175.334 E33.7373
G1 X114.4 Y175.058 E33.74648
G1 X114.4 Y124.837 E35.41684
G1 X114.405 Y123.457 E35.46274
G1 X114.4 Y122.749 E35.48629
G1 X114.401 Y72.836 E37.1464
G1 X114.41 Y72.171 E37.16852
G1 X114.462 Y71.269 E37.19857
G1 X114.594 Y70.376 E37.22859
G1 X114.804 Y69.498 E37.25862
G1 X115.091 Y68.641 E37.28868
G1 X115.453 Y67.814 E37.31871
G1 X115.886 Y67.022 E37.34873
G1 F2700 E32.34873
;MESH:pegboard_2x2_test_45degree_2.5mmHeight.stl
G0 F6000 X123.935 Y72.72
G0 X125.02 Y72.72
G0 X174.618 Y73.082
G0 X174.8 Y122.5
;TYPE:WALL-INNER
G1 F2700 E37.34873
G1 F1200 X125.2 Y122.5 E38.99843
G1 X125.2 Y72.9 E40.64813
G1 X174.8 Y72.9 E42.29784
G1 X174.8 Y122.5 E43.94754
G0 F6000 X175.2 Y122.9
;TYPE:WALL-OUTER
G1 F1200 X124.8 Y122.9 E45.62385
G1 X124.8 Y72.5 E47.30016
G1 X175.2 Y72.5 E48.97647
G1 X175.2 Y122.9 E50.65278
G0 F6000 X174.93 Y122.63
G0 X174.69 Y122.11
G0 X174.41 Y122.11
;TYPE:SKIN
G1 F1200 X125.59 Y122.11 E52.27654
G1 X125.59 Y73.29 E53.9003
G1 X174.41 Y73.29 E55.52406
G1 X174.41 Y122.11 E57.14782
G1 F2700 E52.14782
G0 F6000 X174.69 Y122.11
G0 X174.69 Y73.557
G1 F2700 E57.14782
G0 F6000 X174.249 Y73.557
G1 F1200 X174.142 Y73.45 E57.15285
G0 F6000 X173.576 Y73.45
G1 F1200 X174.249 Y74.123 E57.18451
G0 F6000 X174.249 Y74.688
G1 F1200 X173.01 Y73.45 E57.24276
G0 F6000 X172.444 Y73.45
G1 F1200 X174.249 Y75.254 E57.32764
G0 F6000 X174.249 Y75.82
G1 F1200 X171.879 Y73.45 E57.43912
G0 F6000 X171.313 Y73.45
G1 F1200 X174.249 Y76.385 E57.5772
G0 F6000 X174.249 Y76.951
G1 F1200 X170.747 Y73.45 E57.7419
G0 F6000 X170.182 Y73.45
G1 F1200 X174.249 Y77.517 E57.9332
G0 F6000 X174.249 Y78.082
G1 F1200 X169.616 Y73.45 E58.15109
G0 F6000 X169.05 Y73.45
G1 F1200 X174.249 Y78.648 E58.39562
G0 F6000 X174.249 Y79.214
G1 F1200 X168.485 Y73.45 E58.66674
G0 F6000 X167.919 Y73.45
G1 F1200 X174.249 Y79.78 E58.96448
G0 F6000 X174.249 Y80.345
G1 F1200 X167.353 Y73.45 E59.28882
G0 F6000 X166.788 Y73.45
G1 F1200 X174.249 Y80.911 E59.63977
G0 F6000 X174.249 Y81.477
G1 F1200 X166.222 Y73.45 E60.01733
G0 F6000 X165.656 Y73.45
G1 F1200 X174.249 Y82.042 E60.4215
G0 F6000 X174.249 Y82.608
G1 F1200 X165.091 Y73.45 E60.85226
G0 F6000 X164.525 Y73.45
G1 F1200 X174.249 Y83.174 E61.30965
G0 F6000 X174.249 Y83.739
G1 F1200 X163.959 Y73.45 E61.79363
G0 F6000 X163.393 Y73.45
G1 F1200 X174.249 Y84.305 E62.30424
G0 F6000 X174.249 Y84.871
G1 F1200 X162.828 Y73.45 E62.84145
G0 F6000 X162.262 Y73.45
G1 F1200 X174.249 Y85.436 E63.40526
G0 F6000 X174.249 Y86.002
G1 F1200 X161.696 Y73.45 E63.99569
G0 F6000 X161.131 Y73.45
G1 F1200 X174.249 Y86.568 E64.61272
G0 F6000 X174.249 Y87.133
G1 F1200 X160.565 Y73.45 E65.25635
G0 F6000 X159.999 Y73.45
G1 F1200 X174.249 Y87.699 E65.92661
G0 F6000 X174.249 Y88.265
G1 F1200 X159.434 Y73.45 E66.62346
G0 F6000 X158.868 Y73.45
G1 F1200 X174.249 Y88.83 E67.34691
G0 F6000 X174.249 Y89.396
G1 F1200 X158.302 Y73.45 E68.09698
G0 F6000 X157.737 Y73.45
G1 F1200 X174.249 Y89.962 E68.87366
G0 F6000 X174.249 Y90.528
G1 F1200 X157.171 Y73.45 E69.67695
G0 F6000 X156.605 Y73.45
G1 F1200 X174.249 Y91.093 E70.50685
G0 F6000 X174.249 Y91.659
G1 F1200 X156.04 Y73.45 E71.36335
G0 F6000 X155.474 Y73.45
G1 F1200 X174.249 Y92.225 E72.24646
G0 F6000 X174.249 Y92.79
G1 F1200 X154.908 Y73.45 E73.15618
G0 F6000 X154.343 Y73.45
G1 F1200 X174.249 Y93.356 E74.0925
G0 F6000 X174.249 Y93.922
G1 F1200 X153.777 Y73.45 E75.05544
G0 F6000 X153.211 Y73.45
G1 F1200 X174.249 Y94.487 E76.04498
G0 F6000 X174.249 Y95.053
G1 F1200 X152.645 Y73.45 E77.06114
G0 F6000 X152.08 Y73.45
G1 F1200 X174.249 Y95.619 E78.1039
G0 F6000 X174.249 Y96.184
G1 F1200 X151.514 Y73.45 E79.17326
G0 F6000 X150.948 Y73.45
G1 F1200 X174.249 Y96.75 E80.26925
G0 F6000 X174.249 Y97.316
G1 F1200 X150.383 Y73.45 E81.39183
G0 F6000 X149.817 Y73.45
G1 F1200 X174.249 Y97.881 E82.54101
G0 F6000 X174.249 Y98.447
G1 F1200 X149.251 Y73.45 E83.71682
G0 F6000 X148.686 Y73.45
G1 F1200 X174.249 Y99.013 E84.91923
G0 F6000 X174.249 Y99.579
G1 F1200 X148.12 Y73.45 E86.14825
G0 F6000 X147.554 Y73.45
G1 F1200 X174.249 Y100.144 E87.40388
G0 F6000 X174.249 Y100.71
G1 F1200 X146.989 Y73.45 E88.68611
G0 F6000 X146.423 Y73.45
G1 F1200 X174.249 Y101.276 E89.99496
G0 F6000 X174.249 Y101.841
G1 F1200 X145.857 Y73.45 E91.33041
G0 F6000 X145.292 Y73.45
G1 F1200 X174.249 Y102.407 E92.69246
G0 F6000 X174.249 Y102.973
G1 F1200 X144.726 Y73.45 E94.08113
G0 F6000 X144.16 Y73.45
G1 F1200 X174.249 Y103.538 E95.4964
G0 F6000 X174.249 Y104.104
G1 F1200 X143.595 Y73.45 E96.93827
G0 F6000 X143.029 Y73.45
G1 F1200 X174.249 Y104.67 E98.40676
G0 F6000 X174.249 Y105.235
G1 F1200 X142.463 Y73.45 E99.90185
G0 F6000 X141.897 Y73.45
G1 F1200 X174.249 Y105.801 E101.42357
G0 F6000 X174.249 Y106.367
G1 F1200 X141.332 Y73.45 E102.97188
G0 F6000 X140.766 Y73.45
G1 F1200 X174.249 Y106.932 E104.5468
G0 F6000 X174.249 Y107.498
G1 F1200 X140.2 Y73.45 E106.14833
G0 F6000 X139.635 Y73.45
G1 F1200 X174.249 Y108.064 E107.77647
G0 F6000 X174.249 Y108.629
G1 F1200 X139.069 Y73.45 E109.43121
G0 F6000 X138.503 Y73.45
G1 F1200 X174.249 Y109.195 E111.11257
G0 F6000 X174.249 Y109.761
G1 F1200 X137.938 Y73.45 E112.82052
G0 F6000 X137.372 Y73.45
G1 F1200 X174.249 Y110.327 E114.5551
G0 F6000 X174.249 Y110.892
G1 F1200 X136.806 Y73.45 E116.31629
G0 F6000 X136.241 Y73.45
G1 F1200 X174.249 Y111.458 E118.10407
G0 F6000 X174.249 Y112.024
G1 F1200 X135.675 Y73.45 E119.91847
G0 F6000 X135.109 Y73.45
G1 F1200 X174.249 Y112.589 E121.75947
G0 F6000 X174.249 Y113.155
G1 F1200 X134.544 Y73.45 E123.62707
G0 F6000 X133.978 Y73.45
G1 F1200 X174.249 Y113.721 E125.5213
G0 F6000 X174.249 Y114.286
G1 F1200 X133.412 Y73.45 E127.44212
G0 F6000 X132.846 Y73.45
G1 F1200 X174.249 Y114.852 E129.38957
G0 F6000 X174.249 Y115.418
G1 F1200 X132.281 Y73.45 E131.36361
G0 F6000 X131.715 Y73.45
G1 F1200 X174.249 Y115.983 E133.36426
G0 F6000 X174.249 Y116.549
G1 F1200 X131.149 Y73.45 E135.39153
G0 F6000 X130.584 Y73.45
G1 F1200 X174.249 Y117.115 E137.44539
G0 F6000 X174.249 Y117.68
G1 F1200 X130.018 Y73.45 E139.52586
G0 F6000 X129.452 Y73.45
G1 F1200 X174.249 Y118.246 E141.63295
G0 F6000 X174.249 Y118.812
G1 F1200 X128.887 Y73.45 E143.76664
G0 F6000 X128.321 Y73.45
G1 F1200 X174.249 Y119.378 E145.92695
G0 F6000 X174.249 Y119.943
G1 F1200 X127.755 Y73.45 E148.11386
G0 F6000 X127.19 Y73.45
G1 F1200 X174.249 Y120.509 E150.32738
G0 F6000 X174.249 Y121.075
G1 F1200 X126.624 Y73.45 E152.56751
G0 F6000 X126.058 Y73.45
G1 F1200 X174.249 Y121.64 E154.83424
G0 F6000 X173.992 Y121.949
G1 F1200 X125.749 Y73.705 E157.10347
G0 F6000 X125.749 Y74.271
G1 F1200 X173.427 Y121.949 E159.3461
G0 F6000 X172.861 Y121.949
G1 F1200 X125.749 Y74.837 E161.5621
G0 F6000 X125.749 Y75.403
G1 F1200 X172.295 Y121.949 E163.75148
G0 F6000 X171.73 Y121.949
G1 F1200 X125.749 Y75.968 E165.91429
G0 F6000 X125.749 Y76.534
G1 F1200 X171.164 Y121.949 E168.05047
G0 F6000 X170.598 Y121.949
G1 F1200 X125.749 Y77.1 E170.16003
G0 F6000 X125.749 Y77.665
G1 F1200 X170.033 Y121.949 E172.24301
G0 F6000 X169.467 Y121.949
G1 F1200 X125.749 Y78.231 E174.29937
G0 F6000 X125.749 Y78.797
G1 F1200 X168.901 Y121.949 E176.32911
G0 F6000 X168.335 Y121.949
