;FLAVOR:Marlin
;TIME:7603
;Filament used: 6.24478m
;Layer height: 0.2
;MINX:123.654
;MINY:123.654
;MINZ:0.2
;MAXX:176.345
;MAXY:176.346
;MAXZ:101
;Generated with Cura_SteamEngine master
M140 S55
M105
M190 S55
M104 S210
M105
M109 S210
M82 ;absolute extrusion mode
M201 X500.00 Y500.00 Z100.00 E5000.00 ;Setup machine max acceleration
M203 X500.00 Y500.00 Z10.00 E50.00 ;Setup machine max feedrate
M204 P500.00 R1000.00 T500.00 ;Setup Print/Retract/Travel acceleration
M205 X8.00 Y8.00 Z0.40 E5.00 ;Setup Jerk
M220 S100 ;Reset Feedrate
M221 S100 ;Reset Flowrate

G28 ;safe homing
G90 ;absolute positioning
G0 X0 Y0 F5000.0 ; move to bottom-left corner for nozzle wipe
M220 S100 ;Reset Feedrate

G92 E0 ;Reset Extruder
G1 Z2.0 F3000 ;Move Z Axis up
G1 X10.1 Y20 Z0.28 F5000.0 ;Move to start position
G1 X10.1 Y200.0 Z0.28 F1500.0 E15 ;Draw the first line
G1 X10.4 Y200.0 Z0.28 F5000.0 ;Move to side a little
G1 X10.4 Y20 Z0.28 F1500.0 E30 ;Draw the second line
G92 E0 ;Reset Extruder
G1 Z2.0 F3000 ;Move Z Axis up
G92 E0
G92 E0
G1 F2700 E-5
;LAYER_COUNT:505
;LAYER:0
M107
G0 F6000 X131.177 Y131.566 Z0.2
;TYPE:SKIRT
G1 F2700 E0
G1 F1200 X131.595 Y131.149 E0.01964
G1 X132.095 Y130.676 E0.04253
G1 X132.34 Y130.451 E0.05359
G1 X132.777 Y130.062 E0.07305
G1 X133.254 Y129.661 E0.09378
G1 X133.869 Y129.173 E0.11989
G1 X134.127 Y128.974 E0.13073
G1 X134.596 Y128.624 E0.15019
G1 X135.133 Y128.248 E0.172
G1 X135.74 Y127.849 E0.19616
G1 X136.029 Y127.665 E0.20755
G1 X136.575 Y127.33 E0.22886
G1 X137.087 Y127.035 E0.24851
G1 X137.659 Y126.725 E0.27015
G1 X137.954 Y126.571 E0.28122
G1 X138.536 Y126.278 E0.30289
G1 X139.119 Y126.005 E0.3243
G1 X139.818 Y125.703 E0.34963
G1 X140.112 Y125.581 E0.36021
G1 X140.652 Y125.366 E0.37955
G1 X141.264 Y125.143 E0.40121
G1 X141.98 Y124.906 E0.4263
G1 X142.278 Y124.812 E0.43669
G1 X142.815 Y124.651 E0.45533
G1 X143.433 Y124.485 E0.47662
G1 X144.187 Y124.306 E0.50239
G1 X144.502 Y124.237 E0.51312
G1 X145.102 Y124.113 E0.5335
G1 X145.732 Y124.001 E0.55478
G1 X146.407 Y123.902 E0.57747
G1 X146.72 Y123.861 E0.58797
G1 X147.35 Y123.787 E0.60907
G1 X147.977 Y123.732 E0.63
G1 X148.713 Y123.688 E0.65452
G1 X149.034 Y123.673 E0.66521
G1 X149.624 Y123.655 E0.68484
G1 X150.266 Y123.654 E0.7062
G1 X151.017 Y123.675 E0.73119
G1 X151.362 Y123.69 E0.74267
G1 X151.951 Y123.725 E0.7623
G1 X152.576 Y123.78 E0.78316
G1 X153.329 Y123.868 E0.80838
G1 X153.655 Y123.911 E0.81932
G1 X154.266 Y124.001 E0.83986
G1 X154.879 Y124.11 E0.86057
G1 X155.55 Y124.248 E0.88335
G1 X155.869 Y124.318 E0.89421
G1 X156.477 Y124.462 E0.91499
G1 X157.074 Y124.621 E0.93554
G1 X157.771 Y124.828 E0.95973
G1 X158.107 Y124.934 E0.97144
G1 X158.703 Y125.132 E0.99233
G1 X159.285 Y125.344 E1.01293
G1 X159.939 Y125.603 E1.03633
G1 X160.229 Y125.722 E1.04676
G1 X160.781 Y125.959 E1.06674
G1 X161.377 Y126.237 E1.08861
G1 X162.082 Y126.591 E1.11485
G1 X162.377 Y126.745 E1.12592
G1 X162.906 Y127.031 E1.14592
G1 X163.442 Y127.34 E1.1665
G1 X164.004 Y127.686 E1.18845
G1 X164.258 Y127.847 E1.19845
G1 X164.787 Y128.193 E1.21947
G1 X165.32 Y128.565 E1.24109
G1 X165.94 Y129.025 E1.26677
G1 X166.201 Y129.224 E1.27768
G1 X166.647 Y129.576 E1.29658
G1 X167.152 Y130.001 E1.31853
G1 X167.724 Y130.511 E1.34402
G1 X167.974 Y130.74 E1.3553
G1 X168.42 Y131.163 E1.37574
G1 X168.837 Y131.58 E1.39536
G1 X169.32 Y132.09 E1.41872
G1 X169.549 Y132.34 E1.43
G1 X169.938 Y132.777 E1.44946
G1 X170.339 Y133.254 E1.47018
G1 X170.827 Y133.869 E1.49629
G1 X171.033 Y134.137 E1.50754
G1 X171.374 Y134.595 E1.52653
G1 X171.741 Y135.119 E1.54781
G1 X172.16 Y135.756 E1.57317
G1 X172.346 Y136.049 E1.58471
G1 X172.665 Y136.569 E1.605
G1 X172.958 Y137.076 E1.62448
G1 X173.277 Y137.664 E1.64673
G1 X173.433 Y137.962 E1.65791
G1 X173.72 Y138.532 E1.67914
G1 X173.992 Y139.113 E1.70048
G1 X174.299 Y139.823 E1.7262
G1 X174.421 Y140.117 E1.73679
G1 X174.633 Y140.649 E1.75584
G1 X174.857 Y141.264 E1.77761
G1 X175.094 Y141.98 E1.80269
G1 X175.184 Y142.267 E1.8127
G1 X175.345 Y142.802 E1.83128
G1 X175.516 Y143.438 E1.85318
G1 X175.695 Y144.194 E1.87902
G1 X175.763 Y144.502 E1.88951
G1 X175.887 Y145.102 E1.90989
G1 X175.999 Y145.732 E1.93117
G1 X176.098 Y146.407 E1.95387
G1 X176.138 Y146.716 E1.96423
G1 X176.21 Y147.327 E1.98469
G1 X176.267 Y147.962 E2.0059
G1 X176.313 Y148.737 E2.03172
G1 X176.327 Y149.056 E2.04234
G1 X176.344 Y149.618 E2.06104
G1 X176.345 Y150.256 E2.08226
G1 X176.324 Y151.012 E2.10741
G1 X176.31 Y151.336 E2.1182
G1 X176.277 Y151.912 E2.13739
G1 X176.221 Y152.558 E2.15896
G1 X176.13 Y153.338 E2.18507
G1 X176.088 Y153.659 E2.19584
G1 X176 Y154.259 E2.21601
G1 X175.89 Y154.879 E2.23695
G1 X175.752 Y155.55 E2.25974
G1 X175.682 Y155.869 E2.2706
G1 X175.538 Y156.477 E2.29138
G1 X175.379 Y157.074 E2.31193
G1 X175.172 Y157.771 E2.33612
G1 X175.066 Y158.107 E2.34783
G1 X174.868 Y158.703 E2.36872
G1 X174.656 Y159.285 E2.38932
G1 X174.397 Y159.939 E2.41272
G1 X174.273 Y160.24 E2.42355
G1 X174.043 Y160.774 E2.44289
G1 X173.773 Y161.353 E2.46413
G1 X173.405 Y162.087 E2.49144
G1 X173.249 Y162.387 E2.50269
G1 X172.962 Y162.918 E2.52277
G1 X172.65 Y163.459 E2.54354
G1 X172.308 Y164.014 E2.56522
G1 X172.155 Y164.255 E2.57471
G1 X171.813 Y164.779 E2.59553
G1 X171.43 Y165.328 E2.61779
G1 X170.976 Y165.939 E2.64311
G1 X170.785 Y166.189 E2.65357
G1 X170.427 Y166.643 E2.6728
G1 X169.999 Y167.152 E2.69492
G1 X169.489 Y167.724 E2.72041
G1 X169.271 Y167.963 E2.73117
G1 X168.852 Y168.406 E2.75145
G1 X168.425 Y168.832 E2.77151
G1 X167.912 Y169.318 E2.79501
G1 X167.66 Y169.55 E2.80641
G1 X167.224 Y169.938 E2.82582
G1 X166.743 Y170.342 E2.84671
G1 X166.126 Y170.831 E2.8729
G1 X165.873 Y171.026 E2.88352
G1 X165.404 Y171.376 E2.90298
G1 X164.867 Y171.752 E2.92479
G1 X164.26 Y172.151 E2.94895
G1 X163.971 Y172.335 E2.96034
G1 X163.425 Y172.67 E2.98165
G1 X162.913 Y172.965 E3.0013
G1 X162.341 Y173.275 E3.02294
G1 X162.046 Y173.429 E3.03401
G1 X161.464 Y173.722 E3.05568
G1 X160.881 Y173.995 E3.07709
G1 X160.182 Y174.297 E3.10242
G1 X159.888 Y174.419 E3.11301
G1 X159.348 Y174.634 E3.13234
G1 X158.736 Y174.857 E3.154
G1 X158.02 Y175.094 E3.17909
G1 X157.722 Y175.188 E3.18948
G1 X157.185 Y175.349 E3.20813
G1 X156.567 Y175.515 E3.22941
G1 X155.813 Y175.694 E3.25519
G1 X155.498 Y175.763 E3.26591
G1 X154.898 Y175.887 E3.28629
G1 X154.268 Y175.999 E3.30757
G1 X153.593 Y176.098 E3.33026
G1 X153.28 Y176.139 E3.34076
G1 X152.65 Y176.213 E3.36186
G1 X152.023 Y176.268 E3.38279
G1 X151.287 Y176.312 E3.40732
G1 X150.966 Y176.327 E3.418
G1 X150.376 Y176.345 E3.43764
G1 X149.734 Y176.346 E3.45899
G1 X148.983 Y176.325 E3.48398
G1 X148.638 Y176.31 E3.49546
G1 X148.049 Y176.275 E3.51509
G1 X147.424 Y176.22 E3.53596
G1 X146.671 Y176.132 E3.56117
G1 X146.345 Y176.089 E3.57211
G1 X145.734 Y175.999 E3.59265
G1 X145.121 Y175.89 E3.61336
G1 X144.45 Y175.752 E3.63614
G1 X144.131 Y175.682 E3.64701
G1 X143.523 Y175.538 E3.66779
G1 X142.926 Y175.379 E3.68834
G1 X142.229 Y175.172 E3.71252
G1 X141.893 Y175.066 E3.72424
G1 X141.297 Y174.868 E3.74512
G1 X140.715 Y174.656 E3.76573
G1 X140.061 Y174.397 E3.78912
G1 X139.769 Y174.277 E3.79962
G1 X139.215 Y174.039 E3.81968
G1 X138.621 Y173.762 E3.84148
G1 X137.918 Y173.409 E3.86764
G1 X137.623 Y173.255 E3.87871
G1 X137.094 Y172.969 E3.89871
G1 X136.558 Y172.66 E3.91929
G1 X135.996 Y172.314 E3.94124
G1 X135.742 Y172.153 E3.95124
G1 X135.213 Y171.807 E3.97226
G1 X134.68 Y171.435 E3.99388
G1 X134.06 Y170.975 E4.01956
G1 X133.797 Y170.774 E4.03057
G1 X133.35 Y170.421 E4.04951
G1 X132.847 Y169.999 E4.07135
G1 X132.276 Y169.49 E4.09679
G1 X132.023 Y169.257 E4.10823
G1 X131.569 Y168.826 E4.12905
G1 X131.152 Y168.408 E4.14869
G1 X130.677 Y167.906 E4.17168
G1 X130.451 Y167.66 E4.18279
G1 X130.062 Y167.223 E4.20225
G1 X129.661 Y166.746 E4.22297
G1 X129.173 Y166.131 E4.24909
G1 X128.969 Y165.866 E4.26021
G1 X128.627 Y165.407 E4.27925
G1 X128.256 Y164.877 E4.30077
G1 X127.838 Y164.241 E4.32608
G1 X127.659 Y163.96 E4.33716
G1 X127.335 Y163.433 E4.35774
G1 X127.025 Y162.895 E4.37839
G1 X126.711 Y162.313 E4.40038
G1 X126.571 Y162.044 E4.41047
G1 X126.284 Y161.475 E4.43166
G1 X126.008 Y160.887 E4.45327
G1 X125.701 Y160.177 E4.479
G1 X125.581 Y159.886 E4.48947
G1 X125.368 Y159.352 E4.50859
G1 X125.141 Y158.729 E4.53064
G1 X124.905 Y158.015 E4.55565
G1 X124.812 Y157.722 E4.56588
G1 X124.651 Y157.185 E4.58452
G1 X124.485 Y156.567 E4.60581
G1 X124.306 Y155.813 E4.63158
G1 X124.237 Y155.498 E4.64231
G1 X124.113 Y154.898 E4.66268
G1 X124.001 Y154.268 E4.68397
G1 X123.902 Y153.593 E4.70666
G1 X123.861 Y153.28 E4.71716
G1 X123.787 Y152.65 E4.73826
G1 X123.732 Y152.023 E4.75919
G1 X123.688 Y151.287 E4.78371
G1 X123.673 Y150.967 E4.79437
G1 X123.655 Y150.378 E4.81397
G1 X123.654 Y149.735 E4.83535
G1 X123.675 Y148.983 E4.86037
G1 X123.69 Y148.638 E4.87186
G1 X123.725 Y148.049 E4.89148
G1 X123.78 Y147.424 E4.91235
G1 X123.868 Y146.671 E4.93757
G1 X123.911 Y146.345 E4.9485
G1 X124.001 Y145.734 E4.96905
G1 X124.11 Y145.121 E4.98975
G1 X124.248 Y144.45 E5.01254
G1 X124.318 Y144.131 E5.0234
G1 X124.462 Y143.523 E5.04418
G1 X124.621 Y142.926 E5.06473
G1 X124.828 Y142.229 E5.08891
G1 X124.934 Y141.893 E5.10063
G1 X125.132 Y141.297 E5.12152
G1 X125.344 Y140.715 E5.14212
G1 X125.603 Y140.061 E5.16552
G1 X125.725 Y139.764 E5.1762
G1 X125.956 Y139.227 E5.19564
G1 X126.23 Y138.639 E5.21722
G1 X126.597 Y137.908 E5.24442
G1 X126.751 Y137.613 E5.25549
G1 X127.038 Y137.082 E5.27557
G1 X127.35 Y136.541 E5.29634
G1 X127.692 Y135.986 E5.31802
G1 X127.845 Y135.745 E5.32752
G1 X128.187 Y135.221 E5.34833
G1 X128.57 Y134.672 E5.37059
G1 X129.024 Y134.061 E5.39591
G1 X129.215 Y133.811 E5.40637
G1 X129.573 Y133.357 E5.4256
G1 X130.001 Y132.848 E5.44772
G1 X130.511 Y132.276 E5.47321
G1 X130.744 Y132.022 E5.48467
G1 X131.177 Y131.566 E5.50559
G0 F6000 X131.467 Y131.841
G1 F1200 X131.869 Y131.44 E5.52448
G1 X132.369 Y130.967 E5.54737
G1 X132.606 Y130.749 E5.55808
G1 X133.043 Y130.36 E5.57754
G1 X133.502 Y129.975 E5.59746
G1 X134.117 Y129.487 E5.62357
G1 X134.366 Y129.295 E5.63403
G1 X134.835 Y128.945 E5.6535
G1 X135.353 Y128.582 E5.67453
G1 X135.96 Y128.183 E5.69869
G1 X136.239 Y128.006 E5.70968
G1 X136.785 Y127.671 E5.73099
G1 X137.277 Y127.387 E5.74988
G1 X137.849 Y127.077 E5.77152
G1 X138.134 Y126.928 E5.78222
G1 X138.716 Y126.635 E5.80389
G1 X139.278 Y126.372 E5.82453
G1 X139.977 Y126.07 E5.84986
G1 X140.26 Y125.953 E5.86004
G1 X140.8 Y125.738 E5.87937
G1 X141.39 Y125.523 E5.90026
G1 X142.106 Y125.286 E5.92534
G1 X142.393 Y125.196 E5.93535
G1 X142.93 Y125.035 E5.95399
G1 X143.526 Y124.875 E5.97452
G1 X144.28 Y124.696 E6.00029
G1 X144.583 Y124.628 E6.01062
G1 X145.183 Y124.504 E6.031
G1 X145.79 Y124.397 E6.0515
G1 X146.465 Y124.298 E6.07419
G1 X146.766 Y124.258 E6.08429
G1 X147.396 Y124.184 E6.10539
G1 X148 Y124.131 E6.12555
G1 X148.736 Y124.087 E6.15008
G1 X149.046 Y124.073 E6.1604
G1 X149.636 Y124.055 E6.18003
G1 X150.255 Y124.054 E6.20062
G1 X151.006 Y124.075 E6.22561
G1 X151.339 Y124.09 E6.23669
G1 X151.928 Y124.125 E6.25632
G1 X152.529 Y124.178 E6.27639
G1 X153.282 Y124.266 E6.3016
G1 X153.597 Y124.307 E6.31217
G1 X154.208 Y124.397 E6.33271
G1 X154.798 Y124.501 E6.35263
G1 X155.469 Y124.639 E6.37542
G1 X155.777 Y124.707 E6.38591
G1 X156.385 Y124.851 E6.40669
G1 X156.96 Y125.005 E6.42649
G1 X157.657 Y125.212 E6.45067
G1 X157.981 Y125.314 E6.46197
G1 X158.577 Y125.512 E6.48286
G1 X159.138 Y125.716 E6.50271
G1 X159.792 Y125.975 E6.52611
G1 X160.071 Y126.09 E6.53615
G1 X160.623 Y126.327 E6.55613
G1 X161.198 Y126.594 E6.57721
G1 X161.903 Y126.948 E6.60345
G1 X162.187 Y127.097 E6.61412
G1 X162.716 Y127.383 E6.63412
G1 X163.232 Y127.681 E6.65394
G1 X163.794 Y128.027 E6.67589
G1 X164.039 Y128.182 E6.68553
G1 X164.568 Y128.528 E6.70655
G1 X165.082 Y128.886 E6.72739
G1 X165.702 Y129.346 E6.75307
G1 X165.953 Y129.538 E6.76358
G1 X166.399 Y129.89 E6.78247
G1 X166.886 Y130.299 E6.80363
G1 X167.458 Y130.809 E6.82911
G1 X167.698 Y131.03 E6.83997
G1 X168.144 Y131.453 E6.86041
G1 X168.546 Y131.855 E6.87932
G1 X169.029 Y132.365 E6.90268
G1 X169.251 Y132.606 E6.91358
G1 X169.64 Y133.043 E6.93304
G1 X170.025 Y133.502 E6.95296
G1 X170.513 Y134.117 E6.97908
G1 X170.712 Y134.376 E6.98994
G1 X171.053 Y134.834 E7.00893
G1 X171.407 Y135.339 E7.02944
G1 X171.826 Y135.976 E7.0548
G1 X172.005 Y136.258 E7.06591
G1 X172.324 Y136.778 E7.0862
G1 X172.606 Y137.266 E7.10495
G1 X172.925 Y137.854 E7.1272
G1 X173.076 Y138.142 E7.13801
G1 X173.363 Y138.712 E7.15924
G1 X173.624 Y139.272 E7.17979
G1 X173.931 Y139.982 E7.20552
G1 X174.049 Y140.265 E7.21572
G1 X174.261 Y140.797 E7.23476
G1 X174.477 Y141.39 E7.25575
G1 X174.714 Y142.106 E7.28084
G1 X174.801 Y142.382 E7.29046
G1 X174.962 Y142.917 E7.30905
G1 X175.127 Y143.53 E7.33016
G1 X175.306 Y144.286 E7.356
G1 X175.372 Y144.583 E7.36612
G1 X175.496 Y145.183 E7.3865
G1 X175.603 Y145.79 E7.407
G1 X175.702 Y146.465 E7.42969
G1 X175.741 Y146.762 E7.43965
G1 X175.813 Y147.373 E7.46011
G1 X175.867 Y147.986 E7.48058
G1 X175.913 Y148.761 E7.5064
G1 X175.927 Y149.069 E7.51666
G1 X175.944 Y149.631 E7.53536
G1 X175.945 Y150.245 E7.55578
G1 X175.924 Y151.001 E7.58093
G1 X175.911 Y151.313 E7.59132
G1 X175.878 Y151.889 E7.61051
G1 X175.824 Y152.511 E7.63128
G1 X175.733 Y153.291 E7.65739
G1 X175.692 Y153.601 E7.6678
G1 X175.604 Y154.201 E7.68796
G1 X175.499 Y154.798 E7.70813
G1 X175.361 Y155.469 E7.73091
G1 X175.293 Y155.777 E7.7414
G1 X175.149 Y156.385 E7.76218
G1 X174.995 Y156.96 E7.78198
G1 X174.788 Y157.657 E7.80616
G1 X174.686 Y157.981 E7.81746
G1 X174.488 Y158.577 E7.83835
G1 X174.284 Y159.138 E7.8582
G1 X174.025 Y159.792 E7.8816
G1 X173.905 Y160.082 E7.89204
G1 X173.675 Y160.616 E7.91138
G1 X173.416 Y161.174 E7.93184
G1 X173.048 Y161.908 E7.95915
G1 X172.897 Y162.197 E7.96999
G1 X172.61 Y162.728 E7.99007
G1 X172.309 Y163.249 E8.01008
G1 X171.967 Y163.804 E8.03176
G1 X171.82 Y164.037 E8.04093
G1 X171.478 Y164.561 E8.06174
G1 X171.109 Y165.089 E8.08316
G1 X170.655 Y165.7 E8.10848
G1 X170.471 Y165.941 E8.11857
G1 X170.113 Y166.395 E8.1378
G1 X169.701 Y166.886 E8.15911
G1 X169.191 Y167.458 E8.1846
G1 X168.98 Y167.688 E8.19498
G1 X168.561 Y168.131 E8.21527
G1 X168.15 Y168.542 E8.2346
G1 X167.637 Y169.028 E8.2581
G1 X167.394 Y169.252 E8.26909
G1 X166.958 Y169.64 E8.28851
G1 X166.495 Y170.028 E8.3086
G1 X165.878 Y170.517 E8.33478
G1 X165.634 Y170.705 E8.34503
G1 X165.165 Y171.055 E8.36449
G1 X164.647 Y171.418 E8.38553
G1 X164.04 Y171.817 E8.40969
G1 X163.761 Y171.994 E8.42068
G1 X163.215 Y172.329 E8.44198
G1 X162.723 Y172.613 E8.46088
G1 X162.151 Y172.923 E8.48252
G1 X161.866 Y173.072 E8.49321
G1 X161.284 Y173.365 E8.51489
G1 X160.722 Y173.628 E8.53552
G1 X160.023 Y173.93 E8.56085
G1 X159.74 Y174.047 E8.57104
G1 X159.2 Y174.262 E8.59037
G1 X158.61 Y174.477 E8.61125
G1 X157.894 Y174.714 E8.63634
G1 X157.607 Y174.804 E8.64634
G1 X157.07 Y174.965 E8.66499
G1 X156.474 Y175.125 E8.68551
G1 X155.72 Y175.304 E8.71129
G1 X155.417 Y175.372 E8.72162
G1 X154.817 Y175.496 E8.74199
G1 X154.21 Y175.603 E8.76249
G1 X153.535 Y175.702 E8.78519
G1 X153.234 Y175.742 E8.79528
G1 X152.604 Y175.816 E8.81638
G1 X152 Y175.869 E8.83655
G1 X151.264 Y175.913 E8.86107
G1 X150.954 Y175.927 E8.87139
G1 X150.364 Y175.945 E8.89103
G1 X149.745 Y175.946 E8.91161
G1 X148.994 Y175.925 E8.9366
G1 X148.661 Y175.91 E8.94769
G1 X148.072 Y175.875 E8.96731
G1 X147.471 Y175.822 E8.98738
G1 X146.718 Y175.734 E9.0126
G1 X146.403 Y175.693 E9.02316
G1 X145.792 Y175.603 E9.0437
G1 X145.202 Y175.499 E9.06363
G1 X144.531 Y175.361 E9.08641
G1 X144.223 Y175.293 E9.0969
G1 X143.615 Y175.149 E9.11769
G1 X143.04 Y174.995 E9.13748
G1 X142.343 Y174.788 E9.16167
G1 X142.019 Y174.686 E9.17297
G1 X141.423 Y174.488 E9.19385
G1 X140.862 Y174.284 E9.21371
G1 X140.208 Y174.025 E9.2371
G1 X139.927 Y173.909 E9.24721
G1 X139.373 Y173.671 E9.26727
G1 X138.8 Y173.405 E9.28828
G1 X138.097 Y173.052 E9.31444
G1 X137.813 Y172.903 E9.32511
G1 X137.284 Y172.617 E9.34511
G1 X136.768 Y172.319 E9.36493
G1 X136.206 Y171.973 E9.38688
G1 X135.961 Y171.818 E9.39653
G1 X135.432 Y171.472 E9.41755
G1 X134.918 Y171.114 E9.43838
G1 X134.298 Y170.654 E9.46406
G1 X134.045 Y170.46 E9.47466
G1 X133.598 Y170.107 E9.49361
