;FLAVOR:Marlin
;TIME:12567
;Filament used: 7.82954m
;Layer height: 0.2
;MINX:116.925
;MINY:78.175
;MINZ:0.2
;MAXX:183.075
;MAXY:221.825
;MAXZ:19.4
;Generated with Cura_SteamEngine master
M140 S55
M105
M190 S55
M104 S210
M105
M109 S210
M82 ;absolute extrusion mode
M201 X500.00 Y500.00 Z100.00 E5000.00 ;Setup machine max acceleration
M203 X500.00 Y500.00 Z10.00 E50.00 ;Setup machine max feedrate
M204 P500.00 R1000.00 T500.00 ;Setup Print/Retract/Travel acceleration
M205 X8.00 Y8.00 Z0.40 E5.00 ;Setup Jerk
M220 S100 ;Reset Feedrate
M221 S100 ;Reset Flowrate

G28 ;safe homing
G90 ;absolute positioning
G0 X0 Y0 F5000.0 ; move to bottom-left corner for nozzle wipe
M220 S100 ;Reset Feedrate

G92 E0 ;Reset Extruder
G1 Z2.0 F3000 ;Move Z Axis up
G1 X10.1 Y20 Z0.28 F5000.0 ;Move to start position
G1 X10.1 Y200.0 Z0.28 F1500.0 E15 ;Draw the first line
G1 X10.4 Y200.0 Z0.28 F5000.0 ;Move to side a little
G1 X10.4 Y20 Z0.28 F1500.0 E30 ;Draw the second line
G92 E0 ;Reset Extruder
G1 Z2.0 F3000 ;Move Z Axis up
G92 E0
G92 E0
G1 F2700 E-5
;LAYER_COUNT:97
;LAYER:0
M107
G0 F6000 X118.927 Y87.866 Z0.2
;TYPE:SKIRT
G1 F2700 E0
G1 F1200 X119.497 Y87.122 E0.03117
G1 X120.129 Y86.429 E0.06237
G1 X120.505 Y86.068 E0.0797
G1 X120.796 Y85.804 E0.09277
G1 X122.484 Y84.317 E0.16759
G1 X124.328 Y82.597 E0.25146
G1 X125.113 Y81.823 E0.28813
G1 X125.717 Y81.244 E0.31596
G1 X126.421 Y80.625 E0.34714
G1 X127.175 Y80.067 E0.37834
G1 X127.974 Y79.576 E0.40953
G1 X128.812 Y79.155 E0.44072
G1 X129.683 Y78.807 E0.47192
G1 X130.58 Y78.534 E0.5031
G1 X131.498 Y78.339 E0.53432
G1 X132.428 Y78.222 E0.56549
G1 X132.992 Y78.19 E0.58428
G1 X133.318 Y78.18 E0.59513
G1 X133.655 Y78.175 E0.60634
G1 X171.368 Y78.175 E1.86068
G1 X172.224 Y78.186 E1.88915
G1 X173.16 Y78.24 E1.92033
G1 X174.088 Y78.372 E1.95151
G1 X175.002 Y78.584 E1.98272
G1 X175.894 Y78.873 E2.0139
G1 X176.759 Y79.236 E2.0451
G1 X177.589 Y79.672 E2.07629
G1 X178.38 Y80.177 E2.1075
G1 X179.124 Y80.748 E2.13869
G1 X179.817 Y81.38 E2.16989
G1 X180.454 Y82.068 E2.20107
G1 X181.029 Y82.809 E2.23227
G1 X181.54 Y83.595 E2.26345
G1 X181.982 Y84.423 E2.29467
G1 X182.351 Y85.285 E2.32585
G1 X182.646 Y86.175 E2.35704
G1 X182.864 Y87.087 E2.38823
G1 X183.004 Y88.015 E2.41944
G1 X183.062 Y88.876 E2.44814
G1 X183.071 Y89.196 E2.45879
G1 X183.075 Y89.505 E2.46907
G1 X183.074 Y98.498 E2.76818
G1 X183.064 Y99.201 E2.79156
G1 X183.055 Y99.509 E2.80181
G1 X183.022 Y100.297 E2.82804
G1 X182.948 Y102.938 E2.91592
G1 X182.948 Y105.462 E2.99987
G1 X183.02 Y107.96 E3.08298
G1 X183.048 Y108.555 E3.1028
G1 X183.068 Y109.191 E3.12396
G1 X183.075 Y109.67 E3.13989
G1 X183.074 Y170.148 E5.1514
G1 X183.064 Y170.851 E5.17478
G1 X183.055 Y171.159 E5.18503
G1 X183.022 Y171.947 E5.21126
G1 X182.948 Y174.588 E5.29914
G1 X182.948 Y177.112 E5.38309
G1 X183.02 Y179.61 E5.46621
G1 X183.048 Y180.205 E5.48602
G1 X183.068 Y180.841 E5.50718
G1 X183.075 Y181.32 E5.52311
G1 X183.074 Y210.225 E6.4845
G1 X183.065 Y210.952 E6.50868
G1 X183.014 Y211.889 E6.53989
G1 X182.882 Y212.817 E6.57107
G1 X182.673 Y213.731 E6.60225
G1 X182.386 Y214.624 E6.63345
G1 X182.024 Y215.49 E6.66467
G1 X181.59 Y216.321 E6.69585
G1 X181.086 Y217.112 E6.72705
G1 X180.517 Y217.857 E6.75822
G1 X179.886 Y218.552 E6.78945
G1 X179.199 Y219.19 E6.82063
G1 X178.46 Y219.767 E6.85181
G1 X177.674 Y220.279 E6.88301
G1 X176.848 Y220.722 E6.91419
G1 X175.986 Y221.094 E6.94541
G1 X175.097 Y221.39 E6.97658
G1 X174.185 Y221.61 E7.00778
G1 X173.258 Y221.751 E7.03897
G1 X172.374 Y221.812 E7.06844
G1 X172.053 Y221.821 E7.07912
G1 X171.745 Y221.825 E7.08937
G1 X133.87 Y221.824 E8.34909
G1 X133.192 Y221.814 E8.37165
G1 X132.255 Y221.76 E8.40286
G1 X131.327 Y221.627 E8.43404
G1 X130.414 Y221.415 E8.46522
G1 X129.521 Y221.126 E8.49644
G1 X128.657 Y220.762 E8.52762
G1 X127.827 Y220.325 E8.55882
G1 X127.037 Y219.82 E8.59
G1 X126.293 Y219.249 E8.6212
G1 X125.6 Y218.617 E8.65239
G1 X124.963 Y217.928 E8.6836
G1 X124.388 Y217.188 E8.71477
G1 X123.878 Y216.401 E8.74596
G1 X123.436 Y215.573 E8.77718
G1 X123.067 Y214.711 E8.80836
G1 X122.773 Y213.821 E8.83954
G1 X122.644 Y213.325 E8.85659
G1 X122.614 Y213.197 E8.86096
G1 X122.439 Y212.276 E8.89214
G1 X122.379 Y211.788 E8.90849
G1 X122.112 Y209.136 E8.99714
G1 X121.784 Y206.596 E9.08233
G1 X121.402 Y204.174 E9.16388
G1 X120.93 Y201.651 E9.24925
G1 X120.398 Y199.193 E9.3329
G1 X119.815 Y196.817 E9.41427
G1 X119.127 Y194.331 E9.50006
G1 X118.386 Y191.917 E9.58405
G1 X117.545 Y189.443 E9.67096
G1 X117.461 Y189.181 E9.68011
G1 X117.213 Y188.277 E9.71128
G1 X117.043 Y187.355 E9.74247
G1 X116.944 Y186.246 E9.7795
G1 X116.934 Y185.986 E9.78815
G1 X116.926 Y185.565 E9.80216
G1 X116.926 Y180.625 E9.96646
G1 X116.941 Y179.638 E9.9993
G1 X117.01 Y177.163 E10.08165
G1 X117.01 Y174.658 E10.16496
G1 X116.972 Y173.288 E10.21055
G1 X116.975 Y173.097 E10.2169
G1 X116.93 Y171.569 E10.26774
G1 X116.925 Y171.246 E10.27849
G1 X116.926 Y166.361 E10.44096
G1 X116.937 Y165.654 E10.46448
G1 X116.992 Y164.718 E10.49567
G1 X117.126 Y163.789 E10.52689
G1 X117.249 Y163.221 E10.54621
G1 X117.463 Y162.348 E10.57611
G1 X117.773 Y161.154 E10.61714
G1 X118.348 Y158.647 E10.70269
G1 X118.839 Y156.202 E10.78563
G1 X119.258 Y153.732 E10.86896
G1 X119.613 Y151.232 E10.95294
G1 X119.895 Y148.734 E11.03655
G1 X120.104 Y146.252 E11.1194
G1 X120.248 Y143.706 E11.20421
G1 X120.317 Y141.193 E11.28783
G1 X120.315 Y138.668 E11.37181
G1 X120.243 Y136.172 E11.45486
G1 X120.1 Y133.667 E11.53831
G1 X119.882 Y131.133 E11.62291
G1 X119.596 Y128.627 E11.7068
G1 X119.242 Y126.15 E11.79002
G1 X118.818 Y123.688 E11.87311
G1 X118.324 Y121.227 E11.9566
G1 X117.743 Y118.712 E12.04245
G1 X117.381 Y117.291 E12.09122
G1 X117.304 Y117.001 E12.1012
G1 X117.103 Y116.085 E12.13239
G1 X116.979 Y115.155 E12.1636
G1 X116.944 Y114.594 E12.18229
G1 X116.934 Y114.33 E12.19108
G1 X116.926 Y113.916 E12.20485
G1 X116.926 Y108.976 E12.36916
G1 X116.941 Y107.987 E12.40206
G1 X117.01 Y105.513 E12.48437
G1 X117.01 Y102.998 E12.56802
G1 X116.973 Y101.631 E12.61351
G1 X116.976 Y101.471 E12.61883
G1 X116.93 Y99.919 E12.67047
G1 X116.925 Y99.596 E12.68122
G1 X116.926 Y94.726 E12.84319
G1 X116.936 Y94.023 E12.86658
G1 X116.989 Y93.086 E12.89779
G1 X117.122 Y92.158 E12.92897
G1 X117.334 Y91.244 E12.96018
G1 X117.622 Y90.352 E12.99136
G1 X117.986 Y89.487 E13.02257
G1 X118.422 Y88.657 E13.05375
G1 X118.927 Y87.866 E13.08497
G0 F6000 X119.323 Y87.999
G1 F1200 X119.891 Y87.275 E13.11557
G1 X120.775 Y86.363 E13.15782
G1 X121.06 Y86.104 E13.17062
G1 X122.775 Y84.594 E13.24662
G1 X124.581 Y82.909 E13.32878
G1 X125.273 Y82.225 E13.36114
G1 X125.994 Y81.533 E13.39438
G1 X126.685 Y80.925 E13.42499
G1 X127.427 Y80.38 E13.45561
G1 X128.213 Y79.901 E13.48623
G1 X129.038 Y79.492 E13.51685
G1 X129.896 Y79.156 E13.5475
G1 X130.779 Y78.896 E13.57812
G1 X131.681 Y78.714 E13.60872
G1 X133.004 Y78.59 E13.65292
G1 X133.33 Y78.58 E13.66376
G1 X133.655 Y78.575 E13.67458
G1 X171.368 Y78.575 E14.92891
G1 X172.218 Y78.586 E14.95719
G1 X173.137 Y78.639 E14.9878
G1 X174.048 Y78.772 E15.01843
G1 X174.944 Y78.983 E15.04904
G1 X175.818 Y79.271 E15.07965
G1 X176.665 Y79.634 E15.1103
G1 X177.476 Y80.069 E15.14091
G1 X178.246 Y80.573 E15.17152
G1 X178.97 Y81.142 E15.20214
G1 X179.642 Y81.772 E15.23278
G1 X180.257 Y82.457 E15.2634
G1 X180.81 Y83.193 E15.29402
G1 X181.297 Y83.974 E15.32463
G1 X181.714 Y84.795 E15.35526
G1 X182.059 Y85.649 E15.38589
G1 X182.328 Y86.529 E15.4165
G1 X182.52 Y87.43 E15.44714
G1 X182.633 Y88.343 E15.47774
G1 X182.662 Y88.887 E15.49586
G1 X182.671 Y89.207 E15.5065
G1 X182.675 Y89.505 E15.51642
G1 X182.674 Y98.493 E15.81536
G1 X182.664 Y99.196 E15.83874
G1 X182.656 Y99.492 E15.84859
G1 X182.62 Y100.338 E15.87675
G1 X182.548 Y102.927 E15.9629
G1 X182.548 Y105.439 E16.04645
G1 X182.623 Y108.039 E16.13296
G1 X182.648 Y108.568 E16.15057
G1 X182.668 Y109.204 E16.17174
G1 X182.675 Y109.673 E16.18734
G1 X182.674 Y170.143 E18.19858
G1 X182.664 Y170.846 E18.22196
G1 X182.656 Y171.142 E18.23181
G1 X182.62 Y171.988 E18.25998
G1 X182.548 Y174.577 E18.34612
G1 X182.548 Y177.089 E18.42967
G1 X182.621 Y179.65 E18.51488
G1 X182.648 Y180.218 E18.5338
G1 X182.668 Y180.854 E18.55496
G1 X182.675 Y181.323 E18.57056
G1 X182.674 Y210.22 E19.53168
G1 X182.665 Y210.947 E19.55586
G1 X182.614 Y211.866 E19.58647
G1 X182.483 Y212.778 E19.61712
G1 X182.273 Y213.674 E19.64773
G1 X181.987 Y214.549 E19.67834
G1 X181.626 Y215.396 E19.70897
G1 X181.192 Y216.208 E19.73959
G1 X180.69 Y216.98 E19.77022
G1 X180.122 Y217.705 E19.80085
G1 X179.494 Y218.378 E19.83147
G1 X178.81 Y218.994 E19.86208
G1 X178.075 Y219.548 E19.8927
G1 X177.295 Y220.037 E19.92332
G1 X176.475 Y220.456 E19.95394
G1 X175.622 Y220.802 E19.98456
G1 X174.742 Y221.073 E20.01518
G1 X173.842 Y221.266 E20.0458
G1 X172.928 Y221.381 E20.07644
G1 X172.363 Y221.412 E20.09526
G1 X172.042 Y221.421 E20.10594
G1 X171.745 Y221.425 E20.11582
G1 X133.876 Y221.424 E21.37535
G1 X133.198 Y221.414 E21.3979
G1 X132.279 Y221.36 E21.42852
G1 X131.368 Y221.227 E21.45914
G1 X130.472 Y221.016 E21.48976
G1 X129.597 Y220.727 E21.5204
G1 X128.751 Y220.364 E21.55102
G1 X127.94 Y219.928 E21.58165
G1 X127.17 Y219.424 E21.61226
G1 X126.446 Y218.855 E21.64288
G1 X125.775 Y218.225 E21.6735
G1 X125.16 Y217.54 E21.70411
G1 X124.608 Y216.803 E21.73474
G1 X124.121 Y216.022 E21.76535
G1 X123.704 Y215.201 E21.79598
G1 X123.36 Y214.347 E21.8266
G1 X123.034 Y213.234 E21.86518
G1 X123.004 Y213.106 E21.86955
G1 X122.777 Y211.748 E21.91534
G1 X122.509 Y209.081 E22.00449
G1 X122.183 Y206.554 E22.08924
G1 X121.791 Y204.07 E22.17288
G1 X121.328 Y201.598 E22.25653
G1 X120.793 Y199.126 E22.34065
G1 X120.192 Y196.68 E22.42442
G1 X119.509 Y194.212 E22.5096
G1 X118.78 Y191.837 E22.59223
G1 X117.985 Y189.5 E22.67433
G1 X117.842 Y189.059 E22.68975
G1 X117.599 Y188.171 E22.72037
G1 X117.435 Y187.265 E22.75099
G1 X117.344 Y186.23 E22.78555
G1 X117.334 Y185.97 E22.7942
G1 X117.326 Y185.565 E22.80768
G1 X117.326 Y180.631 E22.97178
G1 X117.341 Y179.65 E23.00442
G1 X117.41 Y177.175 E23.08677
G1 X117.41 Y174.647 E23.17085
G1 X117.372 Y173.277 E23.21643
G1 X117.375 Y173.091 E23.22262
G1 X117.33 Y171.557 E23.27366
G1 X117.325 Y171.246 E23.28401
G1 X117.326 Y166.367 E23.44628
G1 X117.337 Y165.66 E23.4698
G1 X117.392 Y164.741 E23.50042
G1 X117.525 Y163.83 E23.53104
G1 X117.637 Y163.316 E23.54854
G1 X117.85 Y162.449 E23.57823
G1 X118.164 Y161.239 E23.61981
G1 X118.736 Y158.745 E23.70492
G1 X119.231 Y156.282 E23.78847
G1 X119.655 Y153.783 E23.87278
G1 X120.008 Y151.297 E23.95629
G1 X120.293 Y148.777 E24.04064
G1 X120.506 Y146.238 E24.12539
G1 X120.647 Y143.739 E24.20864
G1 X120.717 Y141.204 E24.29298
G1 X120.715 Y138.691 E24.37657
G1 X120.641 Y136.138 E24.46151
G1 X120.497 Y133.611 E24.5457
G1 X120.284 Y131.126 E24.62865
G1 X119.99 Y128.557 E24.71466
G1 X119.639 Y126.097 E24.79731
G1 X119.211 Y123.613 E24.88114
G1 X118.713 Y121.13 E24.96537
G1 X118.13 Y118.61 E25.0514
G1 X117.768 Y117.188 E25.1002
G1 X117.691 Y116.898 E25.11018
G1 X117.494 Y115.999 E25.14079
G1 X117.375 Y115.086 E25.17142
G1 X117.344 Y114.579 E25.18831
G1 X117.334 Y114.315 E25.1971
G1 X117.326 Y113.916 E25.21037
G1 X117.326 Y108.981 E25.37451
G1 X117.341 Y107.998 E25.40721
G1 X117.41 Y105.524 E25.48953
G1 X117.41 Y102.987 E25.57391
G1 X117.373 Y101.62 E25.61939
G1 X117.376 Y101.46 E25.62471
G1 X117.33 Y99.907 E25.67639
G1 X117.325 Y99.596 E25.68673
G1 X117.326 Y94.731 E25.84855
G1 X117.336 Y94.028 E25.87193
G1 X117.389 Y93.109 E25.90255
G1 X117.522 Y92.198 E25.93317
G1 X117.733 Y91.302 E25.96378
G1 X118.021 Y90.428 E25.99439
G1 X118.384 Y89.581 E26.02504
G1 X118.819 Y88.77 E26.05565
G1 X119.323 Y87.999 E26.08629
G0 F6000 X119.718 Y88.135
G1 F1200 X120.285 Y87.432 E26.11633
G1 X121.045 Y86.658 E26.1524
G1 X121.325 Y86.404 E26.16498
G1 X123.012 Y84.918 E26.23975
G1 X124.887 Y83.169 E26.32503
G1 X125.554 Y82.51 E26.35622
G1 X126.271 Y81.822 E26.38927
G1 X126.949 Y81.226 E26.41929
G1 X127.678 Y80.693 E26.44933
G1 X128.452 Y80.227 E26.47938
G1 X129.263 Y79.83 E26.50941
G1 X130.107 Y79.507 E26.53947
G1 X130.975 Y79.26 E26.56949
G1 X131.862 Y79.091 E26.59952
G1 X133.016 Y78.99 E26.63805
G1 X133.342 Y78.98 E26.64889
G1 X133.655 Y78.975 E26.65931
G1 X171.368 Y78.975 E27.91365
G1 X172.212 Y78.986 E27.94172
G1 X173.114 Y79.039 E27.97177
G1 X174.007 Y79.171 E28.0018
G1 X174.885 Y79.382 E28.03183
G1 X175.741 Y79.67 E28.06187
G1 X176.568 Y80.032 E28.09189
G1 X177.36 Y80.467 E28.12195
G1 X178.111 Y80.969 E28.15199
G1 X178.814 Y81.536 E28.18203
G1 X179.464 Y82.163 E28.21207
G1 X180.056 Y82.845 E28.24211
G1 X180.586 Y83.576 E28.27214
G1 X181.048 Y84.352 E28.30218
G1 X181.441 Y85.165 E28.33221
G1 X181.759 Y86.01 E28.36224
G1 X182.002 Y86.88 E28.39228
G1 X182.167 Y87.768 E28.42232
G1 X182.262 Y88.898 E28.46004
G1 X182.271 Y89.218 E28.47069
G1 X182.275 Y89.505 E28.48023
G1 X182.274 Y98.487 E28.77898
G1 X182.264 Y99.19 E28.80236
G1 X182.256 Y99.475 E28.81184
G1 X182.221 Y100.309 E28.83961
G1 X182.148 Y102.916 E28.92635
G1 X182.148 Y105.451 E29.01067
G1 X182.221 Y108.01 E29.09581
G1 X182.248 Y108.58 E29.11479
G1 X182.268 Y109.216 E29.13596
G1 X182.275 Y109.677 E29.15129
G1 X182.274 Y170.137 E31.1622
G1 X182.264 Y170.84 E31.18558
G1 X182.256 Y171.125 E31.19507
G1 X182.221 Y171.959 E31.22283
G1 X182.148 Y174.566 E31.30957
G1 X182.148 Y177.101 E31.39389
G1 X182.221 Y179.661 E31.47907
G1 X182.248 Y180.23 E31.49801
G1 X182.268 Y180.866 E31.51918
G1 X182.275 Y181.327 E31.53451
G1 X182.274 Y210.215 E32.49533
G1 X182.265 Y210.942 E32.51951
G1 X182.214 Y211.844 E32.54956
G1 X182.083 Y212.738 E32.57961
G1 X181.874 Y213.616 E32.60963
G1 X181.588 Y214.473 E32.63968
G1 X181.227 Y215.301 E32.66972
G1 X180.795 Y216.093 E32.69973
G1 X180.294 Y216.845 E32.72978
G1 X179.728 Y217.549 E32.75983
G1 X179.103 Y218.2 E32.78984
G1 X178.422 Y218.794 E32.8199
G1 X177.691 Y219.325 E32.84995
G1 X176.917 Y219.789 E32.87997
G1 X176.104 Y220.183 E32.91001
G1 X175.26 Y220.503 E32.94004
G1 X174.39 Y220.748 E32.9701
G1 X173.503 Y220.914 E33.00011
G1 X172.352 Y221.012 E33.03853
G1 X172.031 Y221.021 E33.04921
G1 X171.745 Y221.025 E33.05873
G1 X133.882 Y221.024 E34.31805
G1 X133.204 Y221.014 E34.34061
G1 X132.302 Y220.961 E34.37066
G1 X131.409 Y220.828 E34.40069
G1 X130.531 Y220.616 E34.43073
G1 X129.675 Y220.328 E34.46077
G1 X128.848 Y219.966 E34.4908
G1 X128.056 Y219.531 E34.52085
G1 X127.306 Y219.028 E34.55089
G1 X126.603 Y218.461 E34.58092
G1 X125.953 Y217.834 E34.61096
G1 X125.361 Y217.152 E34.641
G1 X124.832 Y216.42 E34.67104
G1 X124.37 Y215.644 E34.70108
G1 X123.978 Y214.831 E34.7311
G1 X123.659 Y213.986 E34.76114
G1 X123.423 Y213.143 E34.79025
G1 X123.393 Y213.015 E34.79463
G1 X123.175 Y211.708 E34.8387
G1 X122.905 Y209.027 E34.92832
G1 X122.58 Y206.507 E35.01283
G1 X122.186 Y204.011 E35.09687
G1 X121.719 Y201.512 E35.18143
G1 X121.179 Y199.018 E35.2663
G1 X120.587 Y196.607 E35.34887
G1 X119.894 Y194.103 E35.43529
G1 X119.152 Y191.687 E35.51935
G1 X118.307 Y189.199 E35.60674
G1 X118.223 Y188.937 E35.61589
G1 X117.986 Y188.066 E35.64592
G1 X117.826 Y187.177 E35.67596
G1 X117.744 Y186.215 E35.70807
G1 X117.734 Y185.955 E35.71673
G1 X117.726 Y185.565 E35.7297
G1 X117.726 Y180.637 E35.89361
G1 X117.741 Y179.661 E35.92607
G1 X117.81 Y177.186 E36.00842
G1 X117.81 Y174.636 E36.09324
G1 X117.772 Y173.266 E36.13882
G1 X117.775 Y173.102 E36.14428
G1 X117.729 Y171.545 E36.19608
G1 X117.725 Y171.246 E36.20603
G1 X117.726 Y166.373 E36.36811
G1 X117.737 Y165.666 E36.39162
G1 X117.791 Y164.765 E36.42165
G1 X117.925 Y163.872 E36.45168
G1 X118.026 Y163.41 E36.46741
G1 X118.237 Y162.55 E36.49686
G1 X118.553 Y161.332 E36.53871
G1 X119.126 Y158.834 E36.62395
G1 X119.629 Y156.33 E36.7089
G1 X120.047 Y153.87 E36.79189
G1 X120.407 Y151.326 E36.87735
G1 X120.691 Y148.822 E36.96117
G1 X120.904 Y146.291 E37.04565
G1 X121.047 Y143.738 E37.13069
G1 X121.117 Y141.215 E37.21464
G1 X121.115 Y138.68 E37.29896
G1 X121.04 Y136.102 E37.38474
G1 X120.899 Y133.622 E37.46735
G1 X120.678 Y131.05 E37.55321
G1 X120.389 Y128.522 E37.63784
G1 X120.035 Y126.044 E37.7211
G1 X119.604 Y123.537 E37.80571
G1 X119.101 Y121.033 E37.89065
G1 X118.527 Y118.549 E37.97545
