;FLAVOR:Marlin
;TIME:2473
;Filament used: 1.64252m
;Layer height: 0.16
;MINX:132.2
;MINY:129.19
;MINZ:0.2
;MAXX:171.021
;MAXY:167.8
;MAXZ:19.88
;TARGET_MACHINE.NAME:Creality CR-10S
;Generated with Cura_SteamEngine 5.8.0
M140 S60
M105
M190 S60
M104 S210
M105
M109 S210
M82 ;absolute extrusion mode
M220 S100 ;Reset Feedrate
M221 S100 ;Reset Flowrate

M280 P0 S160 ;reset bltouch
G28 ;Home
G29 A ; enable UBL
G92 E0 ;Reset Extruder
G1 Z2.0 F3000 ;Move Z Axis up
G1 X10.1 Y20 Z0.28 F5000.0 ;Move to start position
G1 X10.1 Y200.0 Z0.28 F1500.0 E15 ;Draw the first line
G1 X10.4 Y200.0 Z0.28 F5000.0 ;Move to side a little
G1 X10.4 Y20 Z0.28 F1500.0 E30 ;Draw the second line
G92 E0 ;Reset Extruder
G1 Z2.0 F3000 ;Move Z Axis up
G92 E0
G92 E0
G1 F2100 E-1.5
;LAYER_COUNT:101
;LAYER:0
M107
G0 F6000 X133.719 Y135.223 Z0.2
;TYPE:SKIRT
G1 F2100 E0
G1 F1200 X135.288 Y133.756 E0.07144
G1 X136.953 Y132.775 E0.13572
G1 X137.573 Y132.509 E0.15816
G1 X139.294 Y132.25 E0.21604
G1 X141.819 Y132.215 E0.30003
G1 X142.864 Y131.283 E0.3466
G1 X144.186 Y130.332 E0.40077
G1 X146.527 Y129.451 E0.48396
G1 X148.202 Y129.236 E0.54013
G1 X151.357 Y129.19 E0.64508
G1 X153.727 Y129.901 E0.72737
G1 X155.261 Y130.554 E0.78283
G1 X156.875 Y131.873 E0.85215
G1 X157.278 Y132.081 E0.86724
G1 X157.443 Y132.2 E0.874
G1 X160.853 Y132.2 E0.98742
G1 X162.749 Y132.666 E1.05236
G1 X164.777 Y133.719 E1.12836
G1 X166.254 Y135.298 E1.20027
G1 X167.197 Y136.892 E1.26187
G1 X167.501 Y137.64 E1.28873
G1 X167.751 Y139.299 E1.34453
G1 X167.785 Y141.548 E1.41934
G1 X168.047 Y142.014 E1.43712
G1 X168.272 Y142.276 E1.44861
G1 X168.82 Y142.985 E1.47841
G1 X169.587 Y144.176 E1.52553
G1 X170.55 Y146.101 E1.59712
G1 X171.021 Y148.365 E1.67403
G1 X170.909 Y151.23 E1.76939
G1 X170.805 Y151.856 E1.7905
G1 X170.031 Y154.157 E1.87125
G1 X169.547 Y155.081 E1.90594
G1 X168.718 Y156.332 E1.95585
G1 X168.052 Y157.134 E1.99053
G1 X167.8 Y157.574 E2.00739
G1 X167.8 Y160.853 E2.11645
G1 X167.334 Y162.749 E2.18139
G1 X166.281 Y164.777 E2.25739
G1 X164.72 Y166.236 E2.32846
G1 X162.697 Y167.443 E2.40681
G1 X160.979 Y167.725 E2.46471
G1 X139.147 Y167.8 E3.19085
G1 X137.251 Y167.334 E3.25579
G1 X135.223 Y166.281 E3.33179
G1 X133.764 Y164.72 E3.40286
G1 X132.557 Y162.697 E3.48121
G1 X132.275 Y160.979 E3.53912
G1 X132.2 Y139.147 E4.26526
G1 X132.666 Y137.251 E4.33019
G1 X133.719 Y135.223 E4.4062
G0 F6000 X134.042 Y135.468
G1 F1200 X135.527 Y134.08 E4.4738
G1 X137.156 Y133.12 E4.53669
G1 X137.68 Y132.898 E4.55562
G1 X139.354 Y132.646 E4.61193
G1 X141.974 Y132.613 E4.69907
G1 X143.13 Y131.582 E4.75059
G1 X144.377 Y130.687 E4.80165
G1 X146.621 Y129.843 E4.88139
G1 X148.208 Y129.636 E4.93462
G1 X151.302 Y129.591 E5.03753
G1 X153.57 Y130.269 E5.11627
G1 X155.052 Y130.9 E5.16984
G1 X156.653 Y132.208 E5.2386
G1 X157.094 Y132.436 E5.25511
G1 X157.308 Y132.6 E5.26408
G1 X160.807 Y132.6 E5.38046
G1 X162.606 Y133.042 E5.44207
G1 X164.532 Y134.042 E5.51425
G1 X165.93 Y135.537 E5.58233
G1 X166.826 Y137.043 E5.64061
G1 X167.112 Y137.747 E5.66589
G1 X167.355 Y139.359 E5.72011
G1 X167.386 Y141.678 E5.79725
G1 X167.46 Y141.781 E5.80146
G1 X167.718 Y142.245 E5.81912
G1 X167.956 Y142.521 E5.83124
G1 X168.484 Y143.202 E5.8599
G1 X169.229 Y144.355 E5.90556
G1 X170.168 Y146.233 E5.9754
G1 X170.619 Y148.399 E6.04898
G1 X170.514 Y151.164 E6.14101
G1 X170.41 Y151.79 E6.16212
G1 X169.677 Y153.971 E6.23865
G1 X169.193 Y154.895 E6.27334
G1 X168.41 Y156.076 E6.32047
G1 X167.723 Y156.903 E6.35623
G1 X167.4 Y157.468 E6.37787
G1 X167.4 Y160.807 E6.48893
G1 X166.958 Y162.606 E6.55055
G1 X165.958 Y164.532 E6.62272
G1 X164.481 Y165.912 E6.68995
G1 X162.557 Y167.06 E6.76447
G1 X160.914 Y167.33 E6.81985
G1 X139.193 Y167.4 E7.5423
G1 X137.394 Y166.958 E7.60391
G1 X135.468 Y165.958 E7.67609
G1 X134.088 Y164.481 E7.74332
G1 X132.94 Y162.557 E7.81784
G1 X132.67 Y160.914 E7.87322
G1 X132.6 Y139.193 E8.59567
G1 X133.042 Y137.394 E8.65728
G1 X134.042 Y135.468 E8.72946
G0 F6000 X134.365 Y135.713
G1 F1200 X135.766 Y134.404 E8.79323
G1 X137.359 Y133.465 E8.85474
G1 X137.787 Y133.287 E8.87015
G1 X139.414 Y133.042 E8.92488
G1 X142.129 Y133.011 E9.01519
G1 X143.363 Y131.907 E9.07026
G1 X144.568 Y131.042 E9.11959
G1 X146.716 Y130.234 E9.19592
G1 X148.214 Y130.036 E9.24618
G1 X151.248 Y129.992 E9.3471
G1 X153.413 Y130.637 E9.42224
G1 X154.845 Y131.247 E9.47401
G1 X156.309 Y132.436 E9.53674
G1 X156.422 Y132.539 E9.54182
G1 X156.91 Y132.791 E9.56009
G1 X157.165 Y133 E9.57105
G1 X160.76 Y133 E9.69062
G1 X162.464 Y133.419 E9.74899
G1 X164.287 Y134.365 E9.8173
G1 X165.606 Y135.776 E9.88154
G1 X166.482 Y137.248 E9.93851
G1 X166.722 Y137.849 E9.96004
G1 X166.959 Y139.419 E10.01285
G1 X166.988 Y141.817 E10.09261
G1 X167.111 Y141.976 E10.0993
G1 X167.389 Y142.475 E10.1183
G1 X167.64 Y142.767 E10.1311
G1 X168.148 Y143.42 E10.15862
G1 X168.871 Y144.534 E10.20279
G1 X169.786 Y146.365 E10.27087
G1 X170.217 Y148.434 E10.34116
G1 X170.119 Y151.098 E10.42983
G1 X170.015 Y151.724 E10.45094
G1 X169.323 Y153.785 E10.52324
G1 X168.839 Y154.709 E10.55794
G1 X168.102 Y155.82 E10.60228
G1 X167.396 Y156.67 E10.63903
G1 X167 Y157.363 E10.66558
G1 X167 Y160.76 E10.77856
G1 X166.581 Y162.464 E10.83693
G1 X165.635 Y164.287 E10.90524
G1 X164.239 Y165.591 E10.96878
G1 X162.419 Y166.677 E11.03927
G1 X160.849 Y166.935 E11.09219
G1 X139.24 Y167 E11.81091
G1 X137.536 Y166.581 E11.86927
G1 X135.713 Y165.635 E11.93758
G1 X134.409 Y164.239 E12.00112
G1 X133.323 Y162.419 E12.07161
G1 X133.065 Y160.849 E12.12453
G1 X133 Y139.24 E12.84325
G1 X133.419 Y137.536 E12.90161
G1 X134.365 Y135.713 E12.96992
G0 F6000 X134.688 Y135.958
G1 F1200 X136.005 Y134.728 E13.02986
G1 X137.562 Y133.81 E13.08998
G1 X137.894 Y133.676 E13.10188
G1 X139.474 Y133.438 E13.15503
G1 X142.226 Y133.41 E13.24657
G1 X142.495 Y133.22 E13.25752
G1 X143.596 Y132.232 E13.30672
G1 X144.759 Y131.397 E13.35434
G1 X146.81 Y130.626 E13.42722
G1 X148.267 Y130.433 E13.4761
G1 X151.194 Y130.393 E13.57346
G1 X153.256 Y131.005 E13.645
G1 X154.636 Y131.593 E13.69489
G1 X156.04 Y132.732 E13.75502
G1 X156.192 Y132.87 E13.76185
G1 X156.726 Y133.146 E13.78185
G1 X157.013 Y133.4 E13.79459
G1 X160.714 Y133.4 E13.91769
G1 X162.321 Y133.795 E13.97273
G1 X164.042 Y134.688 E14.03722
G1 X165.282 Y136.015 E14.09762
G1 X166.138 Y137.453 E14.15328
G1 X166.333 Y137.953 E14.17113
G1 X166.563 Y139.479 E14.22246
G1 X166.59 Y141.961 E14.30502
G1 X166.762 Y142.171 E14.31405
G1 X167.06 Y142.706 E14.33441
G1 X167.325 Y143.013 E14.3479
G1 X167.813 Y143.638 E14.37428
G1 X168.513 Y144.713 E14.41694
G1 X169.404 Y146.497 E14.48327
G1 X169.815 Y148.469 E14.55027
G1 X169.724 Y151.032 E14.63557
G1 X169.62 Y151.658 E14.65667
G1 X168.968 Y153.6 E14.72481
G1 X168.505 Y154.488 E14.75812
G1 X167.794 Y155.564 E14.80101
G1 X167.069 Y156.437 E14.83875
G1 X166.6 Y157.258 E14.8702
G1 X166.6 Y160.714 E14.98515
G1 X166.205 Y162.321 E15.04019
G1 X165.312 Y164.042 E15.10468
G1 X163.997 Y165.27 E15.16452
G1 X162.281 Y166.294 E15.23098
G1 X160.784 Y166.54 E15.28144
G1 X139.286 Y166.6 E15.99647
G1 X137.679 Y166.205 E16.05151
G1 X135.958 Y165.312 E16.116
G1 X134.73 Y163.997 E16.17584
G1 X133.706 Y162.281 E16.24231
G1 X133.46 Y160.784 E16.29276
G1 X133.4 Y139.286 E17.00779
G1 X133.795 Y137.679 E17.06283
G1 X134.688 Y135.958 E17.12732
G0 F6000 X135.011 Y136.203
G1 F1200 X136.245 Y135.051 E17.18347
G1 X137.712 Y134.181 E17.2402
G1 X137.999 Y134.065 E17.25049
G1 X139.534 Y133.834 E17.30212
G1 X142.354 Y133.809 E17.39592
G1 X142.748 Y133.53 E17.41198
G1 X143.829 Y132.557 E17.46035
G1 X144.95 Y131.752 E17.50625
G1 X146.905 Y131.017 E17.57572
G1 X148.319 Y130.83 E17.62316
G1 X151.138 Y130.794 E17.71693
G1 X153.099 Y131.373 E17.78493
G1 X154.427 Y131.939 E17.83295
G1 X155.788 Y133.043 E17.89123
G1 X155.961 Y133.201 E17.89903
G1 X156.497 Y133.478 E17.91909
G1 X156.861 Y133.8 E17.93526
G1 X160.668 Y133.8 E18.06188
G1 X162.178 Y134.171 E18.1136
G1 X163.797 Y135.011 E18.17426
G1 X164.958 Y136.254 E18.23083
G1 X165.794 Y137.658 E18.28518
G1 X165.943 Y138.053 E18.29922
G1 X166.167 Y139.539 E18.3492
G1 X166.191 Y142.115 E18.43489
G1 X166.413 Y142.366 E18.44603
G1 X166.731 Y142.937 E18.46777
G1 X167.01 Y143.26 E18.48197
G1 X167.478 Y143.857 E18.5072
G1 X168.155 Y144.892 E18.54833
G1 X169.022 Y146.629 E18.6129
G1 X169.413 Y148.504 E18.6766
G1 X169.329 Y150.966 E18.75854
G1 X169.225 Y151.592 E18.77964
G1 X168.613 Y153.415 E18.8436
G1 X168.15 Y154.303 E18.87691
G1 X167.486 Y155.309 E18.917
G1 X166.739 Y156.209 E18.9559
G1 X166.306 Y156.966 E18.98491
G1 X166.2 Y157.101 E18.99062
G1 X166.2 Y160.668 E19.10926
G1 X165.829 Y162.178 E19.16097
G1 X164.989 Y163.797 E19.22164
G1 X163.755 Y164.949 E19.27779
G1 X162.143 Y165.911 E19.34022
G1 X160.719 Y166.145 E19.38822
G1 X139.332 Y166.2 E20.09956
G1 X137.822 Y165.829 E20.15127
G1 X136.203 Y164.989 E20.21194
G1 X135.051 Y163.755 E20.26809
G1 X134.089 Y162.143 E20.33052
G1 X133.855 Y160.719 E20.37852
G1 X133.8 Y139.332 E21.08986
G1 X134.171 Y137.822 E21.14158
G1 X135.011 Y136.203 E21.20224
G0 F6000 X135.334 Y136.448
G1 F1200 X136.487 Y135.372 E21.25469
G1 X137.861 Y134.552 E21.30791
G1 X138.102 Y134.455 E21.31655
G1 X139.594 Y134.23 E21.36674
G1 X142.483 Y134.208 E21.46283
G1 X142.996 Y133.845 E21.48373
G1 X144.062 Y132.882 E21.53151
G1 X145.141 Y132.107 E21.5757
G1 X147 Y131.408 E21.64175
G1 X148.371 Y131.227 E21.68775
G1 X151.082 Y131.195 E21.77792
G1 X152.942 Y131.741 E21.8424
G1 X154.218 Y132.285 E21.88853
G1 X155.536 Y133.354 E21.94498
G1 X155.731 Y133.533 E21.95378
G1 X156.272 Y133.812 E21.97403
G1 X156.71 Y134.2 E21.99349
G1 X160.621 Y134.2 E22.12357
G1 X162.036 Y134.548 E22.17204
G1 X163.552 Y135.334 E22.22883
G1 X164.634 Y136.493 E22.28157
G1 X165.45 Y137.863 E22.3346
G1 X165.553 Y138.152 E22.34481
G1 X165.771 Y139.599 E22.39348
G1 X165.792 Y142.277 E22.48255
G1 X166.064 Y142.561 E22.49563
G1 X166.402 Y143.168 E22.51874
G1 X166.696 Y143.507 E22.53366
G1 X167.144 Y144.077 E22.55778
G1 X167.797 Y145.071 E22.59733
G1 X168.641 Y146.761 E22.66016
G1 X169.011 Y148.539 E22.72057
G1 X168.934 Y150.9 E22.79914
G1 X168.83 Y151.526 E22.82024
G1 X168.258 Y153.23 E22.88003
G1 X167.795 Y154.118 E22.91333
G1 X167.178 Y155.054 E22.95062
G1 X166.409 Y155.981 E22.99068
G1 X165.959 Y156.767 E23.0208
G1 X165.8 Y156.951 E23.02889
G1 X165.8 Y160.621 E23.15096
G1 X165.452 Y162.036 E23.19942
G1 X164.666 Y163.552 E23.25622
G1 X163.513 Y164.628 E23.30867
G1 X162.005 Y165.528 E23.36708
G1 X160.654 Y165.75 E23.41262
G1 X139.379 Y165.8 E24.12023
G1 X137.964 Y165.452 E24.1687
G1 X136.448 Y164.666 E24.22549
G1 X135.372 Y163.513 E24.27795
G1 X134.472 Y162.005 E24.33636
G1 X134.25 Y160.654 E24.38189
G1 X134.2 Y139.379 E25.08951
G1 X134.548 Y137.964 E25.13797
G1 X135.334 Y136.448 E25.19477
G0 F6000 X135.657 Y136.693
G1 F1200 X136.729 Y135.693 E25.24353
G1 X138.066 Y134.895 E25.29531
G1 X138.209 Y134.843 E25.30038
G1 X139.597 Y134.63 E25.34708
G1 X142.64 Y134.607 E25.44829
G1 X142.758 Y134.499 E25.45361
G1 X143.244 Y134.16 E25.47332
G1 X144.295 Y133.207 E25.52051
G1 X145.332 Y132.462 E25.56298
G1 X147.095 Y131.799 E25.62563
G1 X148.423 Y131.624 E25.67018
G1 X151.027 Y131.596 E25.75679
G1 X152.785 Y132.109 E25.8177
G1 X154.009 Y132.631 E25.86196
G1 X155.265 Y133.649 E25.91573
G1 X155.499 Y133.864 E25.9263
G1 X156.044 Y134.145 E25.9467
G1 X156.558 Y134.6 E25.96953
G1 X160.575 Y134.6 E26.10313
G1 X161.893 Y134.924 E26.14828
G1 X163.307 Y135.657 E26.20125
G1 X164.31 Y136.732 E26.25015
G1 X165.106 Y138.068 E26.30188
G1 X165.157 Y138.212 E26.30696
G1 X165.375 Y139.659 E26.35563
G1 X165.393 Y142.438 E26.44806
G1 X165.739 Y142.8 E26.46471
G1 X166.073 Y143.399 E26.48752
G1 X166.382 Y143.755 E26.5032
G1 X166.81 Y144.297 E26.52617
G1 X167.439 Y145.25 E26.56415
G1 X168.26 Y146.893 E26.62524
G1 X168.609 Y148.574 E26.68234
G1 X168.539 Y150.834 E26.75755
G1 X168.435 Y151.46 E26.77865
G1 X167.903 Y153.045 E26.83426
G1 X167.44 Y153.933 E26.86757
G1 X166.87 Y154.798 E26.90202
G1 X166.199 Y155.606 E26.93696
G1 X166.043 Y155.814 E26.9456
G1 X165.612 Y156.568 E26.97449
G1 X165.4 Y156.793 E26.98477
G1 X165.4 Y160.575 E27.11056
G1 X165.076 Y161.893 E27.1557
G1 X164.343 Y163.307 E27.20868
G1 X163.271 Y164.307 E27.25744
G1 X161.867 Y165.145 E27.31182
G1 X160.589 Y165.355 E27.3549
G1 X139.425 Y165.4 E28.05882
G1 X138.107 Y165.076 E28.10396
G1 X136.693 Y164.343 E28.15693
G1 X135.693 Y163.271 E28.20569
G1 X134.855 Y161.867 E28.26007
G1 X134.645 Y160.589 E28.30315
G1 X134.6 Y139.425 E29.00707
G1 X134.924 Y138.107 E29.05221
G1 X135.657 Y136.693 E29.10518
G0 F6000 X135.979 Y136.94
G1 F1200 X136.974 Y136.012 E29.15044
G1 X138.271 Y135.238 E29.20067
G1 X139.6 Y135.03 E29.24541
G1 X142.807 Y135.006 E29.35208
G1 X142.987 Y134.827 E29.36053
G1 X143.494 Y134.474 E29.38107
G1 X144.528 Y133.532 E29.4276
G1 X145.523 Y132.817 E29.46835
G1 X147.19 Y132.19 E29.52759
G1 X148.475 Y132.021 E29.57069
G1 X150.973 Y131.997 E29.65378
G1 X152.628 Y132.477 E29.71109
G1 X153.8 Y132.977 E29.75347
G1 X154.994 Y133.944 E29.80458
G1 X155.265 Y134.193 E29.81682
G1 X155.815 Y134.477 E29.83741
G1 X156.406 Y135 E29.86365
G1 X160.529 Y135 E30.00079
G1 X161.75 Y135.3 E30.0426
G1 X163.06 Y135.979 E30.09168
G1 X163.988 Y136.974 E30.13693
G1 X164.762 Y138.273 E30.18723
G1 X164.975 Y139.662 E30.23396
G1 X164.994 Y142.6 E30.33169
G1 X165.416 Y143.041 E30.35199
G1 X165.744 Y143.63 E30.37441
G1 X166.069 Y144.004 E30.39089
G1 X166.477 Y144.518 E30.41272
G1 X167.081 Y145.429 E30.44907
G1 X167.879 Y147.025 E30.50842
G1 X168.208 Y148.609 E30.56223
G1 X168.144 Y150.768 E30.63407
G1 X168.04 Y151.394 E30.65517
G1 X167.548 Y152.86 E30.70661
G1 X167.085 Y153.748 E30.73992
G1 X166.562 Y154.542 E30.77154
G1 X165.891 Y155.35 E30.80647
G1 X165.708 Y155.594 E30.81661
G1 X165.265 Y156.369 E30.84631
G1 X165 Y156.621 E30.85847
G1 X165 Y160.529 E30.98845
G1 X164.7 Y161.75 E31.03027
G1 X164.021 Y163.06 E31.07934
G1 X163.026 Y163.988 E31.1246
G1 X161.729 Y164.762 E31.17483
G1 X160.524 Y164.96 E31.21545
G1 X139.471 Y165 E31.91568
G1 X138.25 Y164.7 E31.95749
G1 X136.94 Y164.021 E32.00657
G1 X136.012 Y163.026 E32.05182
G1 X135.238 Y161.729 E32.10206
G1 X135.04 Y160.524 E32.14267
G1 X135 Y139.471 E32.8429
G1 X135.3 Y138.25 E32.88472
G1 X135.979 Y136.94 E32.9338
G0 F6000 X136.301 Y137.187
G1 F1200 X137.216 Y136.334 E32.9754
G1 X138.411 Y135.621 E33.02169
G1 X139.603 Y135.43 E33.06184
G1 X142.981 Y135.405 E33.17419
G1 X143.215 Y135.155 E33.18558
G1 X143.747 Y134.785 E33.20713
G1 X144.761 Y133.857 E33.25285
G1 X145.714 Y133.172 E33.29189
G1 X147.288 Y132.58 E33.34782
G1 X148.479 Y132.421 E33.38778
G1 X150.919 Y132.398 E33.46894
G1 X152.517 Y132.861 E33.52428
G1 X153.589 Y133.322 E33.56309
G1 X154.742 Y134.255 E33.61242
G1 X155.034 Y134.524 E33.62563
G1 X155.586 Y134.809 E33.64629
G1 X156.254 Y135.4 E33.67595
G1 X160.483 Y135.4 E33.81661
G1 X161.607 Y135.676 E33.85511
G1 X162.813 Y136.301 E33.90028
G1 X163.666 Y137.216 E33.94189
G1 X164.379 Y138.412 E33.9882
G1 X164.575 Y139.665 E34.03038
G1 X164.595 Y142.761 E34.13336
G1 X165.091 Y143.28 E34.15724
G1 X165.415 Y143.861 E34.17936
G1 X165.756 Y144.254 E34.19667
G1 X166.144 Y144.74 E34.21735
G1 X166.723 Y145.608 E34.25206
G1 X167.498 Y147.157 E34.30966
G1 X167.807 Y148.645 E34.36021
G1 X167.749 Y150.702 E34.42865
G1 X167.645 Y151.328 E34.44976
G1 X167.193 Y152.675 E34.49702
G1 X166.73 Y153.563 E34.53033
G1 X166.254 Y154.286 E34.55912
G1 X165.583 Y155.094 E34.59405
G1 X165.373 Y155.374 E34.60569
G1 X164.918 Y156.17 E34.63619
G1 X164.6 Y156.432 E34.64989
G1 X164.6 Y160.483 E34.78463
G1 X164.324 Y161.607 E34.82312
G1 X163.699 Y162.813 E34.8683
G1 X162.784 Y163.666 E34.90991
G1 X161.589 Y164.379 E34.95619
G1 X160.459 Y164.565 E34.99428
G1 X139.517 Y164.6 E35.69081
G1 X138.393 Y164.324 E35.72931
G1 X137.187 Y163.699 E35.77449
G1 X136.334 Y162.784 E35.81609
G1 X135.621 Y161.589 E35.86238
G1 X135.435 Y160.459 E35.90046
G1 X135.4 Y139.517 E36.597
G1 X135.676 Y138.393 E36.63549
G1 X136.301 Y137.187 E36.68067
G0 F6000 X136.623 Y137.434
G1 F1200 X137.458 Y136.656 E36.71863
G1 X138.551 Y136.004 E36.76096
G1 X139.606 Y135.83 E36.79653
G1 X143.156 Y135.804 E36.9146
G1 X143.477 Y135.46 E36.93025
G1 X144.001 Y135.095 E36.95149
