;FLAVOR:Marlin
;TIME:17069
;Filament used: 12.3863m
;Layer height: 0.2
;MINX:65.691
;MINY:124.005
;MINZ:0.2
;MAXX:235.686
;MAXY:175.46
;MAXZ:50
;Generated with Cura_SteamEngine master
M140 S55
M105
M190 S55
M104 S210
M105
M109 S210
M82 ;absolute extrusion mode
M201 X500.00 Y500.00 Z100.00 E5000.00 ;Setup machine max acceleration
M203 X500.00 Y500.00 Z10.00 E50.00 ;Setup machine max feedrate
M204 P500.00 R1000.00 T500.00 ;Setup Print/Retract/Travel acceleration
M205 X8.00 Y8.00 Z0.40 E5.00 ;Setup Jerk
M220 S100 ;Reset Feedrate
M221 S100 ;Reset Flowrate

G28 ;Home

G92 E0 ;Reset Extruder
G1 Z2.0 F3000 ;Move Z Axis up
G1 X10.1 Y20 Z0.28 F5000.0 ;Move to start position
G1 X10.1 Y200.0 Z0.28 F1500.0 E15 ;Draw the first line
G1 X10.4 Y200.0 Z0.28 F5000.0 ;Move to side a little
G1 X10.4 Y20 Z0.28 F1500.0 E30 ;Draw the second line
G92 E0 ;Reset Extruder
G1 Z2.0 F3000 ;Move Z Axis up

G92 E0
G92 E0
G1 F2700 E-5
;LAYER_COUNT:250
;LAYER:0
M107
G0 F6000 X71.347 Y125.532 Z0.2
;TYPE:SKIRT
G1 F2700 E0
G1 F1200 X72.176 Y125.092 E0.03122
G1 X73.038 Y124.723 E0.0624
G1 X73.929 Y124.43 E0.0936
G1 X74.841 Y124.214 E0.12477
G1 X75.769 Y124.076 E0.15598
G1 X76.646 Y124.018 E0.18521
G1 X77.044 Y124.008 E0.19845
G1 X77.32 Y124.005 E0.20763
G1 X222.381 Y124.005 E5.03238
G1 X223.237 Y124.016 E5.06085
G1 X224.173 Y124.07 E5.09204
G1 X225.101 Y124.202 E5.12321
G1 X226.015 Y124.414 E5.15442
G1 X226.907 Y124.703 E5.1856
G1 X227.772 Y125.066 E5.21681
G1 X228.602 Y125.502 E5.24799
G1 X229.393 Y126.007 E5.2792
G1 X230.137 Y126.578 E5.31039
G1 X230.83 Y127.21 E5.34159
G1 X231.467 Y127.898 E5.37277
G1 X232.042 Y128.639 E5.40397
G1 X232.553 Y129.425 E5.43515
G1 X232.995 Y130.253 E5.46637
G1 X233.364 Y131.115 E5.49756
G1 X233.659 Y132.005 E5.52874
G1 X233.877 Y132.917 E5.55993
G1 X234.017 Y133.845 E5.59114
G1 X234.074 Y134.695 E5.61948
G1 X234.116 Y136.145 E5.66773
G1 X234.14 Y137.075 E5.69867
G1 X234.271 Y139.656 E5.78462
G1 X234.467 Y142.115 E5.86667
G1 X234.74 Y144.648 E5.9514
G1 X235.083 Y147.164 E6.03586
G1 X235.445 Y149.371 E6.11025
G1 X235.483 Y149.62 E6.11862
G1 X235.584 Y150.339 E6.14277
G1 X235.675 Y151.272 E6.17395
G1 X235.686 Y152.21 E6.20515
G1 X235.617 Y153.145 E6.23634
G1 X235.468 Y154.071 E6.26753
G1 X235.241 Y154.982 E6.29876
G1 X234.938 Y155.869 E6.32993
G1 X234.56 Y156.727 E6.36112
G1 X234.11 Y157.55 E6.39231
G1 X233.592 Y158.332 E6.42351
G1 X233.009 Y159.067 E6.45472
G1 X232.366 Y159.749 E6.48589
G1 X231.408 Y160.58 E6.52807
G1 X231.076 Y160.836 E6.54202
G1 X230.827 Y161.023 E6.55237
G1 X230.556 Y161.22 E6.56352
G1 X229.775 Y161.738 E6.59469
G1 X228.637 Y162.337 E6.63746
G1 X228.386 Y162.451 E6.64663
G1 X228.093 Y162.579 E6.65726
G1 X227.767 Y162.715 E6.66901
G1 X225.637 Y163.572 E6.74537
G1 X223.324 Y164.579 E6.82928
G1 X221.05 Y165.647 E6.91284
G1 X218.804 Y166.781 E6.99652
G1 X216.591 Y167.978 E7.08021
G1 X214.437 Y169.223 E7.16295
G1 X212.243 Y170.574 E7.24865
G1 X210.132 Y171.959 E7.33263
G1 X209.798 Y172.187 E7.34608
G1 X209.354 Y172.482 E7.36381
G1 X208.552 Y172.967 E7.39498
G1 X207.711 Y173.382 E7.42617
G1 X206.838 Y173.724 E7.45736
G1 X205.938 Y173.991 E7.48858
G1 X205.424 Y174.106 E7.5061
G1 X204.958 Y174.193 E7.52187
G1 X204.277 Y174.304 E7.54481
G1 X203.844 Y174.369 E7.55938
G1 X203.089 Y174.472 E7.58472
G1 X202.155 Y174.559 E7.61592
G1 X201.217 Y174.566 E7.64712
G1 X200.309 Y174.497 E7.67741
G1 X199.618 Y174.414 E7.70056
G1 X197.993 Y174.2 E7.75507
G1 X195.465 Y173.94 E7.83959
G1 X193.652 Y173.798 E7.90008
G1 X193.215 Y173.757 E7.91468
G1 X190.713 Y173.558 E7.99816
G1 X188.146 Y173.426 E8.08365
G1 X185.656 Y173.369 E8.16649
G1 X183.133 Y173.382 E8.25041
G1 X180.613 Y173.467 E8.33427
G1 X178.095 Y173.623 E8.41818
G1 X175.602 Y173.849 E8.50144
G1 X173.087 Y174.148 E8.58567
G1 X170.809 Y174.483 E8.66226
G1 X170.646 Y174.505 E8.66773
G1 X169.332 Y174.603 E8.71155
G1 X168.281 Y174.618 E8.74651
G1 X167.921 Y174.617 E8.75849
G1 X167.218 Y174.604 E8.78187
G1 X166.282 Y174.547 E8.81306
G1 X165.375 Y174.414 E8.84355
G1 X164.782 Y174.302 E8.86362
G1 X162.174 Y173.846 E8.95168
G1 X159.715 Y173.487 E9.03433
G1 X157.219 Y173.194 E9.11792
G1 X154.689 Y172.97 E9.2024
G1 X152.188 Y172.82 E9.28573
G1 X149.69 Y172.741 E9.36886
G1 X147.166 Y172.732 E9.45281
G1 X144.643 Y172.794 E9.53675
G1 X142.113 Y172.928 E9.62101
G1 X139.622 Y173.131 E9.70414
G1 X137.15 Y173.403 E9.78685
G1 X133.557 Y173.921 E9.90759
G1 X132.854 Y174.036 E9.93129
G1 X131.922 Y174.148 E9.96251
G1 X130.717 Y174.174 E10.00259
G1 X130.052 Y174.152 E10.02472
G1 X128.657 Y174.083 E10.07118
G1 X126.171 Y174.03 E10.15388
G1 X123.592 Y174.046 E10.23966
G1 X123.097 Y174.06 E10.25613
G1 X122.511 Y174.067 E10.27562
G1 X122.214 Y174.067 E10.2855
G1 X121.213 Y174.052 E10.3188
G1 X118.638 Y174.048 E10.40445
G1 X116.109 Y174.117 E10.48859
G1 X113.604 Y174.256 E10.57204
G1 X111.095 Y174.466 E10.65578
G1 X108.62 Y174.744 E10.73861
G1 X106.098 Y175.1 E10.82333
G1 X105.66 Y175.174 E10.8381
G1 X104.628 Y175.332 E10.87283
G1 X103.695 Y175.434 E10.90404
G1 X103.077 Y175.457 E10.92461
G1 X102.769 Y175.46 E10.93486
G1 X102.459 Y175.459 E10.94517
G1 X101.494 Y175.44 E10.97727
G1 X100.749 Y175.416 E11.00206
G1 X100.112 Y175.377 E11.02329
G1 X98.838 Y175.262 E11.06583
G1 X96.295 Y175.069 E11.15066
G1 X94.251 Y174.978 E11.21871
G1 X94.042 Y174.956 E11.2257
G1 X93.371 Y174.928 E11.24803
G1 X92.715 Y174.892 E11.26989
G1 X91.782 Y174.801 E11.30107
G1 X90.86 Y174.631 E11.33225
G1 X89.955 Y174.382 E11.36347
G1 X89.403 Y174.189 E11.38292
G1 X88.878 Y173.989 E11.4016
G1 X86.442 Y173.1 E11.48785
G1 X84.412 Y172.419 E11.55907
G1 X83.487 Y172.12 E11.5914
G1 X82.608 Y171.794 E11.62258
G1 X81.551 Y171.282 E11.66164
G1 X81.361 Y171.177 E11.66886
G1 X81.001 Y170.968 E11.68271
G1 X79.965 Y170.342 E11.72297
G1 X79.387 Y169.982 E11.74562
G1 X78.612 Y169.453 E11.77683
G1 X77.886 Y168.859 E11.80803
G1 X77.111 Y168.097 E11.84418
G1 X75.294 Y166.124 E11.93339
G1 X73.531 Y164.317 E12.01735
G1 X71.737 Y162.578 E12.10045
G1 X69.829 Y160.831 E12.1865
G1 X69.439 Y160.489 E12.20375
G1 X68.761 Y159.841 E12.23494
G1 X68.14 Y159.138 E12.26614
G1 X67.582 Y158.385 E12.29731
G1 X67.09 Y157.586 E12.32852
G1 X66.667 Y156.749 E12.35971
G1 X66.318 Y155.879 E12.39089
G1 X66.044 Y154.982 E12.42209
G1 X65.847 Y154.065 E12.45328
G1 X65.729 Y153.134 E12.4845
G1 X65.691 Y152.197 E12.51569
G1 X65.704 Y151.676 E12.53302
G1 X65.76 Y150.566 E12.56999
G1 X65.8 Y149.942 E12.59078
G1 X65.891 Y147.4 E12.67538
G1 X65.912 Y145.492 E12.73885
G1 X65.912 Y135.531 E13.07015
G1 X65.923 Y134.84 E13.09314
G1 X65.978 Y133.904 E13.12432
G1 X66.113 Y132.975 E13.15555
G1 X66.326 Y132.062 E13.18673
G1 X66.616 Y131.17 E13.21792
G1 X66.981 Y130.306 E13.24912
G1 X67.418 Y129.477 E13.28029
G1 X67.924 Y128.687 E13.31149
G1 X68.496 Y127.944 E13.34268
G1 X69.129 Y127.252 E13.37387
G1 X69.819 Y126.616 E13.40508
G1 X70.56 Y126.041 E13.43628
G1 X71.347 Y125.532 E13.46745
G0 F6000 X71.726 Y125.776
G1 F1200 X72.547 Y125.36 E13.49806
G1 X73.402 Y125.017 E13.5287
G1 X74.282 Y124.749 E13.5593
G1 X75.183 Y124.559 E13.58993
G1 X76.097 Y124.447 E13.62055
G1 X76.656 Y124.418 E13.63917
G1 X77.054 Y124.408 E13.65241
G1 X77.32 Y124.405 E13.66126
G1 X222.381 Y124.405 E18.48601
G1 X223.231 Y124.416 E18.51428
G1 X224.15 Y124.469 E18.5449
G1 X225.061 Y124.602 E18.57552
G1 X225.957 Y124.813 E18.60614
G1 X226.831 Y125.101 E18.63674
G1 X227.678 Y125.464 E18.66739
G1 X228.489 Y125.899 E18.698
G1 X229.259 Y126.403 E18.72861
G1 X229.983 Y126.972 E18.75924
G1 X230.655 Y127.602 E18.78988
G1 X231.27 Y128.287 E18.82049
G1 X231.823 Y129.023 E18.85111
G1 X232.31 Y129.804 E18.88173
G1 X232.727 Y130.625 E18.91235
G1 X233.072 Y131.479 E18.94299
G1 X233.341 Y132.359 E18.97359
G1 X233.533 Y133.26 E19.00423
G1 X233.646 Y134.173 E19.03483
G1 X233.675 Y134.707 E19.05262
G1 X233.717 Y136.155 E19.1008
G1 X233.742 Y137.147 E19.1338
G1 X233.869 Y139.637 E19.21673
G1 X234.072 Y142.189 E19.30188
G1 X234.344 Y144.709 E19.38618
G1 X234.68 Y147.174 E19.46892
G1 X235.051 Y149.436 E19.54516
G1 X235.087 Y149.675 E19.5532
G1 X235.188 Y150.394 E19.57735
G1 X235.276 Y151.311 E19.60799
G1 X235.285 Y152.231 E19.63859
G1 X235.213 Y153.149 E19.66922
G1 X235.063 Y154.058 E19.69986
G1 X234.834 Y154.949 E19.73046
G1 X234.528 Y155.818 E19.7611
G1 X234.148 Y156.656 E19.79171
G1 X233.697 Y157.459 E19.82234
G1 X233.178 Y158.219 E19.85295
G1 X232.595 Y158.932 E19.88358
G1 X231.952 Y159.591 E19.9142
G1 X231.164 Y160.263 E19.94865
G1 X230.832 Y160.519 E19.96259
G1 X230.592 Y160.699 E19.97257
G1 X230.321 Y160.896 E19.98371
G1 X229.553 Y161.404 E20.01434
G1 X228.471 Y161.973 E20.055
G1 X228.22 Y162.087 E20.06417
G1 X227.938 Y162.211 E20.07442
G1 X227.618 Y162.344 E20.08594
G1 X225.464 Y163.21 E20.16316
G1 X223.173 Y164.208 E20.24627
G1 X220.879 Y165.286 E20.33058
G1 X218.613 Y166.43 E20.415
G1 X216.38 Y167.637 E20.49943
G1 X214.232 Y168.878 E20.58194
G1 X212.061 Y170.216 E20.66676
G1 X209.919 Y171.621 E20.75196
G1 X209.577 Y171.854 E20.76572
G1 X209.133 Y172.149 E20.78345
G1 X208.345 Y172.625 E20.81407
G1 X207.518 Y173.03 E20.8447
G1 X206.66 Y173.362 E20.8753
G1 X205.346 Y173.714 E20.92054
G1 X204.893 Y173.798 E20.93587
G1 X204.216 Y173.909 E20.95868
G1 X203.79 Y173.973 E20.97301
G1 X203.035 Y174.076 E20.99836
G1 X202.118 Y174.16 E21.02898
G1 X201.197 Y174.165 E21.05962
G1 X200.356 Y174.099 E21.08767
G1 X199.67 Y174.017 E21.11065
G1 X198.049 Y173.804 E21.16503
G1 X195.498 Y173.541 E21.25033
G1 X193.69 Y173.4 E21.31064
G1 X193.284 Y173.361 E21.32421
G1 X190.696 Y173.156 E21.41056
G1 X188.174 Y173.026 E21.49455
G1 X185.664 Y172.969 E21.57806
G1 X183.118 Y172.982 E21.66274
G1 X180.609 Y173.067 E21.74623
G1 X178.07 Y173.224 E21.83084
G1 X175.555 Y173.452 E21.91484
G1 X173.053 Y173.749 E21.99864
G1 X170.756 Y174.087 E22.07586
G1 X170.593 Y174.109 E22.08133
G1 X169.326 Y174.203 E22.12358
G1 X168.275 Y174.218 E22.15854
G1 X167.928 Y174.217 E22.17009
G1 X167.225 Y174.204 E22.19347
G1 X166.306 Y174.147 E22.2241
G1 X165.449 Y174.021 E22.25291
G1 X164.847 Y173.907 E22.27329
G1 X162.264 Y173.456 E22.3605
G1 X159.752 Y173.089 E22.44493
G1 X157.264 Y172.797 E22.52825
G1 X154.712 Y172.571 E22.61346
G1 X152.224 Y172.422 E22.69636
G1 X149.669 Y172.34 E22.78139
G1 X147.158 Y172.332 E22.8649
G1 X144.613 Y172.395 E22.94958
G1 X142.093 Y172.528 E23.03351
G1 X139.582 Y172.732 E23.1173
G1 X137.109 Y173.005 E23.20005
G1 X133.484 Y173.527 E23.32186
G1 X132.789 Y173.641 E23.34529
G1 X131.875 Y173.75 E23.3759
G1 X130.731 Y173.774 E23.41396
G1 X129.886 Y173.745 E23.44208
G1 X128.686 Y173.685 E23.48204
G1 X126.141 Y173.63 E23.56671
G1 X123.615 Y173.646 E23.65073
G1 X123.306 Y173.656 E23.66101
G1 X122.507 Y173.667 E23.68759
G1 X122.22 Y173.667 E23.69713
G1 X121.22 Y173.652 E23.7304
G1 X118.628 Y173.648 E23.81661
G1 X116.111 Y173.717 E23.90036
G1 X113.584 Y173.856 E23.98453
G1 X111.049 Y174.069 E24.06914
G1 X108.556 Y174.349 E24.15258
G1 X106.01 Y174.709 E24.2381
G1 X105.433 Y174.805 E24.25756
G1 X104.567 Y174.937 E24.28669
G1 X103.652 Y175.036 E24.31731
G1 X103.073 Y175.057 E24.33658
G1 X102.765 Y175.06 E24.34682
G1 X102.467 Y175.059 E24.35673
G1 X101.507 Y175.041 E24.38867
G1 X100.762 Y175.017 E24.41346
G1 X100.148 Y174.979 E24.43392
G1 X98.906 Y174.867 E24.4754
G1 X96.31 Y174.67 E24.56199
G1 X94.269 Y174.579 E24.62994
G1 X94.065 Y174.557 E24.63676
G1 X93.393 Y174.529 E24.65913
G1 X92.737 Y174.493 E24.68099
G1 X91.821 Y174.403 E24.7116
G1 X90.916 Y174.233 E24.74223
G1 X90.029 Y173.986 E24.77285
G1 X89.545 Y173.815 E24.78992
G1 X89.009 Y173.611 E24.809
G1 X86.579 Y172.724 E24.89504
G1 X84.581 Y172.054 E24.96513
G1 X83.61 Y171.74 E24.99907
G1 X82.748 Y171.419 E25.02966
G1 X81.745 Y170.932 E25.06675
G1 X81.555 Y170.827 E25.07397
G1 X81.208 Y170.626 E25.0873
G1 X80.176 Y170.003 E25.1274
G1 X79.598 Y169.643 E25.15005
G1 X78.838 Y169.122 E25.18069
G1 X78.127 Y168.538 E25.2113
G1 X77.405 Y167.826 E25.24502
G1 X75.574 Y165.839 E25.33489
G1 X73.831 Y164.051 E25.41794
G1 X71.986 Y162.263 E25.50339
G1 X70.104 Y160.539 E25.58828
G1 X69.703 Y160.188 E25.60601
G1 X69.038 Y159.552 E25.63661
G1 X68.43 Y158.86 E25.66725
G1 X67.885 Y158.118 E25.69787
G1 X67.406 Y157.332 E25.72849
G1 X66.997 Y156.507 E25.75911
G1 X66.662 Y155.65 E25.78972
G1 X66.402 Y154.766 E25.82036
G1 X66.22 Y153.864 E25.85097
G1 X66.116 Y152.949 E25.8816
G1 X66.104 Y151.695 E25.92331
G1 X66.16 Y150.591 E25.96008
G1 X66.199 Y149.979 E25.98047
G1 X66.29 Y147.419 E26.06567
G1 X66.312 Y145.492 E26.12977
G1 X66.312 Y135.537 E26.46087
G1 X66.323 Y134.846 E26.48386
G1 X66.378 Y133.927 E26.51448
G1 X66.512 Y133.016 E26.54511
G1 X66.725 Y132.121 E26.5757
G1 X67.014 Y131.247 E26.60632
G1 X67.379 Y130.401 E26.63697
G1 X67.815 Y129.591 E26.66756
G1 X68.32 Y128.821 E26.69819
G1 X68.89 Y128.098 E26.72881
G1 X69.521 Y127.427 E26.75945
G1 X70.207 Y126.813 E26.79007
G1 X70.944 Y126.262 E26.82067
G1 X71.726 Y125.776 E26.8513
G0 F6000 X72.103 Y126.025
G1 F1200 X72.917 Y125.634 E26.88133
G1 X73.763 Y125.317 E26.91138
G1 X74.633 Y125.075 E26.94142
G1 X75.521 Y124.912 E26.97144
G1 X76.666 Y124.818 E27.00965
G1 X77.064 Y124.808 E27.0229
G1 X77.32 Y124.805 E27.03141
G1 X222.381 Y124.805 E31.85616
G1 X223.225 Y124.816 E31.88423
G1 X224.127 Y124.869 E31.91429
G1 X225.02 Y125.001 E31.94431
G1 X225.898 Y125.212 E31.97434
G1 X226.754 Y125.5 E32.00438
G1 X227.581 Y125.862 E32.03441
G1 X228.373 Y126.297 E32.06446
G1 X229.124 Y126.799 E32.09451
G1 X229.827 Y127.366 E32.12455
G1 X230.477 Y127.993 E32.15458
G1 X231.069 Y128.675 E32.18462
G1 X231.599 Y129.406 E32.21465
G1 X232.061 Y130.182 E32.24469
G1 X232.454 Y130.995 E32.27473
G1 X232.772 Y131.84 E32.30475
G1 X233.015 Y132.71 E32.3348
G1 X233.18 Y133.598 E32.36484
G1 X233.275 Y134.719 E32.40226
G1 X233.317 Y136.165 E32.45037
G1 X233.342 Y137.137 E32.48271
G1 X233.472 Y139.691 E32.56777
G1 X233.674 Y142.228 E32.65242
G1 X233.944 Y144.739 E32.73641
G1 X234.288 Y147.252 E32.82077
G1 X234.656 Y149.501 E32.89657
G1 X234.691 Y149.731 E32.90431
G1 X234.792 Y150.45 E32.92846
G1 X234.878 Y151.349 E32.9585
G1 X234.884 Y152.252 E32.98853
G1 X234.81 Y153.152 E33.01857
G1 X234.657 Y154.042 E33.0486
G1 X234.425 Y154.915 E33.07865
G1 X234.118 Y155.764 E33.10867
G1 X233.736 Y156.583 E33.13873
G1 X233.284 Y157.365 E33.16877
G1 X232.764 Y158.103 E33.1988
G1 X232.181 Y158.793 E33.22884
G1 X231.539 Y159.428 E33.25888
G1 X230.919 Y159.947 E33.28577
G1 X230.587 Y160.203 E33.29971
G1 X230.357 Y160.375 E33.30927
G1 X230.086 Y160.572 E33.32041
G1 X229.332 Y161.071 E33.35048
G1 X228.306 Y161.609 E33.38901
G1 X228.055 Y161.723 E33.39818
G1 X227.783 Y161.842 E33.40806
G1 X227.468 Y161.973 E33.4194
G1 X225.333 Y162.831 E33.49593
G1 X222.993 Y163.851 E33.58084
G1 X220.693 Y164.931 E33.66535
G1 X218.436 Y166.071 E33.74945
G1 X216.196 Y167.282 E33.83414
G1 X214.028 Y168.534 E33.91741
G1 X211.828 Y169.89 E34.00336
G1 X209.684 Y171.296 E34.08864
G1 X209.356 Y171.521 E34.10187
G1 X208.912 Y171.816 E34.1196
G1 X208.138 Y172.282 E34.14965
G1 X207.326 Y172.677 E34.17968
G1 X206.483 Y173 E34.20971
G1 X205.267 Y173.322 E34.25155
G1 X204.828 Y173.403 E34.26639
G1 X204.155 Y173.513 E34.28907
G1 X203.736 Y173.576 E34.30317
G1 X202.981 Y173.679 E34.32851
G1 X202.081 Y173.762 E34.35857
G1 X201.178 Y173.764 E34.38861
G1 X200.403 Y173.702 E34.41447
G1 X199.722 Y173.621 E34.43728
G1 X198.071 Y173.404 E34.49266
G1 X195.572 Y173.146 E34.57622
G1 X193.904 Y173.017 E34.63186
G1 X193.358 Y172.966 E34.6501
G1 X190.745 Y172.758 E34.73729
G1 X188.169 Y172.626 E34.82308
G1 X185.671 Y172.569 E34.90618
G1 X183.103 Y172.582 E34.99159
G1 X180.57 Y172.667 E35.07589
G1 X178.045 Y172.824 E35.16003
G1 X175.543 Y173.05 E35.24359
G1 X172.979 Y173.355 E35.32947
G1 X170.702 Y173.69 E35.40602
G1 X170.539 Y173.712 E35.41149
G1 X169.321 Y173.803 E35.45211
G1 X168.27 Y173.818 E35.48707
G1 X167.935 Y173.817 E35.49821
G1 X167.232 Y173.804 E35.5216
G1 X166.331 Y173.748 E35.55163
G1 X165.524 Y173.628 E35.57876
G1 X164.925 Y173.515 E35.59904
G1 X162.32 Y173.059 E35.687
G1 X159.82 Y172.694 E35.77103
G1 X157.276 Y172.396 E35.85622
G1 X154.775 Y172.174 E35.93973
G1 X152.224 Y172.021 E36.02473
G1 X149.683 Y171.94 E36.10929
