;FLAVOR:Marlin
;TIME:11777
;Filament used: 8.08275m
;Layer height: 0.2
;MINX:123.824
;MINY:124.676
;MINZ:0.2
;MAXX:176
;MAXY:175.995
;MAXZ:146
;Generated with Cura_SteamEngine master
M140 S55
M105
M190 S55
M104 S210
M105
M109 S210
M82 ;absolute extrusion mode
M201 X500.00 Y500.00 Z100.00 E5000.00 ;Setup machine max acceleration
M203 X500.00 Y500.00 Z10.00 E50.00 ;Setup machine max feedrate
M204 P500.00 R1000.00 T500.00 ;Setup Print/Retract/Travel acceleration
M205 X8.00 Y8.00 Z0.40 E5.00 ;Setup Jerk
M220 S100 ;Reset Feedrate
M221 S100 ;Reset Flowrate

G28 ;Home

G92 E0 ;Reset Extruder
G1 Z2.0 F3000 ;Move Z Axis up
G1 X10.1 Y20 Z0.28 F5000.0 ;Move to start position
G1 X10.1 Y200.0 Z0.28 F1500.0 E15 ;Draw the first line
G1 X10.4 Y200.0 Z0.28 F5000.0 ;Move to side a little
G1 X10.4 Y20 Z0.28 F1500.0 E30 ;Draw the second line
G92 E0 ;Reset Extruder
G1 Z2.0 F3000 ;Move Z Axis up

G92 E0
G92 E0
G1 F2700 E-5
;LAYER_COUNT:730
;LAYER:0
M107
G0 F6000 X127.419 Y139.934 Z0.2
;TYPE:SKIRT
G1 F2700 E0
G1 F1200 X128.108 Y139.357 E0.02989
G1 X128.762 Y138.853 E0.05735
G1 X130.779 Y137.252 E0.143
G1 X132.71 Y135.628 E0.22692
G1 X134.618 Y133.928 E0.31192
G1 X136.427 Y132.224 E0.39458
G1 X138.209 Y130.445 E0.47832
G1 X138.589 Y130.046 E0.49665
G1 X139.44 Y129.169 E0.5373
G1 X140.121 Y128.524 E0.56849
G1 X140.855 Y127.94 E0.59969
G1 X141.635 Y127.42 E0.63087
G1 X142.503 Y126.947 E0.66375
G1 X143.309 Y126.553 E0.69359
G1 X143.641 Y126.397 E0.70579
G1 X144.201 Y126.146 E0.7262
G1 X145.072 Y125.799 E0.75738
G1 X145.97 Y125.528 E0.78858
G1 X146.871 Y125.337 E0.81921
G1 X147.654 Y125.205 E0.84562
G1 X149.753 Y124.885 E0.91624
G1 X150.563 Y124.772 E0.94344
G1 X151.496 Y124.684 E0.97461
G1 X152.434 Y124.676 E1.00581
G1 X153.686 Y124.791 E1.04763
G1 X154.655 Y124.937 E1.08022
G1 X155.775 Y125.124 E1.11799
G1 X156.512 Y125.257 E1.1429
G1 X157.427 Y125.463 E1.17409
G1 X158.033 Y125.645 E1.19514
G1 X158.955 Y125.952 E1.22746
G1 X160.098 Y126.337 E1.26757
G1 X160.985 Y126.68 E1.29921
G1 X161.993 Y127.12 E1.33579
G1 X162.559 Y127.375 E1.35643
G1 X164.899 Y128.356 E1.44083
G1 X167.492 Y129.355 E1.53325
G1 X168.352 Y129.729 E1.56444
G1 X169.177 Y130.175 E1.59563
G1 X169.867 Y130.623 E1.62299
G1 X170.38 Y130.984 E1.64386
G1 X170.62 Y131.158 E1.65372
G1 X170.902 Y131.368 E1.66541
G1 X171.63 Y131.959 E1.6966
G1 X172.304 Y132.611 E1.72779
G1 X172.921 Y133.317 E1.75898
G1 X173.475 Y134.074 E1.79018
G1 X173.963 Y134.875 E1.82137
G1 X174.381 Y135.715 E1.85258
G1 X174.725 Y136.587 E1.88376
G1 X174.994 Y137.485 E1.91494
G1 X175.132 Y138.1 E1.9359
G1 X175.252 Y138.72 E1.9569
G1 X175.304 Y139.01 E1.9667
G1 X175.405 Y139.619 E1.98723
G1 X175.519 Y140.55 E2.01843
G1 X175.55 Y141.176 E2.03928
G1 X175.563 Y141.784 E2.0595
G1 X175.662 Y144.465 E2.14873
G1 X175.881 Y147.68 E2.25591
G1 X175.95 Y148.472 E2.28236
G1 X175.986 Y149.104 E2.30341
G1 X175.995 Y149.415 E2.31376
G1 X176 Y149.733 E2.32434
G1 X175.999 Y164.395 E2.812
G1 X175.99 Y165.122 E2.83618
G1 X175.939 Y166.059 E2.86739
G1 X175.807 Y166.987 E2.89857
G1 X175.598 Y167.901 E2.92975
G1 X175.311 Y168.794 E2.96095
G1 X174.949 Y169.66 E2.99217
G1 X174.515 Y170.491 E3.02335
G1 X174.011 Y171.282 E3.05454
G1 X173.442 Y172.027 E3.08572
G1 X172.811 Y172.722 E3.11694
G1 X172.124 Y173.36 E3.14813
G1 X171.385 Y173.937 E3.17931
G1 X170.599 Y174.449 E3.21051
G1 X169.773 Y174.892 E3.24169
G1 X168.911 Y175.264 E3.27291
G1 X168.022 Y175.56 E3.30408
G1 X167.11 Y175.78 E3.33528
G1 X166.183 Y175.921 E3.36647
G1 X165.299 Y175.982 E3.39594
G1 X164.978 Y175.991 E3.40662
G1 X164.67 Y175.995 E3.41686
G1 X136.918 Y175.994 E4.3399
G1 X136.22 Y175.985 E4.36312
G1 X135.284 Y175.933 E4.3943
G1 X134.355 Y175.801 E4.4255
G1 X133.441 Y175.591 E4.4567
G1 X132.548 Y175.304 E4.48789
G1 X131.683 Y174.941 E4.51909
G1 X130.852 Y174.507 E4.55028
G1 X130.061 Y174.003 E4.58147
G1 X129.316 Y173.433 E4.61267
G1 X128.622 Y172.802 E4.64387
G1 X127.985 Y172.115 E4.67503
G1 X127.408 Y171.375 E4.70624
G1 X126.896 Y170.589 E4.73744
G1 X126.453 Y169.762 E4.76864
G1 X126.082 Y168.901 E4.79983
G1 X125.786 Y168.011 E4.83102
G1 X125.567 Y167.099 E4.86222
G1 X125.426 Y166.172 E4.8934
G1 X125.367 Y165.302 E4.92241
G1 X125.344 Y164.523 E4.94833
G1 X125.301 Y162.505 E5.01546
G1 X125.178 Y159.998 E5.09894
G1 X124.98 Y157.462 E5.18355
G1 X124.716 Y154.982 E5.2665
G1 X124.382 Y152.501 E5.34976
G1 X124.025 Y150.31 E5.4236
G1 X123.965 Y149.907 E5.43715
G1 X123.906 Y149.446 E5.45261
G1 X123.883 Y149.229 E5.45986
G1 X123.824 Y148.293 E5.49106
G1 X123.845 Y147.356 E5.52223
G1 X123.946 Y146.423 E5.55344
G1 X124.126 Y145.503 E5.58462
G1 X124.383 Y144.601 E5.61582
G1 X124.717 Y143.724 E5.64703
G1 X125.124 Y142.879 E5.67823
G1 X125.601 Y142.072 E5.7094
G1 X126.145 Y141.308 E5.7406
G1 X126.753 Y140.594 E5.77179
G1 X127.419 Y139.934 E5.80298
G0 F6000 X127.827 Y140.106
G1 F1200 X128.352 Y139.674 E5.82559
G1 X128.97 Y139.198 E5.85153
G1 X131.057 Y137.541 E5.94017
G1 X132.97 Y135.932 E6.02331
G1 X134.876 Y134.235 E6.10819
G1 X136.701 Y132.516 E6.19157
G1 X138.517 Y130.702 E6.27694
G1 X138.876 Y130.324 E6.29428
G1 X139.727 Y129.447 E6.33493
G1 X140.396 Y128.815 E6.36554
G1 X141.118 Y128.243 E6.39617
G1 X141.886 Y127.736 E6.42678
G1 X142.679 Y127.306 E6.45679
G1 X143.485 Y126.912 E6.48662
G1 X143.805 Y126.762 E6.49838
G1 X144.365 Y126.511 E6.51879
G1 X145.22 Y126.171 E6.54939
G1 X146.102 Y125.907 E6.58001
G1 X146.938 Y125.731 E6.60843
G1 X147.891 Y125.572 E6.64056
G1 X149.813 Y125.28 E6.70522
G1 X150.617 Y125.169 E6.73222
G1 X151.534 Y125.083 E6.76285
G1 X152.454 Y125.077 E6.79345
G1 X153.627 Y125.187 E6.83264
G1 X154.59 Y125.332 E6.86503
G1 X155.703 Y125.517 E6.90255
G1 X156.44 Y125.65 E6.92746
G1 X157.339 Y125.853 E6.95812
G1 X157.907 Y126.025 E6.97786
G1 X158.828 Y126.332 E7.01015
G1 X159.971 Y126.717 E7.05026
G1 X160.825 Y127.046 E7.0807
G1 X161.829 Y127.485 E7.11715
G1 X162.389 Y127.738 E7.13758
G1 X164.749 Y128.727 E7.22269
G1 X167.348 Y129.728 E7.31532
G1 X168.192 Y130.096 E7.34595
G1 X169.001 Y130.536 E7.37658
G1 X169.637 Y130.95 E7.40182
G1 X170.15 Y131.311 E7.42268
G1 X170.381 Y131.478 E7.43216
G1 X170.663 Y131.688 E7.44386
G1 X171.377 Y132.27 E7.47449
G1 X172.038 Y132.911 E7.50512
G1 X172.64 Y133.607 E7.53573
G1 X173.18 Y134.353 E7.56636
G1 X173.653 Y135.143 E7.59698
G1 X174.056 Y135.97 E7.62758
G1 X174.385 Y136.83 E7.65821
G1 X174.639 Y137.715 E7.68883
G1 X174.739 Y138.176 E7.70452
G1 X174.859 Y138.796 E7.72552
G1 X174.909 Y139.076 E7.73498
G1 X175.01 Y139.685 E7.75551
G1 X175.121 Y140.599 E7.78614
G1 X175.15 Y141.185 E7.80565
G1 X175.164 Y141.837 E7.82734
G1 X175.261 Y144.474 E7.91511
G1 X175.485 Y147.74 E8.02399
G1 X175.551 Y148.506 E8.04956
G1 X175.587 Y149.115 E8.06985
G1 X175.596 Y149.426 E8.0802
G1 X175.6 Y149.733 E8.09041
G1 X175.599 Y164.39 E8.57791
G1 X175.59 Y165.117 E8.60209
G1 X175.539 Y166.036 E8.6327
G1 X175.408 Y166.948 E8.66335
G1 X175.198 Y167.844 E8.69396
G1 X174.912 Y168.719 E8.72457
G1 X174.551 Y169.566 E8.7552
G1 X174.117 Y170.378 E8.78582
G1 X173.615 Y171.15 E8.81645
G1 X173.047 Y171.875 E8.84708
G1 X172.419 Y172.548 E8.8777
G1 X171.735 Y173.164 E8.90831
G1 X171 Y173.718 E8.93893
G1 X170.22 Y174.207 E8.96954
G1 X169.4 Y174.626 E9.00017
G1 X168.547 Y174.972 E9.03079
G1 X167.667 Y175.243 E9.06141
G1 X166.767 Y175.436 E9.09203
G1 X165.853 Y175.551 E9.12267
G1 X165.288 Y175.582 E9.14149
G1 X164.967 Y175.591 E9.15217
G1 X164.67 Y175.595 E9.16205
G1 X136.923 Y175.594 E10.08492
G1 X136.225 Y175.585 E10.10813
G1 X135.306 Y175.533 E10.13875
G1 X134.395 Y175.402 E10.16936
G1 X133.499 Y175.192 E10.19997
G1 X132.624 Y174.905 E10.2306
G1 X131.777 Y174.543 E10.26123
G1 X130.965 Y174.109 E10.29186
G1 X130.194 Y173.607 E10.32246
G1 X129.469 Y173.039 E10.35309
G1 X128.796 Y172.41 E10.38373
G1 X128.181 Y171.726 E10.41432
G1 X127.627 Y170.991 E10.44493
G1 X127.139 Y170.21 E10.47556
G1 X126.72 Y169.39 E10.50619
G1 X126.374 Y168.537 E10.53681
G1 X126.104 Y167.657 E10.56742
G1 X125.911 Y166.756 E10.59807
G1 X125.797 Y165.843 E10.62867
G1 X125.766 Y165.29 E10.6471
G1 X125.744 Y164.515 E10.67288
G1 X125.701 Y162.475 E10.74075
G1 X125.578 Y159.98 E10.82383
G1 X125.381 Y157.46 E10.9079
G1 X125.112 Y154.922 E10.99279
G1 X124.775 Y152.425 E11.07659
G1 X124.421 Y150.251 E11.14985
G1 X124.361 Y149.848 E11.16341
G1 X124.304 Y149.404 E11.17829
G1 X124.281 Y149.187 E11.18555
G1 X124.224 Y148.268 E11.21618
G1 X124.247 Y147.348 E11.24679
G1 X124.349 Y146.433 E11.27741
G1 X124.531 Y145.53 E11.30805
G1 X124.79 Y144.647 E11.33865
G1 X125.125 Y143.789 E11.36929
G1 X125.533 Y142.964 E11.3999
G1 X126.011 Y142.177 E11.43052
G1 X126.555 Y141.435 E11.46113
G1 X127.162 Y140.743 E11.49174
G1 X127.827 Y140.106 E11.52237
G0 F6000 X128.234 Y140.283
G1 F1200 X128.596 Y139.991 E11.53784
G1 X129.256 Y139.483 E11.56554
G1 X131.279 Y137.877 E11.65145
G1 X133.248 Y136.221 E11.73702
G1 X135.133 Y134.542 E11.82098
G1 X136.992 Y132.79 E11.90594
G1 X138.788 Y130.996 E11.99037
G1 X139.163 Y130.603 E12.00844
G1 X140.014 Y129.726 E12.04909
G1 X140.671 Y129.106 E12.07913
G1 X141.38 Y128.547 E12.10916
G1 X142.136 Y128.053 E12.1392
G1 X142.854 Y127.665 E12.16634
G1 X143.66 Y127.271 E12.19618
G1 X143.968 Y127.127 E12.20749
G1 X144.528 Y126.876 E12.2279
G1 X145.368 Y126.544 E12.25794
G1 X146.234 Y126.287 E12.28799
G1 X147.004 Y126.126 E12.31415
G1 X147.951 Y125.968 E12.34608
G1 X150.017 Y125.655 E12.41558
G1 X150.672 Y125.565 E12.43757
G1 X151.571 Y125.482 E12.4676
G1 X152.474 Y125.478 E12.49764
G1 X153.568 Y125.582 E12.53419
G1 X154.524 Y125.726 E12.56634
G1 X155.632 Y125.911 E12.60371
G1 X156.369 Y126.044 E12.62861
G1 X157.25 Y126.244 E12.65866
G1 X157.78 Y126.404 E12.67708
G1 X158.7 Y126.711 E12.70933
G1 X159.843 Y127.096 E12.74945
G1 X160.665 Y127.413 E12.77875
G1 X161.664 Y127.849 E12.815
G1 X162.249 Y128.113 E12.83635
G1 X164.587 Y129.093 E12.92067
G1 X167.204 Y130.101 E13.01394
G1 X168.032 Y130.463 E13.044
G1 X168.824 Y130.896 E13.07402
G1 X169.407 Y131.277 E13.09719
G1 X169.92 Y131.638 E13.11805
G1 X170.142 Y131.799 E13.12717
G1 X170.424 Y132.009 E13.13886
G1 X171.124 Y132.58 E13.16891
G1 X171.77 Y133.211 E13.19895
G1 X172.359 Y133.896 E13.22899
G1 X172.884 Y134.631 E13.25903
G1 X173.342 Y135.409 E13.28906
G1 X173.73 Y136.225 E13.31911
G1 X174.044 Y137.071 E13.34913
G1 X174.346 Y138.252 E13.38967
G1 X174.466 Y138.872 E13.41068
G1 X174.515 Y139.141 E13.41977
G1 X174.616 Y139.75 E13.4403
G1 X174.724 Y140.647 E13.47035
G1 X174.751 Y141.194 E13.48857
G1 X174.767 Y141.929 E13.51302
G1 X174.861 Y144.486 E13.59812
G1 X175.084 Y147.746 E13.7068
G1 X175.153 Y148.541 E13.73335
G1 X175.187 Y149.127 E13.75287
G1 X175.196 Y149.438 E13.76322
G1 X175.2 Y149.733 E13.77303
G1 X175.199 Y164.385 E14.26036
G1 X175.19 Y165.112 E14.28454
G1 X175.139 Y166.014 E14.31459
G1 X175.008 Y166.908 E14.34464
G1 X174.799 Y167.786 E14.37466
G1 X174.513 Y168.643 E14.40471
G1 X174.152 Y169.471 E14.43475
G1 X173.72 Y170.263 E14.46476
G1 X173.219 Y171.015 E14.49481
G1 X172.653 Y171.719 E14.52486
G1 X172.028 Y172.37 E14.55487
G1 X171.347 Y172.964 E14.58493
G1 X170.616 Y173.495 E14.61498
G1 X169.842 Y173.959 E14.64499
G1 X169.029 Y174.353 E14.67504
G1 X168.185 Y174.673 E14.70506
G1 X167.315 Y174.918 E14.73512
G1 X166.428 Y175.084 E14.76514
G1 X165.277 Y175.182 E14.80356
G1 X164.956 Y175.191 E14.81424
G1 X164.67 Y175.195 E14.82375
G1 X136.928 Y175.194 E15.74646
G1 X136.23 Y175.185 E15.76967
G1 X135.329 Y175.134 E15.79969
G1 X134.435 Y175.002 E15.82975
G1 X133.557 Y174.793 E15.85976
G1 X132.7 Y174.506 E15.88982
G1 X131.873 Y174.145 E15.91984
G1 X131.08 Y173.712 E15.94989
G1 X130.329 Y173.211 E15.97991
G1 X129.625 Y172.645 E16.00996
G1 X128.974 Y172.019 E16.04
G1 X128.381 Y171.338 E16.07003
G1 X127.851 Y170.607 E16.10006
G1 X127.387 Y169.832 E16.1301
G1 X126.993 Y169.019 E16.16015
G1 X126.673 Y168.175 E16.19018
G1 X126.429 Y167.305 E16.22023
G1 X126.263 Y166.417 E16.25027
G1 X126.166 Y165.279 E16.28826
G1 X126.144 Y164.506 E16.31398
G1 X126.101 Y162.483 E16.38128
G1 X125.975 Y159.93 E16.4663
G1 X125.78 Y157.423 E16.54993
G1 X125.511 Y154.898 E16.63439
G1 X125.166 Y152.338 E16.72031
G1 X124.816 Y150.192 E16.79263
G1 X124.756 Y149.789 E16.80618
G1 X124.702 Y149.362 E16.82049
G1 X124.679 Y149.145 E16.82775
G1 X124.623 Y148.244 E16.85778
G1 X124.648 Y147.341 E16.88782
G1 X124.752 Y146.444 E16.91786
G1 X124.936 Y145.56 E16.94789
G1 X125.197 Y144.695 E16.97794
G1 X125.533 Y143.857 E17.00797
G1 X125.942 Y143.052 E17.038
G1 X126.421 Y142.286 E17.06805
G1 X126.965 Y141.565 E17.09809
G1 X127.571 Y140.896 E17.12811
G1 X128.234 Y140.283 E17.15814
G1 F2700 E12.15814
G0 F6000 X161.398 Y142.678
G1 F2700 E17.15814
G1 F1200 X161.76 Y142.72 E17.17027
G1 X161.92 Y142.711 E17.1756
G1 X161.878 Y144.006 E17.21869
G1 X161.852 Y144.058 E17.22062
G1 X161.34 Y143.987 E17.23782
G1 X161.383 Y143.669 E17.24849
G1 X161.398 Y142.678 E17.28145
G0 F6000 X161.588 Y142.307
G1 F1200 X162.007 Y142.314 E17.29539
G1 X162.335 Y142.257 E17.30646
G1 X162.276 Y144.105 E17.36796
G1 X162.111 Y144.434 E17.3802
G1 X162.023 Y144.485 E17.38358
G1 X161.173 Y144.367 E17.41213
G1 X160.861 Y144.345 E17.42253
G1 X160.871 Y144.322 E17.42336
G1 X160.965 Y143.913 E17.43732
G1 X160.983 Y143.663 E17.44566
G1 X161.007 Y142.149 E17.49602
G1 X161.178 Y142.221 E17.50219
G1 X161.588 Y142.307 E17.51613
G0 F6000 X161.473 Y141.884
G1 F1200 X161.85 Y141.921 E17.52872
G1 X162.226 Y141.878 E17.54131
G1 X162.585 Y141.757 E17.55391
G1 X162.754 Y141.663 E17.56034
G1 X162.673 Y144.205 E17.64493
G1 X162.413 Y144.721 E17.66415
G1 X162.106 Y144.9 E17.67597
G1 X161.118 Y144.763 E17.70915
G1 X160.919 Y144.747 E17.71579
G1 X160.199 Y144.727 E17.73974
G1 X160.268 Y144.647 E17.74326
G1 X160.448 Y144.314 E17.75585
G1 X160.554 Y143.95 E17.76846
G1 X160.583 Y143.657 E17.77825
G1 X160.618 Y141.434 E17.8522
G1 X160.782 Y141.582 E17.85954
G1 X161.111 Y141.77 E17.87215
G1 X161.473 Y141.884 E17.88477
G0 F6000 X161.749 Y141.518
G1 F1200 X162.082 Y141.499 E17.89586
G1 X162.402 Y141.401 E17.907
G1 X162.602 Y141.291 E17.91459
G1 X163.018 Y141.018 E17.93114
G1 X163.068 Y141.018 E17.9328
G1 X163.159 Y141.524 E17.9499
G1 X163.07 Y144.307 E18.04251
G1 X162.719 Y145.005 E18.06849
G1 X162.187 Y145.315 E18.08897
G1 X161.063 Y145.159 E18.12672
G1 X160.908 Y145.147 E18.13189
G1 X157.909 Y145.065 E18.23167
G1 X156.886 Y144.333 E18.27351
G1 X156.549 Y143.06 E18.31731
G1 X156.426 Y142.75 E18.3284
G1 X156.232 Y142.478 E18.33951
G1 X155.98 Y142.259 E18.35062
G1 X155.683 Y142.106 E18.36173
G1 X155.358 Y142.028 E18.37285
G1 X155.024 Y142.03 E18.38396
G1 X154.834 Y142.067 E18.39039
G1 X153.834 Y142.335 E18.42483
G1 X153.524 Y142.459 E18.43593
G1 X153.258 Y142.647 E18.44677
G1 X151.49 Y144.242 E18.52596
G1 X150.496 Y144.421 E18.55956
G1 X149.081 Y143.451 E18.61662
G1 X149.118 Y143.373 E18.61949
G1 X149.502 Y143.376 E18.63226
G1 X150.282 Y143.877 E18.66309
G1 X150.582 Y144.022 E18.67418
G1 X150.909 Y144.093 E18.6853
G1 X151.243 Y144.084 E18.69642
G1 X151.565 Y143.996 E18.70752
G1 X151.858 Y143.835 E18.71864
G1 X152.103 Y143.608 E18.72975
G1 X152.338 Y143.22 E18.74484
G1 X152.754 Y142.182 E18.78203
G1 X152.907 Y142.071 E18.78832
G1 X155.996 Y141.64 E18.89205
G1 X156.319 Y141.554 E18.90317
G1 X156.613 Y141.395 E18.91429
G1 X156.86 Y141.171 E18.92538
G1 X157.048 Y140.894 E18.93651
G1 X157.164 Y140.581 E18.94761
G1 X157.203 Y140.249 E18.95873
G1 X157.162 Y139.917 E18.96986
G1 X157.086 Y139.692 E18.97776
G1 X156.847 Y139.145 E18.99761
G1 X156.678 Y138.857 E19.00872
G1 X156.445 Y138.618 E19.01982
G1 X156.162 Y138.44 E19.03094
G1 X155.936 Y138.356 E19.03896
G1 X151.966 Y137.263 E19.17591
G1 X151.635 Y137.214 E19.18704
G1 X151.204 Y137.269 E19.20149
G1 X148.741 Y137.984 E19.2868
G1 X148.443 Y137.984 E19.29671
G1 X148.406 Y137.956 E19.29825
G1 X148.453 Y137.833 E19.30263
G1 X149.117 Y137.524 E19.32699
G1 X152.063 Y137.076 E19.4261
G1 X154.132 Y137.42 E19.49586
G1 X155.4 Y138.017 E19.54247
G1 X155.717 Y138.122 E19.55358
G1 X155.996 Y138.15 E19.56291
G1 X156.087 Y138.15 E19.56593
G1 X157.316 Y139.145 E19.61853
G1 X157.753 Y139.853 E19.6462
G1 X157.617 Y140.034 E19.65373
G1 X157.487 Y140.333 E19.66457
G1 X156.963 Y142.073 E19.72501
