;FLAVOR:Marlin
;TIME:2163
;Filament used: 0.630643m
;Layer height: 0.1
;MINX:113.6
;MINY:133.793
;MINZ:0.3
;MAXX:186.4
;MAXY:166.207
;MAXZ:12.1
;Generated with Cura_SteamEngine master
M140 S60
M105
M190 S60
M104 S210
M105
M109 S210
M82 ;absolute extrusion mode
M201 X500.00 Y500.00 Z100.00 E5000.00 ;Setup machine max acceleration
M203 X500.00 Y500.00 Z10.00 E50.00 ;Setup machine max feedrate
M204 P500.00 R1000.00 T500.00 ;Setup Print/Retract/Travel acceleration
M205 X8.00 Y8.00 Z0.40 E5.00 ;Setup Jerk
M220 S100 ;Reset Feedrate
M221 S100 ;Reset Flowrate

G28 ;Home
G29 A ; enable UBL
G92 E0 ;Reset Extruder
G1 Z2.0 F3000 ;Move Z Axis up
G1 X10.1 Y20 Z0.28 F5000.0 ;Move to start position
G1 X10.1 Y200.0 Z0.28 F1500.0 E15 ;Draw the first line
G1 X10.4 Y200.0 Z0.28 F5000.0 ;Move to side a little
G1 X10.4 Y20 Z0.28 F1500.0 E30 ;Draw the second line
G92 E0 ;Reset Extruder
G1 Z2.0 F3000 ;Move Z Axis up
G92 E0
G92 E0
G1 F2400 E-3
;LAYER_COUNT:119
;LAYER:0
M107
G0 F6000 X117.486 Y136.42 Z0.3
;TYPE:SKIRT
G1 F2400 E0
G1 F1200 X118.226 Y135.844 E0.04678
G1 X119.012 Y135.332 E0.09358
G1 X119.839 Y134.89 E0.14037
G1 X120.701 Y134.52 E0.18717
G1 X121.591 Y134.224 E0.23396
G1 X122.503 Y134.006 E0.28074
G1 X123.43 Y133.865 E0.32752
G1 X124.301 Y133.806 E0.37108
G1 X124.622 Y133.797 E0.3871
G1 X124.93 Y133.793 E0.40246
G1 X174.693 Y133.793 E2.88515
G1 X175.549 Y133.804 E2.92786
G1 X176.485 Y133.858 E2.97463
G1 X177.413 Y133.99 E3.0214
G1 X178.327 Y134.202 E3.06821
G1 X179.219 Y134.491 E3.11499
G1 X180.084 Y134.854 E3.16179
G1 X180.914 Y135.29 E3.20856
G1 X181.705 Y135.795 E3.25538
G1 X182.449 Y136.366 E3.30217
G1 X183.142 Y136.998 E3.34897
G1 X183.779 Y137.686 E3.39574
G1 X184.354 Y138.427 E3.44254
G1 X184.865 Y139.213 E3.48931
G1 X185.307 Y140.041 E3.53614
G1 X185.676 Y140.903 E3.58292
G1 X185.971 Y141.793 E3.62969
G1 X186.189 Y142.705 E3.67648
G1 X186.329 Y143.633 E3.7233
G1 X186.387 Y144.494 E3.76635
G1 X186.396 Y144.814 E3.78232
G1 X186.4 Y145.123 E3.79774
G1 X186.399 Y154.607 E4.2709
G1 X186.39 Y155.334 E4.30717
G1 X186.339 Y156.271 E4.35399
G1 X186.207 Y157.199 E4.40075
G1 X185.998 Y158.113 E4.44753
G1 X185.711 Y159.006 E4.49432
G1 X185.349 Y159.872 E4.54115
G1 X184.915 Y160.703 E4.58792
G1 X184.411 Y161.494 E4.63472
G1 X183.842 Y162.239 E4.68149
G1 X183.211 Y162.934 E4.72832
G1 X182.524 Y163.572 E4.77509
G1 X181.785 Y164.149 E4.82187
G1 X180.999 Y164.661 E4.86867
G1 X180.173 Y165.104 E4.91543
G1 X179.311 Y165.476 E4.96227
G1 X178.422 Y165.772 E5.00902
G1 X177.51 Y165.992 E5.05582
G1 X176.583 Y166.133 E5.1026
G1 X175.699 Y166.194 E5.14681
G1 X175.378 Y166.203 E5.16283
G1 X175.07 Y166.207 E5.1782
G1 X125.165 Y166.206 E7.66797
G1 X124.467 Y166.197 E7.70279
G1 X123.531 Y166.145 E7.74956
G1 X122.602 Y166.013 E7.79638
G1 X121.688 Y165.803 E7.84316
G1 X120.795 Y165.516 E7.88996
G1 X119.93 Y165.153 E7.93676
G1 X119.099 Y164.719 E7.98353
G1 X118.308 Y164.215 E8.03033
G1 X117.563 Y163.645 E8.07713
G1 X116.869 Y163.014 E8.12392
G1 X116.232 Y162.327 E8.17066
G1 X115.655 Y161.587 E8.21748
G1 X115.143 Y160.801 E8.26428
G1 X114.7 Y159.974 E8.31108
G1 X114.329 Y159.113 E8.35786
G1 X114.033 Y158.223 E8.40465
G1 X113.814 Y157.311 E8.45144
G1 X113.673 Y156.384 E8.49822
G1 X113.613 Y155.495 E8.54268
G1 X113.604 Y155.162 E8.5593
G1 X113.6 Y154.865 E8.57412
G1 X113.601 Y145.318 E9.05042
G1 X113.61 Y144.653 E9.0836
G1 X113.663 Y143.717 E9.13037
G1 X113.795 Y142.788 E9.17718
G1 X114.006 Y141.874 E9.22398
G1 X114.294 Y140.982 E9.27075
G1 X114.657 Y140.117 E9.31755
G1 X115.092 Y139.286 E9.36434
G1 X115.596 Y138.496 E9.41109
G1 X116.166 Y137.751 E9.45789
G1 X116.798 Y137.057 E9.50472
G1 X117.486 Y136.42 E9.5515
G0 F6000 X117.874 Y136.616
G1 F1200 X118.61 Y136.063 E9.59743
G1 X119.391 Y135.575 E9.64337
G1 X120.211 Y135.157 E9.68929
G1 X121.065 Y134.812 E9.73524
G1 X121.945 Y134.542 E9.78117
G1 X122.845 Y134.35 E9.82708
G1 X123.759 Y134.236 E9.87303
G1 X124.312 Y134.206 E9.90066
G1 X124.633 Y134.197 E9.91668
G1 X124.93 Y134.193 E9.9315
G1 X174.693 Y134.193 E12.41419
G1 X175.543 Y134.204 E12.4566
G1 X176.462 Y134.257 E12.50252
G1 X177.373 Y134.39 E12.54846
G1 X178.269 Y134.601 E12.59438
G1 X179.143 Y134.889 E12.64029
G1 X179.99 Y135.252 E12.68626
G1 X180.801 Y135.687 E12.73218
G1 X181.571 Y136.191 E12.77809
G1 X182.295 Y136.76 E12.82403
G1 X182.967 Y137.39 E12.86999
G1 X183.582 Y138.075 E12.91592
G1 X184.135 Y138.811 E12.96184
G1 X184.622 Y139.592 E13.00776
G1 X185.039 Y140.413 E13.0537
G1 X185.384 Y141.267 E13.09965
G1 X185.653 Y142.147 E13.14556
G1 X185.845 Y143.048 E13.19152
G1 X185.958 Y143.961 E13.23742
G1 X185.987 Y144.505 E13.2646
G1 X185.996 Y144.825 E13.28057
G1 X186 Y145.123 E13.29544
G1 X185.999 Y154.602 E13.76835
G1 X185.99 Y155.329 E13.80462
G1 X185.939 Y156.248 E13.85054
G1 X185.808 Y157.16 E13.89651
G1 X185.598 Y158.056 E13.94242
G1 X185.312 Y158.931 E13.98835
G1 X184.951 Y159.778 E14.03428
G1 X184.517 Y160.59 E14.08022
G1 X184.015 Y161.362 E14.12616
G1 X183.447 Y162.087 E14.17211
G1 X182.819 Y162.76 E14.21803
G1 X182.135 Y163.376 E14.26396
G1 X181.4 Y163.93 E14.30988
G1 X180.62 Y164.419 E14.3558
G1 X179.8 Y164.838 E14.40175
G1 X178.947 Y165.184 E14.44767
G1 X178.067 Y165.455 E14.49361
G1 X177.167 Y165.648 E14.53953
G1 X176.253 Y165.763 E14.58549
G1 X175.688 Y165.794 E14.61372
G1 X175.367 Y165.803 E14.62974
G1 X175.07 Y165.807 E14.64456
G1 X125.17 Y165.806 E17.13408
G1 X124.472 Y165.797 E17.16891
G1 X123.553 Y165.745 E17.21483
G1 X122.642 Y165.614 E17.26075
G1 X121.746 Y165.404 E17.30666
G1 X120.871 Y165.117 E17.3526
G1 X120.024 Y164.755 E17.39856
G1 X119.212 Y164.321 E17.44449
G1 X118.441 Y163.819 E17.49039
G1 X117.716 Y163.251 E17.53634
G1 X117.043 Y162.622 E17.5823
G1 X116.428 Y161.938 E17.62819
G1 X115.874 Y161.203 E17.67411
G1 X115.386 Y160.422 E17.72005
G1 X114.967 Y159.602 E17.76599
G1 X114.621 Y158.749 E17.81192
G1 X114.351 Y157.869 E17.85784
G1 X114.158 Y156.968 E17.90381
G1 X114.044 Y156.055 E17.94972
G1 X114.013 Y155.484 E17.97824
G1 X114.004 Y155.151 E17.99486
G1 X114 Y154.865 E18.00913
G1 X114.001 Y145.324 E18.48514
G1 X114.01 Y144.659 E18.51832
G1 X114.062 Y143.739 E18.56429
G1 X114.194 Y142.828 E18.61021
G1 X114.405 Y141.932 E18.65614
G1 X114.692 Y141.057 E18.70208
G1 X115.055 Y140.211 E18.74801
G1 X115.489 Y139.399 E18.79394
G1 X115.992 Y138.628 E18.83987
G1 X116.561 Y137.904 E18.88581
G1 X117.189 Y137.232 E18.9317
G1 X117.874 Y136.616 E18.97766
G0 F6000 X118.262 Y136.817
G1 F1200 X118.994 Y136.287 E19.02275
G1 X119.769 Y135.824 E19.06779
G1 X120.582 Y135.431 E19.11284
G1 X121.427 Y135.111 E19.15792
G1 X122.296 Y134.868 E19.20293
G1 X123.184 Y134.702 E19.248
G1 X124.323 Y134.606 E19.30503
G1 X124.644 Y134.597 E19.32105
G1 X124.93 Y134.593 E19.33532
G1 X174.693 Y134.593 E21.81801
G1 X175.537 Y134.604 E21.86012
G1 X176.439 Y134.657 E21.9052
G1 X177.332 Y134.789 E21.95023
G1 X178.21 Y135 E21.99528
G1 X179.066 Y135.288 E22.04034
G1 X179.893 Y135.65 E22.08538
G1 X180.685 Y136.085 E22.13046
G1 X181.436 Y136.587 E22.17553
G1 X182.139 Y137.154 E22.22059
G1 X182.789 Y137.781 E22.26564
G1 X183.381 Y138.463 E22.3107
G1 X183.911 Y139.194 E22.35575
G1 X184.373 Y139.97 E22.4008
G1 X184.766 Y140.783 E22.44585
G1 X185.084 Y141.628 E22.4909
G1 X185.327 Y142.498 E22.53596
G1 X185.492 Y143.386 E22.58102
G1 X185.587 Y144.516 E22.6376
G1 X185.596 Y144.836 E22.65357
G1 X185.6 Y145.123 E22.66789
G1 X185.599 Y154.597 E23.14055
G1 X185.59 Y155.324 E23.17682
G1 X185.539 Y156.226 E23.2219
G1 X185.408 Y157.12 E23.26697
G1 X185.199 Y157.998 E23.312
G1 X184.913 Y158.855 E23.35708
G1 X184.552 Y159.683 E23.40214
G1 X184.12 Y160.475 E23.44715
G1 X183.619 Y161.227 E23.49223
G1 X183.053 Y161.931 E23.5373
G1 X182.428 Y162.582 E23.58232
G1 X181.747 Y163.176 E23.6274
G1 X181.016 Y163.707 E23.67248
G1 X180.242 Y164.171 E23.7175
G1 X179.429 Y164.565 E23.76257
G1 X178.585 Y164.885 E23.80761
G1 X177.715 Y165.13 E23.8527
G1 X176.828 Y165.296 E23.89772
G1 X175.677 Y165.394 E23.95535
G1 X175.356 Y165.403 E23.97137
G1 X175.07 Y165.407 E23.98564
G1 X125.175 Y165.406 E26.47491
G1 X124.477 Y165.397 E26.50974
G1 X123.576 Y165.346 E26.55476
G1 X122.682 Y165.214 E26.59985
G1 X121.804 Y165.005 E26.64488
G1 X120.947 Y164.718 E26.68997
G1 X120.12 Y164.357 E26.73499
G1 X119.327 Y163.924 E26.78006
G1 X118.576 Y163.423 E26.8251
G1 X117.872 Y162.857 E26.87017
G1 X117.221 Y162.231 E26.91523
G1 X116.628 Y161.55 E26.96028
G1 X116.098 Y160.819 E27.00532
G1 X115.634 Y160.044 E27.05039
G1 X115.24 Y159.231 E27.09546
G1 X114.92 Y158.387 E27.14049
G1 X114.676 Y157.517 E27.18557
G1 X114.51 Y156.629 E27.23064
G1 X114.413 Y155.474 E27.28847
G1 X114.404 Y155.141 E27.30509
G1 X114.4 Y154.865 E27.31886
G1 X114.401 Y145.329 E27.79461
G1 X114.41 Y144.664 E27.82779
G1 X114.462 Y143.762 E27.87287
G1 X114.594 Y142.869 E27.9179
G1 X114.804 Y141.991 E27.96294
G1 X115.091 Y141.134 E28.00803
G1 X115.453 Y140.307 E28.05307
G1 X115.886 Y139.515 E28.0981
G1 X116.388 Y138.764 E28.14317
G1 X116.955 Y138.06 E28.18827
G1 X117.581 Y137.41 E28.23329
G1 X118.262 Y136.817 E28.27834
G1 F2400 E25.27834
;MESH:long_tape_hook_test.stl
G0 F6000 X125.02 Y144.128
G0 X125.02 Y145.213
G0 X174.618 Y145.575
G0 X174.8 Y154.607
;TYPE:WALL-INNER
G1 F2400 E28.27834
G1 F1200 X125.2 Y154.607 E30.7529
G1 X125.2 Y145.393 E31.21259
G1 X174.8 Y145.393 E33.68714
G1 X174.8 Y154.607 E34.14683
G0 F6000 X175.2 Y155.007
;TYPE:WALL-OUTER
G1 F1200 X124.8 Y155.007 E36.66129
G1 X124.8 Y144.993 E37.16089
G1 X175.2 Y144.993 E39.67536
G1 X175.2 Y155.007 E40.17496
G0 F6000 X174.93 Y154.737
G0 X174.69 Y154.217
G0 X174.41 Y154.217
;TYPE:SKIN
G1 F1200 X125.59 Y154.217 E42.6106
G1 X125.59 Y145.783 E43.03137
G1 X174.41 Y145.783 E45.46701
G1 X174.41 Y154.217 E45.88779
G0 F6000 X174.69 Y154.217
G0 X174.69 Y146.53
G0 X174.249 Y146.53
G1 F1200 X173.661 Y145.942 E45.92927
G0 F6000 X173.095 Y145.942
G1 F1200 X174.249 Y147.096 E46.0107
G0 F6000 X174.249 Y147.662
G1 F1200 X172.529 Y145.942 E46.13205
G0 F6000 X171.964 Y145.942
G1 F1200 X174.249 Y148.227 E46.29327
G0 F6000 X174.249 Y148.793
G1 F1200 X171.398 Y145.942 E46.49442
G0 F6000 X170.832 Y145.942
G1 F1200 X174.249 Y149.359 E46.73551
G0 F6000 X174.249 Y149.925
G1 F1200 X170.267 Y145.942 E47.0165
G0 F6000 X169.701 Y145.942
G1 F1200 X174.249 Y150.49 E47.33738
G0 F6000 X174.249 Y151.056
G1 F1200 X169.135 Y145.942 E47.6982
G0 F6000 X168.57 Y145.942
G1 F1200 X174.249 Y151.622 E48.09892
G0 F6000 X174.249 Y152.187
G1 F1200 X168.004 Y145.942 E48.53954
G0 F6000 X167.438 Y145.942
G1 F1200 X174.249 Y152.753 E49.0201
G0 F6000 X174.249 Y153.319
G1 F1200 X166.872 Y145.942 E49.54058
G0 F6000 X166.307 Y145.942
G1 F1200 X174.249 Y153.884 E50.10093
G0 F6000 X173.855 Y154.056
G1 F1200 X165.741 Y145.942 E50.67342
G0 F6000 X165.175 Y145.942
G1 F1200 X173.289 Y154.056 E51.24591
G0 F6000 X172.724 Y154.056
G1 F1200 X164.61 Y145.942 E51.81839
G0 F6000 X164.044 Y145.942
G1 F1200 X172.158 Y154.056 E52.39088
G0 F6000 X171.592 Y154.056
G1 F1200 X163.478 Y145.942 E52.96337
G0 F6000 X162.913 Y145.942
G1 F1200 X171.027 Y154.056 E53.53585
G0 F6000 X170.461 Y154.056
G1 F1200 X162.347 Y145.942 E54.10834
G0 F6000 X161.781 Y145.942
G1 F1200 X169.895 Y154.056 E54.68083
G0 F6000 X169.33 Y154.056
G1 F1200 X161.216 Y145.942 E55.25331
G0 F6000 X160.65 Y145.942
G1 F1200 X168.764 Y154.056 E55.8258
G0 F6000 X168.198 Y154.056
G1 F1200 X160.084 Y145.942 E56.39829
G0 F6000 X159.519 Y145.942
G1 F1200 X167.633 Y154.056 E56.97077
G0 F6000 X167.067 Y154.056
G1 F1200 X158.953 Y145.942 E57.54326
G0 F6000 X158.387 Y145.942
G1 F1200 X166.501 Y154.056 E58.11574
G0 F6000 X165.936 Y154.056
G1 F1200 X157.821 Y145.942 E58.68827
G0 F6000 X157.256 Y145.942
G1 F1200 X165.37 Y154.056 E59.26075
G0 F6000 X164.804 Y154.056
G1 F1200 X156.69 Y145.942 E59.83324
G0 F6000 X156.124 Y145.942
G1 F1200 X164.238 Y154.056 E60.40573
G0 F6000 X163.673 Y154.056
G1 F1200 X155.559 Y145.942 E60.97821
G0 F6000 X154.993 Y145.942
G1 F1200 X163.107 Y154.056 E61.5507
G0 F6000 X162.541 Y154.056
G1 F1200 X154.427 Y145.942 E62.12319
G0 F6000 X153.862 Y145.942
G1 F1200 X161.976 Y154.056 E62.69567
G0 F6000 X161.41 Y154.056
G1 F1200 X153.296 Y145.942 E63.26816
G0 F6000 X152.73 Y145.942
G1 F1200 X160.844 Y154.056 E63.84065
G0 F6000 X160.279 Y154.056
G1 F1200 X152.165 Y145.942 E64.41313
G0 F6000 X151.599 Y145.942
G1 F1200 X159.713 Y154.056 E64.98562
G0 F6000 X159.147 Y154.056
G1 F1200 X151.033 Y145.942 E65.55811
G0 F6000 X150.468 Y145.942
G1 F1200 X158.582 Y154.056 E66.13059
G0 F6000 X158.016 Y154.056
G1 F1200 X149.902 Y145.942 E66.70308
G0 F6000 X149.336 Y145.942
G1 F1200 X157.45 Y154.056 E67.27556
G0 F6000 X156.885 Y154.056
G1 F1200 X148.771 Y145.942 E67.84805
G0 F6000 X148.205 Y145.942
G1 F1200 X156.319 Y154.056 E68.42054
G0 F6000 X155.753 Y154.056
G1 F1200 X147.639 Y145.942 E68.99302
G0 F6000 X147.073 Y145.942
G1 F1200 X155.188 Y154.056 E69.56555
G0 F6000 X154.622 Y154.056
G1 F1200 X146.508 Y145.942 E70.13803
G0 F6000 X145.942 Y145.942
G1 F1200 X154.056 Y154.056 E70.71052
G0 F6000 X153.49 Y154.056
G1 F1200 X145.376 Y145.942 E71.28301
G0 F6000 X144.811 Y145.942
G1 F1200 X152.925 Y154.056 E71.85549
G0 F6000 X152.359 Y154.056
G1 F1200 X144.245 Y145.942 E72.42798
G0 F6000 X143.679 Y145.942
G1 F1200 X151.793 Y154.056 E73.00047
G0 F6000 X151.228 Y154.056
G1 F1200 X143.114 Y145.942 E73.57295
G0 F6000 X142.548 Y145.942
G1 F1200 X150.662 Y154.056 E74.14544
G0 F6000 X150.096 Y154.056
G1 F1200 X141.982 Y145.942 E74.71792
G0 F6000 X141.417 Y145.942
G1 F1200 X149.531 Y154.056 E75.29041
G0 F6000 X148.965 Y154.056
G1 F1200 X140.851 Y145.942 E75.8629
G0 F6000 X140.285 Y145.942
G1 F1200 X148.399 Y154.056 E76.43538
G0 F6000 X147.834 Y154.056
G1 F1200 X139.72 Y145.942 E77.00787
G0 F6000 X139.154 Y145.942
G1 F1200 X147.268 Y154.056 E77.58036
G0 F6000 X146.702 Y154.056
G1 F1200 X138.588 Y145.942 E78.15284
G0 F6000 X138.023 Y145.942
G1 F1200 X146.137 Y154.056 E78.72533
G0 F6000 X145.571 Y154.056
G1 F1200 X137.457 Y145.942 E79.29782
G0 F6000 X136.891 Y145.942
G1 F1200 X145.005 Y154.056 E79.8703
G0 F6000 X144.439 Y154.056
G1 F1200 X136.325 Y145.942 E80.44279
G0 F6000 X135.76 Y145.942
G1 F1200 X143.874 Y154.056 E81.01528
G0 F6000 X143.308 Y154.056
G1 F1200 X135.194 Y145.942 E81.58776
G0 F6000 X134.628 Y145.942
G1 F1200 X142.742 Y154.056 E82.16025
G0 F6000 X142.177 Y154.056
G1 F1200 X134.063 Y145.942 E82.73274
G0 F6000 X133.497 Y145.942
G1 F1200 X141.611 Y154.056 E83.30522
G0 F6000 X141.045 Y154.056
G1 F1200 X132.931 Y145.942 E83.87771
G0 F6000 X132.366 Y145.942
G1 F1200 X140.48 Y154.056 E84.4502
G0 F6000 X139.914 Y154.056
G1 F1200 X131.8 Y145.942 E85.02268
G0 F6000 X131.234 Y145.942
G1 F1200 X139.348 Y154.056 E85.59517
G0 F6000 X138.783 Y154.056
G1 F1200 X130.669 Y145.942 E86.16766
G0 F6000 X130.103 Y145.942
G1 F1200 X138.217 Y154.056 E86.74014
G0 F6000 X137.651 Y154.056
G1 F1200 X129.537 Y145.942 E87.31263
G0 F6000 X128.972 Y145.942
G1 F1200 X137.086 Y154.056 E87.88511
G0 F6000 X136.52 Y154.056
G1 F1200 X128.406 Y145.942 E88.4576
G0 F6000 X127.84 Y145.942
G1 F1200 X135.954 Y154.056 E89.03009
G0 F6000 X135.389 Y154.056
G1 F1200 X127.274 Y145.942 E89.60261
G0 F6000 X126.709 Y145.942
G1 F1200 X134.823 Y154.056 E90.1751
G0 F6000 X134.257 Y154.056
G1 F1200 X126.143 Y145.942 E90.74758
G0 F6000 X125.749 Y146.114
G1 F1200 X133.691 Y154.056 E91.30793
G0 F6000 X133.126 Y154.056
G1 F1200 X125.749 Y146.68 E91.82839
G0 F6000 X125.749 Y147.245
G1 F1200 X132.56 Y154.056 E92.30894
G0 F6000 X131.994 Y154.056
G1 F1200 X125.749 Y147.811 E92.74956
G0 F6000 X125.749 Y148.377
G1 F1200 X131.429 Y154.056 E93.15028
G0 F6000 X130.863 Y154.056
G1 F1200 X125.749 Y148.942 E93.5111
G0 F6000 X125.749 Y149.508
G1 F1200 X130.297 Y154.056 E93.83198
G0 F6000 X129.732 Y154.056
G1 F1200 X125.749 Y150.074 E94.11297
G0 F6000 X125.749 Y150.639
G1 F1200 X129.166 Y154.056 E94.35406
G0 F6000 X128.6 Y154.056
G1 F1200 X125.749 Y151.205 E94.55521
G0 F6000 X125.749 Y151.771
G1 F1200 X128.035 Y154.056 E94.71647
G0 F6000 X127.469 Y154.056
G1 F1200 X125.749 Y152.336 E94.83782
G0 F6000 X125.749 Y152.902
G1 F1200 X126.903 Y154.056 E94.91924
G0 F6000 X126.338 Y154.056
G1 F1200 X125.749 Y153.468 E94.96076
G0 F6000 X125.4 Y153.468
G1 F2400 E91.96076
