;FLAVOR:Marlin
;TIME:8234
;Filament used: 3.71235m
;Layer height: 0.1
;MINX:107.25
;MINY:113.6
;MINZ:0.3
;MAXX:192.75
;MAXY:186.4
;MAXZ:14
;Generated with Cura_SteamEngine master
M140 S60
M105
M190 S60
M104 S210
M105
M109 S210
M82 ;absolute extrusion mode
M201 X500.00 Y500.00 Z100.00 E5000.00 ;Setup machine max acceleration
M203 X500.00 Y500.00 Z10.00 E50.00 ;Setup machine max feedrate
M204 P500.00 R1000.00 T500.00 ;Setup Print/Retract/Travel acceleration
M205 X8.00 Y8.00 Z0.40 E5.00 ;Setup Jerk
M220 S100 ;Reset Feedrate
M221 S100 ;Reset Flowrate

G28 ;Home
G29 A ; enable UBL
G92 E0 ;Reset Extruder
G1 Z2.0 F3000 ;Move Z Axis up
G1 X10.1 Y20 Z0.28 F5000.0 ;Move to start position
G1 X10.1 Y200.0 Z0.28 F1500.0 E15 ;Draw the first line
G1 X10.4 Y200.0 Z0.28 F5000.0 ;Move to side a little
G1 X10.4 Y20 Z0.28 F1500.0 E30 ;Draw the second line
G92 E0 ;Reset Extruder
G1 Z2.0 F3000 ;Move Z Axis up
G92 E0
G92 E0
G1 F2400 E-3
;LAYER_COUNT:138
;LAYER:0
M107
G0 F6000 X110.448 Y116.864 Z0.3
;TYPE:SKIRT
G1 F2400 E0
G1 F1200 X111.136 Y116.227 E0.04678
G1 X111.876 Y115.651 E0.09356
G1 X112.662 Y115.139 E0.14036
G1 X113.489 Y114.697 E0.18714
G1 X114.351 Y114.327 E0.23394
G1 X115.241 Y114.031 E0.28074
G1 X116.153 Y113.813 E0.32752
G1 X117.08 Y113.672 E0.3743
G1 X117.951 Y113.613 E0.41785
G1 X118.272 Y113.604 E0.43387
G1 X118.58 Y113.6 E0.44924
G1 X181.043 Y113.6 E3.56553
G1 X181.899 Y113.611 E3.60824
G1 X182.835 Y113.665 E3.65502
G1 X183.763 Y113.797 E3.70178
G1 X184.677 Y114.009 E3.74859
G1 X185.569 Y114.298 E3.79537
G1 X186.434 Y114.661 E3.84217
G1 X187.264 Y115.097 E3.88895
G1 X188.055 Y115.602 E3.93577
G1 X188.799 Y116.173 E3.98256
G1 X189.492 Y116.805 E4.02935
G1 X190.129 Y117.493 E4.07613
G1 X190.704 Y118.234 E4.12292
G1 X191.215 Y119.02 E4.16969
G1 X191.657 Y119.848 E4.21652
G1 X192.026 Y120.71 E4.2633
G1 X192.321 Y121.6 E4.31008
G1 X192.539 Y122.512 E4.35686
G1 X192.679 Y123.44 E4.40368
G1 X192.737 Y124.301 E4.44673
G1 X192.746 Y124.621 E4.4627
G1 X192.75 Y124.93 E4.47812
G1 X192.749 Y174.8 E6.96615
G1 X192.74 Y175.527 E7.00242
G1 X192.689 Y176.464 E7.04924
G1 X192.557 Y177.392 E7.096
G1 X192.348 Y178.306 E7.14278
G1 X192.061 Y179.199 E7.18957
G1 X191.699 Y180.065 E7.2364
G1 X191.265 Y180.896 E7.28317
G1 X190.761 Y181.687 E7.32997
G1 X190.192 Y182.432 E7.37673
G1 X189.561 Y183.127 E7.42357
G1 X188.874 Y183.765 E7.47034
G1 X188.135 Y184.342 E7.51712
G1 X187.349 Y184.854 E7.56392
G1 X186.523 Y185.297 E7.61068
G1 X185.661 Y185.669 E7.65752
G1 X184.772 Y185.965 E7.70427
G1 X183.86 Y186.185 E7.75107
G1 X182.933 Y186.326 E7.79785
G1 X182.049 Y186.387 E7.84206
G1 X181.728 Y186.396 E7.85808
G1 X181.42 Y186.4 E7.87345
G1 X118.815 Y186.399 E10.99682
G1 X118.117 Y186.39 E11.03165
G1 X117.181 Y186.338 E11.07842
G1 X116.252 Y186.206 E11.12523
G1 X115.338 Y185.996 E11.17202
G1 X114.445 Y185.709 E11.21882
G1 X113.58 Y185.346 E11.26562
G1 X112.749 Y184.912 E11.31239
G1 X111.958 Y184.408 E11.35918
G1 X111.213 Y183.838 E11.40598
G1 X110.519 Y183.207 E11.45278
G1 X109.882 Y182.52 E11.49952
G1 X109.305 Y181.78 E11.54633
G1 X108.793 Y180.994 E11.59313
G1 X108.35 Y180.167 E11.63994
G1 X107.979 Y179.306 E11.68671
G1 X107.683 Y178.416 E11.73351
G1 X107.464 Y177.504 E11.7803
G1 X107.323 Y176.577 E11.82708
G1 X107.263 Y175.688 E11.87153
G1 X107.254 Y175.355 E11.88815
G1 X107.25 Y175.058 E11.90297
G1 X107.251 Y125.125 E14.39414
G1 X107.26 Y124.46 E14.42732
G1 X107.313 Y123.524 E14.47409
G1 X107.445 Y122.595 E14.5209
G1 X107.656 Y121.681 E14.5677
G1 X107.944 Y120.789 E14.61447
G1 X108.307 Y119.924 E14.66127
G1 X108.742 Y119.093 E14.70806
G1 X109.246 Y118.303 E14.75481
G1 X109.816 Y117.558 E14.80161
G1 X110.448 Y116.864 E14.84844
G0 F6000 X110.839 Y117.039
G1 F1200 X111.524 Y116.423 E14.8944
G1 X112.26 Y115.87 E14.94033
G1 X113.041 Y115.382 E14.98628
G1 X113.861 Y114.964 E15.0322
G1 X114.715 Y114.619 E15.07815
G1 X115.595 Y114.349 E15.12407
G1 X116.495 Y114.157 E15.16998
G1 X117.409 Y114.043 E15.21594
G1 X117.962 Y114.013 E15.24357
G1 X118.283 Y114.004 E15.25959
G1 X118.58 Y114 E15.27441
G1 X181.043 Y114 E18.3907
G1 X181.893 Y114.011 E18.43311
G1 X182.812 Y114.064 E18.47903
G1 X183.723 Y114.197 E18.52496
G1 X184.619 Y114.408 E18.57089
G1 X185.493 Y114.696 E18.6168
G1 X186.34 Y115.059 E18.66277
G1 X187.151 Y115.494 E18.70869
G1 X187.921 Y115.998 E18.7546
G1 X188.645 Y116.567 E18.80054
G1 X189.317 Y117.197 E18.8465
G1 X189.932 Y117.882 E18.89242
G1 X190.485 Y118.618 E18.93835
G1 X190.972 Y119.399 E18.98427
G1 X191.389 Y120.22 E19.03021
G1 X191.734 Y121.074 E19.07616
G1 X192.003 Y121.954 E19.12207
G1 X192.195 Y122.855 E19.16803
G1 X192.308 Y123.768 E19.21393
G1 X192.337 Y124.312 E19.24111
G1 X192.346 Y124.632 E19.25708
G1 X192.35 Y124.93 E19.27195
G1 X192.349 Y174.795 E21.75972
G1 X192.34 Y175.522 E21.796
G1 X192.289 Y176.441 E21.84192
G1 X192.158 Y177.353 E21.88788
G1 X191.948 Y178.249 E21.9338
G1 X191.662 Y179.124 E21.97972
G1 X191.301 Y179.971 E22.02566
G1 X190.867 Y180.783 E22.07159
G1 X190.365 Y181.555 E22.11753
G1 X189.797 Y182.28 E22.16348
G1 X189.169 Y182.953 E22.20941
G1 X188.485 Y183.569 E22.25533
G1 X187.75 Y184.123 E22.30125
G1 X186.97 Y184.612 E22.34718
G1 X186.15 Y185.031 E22.39312
G1 X185.297 Y185.377 E22.43904
G1 X184.417 Y185.648 E22.48498
G1 X183.517 Y185.841 E22.5309
G1 X182.603 Y185.956 E22.57686
G1 X182.038 Y185.987 E22.60509
G1 X181.717 Y185.996 E22.62112
G1 X181.42 Y186 E22.63593
G1 X118.82 Y185.999 E25.75906
G1 X118.122 Y185.99 E25.79389
G1 X117.203 Y185.938 E25.83981
G1 X116.292 Y185.807 E25.88573
G1 X115.396 Y185.597 E25.93164
G1 X114.521 Y185.31 E25.97758
G1 X113.674 Y184.948 E26.02354
G1 X112.862 Y184.514 E26.06947
G1 X112.091 Y184.012 E26.11537
G1 X111.366 Y183.444 E26.16132
G1 X110.693 Y182.815 E26.20728
G1 X110.078 Y182.131 E26.25317
G1 X109.524 Y181.396 E26.29909
G1 X109.036 Y180.615 E26.34503
G1 X108.617 Y179.795 E26.39097
G1 X108.271 Y178.942 E26.4369
G1 X108.001 Y178.062 E26.48282
G1 X107.808 Y177.161 E26.52879
G1 X107.694 Y176.248 E26.5747
G1 X107.663 Y175.677 E26.60322
G1 X107.654 Y175.344 E26.61984
G1 X107.65 Y175.058 E26.63411
G1 X107.651 Y125.131 E29.12498
G1 X107.66 Y124.466 E29.15816
G1 X107.712 Y123.546 E29.20413
G1 X107.844 Y122.635 E29.25006
G1 X108.055 Y121.739 E29.29598
G1 X108.342 Y120.864 E29.34193
G1 X108.705 Y120.018 E29.38785
G1 X109.139 Y119.206 E29.43379
G1 X109.642 Y118.435 E29.47972
G1 X110.211 Y117.711 E29.52566
G1 X110.839 Y117.039 E29.57154
G0 F6000 X111.231 Y117.217
G1 F1200 X111.912 Y116.624 E29.61659
G1 X112.644 Y116.094 E29.66168
G1 X113.419 Y115.631 E29.70672
G1 X114.232 Y115.238 E29.75177
G1 X115.077 Y114.918 E29.79685
G1 X115.946 Y114.675 E29.84187
G1 X116.834 Y114.509 E29.88694
G1 X117.973 Y114.413 E29.94397
G1 X118.294 Y114.404 E29.95999
G1 X118.58 Y114.4 E29.97426
G1 X181.043 Y114.4 E33.09055
G1 X181.887 Y114.411 E33.13266
G1 X182.789 Y114.464 E33.17774
G1 X183.682 Y114.596 E33.22277
G1 X184.56 Y114.807 E33.26782
G1 X185.416 Y115.095 E33.31288
G1 X186.243 Y115.457 E33.35792
G1 X187.035 Y115.892 E33.403
G1 X187.786 Y116.394 E33.44807
G1 X188.489 Y116.961 E33.49313
G1 X189.139 Y117.588 E33.53819
G1 X189.731 Y118.27 E33.58324
G1 X190.261 Y119.001 E33.62829
G1 X190.723 Y119.777 E33.67334
G1 X191.116 Y120.59 E33.7184
G1 X191.434 Y121.435 E33.76344
G1 X191.677 Y122.305 E33.8085
G1 X191.842 Y123.193 E33.85357
G1 X191.937 Y124.323 E33.91014
G1 X191.946 Y124.643 E33.92611
G1 X191.95 Y124.93 E33.94043
G1 X191.949 Y174.79 E36.42796
G1 X191.94 Y175.517 E36.46423
G1 X191.889 Y176.419 E36.5093
G1 X191.758 Y177.313 E36.55438
G1 X191.549 Y178.191 E36.59941
G1 X191.263 Y179.048 E36.64448
G1 X190.902 Y179.876 E36.68955
G1 X190.47 Y180.668 E36.73456
G1 X189.969 Y181.42 E36.77964
G1 X189.403 Y182.124 E36.8247
G1 X188.778 Y182.775 E36.86973
G1 X188.097 Y183.369 E36.91481
G1 X187.366 Y183.9 E36.95989
G1 X186.592 Y184.364 E37.00491
G1 X185.779 Y184.758 E37.04998
G1 X184.935 Y185.078 E37.09501
G1 X184.065 Y185.323 E37.14011
G1 X183.178 Y185.489 E37.18513
G1 X182.027 Y185.587 E37.24276
G1 X181.706 Y185.596 E37.25878
G1 X181.42 Y185.6 E37.27305
G1 X118.825 Y185.599 E40.39593
G1 X118.127 Y185.59 E40.43075
G1 X117.226 Y185.539 E40.47578
G1 X116.332 Y185.407 E40.52086
G1 X115.454 Y185.198 E40.56589
G1 X114.597 Y184.911 E40.61098
G1 X113.77 Y184.55 E40.656
G1 X112.977 Y184.117 E40.70107
G1 X112.226 Y183.616 E40.74611
G1 X111.522 Y183.05 E40.79118
G1 X110.871 Y182.424 E40.83624
G1 X110.278 Y181.743 E40.88129
G1 X109.748 Y181.012 E40.92634
G1 X109.284 Y180.237 E40.9714
G1 X108.89 Y179.424 E41.01647
G1 X108.57 Y178.58 E41.06151
G1 X108.326 Y177.71 E41.10659
G1 X108.16 Y176.822 E41.15166
G1 X108.063 Y175.667 E41.20948
G1 X108.054 Y175.334 E41.2261
G1 X108.05 Y175.058 E41.23987
G1 X108.051 Y125.136 E43.73049
G1 X108.06 Y124.471 E43.76367
G1 X108.112 Y123.569 E43.80875
G1 X108.244 Y122.676 E43.85378
G1 X108.454 Y121.798 E43.89882
G1 X108.741 Y120.941 E43.94391
G1 X109.103 Y120.114 E43.98895
G1 X109.536 Y119.322 E44.03398
G1 X110.038 Y118.571 E44.07905
G1 X110.605 Y117.867 E44.12415
G1 X111.231 Y117.217 E44.16917
G1 F2400 E41.16917
;MESH:tape_test.stl
G0 F6000 X130.285 Y156.651
G0 X131.72 Y156.651
G0 X131.55 Y159.49
;TYPE:WALL-INNER
G1 F2400 E44.16917
G1 F1200 X131.55 Y129.08 E45.68633
G1 X128.064 Y129.08 E45.86025
G1 X128.064 Y159.49 E47.37741
G1 X131.55 Y159.49 E47.55133
G0 F6000 X131.15 Y159.09
;TYPE:WALL-OUTER
G1 F1200 X131.15 Y129.48 E49.02858
G1 X128.464 Y129.48 E49.16258
G1 X128.464 Y159.09 E50.63983
G1 X131.15 Y159.09 E50.77384
G1 F2400 E47.77384
G0 F6000 X131.45 Y159.09
G0 X128.236 Y159.318
G0 X127.894 Y157.563
G0 X129.329 Y157.563
G0 X131.746 Y176.065
G0 X131.746 Y174.59
G0 X181.15 Y174.8
;TYPE:WALL-INNER
G1 F2400 E50.77384
G1 F1200 X118.85 Y174.8 E53.88199
G1 X118.85 Y125.2 E56.35655
G1 X181.15 Y125.2 E59.46471
G1 X181.15 Y174.8 E61.93926
G0 F6000 X181.55 Y175.2
;TYPE:WALL-OUTER
G1 F1200 X118.45 Y175.2 E65.08733
G1 X118.45 Y124.8 E67.6018
G1 X181.55 Y124.8 E70.74987
G1 X181.55 Y175.2 E73.26434
G0 F6000 X181.28 Y174.93
G0 X181.04 Y174.41
G0 X180.76 Y174.41
;TYPE:SKIN
G1 F1200 X119.24 Y174.41 E76.33358
G1 X119.24 Y125.59 E78.76922
G1 X180.76 Y125.59 E81.83847
G1 X180.76 Y174.41 E84.27411
G1 F2400 E81.27411
G0 F6000 X181.04 Y174.41
G0 X131.66 Y174.59
G0 X131.66 Y176.065
G0 X130.297 Y158.237
G0 X131.66 Y159.68
G1 F2400 E84.27411
G0 F6000 X131.94 Y159.88
G1 F1200 X131.94 Y128.69 E85.83018
G1 X127.674 Y128.69 E86.04302
G1 X127.674 Y159.88 E87.59909
G1 X131.94 Y159.88 E87.81192
G1 F2400 E84.81192
G0 F6000 X131.66 Y159.63
G0 X128.236 Y159.318
G0 X127.894 Y157.563
G0 X129.329 Y157.563
G0 X127.868 Y176.065
G0 X127.868 Y174.59
G0 X119.942 Y174.69
G1 F2400 E87.81192
G0 F6000 X119.942 Y174.248
G1 F1200 X119.399 Y173.705 E87.85023
G0 F6000 X119.399 Y173.14
G1 F1200 X120.508 Y174.248 E87.92844
G0 F6000 X121.074 Y174.248
G1 F1200 X119.399 Y172.574 E88.04659
G0 F6000 X119.399 Y172.008
G1 F1200 X121.64 Y174.248 E88.20467
G0 F6000 X122.205 Y174.248
G1 F1200 X119.399 Y171.442 E88.40265
G0 F6000 X119.399 Y170.877
G1 F1200 X122.771 Y174.248 E88.64053
G0 F6000 X123.337 Y174.248
G1 F1200 X119.399 Y170.311 E88.91834
G0 F6000 X119.399 Y169.745
G1 F1200 X123.902 Y174.248 E89.23605
G0 F6000 X124.468 Y174.248
G1 F1200 X119.399 Y169.18 E89.59366
G0 F6000 X119.399 Y168.614
G1 F1200 X125.034 Y174.248 E89.9912
G0 F6000 X125.599 Y174.248
G1 F1200 X119.399 Y168.048 E90.42865
G0 F6000 X119.399 Y167.483
G1 F1200 X126.165 Y174.248 E90.90599
G0 F6000 X126.731 Y174.248
G1 F1200 X119.399 Y166.917 E91.42327
G0 F6000 X119.399 Y166.351
G1 F1200 X127.296 Y174.248 E91.98044
G0 F6000 X127.862 Y174.248
G1 F1200 X119.399 Y165.786 E92.57752
G0 F6000 X119.399 Y165.22
G1 F1200 X128.428 Y174.248 E93.21453
G0 F6000 X128.993 Y174.248
G1 F1200 X119.399 Y164.654 E93.89143
G0 F6000 X119.399 Y164.089
G1 F1200 X129.559 Y174.248 E94.60824
G0 F6000 X130.125 Y174.248
G1 F1200 X119.399 Y163.523 E95.36498
G0 F6000 X119.399 Y162.957
G1 F1200 X130.691 Y174.248 E96.16166
G0 F6000 X131.256 Y174.248
G1 F1200 X119.399 Y162.392 E96.9982
G0 F6000 X119.399 Y161.826
G1 F1200 X131.822 Y174.248 E97.87467
G0 F6000 X132.388 Y174.248
G1 F1200 X119.399 Y161.26 E98.79108
G0 F6000 X119.399 Y160.694
G1 F1200 X132.953 Y174.248 E99.74739
G0 F6000 X133.519 Y174.248
G1 F1200 X119.399 Y160.129 E100.7436
G0 F6000 X119.399 Y159.563
G1 F1200 X134.085 Y174.248 E101.77974
G0 F6000 X134.65 Y174.248
G1 F1200 X119.399 Y158.997 E102.85578
G0 F6000 X119.399 Y158.432
G1 F1200 X135.216 Y174.248 E103.97172
G0 F6000 X135.782 Y174.248
G1 F1200 X119.399 Y157.866 E105.12759
G0 F6000 X119.399 Y157.3
G1 F1200 X136.347 Y174.248 E106.32337
G0 F6000 X136.913 Y174.248
G1 F1200 X119.399 Y156.735 E107.55904
G0 F6000 X119.399 Y156.169
G1 F1200 X137.479 Y174.248 E108.83465
G0 F6000 X138.044 Y174.248
G1 F1200 X119.399 Y155.603 E110.15015
G0 F6000 X119.399 Y155.038
G1 F1200 X138.61 Y174.248 E111.50556
G0 F6000 X139.176 Y174.248
G1 F1200 X119.399 Y154.472 E112.90089
G0 F6000 X119.399 Y153.906
G1 F1200 X139.741 Y174.248 E114.33613
G0 F6000 X140.307 Y174.248
G1 F1200 X119.399 Y153.341 E115.81127
G0 F6000 X119.399 Y152.775
G1 F1200 X140.873 Y174.248 E117.32634
G0 F6000 X141.439 Y174.248
G1 F1200 X119.399 Y152.209 E118.88135
G0 F6000 X119.399 Y151.643
G1 F1200 X127.513 Y159.758 E119.45387
G0 F6000 X127.795 Y160.039
G1 F1200 X142.004 Y174.248 E120.45639
G0 F6000 X142.57 Y174.248
G1 F1200 X128.361 Y160.039 E121.45891
G0 F6000 X128.926 Y160.039
G1 F1200 X143.136 Y174.248 E122.46147
G0 F6000 X143.701 Y174.248
G1 F1200 X129.492 Y160.039 E123.46399
G0 F6000 X130.058 Y160.039
G1 F1200 X144.267 Y174.248 E124.46651
G0 F6000 X144.833 Y174.248
G1 F1200 X130.623 Y160.039 E125.46907
G0 F6000 X131.189 Y160.039
G1 F1200 X145.398 Y174.248 E126.47159
G0 F6000 X145.964 Y174.248
G1 F1200 X131.755 Y160.039 E127.47411
G0 F6000 X132.099 Y159.818
G1 F1200 X146.53 Y174.248 E128.49226
G0 F6000 X147.095 Y174.248
G1 F1200 X132.099 Y159.252 E129.55031
G0 F6000 X132.099 Y158.686
G1 F1200 X147.661 Y174.248 E130.64829
G0 F6000 X148.227 Y174.248
G1 F1200 X132.099 Y158.121 E131.78618
G0 F6000 X132.099 Y157.555
G1 F1200 X148.792 Y174.248 E132.96396
G0 F6000 X149.358 Y174.248
G1 F1200 X132.099 Y156.989 E134.18167
G0 F6000 X132.099 Y156.424
G1 F1200 X149.924 Y174.248 E135.43929
G0 F6000 X150.49 Y174.248
G1 F1200 X132.099 Y155.858 E136.73684
G0 F6000 X132.099 Y155.292
G1 F1200 X151.055 Y174.248 E138.07428
G0 F6000 X151.621 Y174.248
G1 F1200 X132.099 Y154.726 E139.45167
G0 F6000 X132.099 Y154.161
G1 F1200 X152.187 Y174.248 E140.86895
G0 F6000 X152.752 Y174.248
G1 F1200 X132.099 Y153.595 E142.32613
G0 F6000 X132.099 Y153.029
G1 F1200 X153.318 Y174.248 E143.82324
G0 F6000 X153.884 Y174.248
G1 F1200 X132.099 Y152.464 E145.36026
G0 F6000 X132.099 Y151.898
G1 F1200 X154.449 Y174.248 E146.93717
G0 F6000 X155.015 Y174.248
G1 F1200 X132.099 Y151.332 E148.55402
G0 F6000 X132.099 Y150.767
G1 F1200 X155.581 Y174.248 E150.21077
G0 F6000 X156.146 Y174.248
G1 F1200 X132.099 Y150.201 E151.90741
G0 F6000 X132.099 Y149.635
G1 F1200 X156.712 Y174.248 E153.64399
G0 F6000 X157.278 Y174.248
G1 F1200 X132.099 Y149.07 E155.42047
G0 F6000 X132.099 Y148.504
G1 F1200 X157.843 Y174.248 E157.23685
G0 F6000 X158.409 Y174.248
G1 F1200 X132.099 Y147.938 E159.09316
G0 F6000 X132.099 Y147.373
G1 F1200 X158.975 Y174.248 E160.98937
G0 F6000 X159.54 Y174.248
G1 F1200 X132.099 Y146.807 E162.92548
G0 F6000 X132.099 Y146.241
G1 F1200 X160.106 Y174.248 E164.90153
G0 F6000 X160.672 Y174.248
G1 F1200 X132.099 Y145.676 E166.91747
G0 F6000 X132.099 Y145.11
G1 F1200 X161.238 Y174.248 E168.97335
G0 F6000 X161.803 Y174.248
G1 F1200 X132.099 Y144.544 E171.06913
G0 F6000 X132.099 Y143.978
G1 F1200 X162.369 Y174.248 E173.20484
G0 F6000 X162.935 Y174.248
G1 F1200 X132.099 Y143.413 E175.38045
G0 F6000 X132.099 Y142.847
G1 F1200 X163.5 Y174.248 E177.59596
G0 F6000 X164.066 Y174.248
G1 F1200 X132.099 Y142.281 E179.85141
G0 F6000 X132.099 Y141.716
G1 F1200 X164.632 Y174.248 E182.14675
G0 F6000 X165.197 Y174.248
G1 F1200 X132.099 Y141.15 E184.48199
G0 F6000 X132.099 Y140.584
G1 F1200 X165.763 Y174.248 E186.85717
G0 F6000 X166.329 Y174.248
G1 F1200 X132.099 Y140.019 E189.27225
G0 F6000 X132.099 Y139.453
