;FLAVOR:Marlin
;TIME:16731
;Filament used: 5.44846m
;Layer height: 0.1
;MINX:102.585
;MINY:108.936
;MINZ:0.36
;MAXX:197.414
;MAXY:191.065
;MAXZ:14.86
;Generated with Cura_SteamEngine master
M140 S105
M105
M190 S105
M104 S270
M105
M109 S270
M82 ;absolute extrusion mode
M201 X500.00 Y500.00 Z100.00 E5000.00 ;Setup machine max acceleration
M203 X500.00 Y500.00 Z10.00 E50.00 ;Setup machine max feedrate
M204 P500.00 R1000.00 T500.00 ;Setup Print/Retract/Travel acceleration
M205 X8.00 Y8.00 Z0.40 E5.00 ;Setup Jerk
M220 S100 ;Reset Feedrate
M221 S100 ;Reset Flowrate

G28 ;Home
G29 A ; enable UBL
G92 E0 ;Reset Extruder
G1 Z2.0 F3000 ;Move Z Axis up
G1 X10.1 Y20 Z0.28 F5000.0 ;Move to start position
G1 X10.1 Y200.0 Z0.28 F1500.0 E15 ;Draw the first line
G1 X10.4 Y200.0 Z0.28 F5000.0 ;Move to side a little
G1 X10.4 Y20 Z0.28 F1500.0 E30 ;Draw the second line
G92 E0 ;Reset Extruder
G1 Z2.0 F3000 ;Move Z Axis up
G92 E0
G92 E0
G1 F1500 E-6.5
;LAYER_COUNT:138
;LAYER:-9
M107
G0 F9000 X108.177 Y114.036 Z0.36
;TYPE:SUPPORT-INTERFACE
G1 F1500 E0
G1 F675 X108.848 Y113.433 E0.10802
G1 X108.964 Y113.337 E0.12605
G1 X109.676 Y112.787 E0.23377
G1 X109.835 Y112.674 E0.25713
G1 X110.573 Y112.184 E0.3632
G1 X110.699 Y112.108 E0.38082
G1 X111.493 Y111.662 E0.48986
G1 X111.643 Y111.584 E0.5101
G1 X112.458 Y111.201 E0.61793
G1 X112.601 Y111.141 E0.6365
G1 X113.46 Y110.812 E0.74664
G1 X113.61 Y110.76 E0.76564
G1 X114.46 Y110.505 E0.8719
G1 X114.633 Y110.458 E0.89337
G1 X115.528 Y110.258 E1.00317
G1 X115.658 Y110.235 E1.01898
G1 X116.563 Y110.101 E1.12852
G1 X116.732 Y110.083 E1.14887
G1 X117.621 Y110.017 E1.25561
G1 X117.805 Y110.008 E1.27767
G1 X118.31 Y110 E1.33815
G1 X181.753 Y110.001 E8.93459
G1 X182.754 Y110.037 E9.05452
G1 X182.877 Y110.046 E9.06929
G1 X183.794 Y110.148 E9.17976
G1 X183.969 Y110.173 E9.20093
G1 X184.858 Y110.337 E9.30917
G1 X184.981 Y110.365 E9.32428
G1 X185.875 Y110.599 E9.43493
G1 X186.038 Y110.648 E9.45531
G1 X186.88 Y110.934 E9.56178
G1 X187.046 Y110.998 E9.58308
G1 X187.849 Y111.339 E9.68754
G1 X188.038 Y111.427 E9.71251
G1 X188.832 Y111.835 E9.81939
G1 X188.949 Y111.902 E9.83554
G1 X189.728 Y112.376 E9.94472
G1 X189.879 Y112.476 E9.96641
G1 X190.593 Y112.987 E10.07154
G1 X190.741 Y113.1 E10.09383
G1 X191.432 Y113.676 E10.20155
G1 X191.545 Y113.777 E10.2197
G1 X192.194 Y114.402 E10.32758
G1 X192.314 Y114.527 E10.34833
G1 X192.917 Y115.198 E10.45635
G1 X193.013 Y115.314 E10.47437
G1 X193.572 Y116.038 E10.5839
G1 X193.666 Y116.169 E10.6032
G1 X194.166 Y116.923 E10.71153
G1 X194.242 Y117.049 E10.72915
G1 X194.688 Y117.843 E10.83819
G1 X194.766 Y117.993 E10.85844
G1 X195.149 Y118.808 E10.96626
G1 X195.209 Y118.951 E10.98483
G1 X195.538 Y119.81 E11.09497
G1 X195.59 Y119.96 E11.11398
G1 X195.845 Y120.81 E11.22023
G1 X195.892 Y120.983 E11.2417
G1 X196.09 Y121.869 E11.3504
G1 X196.115 Y122.008 E11.36731
G1 X196.248 Y122.907 E11.47613
G1 X196.266 Y123.069 E11.49564
G1 X196.333 Y123.971 E11.60394
G1 X196.342 Y124.155 E11.626
G1 X196.35 Y124.656 E11.686
G1 X196.35 Y175.386 E17.76023
G1 X196.314 Y176.392 E17.88076
G1 X196.304 Y176.527 E17.89697
G1 X196.202 Y177.444 E18.00744
G1 X196.177 Y177.619 E18.02861
G1 X196.015 Y178.497 E18.13551
G1 X195.985 Y178.631 E18.15196
G1 X195.754 Y179.516 E18.26147
G1 X195.702 Y179.688 E18.28299
G1 X195.426 Y180.5 E18.38568
G1 X195.346 Y180.709 E18.41247
G1 X195.011 Y181.499 E18.51522
G1 X194.93 Y181.674 E18.53831
G1 X194.515 Y182.482 E18.64707
G1 X194.448 Y182.599 E18.66321
G1 X193.974 Y183.378 E18.7724
G1 X193.874 Y183.529 E18.79408
G1 X193.363 Y184.243 E18.89921
G1 X193.25 Y184.391 E18.92151
G1 X192.674 Y185.082 E19.02922
G1 X192.573 Y185.195 E19.04737
G1 X191.948 Y185.844 E19.15526
G1 X191.823 Y185.964 E19.176
G1 X191.153 Y186.566 E19.28385
G1 X191.036 Y186.663 E19.30205
G1 X190.324 Y187.213 E19.40978
G1 X190.165 Y187.326 E19.43313
G1 X189.427 Y187.816 E19.5392
G1 X189.301 Y187.892 E19.55682
G1 X188.507 Y188.338 E19.66586
G1 X188.356 Y188.416 E19.68621
G1 X187.542 Y188.799 E19.79393
G1 X187.399 Y188.859 E19.8125
G1 X186.54 Y189.188 E19.92264
G1 X186.39 Y189.24 E19.94165
G1 X185.54 Y189.495 E20.0479
G1 X185.367 Y189.542 E20.06937
G1 X184.472 Y189.742 E20.17917
G1 X184.342 Y189.765 E20.19498
G1 X183.437 Y189.899 E20.30453
G1 X183.269 Y189.917 E20.32476
G1 X182.379 Y189.983 E20.43161
G1 X182.195 Y189.992 E20.45367
G1 X181.69 Y190 E20.51415
G1 X118.247 Y189.999 E28.11059
G1 X117.246 Y189.963 E28.23052
G1 X117.123 Y189.954 E28.24529
G1 X116.206 Y189.852 E28.35576
G1 X116.031 Y189.827 E28.37693
G1 X115.142 Y189.663 E28.48517
G1 X115.019 Y189.635 E28.50028
G1 X114.125 Y189.401 E28.61093
G1 X113.962 Y189.352 E28.63131
G1 X113.12 Y189.066 E28.73778
G1 X112.954 Y189.002 E28.75909
G1 X112.151 Y188.661 E28.86354
G1 X111.962 Y188.573 E28.88851
G1 X111.168 Y188.165 E28.9954
G1 X111.051 Y188.098 E29.01154
G1 X110.272 Y187.624 E29.12072
G1 X110.121 Y187.524 E29.14241
G1 X109.407 Y187.013 E29.24754
G1 X109.259 Y186.9 E29.26984
G1 X108.568 Y186.324 E29.37755
G1 X108.455 Y186.223 E29.3957
G1 X107.806 Y185.598 E29.50358
G1 X107.686 Y185.473 E29.52433
G1 X107.083 Y184.802 E29.63235
G1 X106.986 Y184.684 E29.65064
G1 X106.428 Y183.962 E29.7599
G1 X106.324 Y183.815 E29.78146
G1 X105.831 Y183.072 E29.88822
G1 X105.758 Y182.951 E29.90514
G1 X105.306 Y182.146 E30.01569
G1 X105.234 Y182.007 E30.03443
G1 X104.837 Y181.161 E30.14633
G1 X104.791 Y181.049 E30.16082
G1 X104.462 Y180.19 E30.27096
G1 X104.405 Y180.025 E30.29187
G1 X104.155 Y179.19 E30.39623
G1 X104.108 Y179.017 E30.4177
G1 X103.907 Y178.116 E30.52823
G1 X103.885 Y177.992 E30.54331
G1 X103.75 Y177.078 E30.65394
G1 X103.733 Y176.918 E30.6732
G1 X103.667 Y176.026 E30.7803
G1 X103.658 Y175.845 E30.802
G1 X103.65 Y175.344 E30.86199
G1 X103.65 Y124.614 E36.93622
G1 X103.686 Y123.608 E37.05676
G1 X103.696 Y123.473 E37.07297
G1 X103.798 Y122.556 E37.18344
G1 X103.823 Y122.381 E37.20461
G1 X103.985 Y121.503 E37.31151
G1 X104.015 Y121.369 E37.32795
G1 X104.246 Y120.484 E37.43747
G1 X104.298 Y120.312 E37.45899
G1 X104.584 Y119.47 E37.56546
G1 X104.648 Y119.304 E37.58676
G1 X104.989 Y118.501 E37.69122
G1 X105.07 Y118.326 E37.71431
G1 X105.485 Y117.518 E37.82307
G1 X105.552 Y117.401 E37.83922
G1 X106.026 Y116.622 E37.9484
G1 X106.126 Y116.471 E37.97009
G1 X106.637 Y115.757 E38.07522
G1 X106.75 Y115.609 E38.09751
G1 X107.326 Y114.918 E38.20523
G1 X107.427 Y114.805 E38.22337
G1 X108.052 Y114.156 E38.33126
G1 X108.177 Y114.036 E38.35201
G0 F9000 X108.8 Y113.476
G1 F675 X108.8 Y186.517 E47.09768
G0 F9000 X110.4 Y187.701
G1 F675 X110.4 Y112.298 E56.12617
G0 F9000 X112 Y111.416
G1 F675 X112 Y188.59 E65.36671
G0 F9000 X113.6 Y189.229
G1 F675 X113.6 Y110.763 E74.76196
G0 F9000 X115.2 Y110.331
G1 F675 X115.2 Y189.673 E84.26209
G0 F9000 X116.8 Y189.918
G1 F675 X116.8 Y110.077 E93.82197
G0 F9000 X118.4 Y110.001
G1 F675 X118.4 Y189.999 E103.40065
G0 F9000 X120 Y189.999
G1 F675 X120 Y110.001 E112.97933
G0 F9000 X121.6 Y110.001
G1 F675 X121.6 Y189.999 E122.55801
G0 F9000 X123.2 Y189.999
G1 F675 X123.2 Y110.001 E132.13669
G0 F9000 X124.8 Y110.001
G1 F675 X124.8 Y189.999 E141.71537
G0 F9000 X126.4 Y189.999
G1 F675 X126.4 Y110.001 E151.29405
G0 F9000 X128 Y110.001
G1 F675 X128 Y189.999 E160.87272
G0 F9000 X129.6 Y189.999
G1 F675 X129.6 Y110.001 E170.4514
G0 F9000 X131.2 Y110.001
G1 F675 X131.2 Y189.999 E180.03008
G0 F9000 X132.8 Y189.999
G1 F675 X132.8 Y110.001 E189.60876
G0 F9000 X134.4 Y110.001
G1 F675 X134.4 Y189.999 E199.18744
G0 F9000 X136 Y189.999
G1 F675 X136 Y110.001 E208.76612
G0 F9000 X137.6 Y110.001
G1 F675 X137.6 Y189.999 E218.3448
G0 F9000 X139.2 Y189.999
G1 F675 X139.2 Y110.001 E227.92348
G0 F9000 X140.8 Y110.001
G1 F675 X140.8 Y189.999 E237.50216
G0 F9000 X142.4 Y189.999
G1 F675 X142.4 Y110.001 E247.08084
G0 F9000 X144 Y110.001
G1 F675 X144 Y189.999 E256.65952
G0 F9000 X145.6 Y189.999
G1 F675 X145.6 Y110.001 E266.2382
G0 F9000 X147.2 Y110.001
G1 F675 X147.2 Y189.999 E275.81688
G0 F9000 X148.8 Y189.999
G1 F675 X148.8 Y110.001 E285.39556
G0 F9000 X150.4 Y110.001
G1 F675 X150.4 Y189.999 E294.97424
G0 F9000 X152 Y189.999
G1 F675 X152 Y110.001 E304.55292
G0 F9000 X153.6 Y110.001
G1 F675 X153.6 Y189.999 E314.1316
G0 F9000 X155.2 Y189.999
G1 F675 X155.2 Y110.001 E323.71027
G0 F9000 X156.8 Y110.001
G1 F675 X156.8 Y189.999 E333.28895
G0 F9000 X158.4 Y189.999
G1 F675 X158.4 Y110.001 E342.86763
G0 F9000 X160 Y110.001
G1 F675 X160 Y189.999 E352.44631
G0 F9000 X161.6 Y189.999
G1 F675 X161.6 Y110.001 E362.02499
G0 F9000 X163.2 Y110.001
G1 F675 X163.2 Y189.999 E371.60367
G0 F9000 X164.8 Y189.999
G1 F675 X164.8 Y110.001 E381.18235
G0 F9000 X166.4 Y110.001
G1 F675 X166.4 Y189.999 E390.76103
G0 F9000 X168 Y189.999
G1 F675 X168 Y110.001 E400.33971
G0 F9000 X169.6 Y110.001
G1 F675 X169.6 Y189.999 E409.91839
G0 F9000 X171.2 Y189.999
G1 F675 X171.2 Y110.001 E419.49707
G0 F9000 X172.8 Y110.001
G1 F675 X172.8 Y189.999 E429.07575
G0 F9000 X174.4 Y189.999
G1 F675 X174.4 Y110.001 E438.65443
G0 F9000 X176 Y110.001
G1 F675 X176 Y189.999 E448.23311
G0 F9000 X177.6 Y189.999
G1 F675 X177.6 Y110.001 E457.81179
G0 F9000 X179.2 Y110.001
G1 F675 X179.2 Y189.999 E467.39047
G0 F9000 X180.8 Y189.999
G1 F675 X180.8 Y110.001 E476.96915
G0 F9000 X182.4 Y110.025
G1 F675 X182.4 Y189.982 E486.54292
G0 F9000 X184 Y189.816
G1 F675 X184 Y110.179 E496.07837
G0 F9000 X185.6 Y110.528
G1 F675 X185.6 Y189.477 E505.53145
G0 F9000 X187.2 Y188.936
G1 F675 X187.2 Y111.064 E514.85557
G0 F9000 X188.8 Y111.819
G1 F675 X188.8 Y188.174 E523.99805
G0 F9000 X190.4 Y187.155
G1 F675 X190.4 Y112.849 E532.89518
G0 F9000 X192 Y114.216
G1 F675 X192 Y185.791 E541.46532
G0 F9000 X193.6 Y183.912
G1 F675 X193.6 Y116.078 E549.58753
G0 F9000 X195.2 Y118.93
G1 F675 X195.2 Y181.054 E557.02604
G1 F1500 E550.52604
G0 F9000 X196.18 Y181.469
G0 X195.363 Y183.143
G0 X194.216 Y184.881
G0 X193.358 Y185.914
G0 X191.853 Y187.368
G0 X190.773 Y188.199
G0 X189.007 Y189.278
G0 X187.789 Y189.85
G0 X185.823 Y190.521
G0 X184.508 Y190.817
G0 X182.44 Y191.046
G0 X117.193 Y191.026
G0 X115.867 Y190.879
G0 X113.84 Y190.427
G0 X112.55 Y189.987
G0 X110.67 Y189.105
G0 X109.511 Y188.396
G0 X107.867 Y187.125
G0 X106.409 Y185.643
G0 X107.2 Y184.932
G1 F1500 E557.02604
G1 F675 X107.2 Y115.069 E565.39119
G0 F9000 X105.6 Y117.322
G1 F675 X105.6 Y182.669 E573.21561
G0 F9000 X104 Y178.532
G1 F675 X104 Y121.436 E580.05208
G1 F1500 E573.55208
G0 F300 X104 Y121.436 Z0.51
G0 F9000 X102.944 Y121.284
G0 X102.637 Y123.369
G0 X102.586 Y124.589
G0 X102.604 Y176.087
G0 X102.833 Y178.158
G0 X103.129 Y179.473
G0 X103.8 Y181.438
G0 X104.372 Y182.657
G0 X105.451 Y184.423
G0 X105.686 Y184.728
G0 X106.856 Y186.141
G0 X107.647 Y185.429
;TIME_ELAPSED:444.273958
;LAYER:-8
;TYPE:SUPPORT
G1 F1500 E580.05208
G1 F675 X108.072 Y185.854 E580.08207
G1 X107.805 Y185.597 E580.10056
G1 X107.685 Y185.471 E580.10924
G0 F9000 X108.072 Y185.854
G1 F675 X108.454 Y186.222 E580.1357
G1 X108.568 Y186.323 E580.1433
G1 X109.259 Y186.899 E580.18818
G1 X109.407 Y187.012 E580.19747
G1 X110.12 Y187.523 E580.24123
G1 X110.271 Y187.623 E580.25027
G1 X111.051 Y188.097 E580.29581
G1 X111.167 Y188.164 E580.30249
G1 X111.961 Y188.572 E580.34703
G1 X112.151 Y188.66 E580.35747
G1 X112.397 Y188.764 E580.3708
G1 X104.875 Y181.242 E580.90151
G1 X104.837 Y181.16 E580.90602
G1 X104.791 Y181.048 E580.91206
G1 X104.462 Y180.189 E580.95796
G1 X104.405 Y180.024 E580.96667
G1 X104.155 Y179.189 E581.01015
G1 X104.125 Y179.078 E581.01589
G1 X114.561 Y189.514 E581.7522
G1 X115.018 Y189.634 E581.77578
G1 X115.141 Y189.662 E581.78207
G1 X116.031 Y189.826 E581.82722
G1 X116.205 Y189.851 E581.83599
G1 X116.324 Y189.863 E581.84196
G1 X103.786 Y177.325 E582.72658
G1 X103.75 Y177.077 E582.73908
G1 X103.733 Y176.917 E582.74711
G1 X103.666 Y176.025 E582.79174
G1 X103.658 Y175.844 E582.80078
G1 X103.656 Y175.781 E582.80392
G1 X117.859 Y189.984 E583.80602
G1 X118.246 Y189.998 E583.82534
G1 X119.287 Y189.998 E583.87727
G1 X103.649 Y174.36 E584.98062
G1 X103.649 Y172.946 E585.05117
G1 X120.701 Y189.998 E586.25428
G1 X122.115 Y189.998 E586.32482
G1 X103.649 Y171.532 E587.6277
G1 X103.649 Y170.117 E587.69829
G1 X123.53 Y189.998 E589.101
G1 X124.944 Y189.998 E589.17155
G1 X103.649 Y168.703 E590.67403
G1 X103.649 Y167.289 E590.74457
G1 X126.358 Y189.998 E592.34681
G1 X127.772 Y189.998 E592.41736
G1 X103.649 Y165.875 E594.11937
G1 X103.649 Y164.461 E594.18991
G1 X129.186 Y189.998 E595.99168
G1 X130.601 Y189.998 E596.06228
G1 X103.649 Y163.046 E597.96389
G1 X103.649 Y161.632 E598.03443
G1 X132.015 Y189.998 E600.03581
G1 X133.429 Y189.998 E600.10635
G1 X103.649 Y160.218 E602.20749
G1 X103.649 Y158.804 E602.27804
G1 X134.843 Y189.998 E604.47894
G1 X136.258 Y189.998 E604.54954
G1 X103.649 Y157.389 E606.85028
G1 X103.649 Y155.975 E606.92082
G1 X137.672 Y189.998 E609.32133
G1 X139.086 Y189.998 E609.39187
G1 X103.649 Y154.561 E611.89214
G1 X103.649 Y153.147 E611.96269
G1 X140.5 Y189.998 E614.56273
G1 X141.914 Y189.998 E614.63327
G1 X103.649 Y151.733 E617.33307
G1 X103.649 Y150.318 E617.40367
G1 X143.329 Y189.998 E620.20331
G1 X144.743 Y189.998 E620.27385
G1 X103.649 Y148.904 E623.17325
G1 X103.649 Y147.49 E623.2438
G1 X146.157 Y189.998 E626.24297
G1 X147.571 Y189.998 E626.31351
G1 X103.649 Y146.076 E629.41245
G1 X103.649 Y144.662 E629.48299
G1 X148.985 Y189.998 E632.68169
G1 X150.4 Y189.998 E632.75229
G1 X103.649 Y143.247 E636.05082
G1 X103.649 Y141.833 E636.12137
G1 X151.815 Y189.998 E639.5197
G1 X153.229 Y189.998 E639.59025
G1 X103.649 Y140.419 E643.08835
G1 X103.649 Y139.005 E643.15889
G1 X154.643 Y189.998 E646.75676
G1 X156.057 Y189.998 E646.82731
G1 X103.649 Y137.59 E650.52497
G1 X103.649 Y136.176 E650.59552
G1 X157.471 Y189.998 E654.39295
G1 X158.886 Y189.998 E654.46355
G1 X103.649 Y134.762 E658.36078
G1 X103.649 Y133.348 E658.43132
G1 X160.3 Y189.998 E662.42832
G1 X161.714 Y189.998 E662.49887
G1 X103.649 Y131.934 E666.59563
G1 X103.649 Y130.519 E666.66623
G1 X163.128 Y189.998 E670.86279
G1 X164.543 Y189.998 E670.93338
G1 X103.649 Y129.105 E675.22975
G1 X103.649 Y127.691 E675.30029
G1 X165.957 Y189.998 E679.69643
G1 X167.371 Y189.998 E679.76697
G1 X103.649 Y126.277 E684.26287
G1 X103.649 Y124.863 E684.33341
G1 X168.785 Y189.998 E688.92907
G1 X170.199 Y189.998 E688.99962
G1 X103.693 Y123.492 E693.69197
G1 X103.695 Y123.472 E693.69298
G1 X103.798 Y122.555 E693.73901
G1 X103.823 Y122.38 E693.74783
G1 X103.849 Y122.234 E693.75523
G1 X171.614 Y189.998 E698.53638
G1 X173.028 Y189.998 E698.60693
G1 X104.093 Y121.064 E703.47063
G1 X104.246 Y120.483 E703.5006
G1 X104.298 Y120.311 E703.50957
G1 X104.413 Y119.969 E703.52757
G1 X174.442 Y189.998 E708.46849
G1 X175.856 Y189.998 E708.53904
G1 X104.8 Y118.942 E713.55242
G1 X104.989 Y118.5 E713.57641
G1 X105.069 Y118.325 E713.58601
G1 X105.248 Y117.976 E713.60557
G1 X177.27 Y189.998 E718.68712
G1 X178.685 Y189.998 E718.75771
G1 X105.753 Y117.067 E723.90342
G1 X106.025 Y116.621 E723.92948
G1 X106.125 Y116.47 E723.93852
G1 X106.311 Y116.21 E723.95447
G1 X180.099 Y189.998 E729.16061
G1 X181.513 Y189.998 E729.23116
G1 X106.919 Y115.404 E734.49417
G1 X107.326 Y114.917 E734.52583
G1 X107.426 Y114.804 E734.53336
G1 X107.576 Y114.647 E734.54419
G1 X182.874 Y189.945 E739.85687
G1 X183.269 Y189.916 E739.87663
G1 X183.436 Y189.898 E739.88501
G1 X184.136 Y189.793 E739.92032
G1 X108.283 Y113.94 E745.27216
G1 X108.847 Y113.432 E745.31003
G1 X108.963 Y113.336 E745.31754
G1 X109.037 Y113.279 E745.3222
G1 X185.31 Y189.553 E750.70371
G1 X185.366 Y189.541 E750.70657
G1 X185.539 Y189.494 E750.71551
G1 X186.389 Y189.239 E750.75979
G1 X186.405 Y189.233 E750.76064
G1 X109.841 Y112.669 E756.16264
G1 X110.572 Y112.183 E756.20644
G1 X110.695 Y112.109 E756.2136
G1 X187.43 Y188.844 E761.62767
G1 X187.542 Y188.798 E761.63371
G1 X188.356 Y188.415 E761.67859
G1 X188.395 Y188.395 E761.68078
G1 X111.604 Y111.604 E767.0988
G1 X111.642 Y111.584 E767.10094
G1 X112.456 Y111.201 E767.14582
G1 X112.568 Y111.154 E767.15188
G1 X189.303 Y187.889 E772.56595
G1 X189.426 Y187.816 E772.57308
G1 X190.157 Y187.329 E772.61691
G1 X113.593 Y110.765 E778.01891
G1 X113.609 Y110.759 E778.01976
G1 X114.459 Y110.505 E778.06402
G1 X114.632 Y110.457 E778.07298
