;FLAVOR:Marlin
;TIME:6854
;Filament used: 4.58216m
;Layer height: 0.2
;MINX:50.3
;MINY:100.9
;MINZ:0.2
;MAXX:249.7
;MAXY:199.1
;MAXZ:1
;Generated with Cura_SteamEngine master
M140 S55
M105
M190 S55
M104 S210
M105
M109 S210
M82 ;absolute extrusion mode
M201 X500.00 Y500.00 Z100.00 E5000.00 ;Setup machine max acceleration
M203 X500.00 Y500.00 Z10.00 E50.00 ;Setup machine max feedrate
M204 P500.00 R1000.00 T500.00 ;Setup Print/Retract/Travel acceleration
M205 X8.00 Y8.00 Z0.40 E5.00 ;Setup Jerk
M220 S100 ;Reset Feedrate
M221 S100 ;Reset Flowrate

G28 ;Home

G92 E0 ;Reset Extruder
G1 Z2.0 F3000 ;Move Z Axis up
G1 X10.1 Y20 Z0.28 F5000.0 ;Move to start position
G1 X10.1 Y200.0 Z0.28 F1500.0 E15 ;Draw the first line
G1 X10.4 Y200.0 Z0.28 F5000.0 ;Move to side a little
G1 X10.4 Y20 Z0.28 F1500.0 E30 ;Draw the second line
G92 E0 ;Reset Extruder
G1 Z2.0 F3000 ;Move Z Axis up

G92 E0
G92 E0
G1 F2700 E-5
;LAYER_COUNT:5
;LAYER:0
M107
G0 F6000 X55.712 Y102.439 Z0.2
;TYPE:SKIRT
G1 F2700 E0
G1 F1200 X56.539 Y101.997 E0.03119
G1 X57.401 Y101.627 E0.06239
G1 X58.291 Y101.331 E0.09358
G1 X59.203 Y101.113 E0.12477
G1 X60.13 Y100.972 E0.15596
G1 X61.001 Y100.913 E0.18499
G1 X61.322 Y100.904 E0.19567
G1 X61.63 Y100.9 E0.20592
G1 X237.993 Y100.9 E6.07178
G1 X238.849 Y100.911 E6.10025
G1 X239.785 Y100.965 E6.13143
G1 X240.713 Y101.097 E6.16261
G1 X241.627 Y101.309 E6.19382
G1 X242.519 Y101.598 E6.225
G1 X243.384 Y101.961 E6.2562
G1 X244.214 Y102.397 E6.28739
G1 X245.005 Y102.902 E6.3186
G1 X245.749 Y103.473 E6.34979
G1 X246.442 Y104.105 E6.38099
G1 X247.079 Y104.793 E6.41217
G1 X247.654 Y105.534 E6.44337
G1 X248.165 Y106.32 E6.47455
G1 X248.607 Y107.148 E6.50577
G1 X248.976 Y108.01 E6.53695
G1 X249.271 Y108.9 E6.56814
G1 X249.489 Y109.812 E6.59933
G1 X249.629 Y110.74 E6.63054
G1 X249.687 Y111.601 E6.65924
G1 X249.696 Y111.921 E6.66989
G1 X249.7 Y112.23 E6.68017
G1 X249.699 Y187.5 E9.18366
G1 X249.69 Y188.227 E9.20784
G1 X249.639 Y189.164 E9.23905
G1 X249.507 Y190.092 E9.27023
G1 X249.298 Y191.006 E9.30141
G1 X249.011 Y191.899 E9.33261
G1 X248.649 Y192.765 E9.36383
G1 X248.215 Y193.596 E9.39501
G1 X247.711 Y194.387 E9.42621
G1 X247.142 Y195.132 E9.45739
G1 X246.511 Y195.827 E9.48861
G1 X245.824 Y196.465 E9.51979
G1 X245.085 Y197.042 E9.55097
G1 X244.299 Y197.554 E9.58217
G1 X243.473 Y197.997 E9.61335
G1 X242.611 Y198.369 E9.64457
G1 X241.722 Y198.665 E9.67574
G1 X240.81 Y198.885 E9.70694
G1 X239.883 Y199.026 E9.73813
G1 X238.999 Y199.087 E9.7676
G1 X238.678 Y199.096 E9.77828
G1 X238.37 Y199.1 E9.78853
G1 X61.865 Y199.099 E15.65911
G1 X61.167 Y199.09 E15.68232
G1 X60.231 Y199.038 E15.7135
G1 X59.302 Y198.906 E15.74471
G1 X58.388 Y198.696 E15.7759
G1 X57.495 Y198.409 E15.8071
G1 X56.63 Y198.046 E15.8383
G1 X55.799 Y197.612 E15.86948
G1 X55.008 Y197.108 E15.90068
G1 X54.263 Y196.538 E15.93188
G1 X53.569 Y195.907 E15.96308
G1 X52.932 Y195.22 E15.99424
G1 X52.355 Y194.48 E16.02545
G1 X51.843 Y193.694 E16.05665
G1 X51.4 Y192.867 E16.08785
G1 X51.029 Y192.006 E16.11903
G1 X50.733 Y191.116 E16.15023
G1 X50.514 Y190.204 E16.18142
G1 X50.373 Y189.277 E16.21261
G1 X50.313 Y188.388 E16.24225
G1 X50.304 Y188.055 E16.25333
G1 X50.3 Y187.758 E16.26321
G1 X50.301 Y112.425 E18.76879
G1 X50.31 Y111.76 E18.79091
G1 X50.363 Y110.824 E18.82209
G1 X50.495 Y109.895 E18.8533
G1 X50.706 Y108.981 E18.8845
G1 X50.994 Y108.089 E18.91568
G1 X51.357 Y107.224 E18.94688
G1 X51.792 Y106.393 E18.97807
G1 X52.296 Y105.603 E19.00924
G1 X52.866 Y104.858 E19.04044
G1 X53.498 Y104.164 E19.07166
G1 X54.186 Y103.527 E19.10285
G1 X54.926 Y102.951 E19.13404
G1 X55.712 Y102.439 E19.16524
G0 F6000 X56.091 Y102.682
G1 F1200 X56.911 Y102.264 E19.19585
G1 X57.765 Y101.919 E19.22648
G1 X58.645 Y101.649 E19.2571
G1 X59.545 Y101.457 E19.28771
G1 X60.459 Y101.343 E19.31834
G1 X61.012 Y101.313 E19.33676
G1 X61.333 Y101.304 E19.34744
G1 X61.63 Y101.3 E19.35732
G1 X237.993 Y101.3 E25.22318
G1 X238.843 Y101.311 E25.25145
G1 X239.762 Y101.364 E25.28207
G1 X240.673 Y101.497 E25.31269
G1 X241.569 Y101.708 E25.34331
G1 X242.443 Y101.996 E25.37391
G1 X243.29 Y102.359 E25.40456
G1 X244.101 Y102.794 E25.43517
G1 X244.871 Y103.298 E25.46578
G1 X245.595 Y103.867 E25.49641
G1 X246.267 Y104.497 E25.52704
G1 X246.882 Y105.182 E25.55766
G1 X247.435 Y105.918 E25.58828
G1 X247.922 Y106.699 E25.61889
G1 X248.339 Y107.52 E25.64952
G1 X248.684 Y108.374 E25.68016
G1 X248.953 Y109.254 E25.71076
G1 X249.145 Y110.155 E25.7414
G1 X249.258 Y111.068 E25.772
G1 X249.287 Y111.612 E25.79012
G1 X249.296 Y111.932 E25.80077
G1 X249.3 Y112.23 E25.81068
G1 X249.299 Y187.495 E28.314
G1 X249.29 Y188.222 E28.33818
G1 X249.239 Y189.141 E28.3688
G1 X249.108 Y190.053 E28.39944
G1 X248.898 Y190.949 E28.43005
G1 X248.612 Y191.824 E28.46067
G1 X248.251 Y192.671 E28.49129
G1 X247.817 Y193.483 E28.52192
G1 X247.315 Y194.255 E28.55254
G1 X246.747 Y194.98 E28.58318
G1 X246.119 Y195.653 E28.61379
G1 X245.435 Y196.269 E28.64441
G1 X244.7 Y196.823 E28.67502
G1 X243.92 Y197.312 E28.70564
G1 X243.1 Y197.731 E28.73627
G1 X242.247 Y198.077 E28.76688
G1 X241.367 Y198.348 E28.79751
G1 X240.467 Y198.541 E28.82812
G1 X239.553 Y198.656 E28.85876
G1 X238.988 Y198.687 E28.87758
G1 X238.667 Y198.696 E28.88826
G1 X238.37 Y198.7 E28.89814
G1 X61.87 Y198.699 E34.76856
G1 X61.172 Y198.69 E34.79177
G1 X60.253 Y198.638 E34.82239
G1 X59.342 Y198.507 E34.853
G1 X58.446 Y198.297 E34.88361
G1 X57.571 Y198.01 E34.91424
G1 X56.724 Y197.648 E34.94487
G1 X55.912 Y197.214 E34.9755
G1 X55.141 Y196.712 E35.0061
G1 X54.416 Y196.144 E35.03673
G1 X53.743 Y195.515 E35.06737
G1 X53.128 Y194.831 E35.09796
G1 X52.574 Y194.096 E35.12857
G1 X52.086 Y193.315 E35.1592
G1 X51.667 Y192.495 E35.18983
G1 X51.321 Y191.642 E35.22045
G1 X51.051 Y190.762 E35.25106
G1 X50.858 Y189.861 E35.28171
G1 X50.744 Y188.948 E35.31231
G1 X50.713 Y188.377 E35.33133
G1 X50.704 Y188.044 E35.34241
G1 X50.7 Y187.758 E35.35193
G1 X50.701 Y112.431 E37.85731
G1 X50.71 Y111.766 E37.87943
G1 X50.762 Y110.846 E37.91008
G1 X50.894 Y109.935 E37.9407
G1 X51.105 Y109.039 E37.97131
G1 X51.392 Y108.164 E38.00194
G1 X51.755 Y107.318 E38.03256
G1 X52.189 Y106.506 E38.06318
G1 X52.692 Y105.735 E38.0938
G1 X53.261 Y105.011 E38.12443
G1 X53.889 Y104.339 E38.15502
G1 X54.574 Y103.723 E38.18566
G1 X55.31 Y103.17 E38.21628
G1 X56.091 Y102.682 E38.24691
G0 F6000 X56.469 Y102.931
G1 F1200 X57.282 Y102.538 E38.27694
G1 X58.127 Y102.218 E38.307
G1 X58.996 Y101.975 E38.33701
G1 X59.884 Y101.809 E38.36705
G1 X61.023 Y101.713 E38.40507
G1 X61.344 Y101.704 E38.41575
G1 X61.63 Y101.7 E38.42527
G1 X237.993 Y101.7 E44.29112
G1 X238.837 Y101.711 E44.3192
G1 X239.739 Y101.764 E44.34925
G1 X240.632 Y101.896 E44.37927
G1 X241.51 Y102.107 E44.40931
G1 X242.366 Y102.395 E44.43935
G1 X243.193 Y102.757 E44.46937
G1 X243.985 Y103.192 E44.49943
G1 X244.736 Y103.694 E44.52947
G1 X245.439 Y104.261 E44.55951
G1 X246.089 Y104.888 E44.58955
G1 X246.681 Y105.57 E44.61959
G1 X247.211 Y106.301 E44.64962
G1 X247.673 Y107.077 E44.67965
G1 X248.066 Y107.89 E44.70969
G1 X248.384 Y108.735 E44.73972
G1 X248.627 Y109.605 E44.76976
G1 X248.792 Y110.493 E44.7998
G1 X248.887 Y111.623 E44.83752
G1 X248.896 Y111.943 E44.84817
G1 X248.9 Y112.23 E44.85771
G1 X248.899 Y187.49 E47.36087
G1 X248.89 Y188.217 E47.38505
G1 X248.839 Y189.119 E47.4151
G1 X248.708 Y190.013 E47.44515
G1 X248.499 Y190.891 E47.47517
G1 X248.213 Y191.748 E47.50522
G1 X247.852 Y192.576 E47.53526
G1 X247.42 Y193.368 E47.56527
G1 X246.919 Y194.12 E47.59532
G1 X246.353 Y194.824 E47.62537
G1 X245.728 Y195.475 E47.65538
G1 X245.047 Y196.069 E47.68544
G1 X244.316 Y196.6 E47.71549
G1 X243.542 Y197.064 E47.74551
G1 X242.729 Y197.458 E47.77555
G1 X241.885 Y197.778 E47.80558
G1 X241.015 Y198.023 E47.83564
G1 X240.128 Y198.189 E47.86565
G1 X238.977 Y198.287 E47.90407
G1 X238.656 Y198.296 E47.91475
G1 X238.37 Y198.3 E47.92427
G1 X61.875 Y198.299 E53.79451
G1 X61.177 Y198.29 E53.81773
G1 X60.276 Y198.239 E53.84775
G1 X59.382 Y198.107 E53.8778
G1 X58.504 Y197.898 E53.90782
G1 X57.647 Y197.611 E53.93788
G1 X56.82 Y197.25 E53.96789
G1 X56.027 Y196.817 E53.99794
G1 X55.276 Y196.316 E54.02797
G1 X54.572 Y195.75 E54.05802
G1 X53.921 Y195.124 E54.08805
G1 X53.328 Y194.443 E54.11809
G1 X52.798 Y193.712 E54.14812
G1 X52.334 Y192.937 E54.17816
G1 X51.94 Y192.124 E54.20821
G1 X51.62 Y191.28 E54.23823
G1 X51.376 Y190.41 E54.26829
G1 X51.21 Y189.522 E54.29833
G1 X51.113 Y188.367 E54.33688
G1 X51.104 Y188.034 E54.34796
G1 X51.1 Y187.758 E54.35714
G1 X51.101 Y112.436 E56.86236
G1 X51.11 Y111.771 E56.88448
G1 X51.162 Y110.869 E56.91453
G1 X51.294 Y109.976 E56.94456
G1 X51.504 Y109.098 E56.97458
G1 X51.791 Y108.241 E57.00464
G1 X52.153 Y107.414 E57.03467
G1 X52.586 Y106.622 E57.06469
G1 X53.088 Y105.871 E57.09474
G1 X53.655 Y105.167 E57.1248
G1 X54.281 Y104.517 E57.15482
G1 X54.962 Y103.924 E57.18485
G1 X55.694 Y103.394 E57.21491
G1 X56.469 Y102.931 E57.24493
G1 F2700 E52.24493
;MESH:antman_1inch.stl
G0 F6000 X127.618 Y138.751
G0 X128.074 Y137.958
G0 X131.928 Y137.953
G0 X131.991 Y140.953
G0 X140.869 Y145.423
G0 X140.934 Y137.953
G0 X147.075 Y137.953
G0 X147.138 Y148.579
G0 X155.923 Y153.003
G0 X154.088 Y153.003
G0 X154.83 Y172.7
G0 X161.906 Y172.703
G0 X165.009 Y158.229
G0 X167.966 Y172.702
G0 X175.046 Y172.7
G0 X175.826 Y136.326
G0 X181.36 Y172.599
G0 X190.882 Y172.599
G0 X196.133 Y139.027
G0 X196.341 Y173.225
;TYPE:WALL-INNER
G1 F2700 E57.24493
G1 F1200 X202.995 Y173.225 E57.46625
G1 X208.169 Y162.129 E57.87345
G1 X208.548 Y161.315 E57.90332
G1 X208.548 Y162.212 E57.91858
G1 X208.548 Y162.214 E57.91865
G1 X208.548 Y173.225 E58.28488
G1 X217.401 Y173.225 E58.57933
G1 X217.401 Y136.3 E59.80746
G1 X210.842 Y136.3 E60.02561
G1 X205.573 Y147.489 E60.43696
G1 X205.194 Y148.295 E60.46658
G1 X205.194 Y147.405 E60.48174
G1 X205.194 Y147.404 E60.48177
G1 X205.194 Y136.3 E60.85109
G1 X196.341 Y136.3 E61.14555
G1 X196.341 Y138.904 E61.23216
G1 X196.341 Y173.225 E62.37368
G0 F6000 X196.741 Y172.825
G1 F1200 X202.74 Y172.825 E62.5732
G1 X208.568 Y160.325 E63.03192
G1 X208.948 Y159.51 E63.06183
G1 X208.948 Y160.409 E63.07714
G1 X208.948 Y160.41 E63.07717
G1 X208.948 Y172.825 E63.4901
G1 X217.001 Y172.825 E63.75794
G1 X217.001 Y136.7 E64.95946
G1 X211.096 Y136.7 E65.15587
G1 X205.173 Y149.277 E65.61824
G1 X204.794 Y150.083 E65.64787
G1 X204.794 Y149.193 E65.66303
G1 X204.794 Y149.192 E65.66306
G1 X204.794 Y136.7 E66.07855
G1 X196.741 Y136.7 E66.34639
G1 X196.741 Y172.825 E67.54791
G0 F6000 X197.141 Y172.425
;TYPE:WALL-OUTER
G1 F1200 X202.485 Y172.425 E67.72565
G1 X209.337 Y157.728 E68.26499
G1 X209.348 Y157.728 E68.26536
G1 X209.348 Y172.425 E68.75418
G1 X216.601 Y172.425 E68.99542
G1 X216.601 Y137.1 E70.17033
G1 X211.35 Y137.1 E70.34498
G1 X204.451 Y151.75 E70.88357
G1 X204.394 Y151.75 E70.88546
G1 X204.394 Y137.1 E71.37273
G1 X197.141 Y137.1 E71.61396
G1 X197.141 Y172.425 E72.78888
G1 F2700 E67.78888
G0 F6000 X196.841 Y172.425
G0 X196.133 Y139.027
G0 X191.381 Y173.169
;TYPE:WALL-INNER
G1 F2700 E72.78888
G1 F1200 X195.944 Y138.881 E73.93935
G1 X196.258 Y136.525 E74.01841
G1 X196.287 Y136.3 E74.02595
G1 X196.061 Y136.3 E74.03064
G1 X196.06 Y136.3 E74.03068
G1 X188.524 Y136.3 E74.28132
G1 X187.618 Y144.594 E74.55882
G1 X184.731 Y144.594 E74.65485
G1 X183.791 Y136.3 E74.93247
G1 X176.258 Y136.3 E75.18302
G1 X176.257 Y136.3 E75.18305
G1 X176.031 Y136.3 E75.19057
G1 X176.06 Y136.525 E75.19528
G1 X180.86 Y173.169 E76.42447
G1 X191.381 Y173.169 E76.7744
G0 F6000 X191.031 Y172.769
G1 F1200 X195.801 Y136.925 E77.97709
G1 X195.83 Y136.7 E77.98464
G1 X195.604 Y136.7 E77.98933
G1 X195.603 Y136.7 E77.98936
G1 X188.883 Y136.7 E78.21287
G1 X187.977 Y144.994 E78.49037
G1 X184.768 Y144.994 E78.5971
G1 X184.767 Y144.994 E78.59713
G1 X184.545 Y144.994 E78.60452
G1 X184.57 Y145.215 E78.60916
G1 X185.298 Y151.66 E78.82488
G1 X187.28 Y151.66 E78.8908
G1 X186.424 Y161.766 E79.22813
G1 X187.686 Y172.749 E79.59583
G1 X187.689 Y172.769 E79.59651
G1 X191.031 Y172.769 E79.70766
G1 F2700 E74.70766
G0 F6000 X188.046 Y172.669
G0 X188.046 Y172.369
;TYPE:WALL-OUTER
G1 F2700 E79.70766
G1 F1200 X190.681 Y172.369 E79.7953
G1 X195.373 Y137.1 E80.97869
G1 X189.242 Y137.1 E81.18261
G1 X188.336 Y145.394 E81.46011
G1 X184.993 Y145.394 E81.5713
G1 X185.655 Y151.26 E81.76764
G1 X187.716 Y151.26 E81.83619
G1 X186.826 Y161.76 E82.18667
G1 X188.046 Y172.369 E82.54185
G0 F6000 X188.046 Y172.669
G0 X181.211 Y172.769
;TYPE:WALL-INNER
G1 F1200 X187.297 Y172.769 E82.74427
G1 X187.298 Y172.769 E82.74431
G1 X187.52 Y172.769 E82.75169
G1 X187.495 Y172.548 E82.75633
G1 X186.276 Y161.783 E83.11666
G1 X185.18 Y152.105 E83.44061
G1 X185.131 Y151.679 E83.45488
G1 X184.376 Y145.014 E83.67797
G1 X183.434 Y136.7 E83.95627
G1 X176.714 Y136.7 E84.17977
G1 X176.713 Y136.7 E84.17981
G1 X176.487 Y136.7 E84.18732
G1 X176.516 Y136.925 E84.19203
G1 X181.211 Y172.769 E85.39439
G0 F6000 X181.562 Y172.369
;TYPE:WALL-OUTER
G1 F1200 X187.072 Y172.369 E85.57766
G1 X183.077 Y137.1 E86.75821
G1 X176.943 Y137.1 E86.96223
G1 X181.562 Y172.369 E88.1453
G1 F2700 E83.1453
G0 F6000 X181.562 Y172.669
G0 X180.623 Y172.674
G0 X175.826 Y136.326
G0 X175.787 Y172.707
G0 X167.223 Y172.765
G0 X164.947 Y161.773
G0 X162.643 Y172.796
G0 X124.557 Y173.053
G0 X124.526 Y162.223
G0 X119.431 Y173.088
G0 X112.35 Y173.135
G0 X112.313 Y139.027
G0 X107.561 Y173.169
;TYPE:WALL-INNER
G1 F2700 E88.1453
G1 F1200 X112.124 Y138.881 E89.29577
G1 X112.438 Y136.525 E89.37483
G1 X112.467 Y136.3 E89.38237
G1 X112.241 Y136.3 E89.38706
G1 X112.24 Y136.3 E89.38709
G1 X104.704 Y136.3 E89.63774
G1 X103.798 Y144.594 E89.91524
G1 X100.911 Y144.594 E90.01127
G1 X99.971 Y136.3 E90.28889
G1 X92.438 Y136.3 E90.53944
G1 X92.437 Y136.3 E90.53947
G1 X92.211 Y136.3 E90.54699
G1 X92.24 Y136.525 E90.5517
G1 X97.04 Y173.169 E91.78089
G1 X107.561 Y173.169 E92.13082
G0 F6000 X103.7 Y172.769
G1 F1200 X103.675 Y172.548 E92.13822
G1 X102.456 Y161.783 E92.49855
G1 X101.36 Y152.105 E92.8225
G1 X101.311 Y151.679 E92.83677
G1 X100.556 Y145.014 E93.05986
G1 X99.614 Y136.7 E93.33816
G1 X92.894 Y136.7 E93.56166
G1 X92.893 Y136.7 E93.5617
G1 X92.667 Y136.7 E93.56921
G1 X92.696 Y136.925 E93.57392
G1 X97.391 Y172.769 E94.77628
G1 X103.477 Y172.769 E94.9787
G1 X103.478 Y172.769 E94.97874
G1 X103.7 Y172.769 E94.98337
G0 F6000 X103.252 Y172.369
;TYPE:WALL-OUTER
G1 F1200 X99.257 Y137.1 E96.16392
G1 X93.123 Y137.1 E96.36794
G1 X97.742 Y172.369 E97.55101
G1 X103.252 Y172.369 E97.73427
G0 F6000 X103.252 Y172.669
G0 X107.211 Y172.769
;TYPE:WALL-INNER
G1 F1200 X111.981 Y136.925 E98.93696
G1 X112.01 Y136.7 E98.9445
G1 X111.784 Y136.7 E98.94919
G1 X111.783 Y136.7 E98.94923
G1 X105.063 Y136.7 E99.17273
G1 X104.157 Y144.994 E99.45023
G1 X100.948 Y144.994 E99.55697
G1 X100.947 Y144.994 E99.557
G1 X100.725 Y144.994 E99.56438
G1 X100.75 Y145.215 E99.56902
G1 X101.478 Y151.66 E99.78475
G1 X103.46 Y151.66 E99.85067
G1 X102.604 Y161.766 E100.188
G1 X103.866 Y172.749 E100.5557
G1 X103.869 Y172.769 E100.55637
G1 X107.211 Y172.769 E100.66753
G0 F6000 X106.861 Y172.369
;TYPE:WALL-OUTER
G1 F1200 X111.553 Y137.1 E101.85091
G1 X105.422 Y137.1 E102.05483
G1 X104.516 Y145.394 E102.33233
G1 X101.173 Y145.394 E102.44352
G1 X101.835 Y151.26 E102.63986
G1 X103.896 Y151.26 E102.70841
G1 X103.006 Y161.76 E103.0589
G1 X104.226 Y172.369 E103.41408
G1 X106.861 Y172.369 E103.50172
G1 F2700 E98.50172
G0 F6000 X107.158 Y172.409
G0 X112.313 Y139.027
G0 X113.093 Y172.653
G0 X119.581 Y172.765
G0 X124.526 Y162.223
G0 X124.557 Y172.908
G0 X133.581 Y173.169
;TYPE:WALL-INNER
G1 F2700 E103.50172
G1 F1200 X154.258 Y173.169 E104.18944
G1 X154.258 Y173.272 E104.19286
G1 X162.37 Y173.272 E104.46267
G1 X164.752 Y161.719 E104.85501
G1 X164.948 Y160.767 E104.88734
G1 X165.142 Y161.719 E104.90381
G1 X167.5 Y173.272 E105.29599
G1 X175.618 Y173.272 E105.56599
G1 X175.618 Y136.3 E106.79568
G1 X169.001 Y136.3 E107.01577
G1 X169.001 Y142.897 E107.23518
G1 X169.001 Y142.898 E107.23522
G1 X169.001 Y145.718 E107.32901
G1 X168.605 Y142.925 E107.37604
G1 X167.864 Y137.717 E107.551
G1 X162.205 Y137.717 E107.73922
G1 X161.27 Y143.916 E107.94773
G1 X160.874 Y146.547 E108.03623
G1 X160.874 Y143.887 E108.08059
