;FLAVOR:Marlin
;TIME:6052
;Filament used: 3.60739m
;Layer height: 0.2
;MINX:111.815
;MINY:98.785
;MINZ:0.2
;MAXX:187.771
;MAXY:201.628
;MAXZ:26.2
;Generated with Cura_SteamEngine master
M140 S65
M105
M190 S65
M104 S200
M105
M109 S200
M82 ;absolute extrusion mode
M201 X500.00 Y500.00 Z100.00 E5000.00 ;Setup machine max acceleration
M203 X500.00 Y500.00 Z10.00 E50.00 ;Setup machine max feedrate
M204 P500.00 R1000.00 T500.00 ;Setup Print/Retract/Travel acceleration
M205 X8.00 Y8.00 Z0.40 E5.00 ;Setup Jerk
M220 S100 ;Reset Feedrate
M221 S100 ;Reset Flowrate

G28 ;Home

G92 E0 ;Reset Extruder
G1 Z2.0 F3000 ;Move Z Axis up
G1 X10.1 Y20 Z0.28 F5000.0 ;Move to start position
G1 X10.1 Y200.0 Z0.28 F1500.0 E15 ;Draw the first line
G1 X10.4 Y200.0 Z0.28 F5000.0 ;Move to side a little
G1 X10.4 Y20 Z0.28 F1500.0 E30 ;Draw the second line
G92 E0 ;Reset Extruder
G1 Z2.0 F3000 ;Move Z Axis up

G92 E0
G92 E0
G1 F2700 E-5
;LAYER_COUNT:131
;LAYER:0
M107
G0 F6000 X146.6 Y107.49 Z0.2
;TYPE:SKIRT
G1 F2700 E0
G1 F1200 X147.124 Y106.872 E0.02695
G1 X147.371 Y106.59 E0.03942
G1 X147.638 Y106.301 E0.0525
G1 X148.418 Y105.487 E0.09
G1 X148.902 Y105.012 E0.11256
G1 X149.095 Y104.834 E0.12129
G1 X149.49 Y104.487 E0.13878
G1 X150.134 Y103.946 E0.16675
G1 X150.624 Y103.55 E0.1877
G1 X150.805 Y103.412 E0.19527
G1 X151.064 Y103.221 E0.20598
G1 X151.368 Y103.003 E0.21842
G1 X151.615 Y102.83 E0.22845
G1 X151.856 Y102.667 E0.23813
G1 X152.105 Y102.504 E0.24803
G1 X152.483 Y102.263 E0.26294
G1 X152.791 Y102.074 E0.27495
G1 X153.107 Y101.889 E0.28713
G1 X153.552 Y101.637 E0.30414
G1 X153.881 Y101.458 E0.3166
G1 X154.192 Y101.298 E0.32823
G1 X154.637 Y101.077 E0.34476
G1 X154.927 Y100.938 E0.35545
G1 X155.118 Y100.85 E0.36245
G1 X155.343 Y100.75 E0.37064
G1 X155.698 Y100.596 E0.38351
G1 X155.997 Y100.471 E0.39429
G1 X156.26 Y100.366 E0.40371
G1 X156.56 Y100.252 E0.41438
G1 X156.888 Y100.132 E0.426
G1 X157.176 Y100.031 E0.43615
G1 X157.427 Y99.947 E0.44495
G1 X157.693 Y99.861 E0.45425
G1 X158.156 Y99.719 E0.47036
G1 X158.413 Y99.644 E0.47926
G1 X158.57 Y99.6 E0.48468
G1 X158.884 Y99.517 E0.49549
G1 X159.439 Y99.379 E0.51451
G1 X160.042 Y99.247 E0.53504
G1 X160.569 Y99.147 E0.55288
G1 X161.162 Y99.051 E0.57286
G1 X162.082 Y98.928 E0.60373
G1 X162.713 Y98.862 E0.62483
G1 X163.124 Y98.831 E0.63854
G1 X163.73 Y98.802 E0.65872
G1 X164.575 Y98.785 E0.68683
G1 X165.151 Y98.789 E0.70599
G1 X165.801 Y98.81 E0.72762
G1 X166.397 Y98.845 E0.74748
G1 X167.123 Y98.908 E0.77171
G1 X167.677 Y98.971 E0.79026
G1 X167.981 Y99.013 E0.80047
G1 X168.301 Y99.061 E0.81123
G1 X168.717 Y99.131 E0.82526
G1 X168.944 Y99.172 E0.83293
G1 X169.181 Y99.217 E0.84096
G1 X169.508 Y99.284 E0.85206
G1 X169.833 Y99.356 E0.86313
G1 X170.411 Y99.501 E0.88295
G1 X171.253 Y99.736 E0.91202
G1 X171.78 Y99.897 E0.93035
G1 X172.31 Y100.074 E0.94894
G1 X172.909 Y100.294 E0.97016
G1 X173.547 Y100.549 E0.99301
G1 X174.083 Y100.78 E1.01243
G1 X174.727 Y101.078 E1.03603
G1 X175.132 Y101.275 E1.05101
G1 X175.469 Y101.448 E1.06361
G1 X175.917 Y101.691 E1.08056
G1 X176.353 Y101.941 E1.09727
G1 X176.595 Y102.084 E1.10662
G1 X176.697 Y102.146 E1.11059
G1 X177.128 Y102.422 E1.12762
G1 X178.01 Y103.016 E1.16298
G1 X178.574 Y103.423 E1.18612
G1 X178.93 Y103.697 E1.20106
G1 X179.19 Y103.904 E1.21211
G1 X179.56 Y104.207 E1.22802
G1 X179.968 Y104.557 E1.2459
G1 X180.364 Y104.915 E1.26365
G1 X180.655 Y105.189 E1.27695
G1 X180.836 Y105.365 E1.28534
G1 X181.236 Y105.773 E1.30435
G1 X181.819 Y106.402 E1.33287
G1 X182.167 Y106.788 E1.35016
G1 X182.614 Y107.315 E1.37314
G1 X182.83 Y107.587 E1.38469
G1 X183.003 Y107.811 E1.39411
G1 X183.253 Y108.143 E1.40793
G1 X183.442 Y108.402 E1.41859
G1 X183.68 Y108.738 E1.43229
G1 X183.89 Y109.044 E1.44463
G1 X184.044 Y109.281 E1.45403
G1 X184.33 Y109.731 E1.47177
G1 X184.508 Y110.021 E1.48309
G1 X184.575 Y110.134 E1.48745
G1 X184.692 Y110.337 E1.49525
G1 X184.889 Y110.686 E1.50858
G1 X185.046 Y110.974 E1.51949
G1 X185.189 Y111.246 E1.52971
G1 X185.326 Y111.515 E1.53975
G1 X185.494 Y111.857 E1.55242
G1 X185.617 Y112.116 E1.56196
G1 X185.741 Y112.386 E1.57184
G1 X185.874 Y112.688 E1.58282
G1 X186.04 Y113.08 E1.59697
G1 X186.153 Y113.357 E1.60692
G1 X186.2 Y113.477 E1.61121
G1 X186.299 Y113.739 E1.62053
G1 X186.464 Y114.194 E1.63662
G1 X186.559 Y114.465 E1.64618
G1 X186.631 Y114.681 E1.65375
G1 X186.725 Y114.978 E1.66411
G1 X186.835 Y115.342 E1.67676
G1 X187.007 Y115.982 E1.6988
G1 X187.231 Y116.925 E1.73104
G1 X187.353 Y117.506 E1.75078
G1 X187.459 Y118.091 E1.77056
G1 X187.551 Y118.698 E1.79097
G1 X187.647 Y119.472 E1.81692
G1 X187.7 Y120.005 E1.83473
G1 X187.725 Y120.339 E1.84587
G1 X187.754 Y120.944 E1.86602
G1 X187.771 Y121.811 E1.89486
G1 X187.766 Y122.418 E1.91505
G1 X187.744 Y123.036 E1.93562
G1 X187.707 Y123.625 E1.95524
G1 X187.647 Y124.296 E1.97765
G1 X187.576 Y124.902 E1.99794
G1 X187.496 Y125.451 E2.0164
G1 X187.444 Y125.774 E2.02728
G1 X187.395 Y126.052 E2.03667
G1 X187.295 Y126.554 E2.05369
G1 X187.151 Y127.195 E2.07554
G1 X187.076 Y127.507 E2.08622
G1 X186.994 Y127.828 E2.09723
G1 X186.827 Y128.412 E2.11744
G1 X186.595 Y129.148 E2.1431
G1 X186.317 Y129.926 E2.17058
G1 X185.949 Y130.846 E2.20354
G1 X185.714 Y131.391 E2.22328
G1 X185.495 Y131.863 E2.24059
G1 X185.212 Y132.431 E2.26169
G1 X184.819 Y133.164 E2.28936
G1 X184.635 Y133.493 E2.30189
G1 X184.481 Y133.758 E2.31209
G1 X184.312 Y134.04 E2.32302
G1 X184.1 Y134.372 E2.33612
G1 X183.796 Y134.831 E2.35443
G1 X183.475 Y135.29 E2.37306
G1 X183.066 Y135.844 E2.39597
G1 X182.732 Y136.274 E2.41408
G1 X182.472 Y136.592 E2.42774
G1 X182.273 Y136.828 E2.43801
G1 X181.977 Y137.17 E2.45305
G1 X181.78 Y137.392 E2.46292
G1 X181.117 Y138.116 E2.49557
G1 X167.186 Y152.956 E3.17256
G1 X165.462 Y154.845 E3.25762
G1 X163.81 Y156.761 E3.34177
G1 X162.231 Y158.7 E3.42494
G1 X160.683 Y160.717 E3.5095
G1 X159.22 Y162.735 E3.5924
G1 X157.805 Y164.812 E3.67599
G1 X156.442 Y166.939 E3.76002
G1 X155.125 Y169.127 E3.84495
G1 X153.919 Y171.265 E3.9266
G1 X152.723 Y173.534 E4.01191
G1 X151.627 Y175.762 E4.09449
G1 X150.571 Y178.076 E4.17909
G1 X149.586 Y180.402 E4.2631
G1 X148.692 Y182.688 E4.34474
G1 X147.575 Y185.853 E4.45638
G1 X147.33 Y186.587 E4.48211
G1 X146.355 Y189.372 E4.58026
G1 X146.122 Y190.008 E4.60278
G1 X145.762 Y190.874 E4.63398
G1 X145.329 Y191.706 E4.66517
G1 X144.828 Y192.499 E4.69637
G1 X144.431 Y193.035 E4.71856
G1 X143.812 Y193.82 E4.75181
G1 X143.677 Y193.987 E4.75895
G1 X142.473 Y195.453 E4.82204
G1 X141.964 Y196.056 E4.84829
G1 X141.329 Y196.747 E4.8795
G1 X140.637 Y197.38 E4.9107
G1 X140.15 Y197.767 E4.93138
G1 X139.979 Y197.895 E4.93849
G1 X139.788 Y198.035 E4.94637
G1 X139.446 Y198.278 E4.96032
G1 X138.855 Y198.688 E4.98424
G1 X138.303 Y199.06 E5.00638
G1 X137.504 Y199.55 E5.03756
G1 X136.673 Y199.968 E5.0685
G1 X136.029 Y200.258 E5.09199
G1 X135.792 Y200.361 E5.10058
G1 X135.025 Y200.685 E5.12827
G1 X134.147 Y201.013 E5.15945
G1 X133.299 Y201.251 E5.18874
G1 X133.077 Y201.304 E5.19633
G1 X132.157 Y201.483 E5.22751
G1 X131.224 Y201.583 E5.25872
G1 X130.744 Y201.603 E5.2747
G1 X129.493 Y201.627 E5.31631
G1 X129.185 Y201.628 E5.32656
G1 X128.741 Y201.625 E5.34132
G1 X128.546 Y201.622 E5.34781
G1 X128.056 Y201.61 E5.36411
G1 X127.12 Y201.547 E5.39531
G1 X126.193 Y201.404 E5.42651
G1 X125.511 Y201.247 E5.44979
G1 X124.551 Y200.993 E5.48282
G1 X124.231 Y200.903 E5.49387
G1 X123.521 Y200.692 E5.51851
G1 X122.635 Y200.387 E5.54967
G1 X121.777 Y200.007 E5.58088
G1 X121.141 Y199.666 E5.60489
G1 X120.29 Y199.173 E5.6376
G1 X120.009 Y199.005 E5.64849
G1 X119.412 Y198.635 E5.67185
G1 X118.637 Y198.107 E5.70304
G1 X117.672 Y197.299 E5.7449
G1 X117.555 Y197.189 E5.75024
G1 X117.203 Y196.843 E5.76666
G1 X116.852 Y196.482 E5.7834
G1 X116.678 Y196.299 E5.7918
G1 X116.431 Y196.033 E5.80388
G1 X116.197 Y195.773 E5.81551
G1 X115.866 Y195.393 E5.83227
G1 X115.253 Y194.622 E5.86503
G1 X115.182 Y194.524 E5.86906
G1 X115.032 Y194.311 E5.87772
G1 X114.888 Y194.102 E5.88616
G1 X114.763 Y193.917 E5.89359
G1 X114.519 Y193.547 E5.90833
G1 X114.338 Y193.263 E5.91953
G1 X114.031 Y192.765 E5.93899
G1 X113.867 Y192.49 E5.94964
G1 X113.612 Y192.048 E5.96661
G1 X113.178 Y191.216 E5.99782
G1 X112.817 Y190.351 E6.029
G1 X112.531 Y189.458 E6.06018
G1 X112.388 Y188.874 E6.08018
G1 X112.279 Y188.363 E6.09756
G1 X112.234 Y188.132 E6.10539
G1 X112.112 Y187.466 E6.12791
G1 X111.988 Y186.741 E6.15237
G1 X111.87 Y185.811 E6.18355
G1 X111.835 Y185.199 E6.20394
G1 X111.826 Y184.882 E6.21449
G1 X111.816 Y184.083 E6.24106
G1 X111.815 Y183.894 E6.24735
G1 X111.818 Y183.37 E6.26478
G1 X111.864 Y182.433 E6.29598
G1 X112.015 Y181.36 E6.33202
G1 X112.034 Y181.261 E6.33537
G1 X112.122 Y180.847 E6.34945
G1 X112.187 Y180.567 E6.35901
G1 X112.3 Y180.12 E6.37435
G1 X112.621 Y178.96 E6.41438
G1 X112.666 Y178.802 E6.41984
G1 X113.184 Y177.032 E6.48118
G1 X113.831 Y174.563 E6.56607
G1 X114.379 Y172.211 E6.6464
G1 X114.89 Y169.69 E6.73195
G1 X115.325 Y167.178 E6.81674
G1 X115.684 Y164.691 E6.90032
G1 X115.969 Y162.228 E6.98279
G1 X116.19 Y159.683 E7.06775
G1 X116.337 Y157.188 E7.15088
G1 X116.412 Y154.672 E7.2346
G1 X116.418 Y152.148 E7.31855
G1 X116.35 Y149.611 E7.40296
G1 X116.314 Y148.86 E7.42797
G1 X116.299 Y148.41 E7.44294
G1 X116.308 Y147.473 E7.47411
G1 X116.396 Y146.539 E7.50531
G1 X116.564 Y145.616 E7.53651
G1 X116.81 Y144.711 E7.56771
G1 X117.132 Y143.83 E7.59891
G1 X117.528 Y142.98 E7.63009
G1 X117.995 Y142.167 E7.66128
G1 X118.712 Y141.162 E7.70234
G1 X119.206 Y140.546 E7.7286
G1 X119.318 Y140.409 E7.73449
G1 X146.6 Y107.49 E9.15652
G0 F6000 X146.905 Y107.749
G1 F1200 X147.429 Y107.131 E9.18346
G1 X147.603 Y106.93 E9.19231
G1 X147.669 Y106.856 E9.19561
G1 X147.927 Y106.578 E9.20822
G1 X148.707 Y105.764 E9.24572
G1 X149.174 Y105.306 E9.26747
G1 X149.367 Y105.128 E9.2762
G1 X149.747 Y104.794 E9.29303
G1 X150.395 Y104.25 E9.32117
G1 X150.866 Y103.869 E9.34132
G1 X151.047 Y103.731 E9.34889
G1 X151.297 Y103.546 E9.35924
G1 X151.601 Y103.328 E9.37168
G1 X151.839 Y103.162 E9.38133
G1 X152.08 Y102.999 E9.39101
G1 X152.32 Y102.841 E9.40056
G1 X152.698 Y102.6 E9.41547
G1 X152.995 Y102.418 E9.42706
G1 X153.304 Y102.237 E9.43897
G1 X153.749 Y101.985 E9.45598
G1 X154.066 Y101.813 E9.46797
G1 X154.37 Y101.656 E9.47935
G1 X154.815 Y101.435 E9.49588
G1 X155.094 Y101.302 E9.50616
G1 X155.285 Y101.214 E9.51315
G1 X155.503 Y101.117 E9.52109
G1 X155.858 Y100.963 E9.53396
G1 X156.146 Y100.843 E9.54434
G1 X156.409 Y100.738 E9.55376
G1 X156.697 Y100.627 E9.56402
G1 X157.025 Y100.507 E9.57564
G1 X157.303 Y100.41 E9.58543
G1 X157.554 Y100.326 E9.59424
G1 X157.81 Y100.244 E9.60318
G1 X158.273 Y100.102 E9.61928
G1 X158.521 Y100.029 E9.62788
G1 X158.678 Y99.985 E9.6333
G1 X158.98 Y99.905 E9.6437
G1 X159.535 Y99.767 E9.66272
G1 X160.117 Y99.64 E9.68253
G1 X160.644 Y99.54 E9.70037
G1 X161.215 Y99.447 E9.71961
G1 X162.135 Y99.324 E9.75048
G1 X162.743 Y99.261 E9.77081
G1 X163.154 Y99.23 E9.78452
G1 X163.738 Y99.202 E9.80397
G1 X164.583 Y99.185 E9.83208
G1 X165.138 Y99.189 E9.85054
G1 X165.788 Y99.21 E9.87217
G1 X166.362 Y99.244 E9.8913
G1 X167.088 Y99.307 E9.91553
G1 X167.623 Y99.367 E9.93344
G1 X167.927 Y99.409 E9.94365
G1 X168.235 Y99.456 E9.95401
G1 X168.651 Y99.526 E9.96804
G1 X168.869 Y99.565 E9.97541
G1 X169.106 Y99.61 E9.98343
G1 X169.422 Y99.675 E9.99416
G1 X169.747 Y99.747 E10.00523
G1 X170.304 Y99.886 E10.02432
G1 X171.146 Y100.121 E10.0534
G1 X171.654 Y100.277 E10.07107
G1 X172.184 Y100.454 E10.08966
G1 X172.76 Y100.665 E10.11006
G1 X173.398 Y100.92 E10.13291
G1 X173.915 Y101.143 E10.15164
G1 X174.559 Y101.441 E10.17524
G1 X174.949 Y101.631 E10.18967
G1 X175.286 Y101.804 E10.20227
G1 X175.718 Y102.038 E10.21861
G1 X176.154 Y102.288 E10.23533
G1 X176.489 Y102.488 E10.24831
G1 X176.904 Y102.754 E10.2647
G1 X177.786 Y103.348 E10.30007
G1 X178.33 Y103.74 E10.32237
G1 X178.686 Y104.014 E10.33731
G1 X178.937 Y104.213 E10.34796
G1 X179.307 Y104.516 E10.36387
G1 X179.7 Y104.854 E10.38111
G1 X180.096 Y105.212 E10.39887
G1 X180.377 Y105.475 E10.41167
G1 X180.558 Y105.651 E10.42007
G1 X180.942 Y106.045 E10.43836
G1 X181.525 Y106.674 E10.46689
G1 X181.87 Y107.056 E10.48401
G1 X182.301 Y107.564 E10.50617
G1 X182.517 Y107.836 E10.51772
G1 X182.684 Y108.052 E10.5268
G1 X182.934 Y108.384 E10.54062
G1 X183.116 Y108.633 E10.55088
G1 X183.354 Y108.969 E10.56458
G1 X183.556 Y109.264 E10.57647
G1 X183.706 Y109.495 E10.58563
G1 X183.992 Y109.945 E10.60336
G1 X184.164 Y110.225 E10.61429
G1 X184.344 Y110.533 E10.62616
G1 X184.541 Y110.882 E10.63949
G1 X184.692 Y111.16 E10.65001
G1 X184.835 Y111.432 E10.66023
G1 X184.967 Y111.691 E10.6699
G1 X185.135 Y112.033 E10.68257
G1 X185.254 Y112.283 E10.69178
G1 X185.378 Y112.553 E10.70166
G1 X185.506 Y112.844 E10.71224
G1 X185.672 Y113.236 E10.7264
G1 X185.781 Y113.503 E10.73599
G1 X185.828 Y113.623 E10.74027
G1 X185.923 Y113.875 E10.74923
G1 X186.088 Y114.33 E10.76533
G1 X186.179 Y114.592 E10.77455
G1 X186.251 Y114.808 E10.78213
G1 X186.342 Y115.094 E10.79211
G1 X186.452 Y115.458 E10.80476
G1 X186.618 Y116.074 E10.82598
G1 X186.842 Y117.017 E10.85821
G1 X186.959 Y117.577 E10.87724
G1 X187.065 Y118.162 E10.89701
G1 X187.154 Y118.747 E10.9167
G1 X187.25 Y119.521 E10.94264
G1 X187.301 Y120.035 E10.95982
G1 X187.326 Y120.369 E10.97096
G1 X187.354 Y120.952 E10.99037
G1 X187.371 Y121.819 E11.01921
G1 X187.366 Y122.404 E11.03867
G1 X187.344 Y123.022 E11.05924
G1 X187.309 Y123.589 E11.07813
G1 X187.249 Y124.26 E11.10054
G1 X187.18 Y124.844 E11.1201
G1 X187.1 Y125.393 E11.13855
G1 X187.05 Y125.705 E11.14906
G1 X187.001 Y125.983 E11.15845
G1 X186.904 Y126.466 E11.17483
G1 X186.76 Y127.107 E11.19668
G1 X186.688 Y127.408 E11.20698
G1 X186.606 Y127.729 E11.218
G1 X186.446 Y128.292 E11.23746
G1 X186.214 Y129.028 E11.26313
G1 X185.946 Y129.778 E11.28962
G1 X185.578 Y130.698 E11.32258
G1 X185.351 Y131.222 E11.34157
G1 X185.132 Y131.694 E11.35888
G1 X184.859 Y132.242 E11.37924
G1 X184.466 Y132.975 E11.4069
G1 X184.289 Y133.292 E11.41898
G1 X184.135 Y133.557 E11.42917
G1 X183.97 Y133.831 E11.43981
G1 X183.766 Y134.151 E11.45243
G1 X183.462 Y134.61 E11.47074
G1 X183.153 Y135.053 E11.48871
G1 X182.744 Y135.607 E11.51161
G1 X182.422 Y136.021 E11.52906
G1 X182.162 Y136.339 E11.54272
G1 X181.971 Y136.566 E11.55259
G1 X181.675 Y136.908 E11.56763
G1 X181.484 Y137.122 E11.57717
G1 X180.825 Y137.842 E11.60963
G1 X166.964 Y152.607 E12.28321
G1 X165.147 Y154.597 E12.37284
G1 X163.498 Y156.51 E12.45684
G1 X161.933 Y158.433 E12.5393
G1 X160.357 Y160.485 E12.62536
G1 X158.882 Y162.522 E12.70901
G1 X157.47 Y164.592 E12.79235
G1 X156.105 Y166.723 E12.87652
G1 X154.792 Y168.904 E12.96119
G1 X153.552 Y171.103 E13.04515
G1 X152.367 Y173.35 E13.12965
G1 X151.268 Y175.585 E13.21248
G1 X150.207 Y177.909 E13.29745
G1 X149.233 Y180.206 E13.38044
G1 X148.312 Y182.563 E13.4646
G1 X147.183 Y185.761 E13.5774
G1 X146.899 Y186.61 E13.60718
G1 X146.031 Y189.09 E13.69457
G1 X145.746 Y189.87 E13.72219
G1 X145.392 Y190.72 E13.75282
G1 X144.966 Y191.536 E13.78343
G1 X144.47 Y192.312 E13.81406
G1 X144.117 Y192.787 E13.83375
G1 X143.498 Y193.572 E13.867
G1 X143.368 Y193.733 E13.87388
G1 X142.167 Y195.195 E13.93681
G1 X141.658 Y195.798 E13.96306
G1 X141.034 Y196.475 E13.99368
G1 X140.354 Y197.096 E14.02431
G1 X139.91 Y197.447 E14.04313
G1 X139.739 Y197.575 E14.05024
G1 X139.555 Y197.709 E14.05781
G1 X139.218 Y197.95 E14.07159
G1 X138.764 Y198.266 E14.08998
G1 X138.08 Y198.728 E14.11744
G1 X137.295 Y199.209 E14.14806
G1 X136.508 Y199.603 E14.17733
G1 X135.864 Y199.893 E14.20082
G1 X135.637 Y199.993 E14.20907
G1 X134.87 Y200.317 E14.23677
G1 X134.007 Y200.638 E14.26739
G1 X133.206 Y200.862 E14.29505
G1 X132.984 Y200.915 E14.30265
G1 X132.081 Y201.09 E14.33324
G1 X130.736 Y201.203 E14.37813
G1 X129.491 Y201.227 E14.41955
G1 X129.187 Y201.228 E14.42966
G1 X128.743 Y201.225 E14.44443
G1 X128.555 Y201.222 E14.45068
G1 X128.065 Y201.21 E14.46698
G1 X127.147 Y201.147 E14.49759
G1 X126.237 Y201.005 E14.52822
G1 X125.614 Y200.86 E14.54949
G1 X124.654 Y200.606 E14.58252
G1 X124.345 Y200.52 E14.59319
G1 X123.635 Y200.309 E14.61783
G1 X122.765 Y200.008 E14.64845
G1 X121.924 Y199.634 E14.67906
