;FLAVOR:Marlin
;TIME:23893
;Filament used: 22.5642m
;Layer height: 0.2
;MINX:96.236
;MINY:94.754
;MINZ:0.24
;MAXX:203.765
;MAXY:205.264
;MAXZ:26.49
;Generated with Cura_SteamEngine 5.3.0
M140 S50
M105
M190 S50
M104 S210
M105
M109 S210
M82 ;absolute extrusion mode
M220 S100 ;Reset Feedrate
M221 S100 ;Reset Flowrate

M280 P0 S160 ;reset bltouch
G28 ;Home
G29 A ; enable UBL
G92 E0 ;Reset Extruder
G1 Z2.0 F3000 ;Move Z Axis up
G1 X10.1 Y20 Z0.28 F5000.0 ;Move to start position
G1 X10.1 Y200.0 Z0.28 F1500.0 E15 ;Draw the first line
G1 X10.4 Y200.0 Z0.28 F5000.0 ;Move to side a little
G1 X10.4 Y20 Z0.28 F1500.0 E30 ;Draw the second line
G92 E0 ;Reset Extruder
G1 Z2.0 F3000 ;Move Z Axis up
G92 E0
G92 E0
G1 F2100 E-1.5
;LAYER_COUNT:127
;LAYER:-6
M107
G0 F9000 X101.699 Y99.959 Z0.24
;TYPE:SUPPORT-INTERFACE
G1 F2100 E0
G1 F1125 X102.494 Y99.238 E0.08567
G1 X103.4 Y98.531 E0.17741
G1 X104.224 Y97.984 E0.25636
G1 X105.292 Y97.384 E0.35414
G1 X106.111 Y96.999 E0.42638
G1 X107.181 Y96.585 E0.51796
G1 X108.199 Y96.279 E0.60281
G1 X109.178 Y96.059 E0.68291
G1 X110.285 Y95.891 E0.77229
G1 X111.459 Y95.808 E0.86624
G1 X111.854 Y95.801 E0.89777
G1 X188.108 Y95.801 E6.9847
G1 X189.168 Y95.84 E7.06937
G1 X190.308 Y95.971 E7.16097
G1 X191.337 Y96.168 E7.2446
G1 X192.313 Y96.423 E7.32512
G1 X193.315 Y96.764 E7.40961
G1 X194.293 Y97.18 E7.49445
G1 X195.305 Y97.706 E7.58549
G1 X196.152 Y98.221 E7.66462
G1 X197.021 Y98.844 E7.74997
G1 X197.895 Y99.577 E7.84102
G1 X198.541 Y100.199 E7.91261
G1 X199.254 Y100.984 E7.99726
G1 X199.967 Y101.897 E8.08973
G1 X200.519 Y102.73 E8.1695
G1 X201.116 Y103.792 E8.26675
G1 X201.498 Y104.604 E8.33838
G1 X201.913 Y105.672 E8.42984
G1 X202.223 Y106.703 E8.51578
G1 X202.467 Y107.816 E8.60673
G1 X202.61 Y108.789 E8.68524
G1 X202.692 Y109.948 E8.77799
G1 X202.699 Y110.348 E8.80992
G1 X202.7 Y135.784 E10.84033
G1 X202.683 Y136.255 E10.87795
G1 X202.7 Y137.358 E10.96601
G1 X202.7 Y162.684 E12.98764
G1 X202.683 Y163.155 E13.02526
G1 X202.7 Y164.258 E13.11332
G1 X202.7 Y189.586 E15.13511
G1 X202.66 Y190.668 E15.22154
G1 X202.529 Y191.809 E15.31322
G1 X202.332 Y192.837 E15.39677
G1 X202.08 Y193.805 E15.47661
G1 X201.741 Y194.801 E15.5606
G1 X201.323 Y195.788 E15.64616
G1 X200.794 Y196.805 E15.73767
G1 X200.279 Y197.652 E15.81679
G1 X199.656 Y198.521 E15.90215
G1 X198.923 Y199.395 E15.9932
G1 X198.301 Y200.041 E16.06479
G1 X197.506 Y200.762 E16.15046
G1 X196.6 Y201.469 E16.24219
G1 X195.776 Y202.016 E16.32114
G1 X194.708 Y202.616 E16.41893
G1 X193.891 Y203 E16.49099
G1 X192.819 Y203.415 E16.58275
G1 X191.801 Y203.721 E16.6676
G1 X190.822 Y203.941 E16.7477
G1 X189.715 Y204.109 E16.83707
G1 X188.541 Y204.192 E16.93102
G1 X188.146 Y204.199 E16.96256
G1 X111.892 Y204.199 E23.04948
G1 X110.832 Y204.16 E23.13415
G1 X109.691 Y204.029 E23.22583
G1 X108.663 Y203.832 E23.30938
G1 X107.686 Y203.576 E23.39
G1 X106.679 Y203.234 E23.4749
G1 X105.711 Y202.822 E23.55887
G1 X104.757 Y202.332 E23.64448
G1 X103.847 Y201.778 E23.72953
G1 X102.975 Y201.153 E23.81517
G1 X102.102 Y200.419 E23.90621
G1 X101.449 Y199.791 E23.97853
G1 X100.738 Y199.006 E24.06307
G1 X100.031 Y198.1 E24.15481
G1 X99.48 Y197.27 E24.23433
G1 X98.882 Y196.203 E24.33197
G1 X98.49 Y195.366 E24.40575
G1 X98.081 Y194.311 E24.49607
G1 X97.777 Y193.298 E24.58049
G1 X97.531 Y192.171 E24.67257
G1 X97.401 Y191.285 E24.74406
G1 X97.308 Y190.04 E24.84371
G1 X97.301 Y189.646 E24.87517
G1 X97.301 Y164.214 E26.90526
G1 X97.317 Y163.736 E26.94344
G1 X97.301 Y162.642 E27.03078
G1 X97.301 Y137.314 E29.05257
G1 X97.317 Y136.836 E29.09074
G1 X97.3 Y135.742 E29.17808
G1 X97.301 Y110.414 E31.19987
G1 X97.34 Y109.332 E31.2863
G1 X97.471 Y108.191 E31.37798
G1 X97.668 Y107.163 E31.46153
G1 X97.92 Y106.196 E31.5413
G1 X98.264 Y105.186 E31.62647
G1 X98.677 Y104.213 E31.71084
G1 X99.206 Y103.195 E31.80242
G1 X99.721 Y102.348 E31.88155
G1 X100.344 Y101.479 E31.9669
G1 X101.077 Y100.605 E32.05796
G1 X101.699 Y99.959 E32.12954
G0 F9000 X102.256 Y99.993
G1 F1125 X199.84 Y197.577 E43.14567
G1 F2100 E41.64567
G0 F9000 X198.853 Y198.853
G1 F2100 E43.14567
G1 F1125 X101.145 Y101.145 E54.17579
G1 F2100 E52.67579
G0 F9000 X100.158 Y102.421
G1 F2100 E54.17579
G1 F1125 X197.743 Y200.005 E65.19197
G1 F2100 E63.69197
G0 F9000 X196.507 Y201.032
G1 F2100 E65.19197
G1 F1125 X99.318 Y103.844 E76.16345
G1 F2100 E74.66345
G0 F9000 X98.612 Y105.4
G1 F2100 E76.16345
G1 F1125 X195.13 Y201.918 E87.05923
G1 F2100 E85.55923
G0 F9000 X193.622 Y202.673
G1 F2100 E87.05923
G1 F1125 X98.087 Y107.137 E97.84411
G1 F2100 E96.34411
G0 F9000 X97.77 Y109.084
G1 F2100 E97.84411
G1 F1125 X191.944 Y203.258 E108.47528
G1 F2100 E106.97528
G0 F9000 X190.072 Y203.648
G1 F2100 E108.47528
G1 F1125 X97.7 Y111.276 E118.90303
G1 F2100 E117.40303
G0 F9000 X97.7 Y113.539
G1 F2100 E118.90303
G1 F1125 X187.958 Y203.798 E129.09219
G1 F2100 E127.59219
G0 F9000 X185.696 Y203.798
G1 F2100 E129.09219
G1 F1125 X97.7 Y115.802 E139.02594
G1 F2100 E137.52594
G0 F9000 X97.7 Y118.064
G1 F2100 E139.02594
G1 F1125 X183.433 Y203.798 E148.70428
G1 F2100 E147.20428
G0 F9000 X181.17 Y203.798
G1 F2100 E148.70428
G1 F1125 X97.7 Y120.327 E158.12715
G1 F2100 E156.62715
G0 F9000 X97.7 Y122.59
G1 F2100 E158.12715
G1 F1125 X178.907 Y203.798 E167.29455
G1 F2100 E165.79455
G0 F9000 X176.645 Y203.798
G1 F2100 E167.29455
G1 F1125 X97.7 Y124.853 E176.20655
G1 F2100 E174.70655
G0 F9000 X97.7 Y127.115
G1 F2100 E176.20655
G1 F1125 X174.382 Y203.798 E184.86313
G1 F2100 E183.36313
G0 F9000 X172.119 Y203.798
G1 F2100 E184.86313
G1 F1125 X97.7 Y129.378 E193.26425
G1 F2100 E191.76425
G0 F9000 X97.7 Y131.641
G1 F2100 E193.26425
G1 F1125 X169.856 Y203.798 E201.4099
G1 F2100 E199.9099
G0 F9000 X167.594 Y203.798
G1 F2100 E201.4099
G1 F1125 X97.7 Y133.904 E209.30014
G1 F2100 E207.80014
G0 F9000 X97.706 Y136.173
G1 F2100 E209.30014
G1 F1125 X165.331 Y203.798 E216.93423
G1 F2100 E215.43423
G0 F9000 X163.068 Y203.798
G1 F2100 E216.93423
G1 F1125 X97.7 Y138.43 E224.31354
G1 F2100 E222.81354
G0 F9000 X97.7 Y140.693
G1 F2100 E224.31354
G1 F1125 X160.805 Y203.798 E231.43737
G1 F2100 E229.93737
G0 F9000 X158.543 Y203.798
G1 F2100 E231.43737
G1 F1125 X97.7 Y142.955 E238.30586
G1 F2100 E236.80586
G0 F9000 X97.7 Y145.218
G1 F2100 E238.30586
G1 F1125 X156.28 Y203.798 E244.91887
G1 F2100 E243.41887
G0 F9000 X154.017 Y203.798
G1 F2100 E244.91887
G1 F1125 X97.7 Y147.481 E251.27642
G1 F2100 E249.77642
G0 F9000 X97.7 Y149.744
G1 F2100 E251.27642
G1 F1125 X151.755 Y203.798 E257.37856
G1 F2100 E255.87856
G0 F9000 X149.492 Y203.798
G1 F2100 E257.37856
G1 F1125 X97.7 Y152.006 E263.22529
G1 F2100 E261.72529
G0 F9000 X97.7 Y154.269
G1 F2100 E263.22529
G1 F1125 X147.229 Y203.798 E268.81655
G1 F2100 E267.31655
G0 F9000 X144.966 Y203.798
G1 F2100 E268.81655
G1 F1125 X97.7 Y156.532 E274.15235
G1 F2100 E272.65235
G0 F9000 X97.7 Y158.794
G1 F2100 E274.15235
G1 F1125 X142.704 Y203.798 E279.23279
G1 F2100 E277.73279
G0 F9000 X140.441 Y203.798
G1 F2100 E279.23279
G1 F1125 X97.7 Y161.057 E284.05776
G1 F2100 E282.55776
G0 F9000 X97.71 Y163.33
G1 F2100 E284.05776
G1 F1125 X138.178 Y203.798 E288.62614
G1 F2100 E287.12614
G0 F9000 X135.915 Y203.798
G1 F2100 E288.62614
G1 F1125 X97.7 Y165.583 E292.94018
G1 F2100 E291.44018
G0 F9000 X97.7 Y167.845
G1 F2100 E292.94018
G1 F1125 X133.653 Y203.798 E296.99886
G1 F2100 E295.49886
G0 F9000 X131.39 Y203.798
G1 F2100 E296.99886
G1 F1125 X97.7 Y170.108 E300.80208
G1 F2100 E299.30208
G0 F9000 X97.7 Y172.371
G1 F2100 E300.80208
G1 F1125 X129.127 Y203.798 E304.34983
G1 F2100 E302.84983
G0 F9000 X126.864 Y203.798
G1 F2100 E304.34983
G1 F1125 X97.7 Y174.634 E307.64212
G1 F2100 E306.14212
G0 F9000 X97.7 Y176.896
G1 F2100 E307.64212
G1 F1125 X124.602 Y203.798 E310.67905
G1 F2100 E309.17905
G0 F9000 X122.339 Y203.798
G1 F2100 E310.67905
G1 F1125 X97.7 Y179.159 E313.46051
G1 F2100 E311.96051
G0 F9000 X97.7 Y181.422
G1 F2100 E313.46051
G1 F1125 X120.076 Y203.798 E315.98651
G1 F2100 E314.48651
G0 F9000 X117.813 Y203.798
G1 F2100 E315.98651
G1 F1125 X97.7 Y183.685 E318.25704
G1 F2100 E316.75704
G0 F9000 X97.7 Y185.947
G1 F2100 E318.25704
G1 F1125 X115.551 Y203.798 E320.27221
G1 F2100 E318.77221
G0 F9000 X113.288 Y203.798
G1 F2100 E320.27221
G1 F1125 X97.7 Y188.21 E322.03192
G1 F2100 E320.53192
G0 F9000 X97.744 Y190.517
G1 F2100 E322.03192
G1 F1125 X110.992 Y203.764 E323.52741
G1 F2100 E322.02741
G0 F9000 X108.282 Y203.317
G1 F2100 E323.52741
G1 F1125 X98.165 Y193.2 E324.66951
G1 F2100 E323.16951
G0 F9000 X99.938 Y197.236
G1 F2100 E324.66951
G1 F1125 X104.266 Y201.564 E325.15809
G1 F2100 E323.65809
G0 F9000 X103.505 Y202.817
G0 X105.362 Y203.831
G0 X107.28 Y204.564
G0 X108.584 Y204.906
G0 X110.669 Y205.213
G0 X111.913 Y205.264
G0 X188.79 Y205.246
G0 X190.858 Y205.017
G0 X192.173 Y204.721
G0 X194.139 Y204.05
G0 X195.357 Y203.478
G0 X197.123 Y202.399
G0 X198.203 Y201.568
G0 X199.708 Y200.114
G0 X200.566 Y199.081
G0 X201.215 Y198.097
G0 X201.805 Y197.18
G0 X200.68 Y196.154
G1 F2100 E325.15809
G1 F1125 X103.492 Y98.966 E336.12951
G1 F2100 E334.62951
G0 F9000 X104.868 Y98.08
G1 F2100 E336.12951
G1 F1125 X201.386 Y194.597 E347.02524
G1 F2100 E345.52524
G0 F9000 X201.912 Y192.861
G1 F2100 E347.02524
G1 F1125 X106.376 Y97.325 E357.81017
G1 F2100 E356.31017
G0 F9000 X108.054 Y96.74
G1 F2100 E357.81017
G1 F1125 X202.228 Y190.914 E368.44134
G1 F2100 E366.94134
G0 F9000 X202.299 Y188.723
G1 F2100 E368.44134
G1 F1125 X109.926 Y96.35 E378.86921
G1 F2100 E377.36921
G0 F9000 X112.04 Y96.201
G1 F2100 E378.86921
G1 F1125 X202.299 Y186.46 E389.05842
G1 F2100 E387.55842
G0 F9000 X202.299 Y184.197
G1 F2100 E389.05842
G1 F1125 X114.303 Y96.201 E398.99217
G1 F2100 E397.49217
G0 F9000 X116.565 Y96.201
G1 F2100 E398.99217
G1 F1125 X202.299 Y181.935 E408.67056
G1 F2100 E407.17056
G0 F9000 X202.299 Y179.672
G1 F2100 E408.67056
G1 F1125 X118.828 Y96.201 E418.09349
G1 F2100 E416.59349
G0 F9000 X121.091 Y96.201
G1 F2100 E418.09349
G1 F1125 X202.299 Y177.409 E427.26095
G1 F2100 E425.76095
G0 F9000 X202.299 Y175.146
G1 F2100 E427.26095
G1 F1125 X123.354 Y96.201 E436.17295
G1 F2100 E434.67295
G0 F9000 X125.616 Y96.201
G1 F2100 E436.17295
G1 F1125 X202.299 Y172.884 E444.82959
G1 F2100 E443.32959
G0 F9000 X202.299 Y170.621
G1 F2100 E444.82959
G1 F1125 X127.879 Y96.201 E453.23076
G1 F2100 E451.73076
G0 F9000 X130.142 Y96.201
G1 F2100 E453.23076
G1 F1125 X202.299 Y168.358 E461.37647
G1 F2100 E459.87647
G0 F9000 X202.299 Y166.095
G1 F2100 E461.37647
G1 F1125 X132.405 Y96.201 E469.2667
G1 F2100 E467.7667
G0 F9000 X134.667 Y96.201
G1 F2100 E469.2667
G1 F1125 X202.292 Y163.826 E476.9008
G1 F2100 E475.4008
G0 F9000 X202.299 Y161.569
G1 F2100 E476.9008
G1 F1125 X136.93 Y96.201 E484.28016
G1 F2100 E482.78016
G0 F9000 X139.193 Y96.201
G1 F2100 E484.28016
G1 F1125 X202.299 Y159.306 E491.40405
G1 F2100 E489.90405
G0 F9000 X202.299 Y157.044
G1 F2100 E491.40405
G1 F1125 X141.456 Y96.201 E498.27254
G1 F2100 E496.77254
G0 F9000 X143.718 Y96.201
G1 F2100 E498.27254
G1 F1125 X202.299 Y154.781 E504.88561
G1 F2100 E503.38561
G0 F9000 X202.299 Y152.518
G1 F2100 E504.88561
G1 F1125 X145.981 Y96.201 E511.24322
G1 F2100 E509.74322
G0 F9000 X148.244 Y96.201
G1 F2100 E511.24322
G1 F1125 X202.299 Y150.255 E517.34536
G1 F2100 E515.84536
G0 F9000 X202.299 Y147.993
G1 F2100 E517.34536
G1 F1125 X150.506 Y96.201 E523.19214
G1 F2100 E521.69214
G0 F9000 X152.769 Y96.201
G1 F2100 E523.19214
G1 F1125 X202.299 Y145.73 E528.78346
G1 F2100 E527.28346
G0 F9000 X202.299 Y143.467
G1 F2100 E528.78346
G1 F1125 X155.032 Y96.201 E534.11931
G1 F2100 E532.61931
G0 F9000 X157.295 Y96.201
G1 F2100 E534.11931
G1 F1125 X202.299 Y141.204 E539.19969
G1 F2100 E537.69969
G0 F9000 X202.299 Y138.942
G1 F2100 E539.19969
G1 F1125 X159.557 Y96.201 E544.02472
G1 F2100 E542.52472
G0 F9000 X161.82 Y96.201
G1 F2100 E544.02472
G1 F1125 X202.289 Y136.669 E548.59316
G1 F2100 E547.09316
G0 F9000 X202.299 Y134.416
G1 F2100 E548.59316
G1 F1125 X164.083 Y96.201 E552.90725
G1 F2100 E551.40725
G0 F9000 X166.346 Y96.201
G1 F2100 E552.90725
G1 F1125 X202.299 Y132.154 E556.96594
G1 F2100 E555.46594
G0 F9000 X202.299 Y129.891
G1 F2100 E556.96594
G1 F1125 X168.608 Y96.201 E560.76921
G1 F2100 E559.26921
G0 F9000 X170.871 Y96.201
G1 F2100 E560.76921
G1 F1125 X202.299 Y127.628 E564.31702
G1 F2100 E562.81702
G0 F9000 X202.299 Y125.365
G1 F2100 E564.31702
G1 F1125 X173.134 Y96.201 E567.60936
G1 F2100 E566.10936
G0 F9000 X175.397 Y96.201
G1 F2100 E567.60936
G1 F1125 X202.299 Y123.103 E570.64629
G1 F2100 E569.14629
G0 F9000 X202.299 Y120.84
G1 F2100 E570.64629
G1 F1125 X177.659 Y96.201 E573.42781
G1 F2100 E571.92781
G0 F9000 X179.922 Y96.201
G1 F2100 E573.42781
G1 F1125 X202.299 Y118.577 E575.95386
G1 F2100 E574.45386
G0 F9000 X202.299 Y116.314
G1 F2100 E575.95386
G1 F1125 X182.185 Y96.201 E578.22445
G1 F2100 E576.72445
G0 F9000 X184.448 Y96.201
G1 F2100 E578.22445
G1 F1125 X202.299 Y114.052 E580.23963
G1 F2100 E578.73963
G0 F9000 X202.299 Y111.789
G1 F2100 E580.23963
G1 F1125 X186.71 Y96.201 E581.99939
G1 F2100 E580.49939
G0 F9000 X189.007 Y96.235
G1 F2100 E581.99939
G1 F1125 X202.257 Y109.485 E583.49516
G1 F2100 E581.99516
G0 F9000 X201.834 Y106.799
G1 F2100 E583.49516
G1 F1125 X191.715 Y96.68 E584.63748
G1 F2100 E583.13748
G0 F9000 X195.732 Y98.434
G1 F2100 E584.63748
G1 F1125 X200.06 Y102.762 E585.12607
G1 F2100 E583.62607
G0 F300 X200.06 Y102.762 Z0.54
G0 F9000 X201.515 Y102.318
G0 X202.475 Y104.183
G0 X202.956 Y105.442
G0 X203.485 Y107.466
G0 X203.676 Y108.779
G0 X203.765 Y110.453
G0 X203.726 Y190.657
G0 X203.579 Y191.983
G0 X203.127 Y194.01
G0 X202.687 Y195.3
G0 X201.974 Y196.822
G0 X201.226 Y198.143
G0 X199.896 Y197.497
;TIME_ELAPSED:425.231223
;LAYER:-5
;TYPE:SUPPORT
G1 F2100 E585.12607
G1 F1125 X199.283 Y198.344 E585.23039
G1 X198.619 Y199.133 E585.33329
G1 X198.023 Y199.752 E585.41903
G1 X197.241 Y200.461 E585.52435
G1 X196.376 Y201.137 E585.63389
G1 X196.019 Y201.374 E585.67665
G1 X199.916 Y197.477 E586.22656
G1 X200.511 Y196.493 E586.3413
G1 X200.959 Y195.621 E586.43912
G1 X201.399 Y194.579 E586.55198
G1 X193.103 Y202.876 E587.7227
G1 X192.678 Y203.04 E587.76816
G1 X191.606 Y203.356 E587.87967
G1 X191.094 Y203.471 E587.93203
G1 X201.977 Y192.587 E589.46781
G1 X202.144 Y191.686 E589.55925
G1 X202.224 Y190.926 E589.6355
G1 X189.421 Y203.73 E591.44221
G1 X188.528 Y203.791 E591.53152
G1 X187.937 Y203.799 E591.5905
G1 X202.299 Y189.437 E593.61713
G1 X202.299 Y188.023 E593.75822
G1 X186.523 Y203.799 E595.98438
G1 X185.109 Y203.799 E596.12547
G1 X202.299 Y186.609 E598.55117
G1 X202.299 Y185.194 E598.69236
G1 X183.695 Y203.799 E601.31765
G1 X182.28 Y203.799 E601.45884
G1 X202.299 Y183.78 E604.28374
G1 X202.299 Y182.366 E604.42483
G1 X180.866 Y203.799 E607.44926
G1 X179.452 Y203.799 E607.59035
G1 X202.299 Y180.952 E610.8143
G1 X202.299 Y179.537 E610.95549
G1 X178.038 Y203.799 E614.37905
G1 X176.623 Y203.799 E614.52024
G1 X202.299 Y178.123 E618.1434
G1 X202.299 Y176.709 E618.28449
G1 X175.209 Y203.799 E622.10718
G1 X173.795 Y203.799 E622.24827
G1 X202.299 Y175.295 E626.2705
G1 X202.299 Y173.881 E626.41159
G1 X172.381 Y203.799 E630.63334
G1 X170.967 Y203.799 E630.77443
G1 X202.299 Y172.466 E635.19578
G1 X202.299 Y171.052 E635.33687
G1 X169.552 Y203.799 E639.95783
G1 X168.138 Y203.799 E640.09892
G1 X202.299 Y169.638 E644.9194
G1 X202.299 Y168.224 E645.06049
G1 X166.724 Y203.799 E650.08051
G1 X165.31 Y203.799 E650.2216
G1 X202.299 Y166.81 E655.44115
G1 X202.299 Y165.395 E655.58234
G1 X163.896 Y203.799 E661.00148
G1 X162.481 Y203.799 E661.14267
G1 X202.294 Y163.986 E666.76072
G1 X202.282 Y163.153 E666.84384
G1 X202.299 Y162.567 E666.90234
G1 X161.067 Y203.799 E672.72062
G1 X159.653 Y203.799 E672.86171
G1 X202.299 Y161.153 E678.87952
G1 X202.299 Y159.738 E679.02071
G1 X158.239 Y203.799 E685.23812
G1 X156.824 Y203.799 E685.37931
G1 X202.299 Y158.324 E691.79633
G1 X202.299 Y156.91 E691.93742
G1 X155.41 Y203.799 E698.55396
G1 X153.996 Y203.799 E698.69505
G1 X202.299 Y155.496 E705.51112
G1 X202.299 Y154.082 E705.65221
G1 X152.582 Y203.799 E712.66782
G1 X151.168 Y203.799 E712.80891
G1 X202.299 Y152.667 E720.02412
G1 X202.299 Y151.253 E720.16521
G1 X149.753 Y203.799 E727.58001
