;FLAVOR:Marlin
;TIME:20923
;Filament used: 19.2447m
;Layer height: 0.2
;MINX:104.1
;MINY:102.6
;MINZ:0.2
;MAXX:195.9
;MAXY:197.4
;MAXZ:25.4
;Generated with Cura_SteamEngine 5.3.0
M140 S50
M105
M190 S50
M104 S210
M105
M109 S210
M82 ;absolute extrusion mode
M220 S100 ;Reset Feedrate
M221 S100 ;Reset Flowrate

M280 P0 S160 ;reset bltouch
G28 ;Home
G29 A ; enable UBL
G92 E0 ;Reset Extruder
G1 Z2.0 F3000 ;Move Z Axis up
G1 X10.1 Y20 Z0.28 F5000.0 ;Move to start position
G1 X10.1 Y200.0 Z0.28 F1500.0 E15 ;Draw the first line
G1 X10.4 Y200.0 Z0.28 F5000.0 ;Move to side a little
G1 X10.4 Y20 Z0.28 F1500.0 E30 ;Draw the second line
G92 E0 ;Reset Extruder
G1 Z2.0 F3000 ;Move Z Axis up
G92 E0
G92 E0
G1 F2100 E-1.5
;LAYER_COUNT:127
;LAYER:0
M107
G0 F6000 X105.619 Y105.624 Z0.2
;TYPE:SKIRT
G1 F2100 E0
G1 F1200 X107.194 Y104.15 E0.07175
G1 X109.066 Y103.038 E0.14417
G1 X111.253 Y102.6 E0.21835
G1 X188.953 Y102.6 E2.80266
G1 X190.849 Y103.066 E2.8676
G1 X192.876 Y104.119 E2.94357
G1 X194.35 Y105.694 E3.01532
G1 X195.462 Y107.566 E3.08774
G1 X195.9 Y109.753 E3.16193
G1 X195.894 Y136.393 E4.04798
G1 X195.869 Y136.612 E4.05531
G1 X195.898 Y136.875 E4.06411
G1 X195.894 Y163.293 E4.94277
G1 X195.869 Y163.512 E4.9501
G1 X195.898 Y163.775 E4.9589
G1 X195.9 Y190.453 E5.84622
G1 X195.434 Y192.349 E5.91116
G1 X194.381 Y194.376 E5.98713
G1 X192.806 Y195.85 E6.05888
G1 X190.934 Y196.962 E6.1313
G1 X188.747 Y197.4 E6.20548
G1 X111.047 Y197.4 E8.78979
G1 X109.151 Y196.934 E8.85473
G1 X107.124 Y195.881 E8.9307
G1 X105.65 Y194.306 E9.00245
G1 X104.538 Y192.434 E9.07487
G1 X104.1 Y190.247 E9.14905
G1 X104.106 Y163.607 E10.0351
G1 X104.131 Y163.388 E10.04244
G1 X104.102 Y163.125 E10.05124
G1 X104.106 Y136.707 E10.9299
G1 X104.131 Y136.488 E10.93723
G1 X104.102 Y136.225 E10.94603
G1 X104.1 Y109.547 E11.83335
G1 X104.566 Y107.651 E11.89829
G1 X105.619 Y105.624 E11.97426
G0 F6000 X105.942 Y105.869
G1 F1200 X107.435 Y104.472 E12.04226
G1 X109.212 Y103.416 E12.11102
G1 X111.291 Y103 E12.18153
G1 X188.907 Y103 E14.76305
G1 X190.706 Y103.442 E14.82467
G1 X192.631 Y104.442 E14.89682
G1 X194.028 Y105.935 E14.96482
G1 X195.084 Y107.712 E15.03357
G1 X195.5 Y109.791 E15.10409
G1 X195.494 Y136.393 E15.98888
G1 X195.466 Y136.609 E15.99612
G1 X195.5 Y136.919 E16.0065
G1 X195.494 Y163.293 E16.8837
G1 X195.466 Y163.509 E16.89094
G1 X195.5 Y163.819 E16.90132
G1 X195.5 Y190.407 E17.78564
G1 X195.058 Y192.206 E17.84725
G1 X194.058 Y194.131 E17.9194
G1 X192.565 Y195.528 E17.98741
G1 X190.788 Y196.584 E18.05616
G1 X188.709 Y197 E18.12668
G1 X111.093 Y197 E20.70819
G1 X109.294 Y196.558 E20.76981
G1 X107.369 Y195.558 E20.84196
G1 X105.972 Y194.065 E20.90996
G1 X104.916 Y192.288 E20.97872
G1 X104.5 Y190.209 E21.04923
G1 X104.506 Y163.607 E21.93402
G1 X104.534 Y163.391 E21.94127
G1 X104.5 Y163.081 E21.95164
G1 X104.506 Y136.707 E22.82884
G1 X104.534 Y136.491 E22.83608
G1 X104.5 Y136.181 E22.84646
G1 X104.5 Y109.593 E23.73078
G1 X104.942 Y107.794 E23.79239
G1 X105.942 Y105.869 E23.86454
G0 F6000 X106.265 Y106.114
G1 F1200 X107.676 Y104.794 E23.92881
G1 X109.358 Y103.795 E23.99387
G1 X111.33 Y103.4 E24.06076
G1 X188.86 Y103.4 E26.63942
G1 X190.564 Y103.819 E26.69779
G1 X192.386 Y104.765 E26.76607
G1 X193.706 Y106.176 E26.83033
G1 X194.705 Y107.858 E26.8954
G1 X195.1 Y109.83 E26.96229
G1 X195.097 Y136.342 E27.84408
G1 X195.063 Y136.605 E27.8529
G1 X195.1 Y136.919 E27.86342
G1 X195.097 Y163.242 E28.73893
G1 X195.063 Y163.505 E28.74775
G1 X195.1 Y163.819 E28.75826
G1 X195.1 Y190.36 E29.64102
G1 X194.681 Y192.064 E29.69938
G1 X193.735 Y193.886 E29.76767
G1 X192.324 Y195.206 E29.83193
G1 X190.642 Y196.205 E29.897
G1 X188.67 Y196.6 E29.96389
G1 X111.14 Y196.6 E32.54255
G1 X109.436 Y196.181 E32.60091
G1 X107.614 Y195.235 E32.66919
G1 X106.294 Y193.824 E32.73346
G1 X105.295 Y192.142 E32.79852
G1 X104.9 Y190.17 E32.86541
G1 X104.903 Y163.658 E33.74721
G1 X104.937 Y163.395 E33.75603
G1 X104.9 Y163.081 E33.76654
G1 X104.903 Y136.758 E34.64205
G1 X104.937 Y136.495 E34.65087
G1 X104.9 Y136.181 E34.66139
G1 X104.9 Y109.64 E35.54414
G1 X105.319 Y107.936 E35.60251
G1 X106.265 Y106.114 E35.67079
G0 F6000 X106.588 Y106.359
G1 F1200 X107.917 Y105.116 E35.73131
G1 X109.504 Y104.173 E35.79271
G1 X111.368 Y103.8 E35.85594
G1 X188.814 Y103.8 E38.4318
G1 X190.421 Y104.195 E38.48684
G1 X192.141 Y105.088 E38.5513
G1 X193.384 Y106.417 E38.61182
G1 X194.327 Y108.004 E38.67322
G1 X194.7 Y109.868 E38.73645
G1 X194.7 Y136.291 E39.61528
G1 X194.66 Y136.605 E39.62581
G1 X194.7 Y136.919 E39.63634
G1 X194.7 Y163.191 E40.51015
G1 X194.66 Y163.505 E40.52068
G1 X194.7 Y163.819 E40.5312
G1 X194.7 Y190.314 E41.41243
G1 X194.305 Y191.921 E41.46747
G1 X193.412 Y193.641 E41.53193
G1 X192.083 Y194.884 E41.59245
G1 X190.496 Y195.827 E41.65385
G1 X188.632 Y196.2 E41.71708
G1 X111.186 Y196.2 E44.29294
G1 X109.579 Y195.805 E44.34798
G1 X107.859 Y194.912 E44.41244
G1 X106.616 Y193.583 E44.47296
G1 X105.673 Y191.996 E44.53436
G1 X105.3 Y190.132 E44.59759
G1 X105.3 Y163.709 E45.47642
G1 X105.34 Y163.395 E45.48695
G1 X105.3 Y163.081 E45.49748
G1 X105.3 Y136.809 E46.37129
G1 X105.34 Y136.495 E46.38182
G1 X105.3 Y136.181 E46.39234
G1 X105.3 Y109.686 E47.27357
G1 X105.695 Y108.079 E47.32861
G1 X106.588 Y106.359 E47.39307
G0 F6000 X106.911 Y106.604
G1 F1200 X108.158 Y105.438 E47.44985
G1 X109.65 Y104.551 E47.50758
G1 X111.406 Y104.2 E47.56714
G1 X188.768 Y104.2 E50.14021
G1 X190.278 Y104.571 E50.19193
G1 X191.896 Y105.411 E50.25256
G1 X193.062 Y106.658 E50.30935
G1 X193.949 Y108.15 E50.36708
G1 X194.3 Y109.906 E50.42664
G1 X194.3 Y136.291 E51.30421
G1 X194.256 Y136.605 E51.31475
G1 X194.3 Y136.919 E51.3253
G1 X194.3 Y163.191 E52.19911
G1 X194.256 Y163.505 E52.20965
G1 X194.3 Y163.819 E52.2202
G1 X194.3 Y190.268 E53.0999
G1 X193.929 Y191.778 E53.15161
G1 X193.089 Y193.396 E53.21225
G1 X191.842 Y194.562 E53.26903
G1 X190.35 Y195.449 E53.32676
G1 X188.594 Y195.8 E53.38632
G1 X111.232 Y195.8 E55.95939
G1 X109.722 Y195.429 E56.01111
G1 X108.104 Y194.589 E56.07174
G1 X106.938 Y193.342 E56.12853
G1 X106.051 Y191.85 E56.18626
G1 X105.7 Y190.094 E56.24582
G1 X105.7 Y163.709 E57.12339
G1 X105.744 Y163.395 E57.13393
G1 X105.7 Y163.081 E57.14448
G1 X105.7 Y136.809 E58.01829
G1 X105.744 Y136.495 E58.02883
G1 X105.7 Y136.181 E58.03938
G1 X105.7 Y109.732 E58.91908
G1 X106.071 Y108.222 E58.97079
G1 X106.911 Y106.604 E59.03143
G0 F6000 X107.234 Y106.849
G1 F1200 X108.399 Y105.76 E59.08447
G1 X109.796 Y104.929 E59.13853
G1 X111.444 Y104.6 E59.19443
G1 X188.721 Y104.6 E61.76467
G1 X190.136 Y104.948 E61.81314
G1 X191.651 Y105.734 E61.8699
G1 X192.74 Y106.899 E61.92294
G1 X193.571 Y108.296 E61.97701
G1 X193.9 Y109.944 E62.0329
G1 X193.9 Y136.291 E62.90921
G1 X193.851 Y136.604 E62.91974
G1 X193.9 Y136.919 E62.93035
G1 X193.9 Y163.191 E63.80416
G1 X193.851 Y163.504 E63.81469
G1 X193.9 Y163.819 E63.8253
G1 X193.9 Y190.221 E64.70343
G1 X193.552 Y191.636 E64.7519
G1 X192.766 Y193.151 E64.80866
G1 X191.601 Y194.24 E64.8617
G1 X190.204 Y195.071 E64.91577
G1 X188.556 Y195.4 E64.97166
G1 X111.279 Y195.4 E67.5419
G1 X109.864 Y195.052 E67.59037
G1 X108.349 Y194.266 E67.64714
G1 X107.26 Y193.101 E67.70018
G1 X106.429 Y191.704 E67.75424
G1 X106.1 Y190.056 E67.81014
G1 X106.1 Y163.709 E68.68644
G1 X106.149 Y163.396 E68.69698
G1 X106.1 Y163.081 E68.70758
G1 X106.1 Y136.809 E69.58139
G1 X106.149 Y136.496 E69.59193
G1 X106.1 Y136.181 E69.60253
G1 X106.1 Y109.779 E70.48067
G1 X106.448 Y108.364 E70.52913
G1 X107.234 Y106.849 E70.5859
G0 F6000 X107.557 Y107.094
G1 F1200 X108.638 Y106.084 E70.6351
G1 X109.944 Y105.307 E70.68565
G1 X111.482 Y105 E70.73781
G1 X188.675 Y105 E73.30526
G1 X189.993 Y105.324 E73.3504
G1 X191.406 Y106.057 E73.40335
G1 X192.416 Y107.138 E73.45255
G1 X193.193 Y108.444 E73.5031
G1 X193.5 Y109.982 E73.55526
G1 X193.5 Y136.291 E74.4303
G1 X193.444 Y136.603 E74.44084
G1 X193.5 Y136.919 E74.45152
G1 X193.5 Y163.191 E75.32533
G1 X193.444 Y163.503 E75.33587
G1 X193.5 Y163.819 E75.34654
G1 X193.5 Y190.175 E76.22315
G1 X193.176 Y191.493 E76.26829
G1 X192.443 Y192.906 E76.32123
G1 X191.362 Y193.916 E76.37044
G1 X190.056 Y194.693 E76.42098
G1 X188.518 Y195 E76.47315
G1 X111.325 Y195 E79.0406
G1 X110.007 Y194.676 E79.08574
G1 X108.594 Y193.943 E79.13868
G1 X107.584 Y192.862 E79.18789
G1 X106.807 Y191.556 E79.23843
G1 X106.5 Y190.018 E79.29059
G1 X106.5 Y163.709 E80.16564
G1 X106.556 Y163.397 E80.17618
G1 X106.5 Y163.081 E80.18685
G1 X106.5 Y136.809 E81.06066
G1 X106.556 Y136.497 E81.07121
G1 X106.5 Y136.181 E81.08188
G1 X106.5 Y109.825 E81.95848
G1 X106.824 Y108.507 E82.00363
G1 X107.557 Y107.094 E82.05657
G0 F6000 X107.88 Y107.339
G1 F1200 X108.877 Y106.408 E82.10194
G1 X110.092 Y105.685 E82.14896
G1 X111.52 Y105.4 E82.1974
G1 X188.629 Y105.4 E84.76205
G1 X189.85 Y105.7 E84.80387
G1 X191.161 Y106.38 E84.85299
G1 X192.092 Y107.377 E84.89836
G1 X192.815 Y108.592 E84.94539
G1 X193.1 Y110.02 E84.99382
G1 X193.1 Y136.291 E85.8676
G1 X193.036 Y136.601 E85.87812
G1 X193.1 Y136.919 E85.88891
G1 X193.1 Y163.191 E86.76272
G1 X193.036 Y163.501 E86.77325
G1 X193.1 Y163.819 E86.78404
G1 X193.1 Y190.129 E87.65911
G1 X192.8 Y191.35 E87.70093
G1 X192.12 Y192.661 E87.75005
G1 X191.123 Y193.592 E87.79542
G1 X189.908 Y194.315 E87.84245
G1 X188.48 Y194.6 E87.89088
G1 X111.371 Y194.6 E90.45554
G1 X110.15 Y194.3 E90.49735
G1 X108.839 Y193.62 E90.54647
G1 X107.908 Y192.623 E90.59184
G1 X107.185 Y191.408 E90.63887
G1 X106.9 Y189.98 E90.6873
G1 X106.9 Y163.709 E91.56108
G1 X106.964 Y163.399 E91.57161
G1 X106.9 Y163.081 E91.5824
G1 X106.9 Y136.809 E92.45621
G1 X106.964 Y136.499 E92.46673
G1 X106.9 Y136.181 E92.47752
G1 X106.9 Y109.871 E93.3526
G1 X107.2 Y108.65 E93.39442
G1 X107.88 Y107.339 E93.44354
G0 F6000 X108.203 Y107.584
G1 F1200 X109.116 Y106.732 E93.48507
G1 X110.24 Y106.063 E93.52858
G1 X111.558 Y105.8 E93.57328
G1 X188.583 Y105.8 E96.13514
G1 X189.707 Y106.076 E96.17363
G1 X190.916 Y106.703 E96.21893
G1 X191.768 Y107.616 E96.26047
G1 X192.437 Y108.74 E96.30397
G1 X192.7 Y110.058 E96.34867
G1 X192.7 Y136.291 E97.22119
G1 X192.627 Y136.592 E97.23149
G1 X192.7 Y136.957 E97.24387
G1 X192.7 Y163.191 E98.11641
G1 X192.627 Y163.492 E98.12672
G1 X192.7 Y163.857 E98.1391
G1 X192.7 Y190.083 E99.01138
G1 X192.424 Y191.207 E99.04987
G1 X191.797 Y192.416 E99.09517
G1 X190.884 Y193.268 E99.1367
G1 X189.76 Y193.937 E99.18021
G1 X188.442 Y194.2 E99.22491
G1 X111.417 Y194.2 E101.78677
G1 X110.293 Y193.924 E101.82527
G1 X109.084 Y193.297 E101.87056
G1 X108.232 Y192.384 E101.9121
G1 X107.563 Y191.26 E101.9556
G1 X107.3 Y189.942 E102.0003
G1 X107.3 Y163.709 E102.87282
G1 X107.373 Y163.408 E102.88312
G1 X107.3 Y163.043 E102.8955
G1 X107.3 Y136.809 E103.76805
G1 X107.373 Y136.508 E103.77835
G1 X107.3 Y136.143 E103.79073
G1 X107.3 Y109.917 E104.66301
G1 X107.576 Y108.793 E104.7015
G1 X108.203 Y107.584 E104.7468
G0 F6000 X108.525 Y107.831
G1 F1200 X109.358 Y107.054 E104.78469
G1 X110.388 Y106.441 E104.82455
G1 X111.596 Y106.2 E104.86552
G1 X188.536 Y106.2 E107.42456
G1 X189.565 Y106.453 E107.4598
G1 X190.669 Y107.025 E107.50116
G1 X191.446 Y107.858 E107.53905
G1 X192.059 Y108.888 E107.57891
G1 X192.3 Y110.096 E107.61988
G1 X192.3 Y136.242 E108.4895
G1 X192.218 Y136.583 E108.50117
G1 X192.3 Y136.995 E108.51514
G1 X192.3 Y163.142 E109.38479
G1 X192.218 Y163.483 E109.39646
G1 X192.3 Y163.895 E109.41043
G1 X192.3 Y190.036 E110.27988
G1 X192.047 Y191.065 E110.31513
G1 X191.475 Y192.169 E110.35648
G1 X190.642 Y192.946 E110.39437
G1 X189.612 Y193.559 E110.43423
G1 X188.404 Y193.8 E110.4752
G1 X111.464 Y193.8 E113.03424
G1 X110.435 Y193.547 E113.06948
G1 X109.331 Y192.975 E113.11084
G1 X108.554 Y192.142 E113.14873
G1 X107.941 Y191.112 E113.18859
G1 X107.7 Y189.904 E113.22956
G1 X107.7 Y163.758 E114.09918
G1 X107.782 Y163.417 E114.11085
G1 X107.7 Y163.005 E114.12482
G1 X107.7 Y136.858 E114.99447
G1 X107.782 Y136.517 E115.00614
G1 X107.7 Y136.105 E115.02011
G1 X107.7 Y109.964 E115.88956
G1 X107.953 Y108.935 E115.9248
G1 X108.525 Y107.831 E115.96616
G0 F6000 X108.847 Y108.078
G1 F1200 X109.6 Y107.376 E116.0004
G1 X110.536 Y106.819 E116.03663
G1 X111.634 Y106.6 E116.07387
G1 X188.49 Y106.6 E118.63011
G1 X189.422 Y106.829 E118.66203
G1 X190.422 Y107.347 E118.69948
G1 X191.124 Y108.1 E118.73373
G1 X191.681 Y109.036 E118.76995
G1 X191.9 Y110.134 E118.80719
G1 X191.9 Y136.194 E119.67395
G1 X191.808 Y136.573 E119.68692
G1 X191.9 Y137.033 E119.70252
G1 X191.9 Y163.094 E120.56932
G1 X191.808 Y163.473 E120.58229
G1 X191.9 Y163.933 E120.59789
G1 X191.9 Y189.99 E121.46455
G1 X191.671 Y190.922 E121.49647
G1 X191.153 Y191.922 E121.53393
G1 X190.4 Y192.624 E121.56817
G1 X189.464 Y193.181 E121.6044
G1 X188.366 Y193.4 E121.64163
G1 X111.51 Y193.4 E124.19788
G1 X110.578 Y193.171 E124.2298
G1 X109.578 Y192.653 E124.26725
G1 X108.876 Y191.9 E124.30149
G1 X108.319 Y190.964 E124.33772
G1 X108.1 Y189.866 E124.37496
G1 X108.1 Y163.806 E125.24172
G1 X108.192 Y163.427 E125.25469
G1 X108.1 Y162.967 E125.27029
G1 X108.1 Y136.906 E126.13709
G1 X108.192 Y136.527 E126.15006
G1 X108.1 Y136.067 E126.16566
G1 X108.1 Y110.01 E127.03232
G1 X108.329 Y109.078 E127.06424
G1 X108.847 Y108.078 E127.1017
G0 F6000 X109.169 Y108.325
G1 F1200 X109.842 Y107.698 E127.13229
G1 X110.684 Y107.197 E127.16488
G1 X111.672 Y107 E127.19839
G1 X188.444 Y107 E129.75183
G1 X189.279 Y107.205 E129.78043
G1 X190.175 Y107.669 E129.81399
G1 X190.802 Y108.342 E129.84458
G1 X191.303 Y109.184 E129.87717
G1 X191.5 Y110.172 E129.91068
G1 X191.5 Y136.144 E130.77451
G1 X191.398 Y136.563 E130.78885
G1 X191.5 Y137.072 E130.80612
G1 X191.5 Y163.044 E131.66995
G1 X191.398 Y163.463 E131.68429
G1 X191.5 Y163.972 E131.70156
G1 X191.5 Y189.944 E132.56539
G1 X191.295 Y190.779 E132.59399
G1 X190.831 Y191.675 E132.62755
G1 X190.158 Y192.302 E132.65814
G1 X189.316 Y192.803 E132.69073
G1 X188.328 Y193 E132.72424
G1 X111.556 Y193 E135.27769
G1 X110.721 Y192.795 E135.30628
G1 X109.825 Y192.331 E135.33984
G1 X109.198 Y191.658 E135.37044
G1 X108.697 Y190.816 E135.40302
G1 X108.5 Y189.828 E135.43653
G1 X108.5 Y163.856 E136.30036
G1 X108.602 Y163.437 E136.31471
G1 X108.5 Y162.928 E136.33197
G1 X108.5 Y136.956 E137.1958
G1 X108.602 Y136.537 E137.21015
G1 X108.5 Y136.028 E137.22741
G1 X108.5 Y110.056 E138.09125
G1 X108.705 Y109.221 E138.11984
G1 X109.169 Y108.325 E138.1534
G0 F6000 X109.491 Y108.572
G1 F1200 X110.084 Y108.02 E138.18035
G1 X110.832 Y107.575 E138.2093
G1 X111.71 Y107.4 E138.23907
G1 X188.398 Y107.4 E140.78973
G1 X189.136 Y107.581 E140.815
G1 X189.928 Y107.991 E140.84466
G1 X190.48 Y108.584 E140.87161
G1 X190.925 Y109.332 E140.90056
G1 X191.1 Y110.21 E140.93033
G1 X191.1 Y136.095 E141.79127
G1 X190.989 Y136.553 E141.80695
G1 X191.1 Y137.11 E141.82584
G1 X191.1 Y162.995 E142.68678
G1 X190.989 Y163.453 E142.70245
G1 X191.1 Y164.01 E142.72134
G1 X191.1 Y189.898 E143.58238
G1 X190.919 Y190.636 E143.60765
G1 X190.509 Y191.428 E143.63731
G1 X189.916 Y191.98 E143.66426
G1 X189.168 Y192.425 E143.69321
G1 X188.29 Y192.6 E143.72298
G1 X111.602 Y192.6 E146.27364
G1 X110.864 Y192.419 E146.29891
G1 X110.072 Y192.009 E146.32857
G1 X109.52 Y191.416 E146.35552
G1 X109.075 Y190.668 E146.38447
G1 X108.9 Y189.79 E146.41424
G1 X108.9 Y163.905 E147.27518
G1 X109.011 Y163.447 E147.29086
G1 X108.9 Y162.89 E147.30975
G1 X108.9 Y137.005 E148.17069
G1 X109.011 Y136.547 E148.18636
G1 X108.9 Y135.99 E148.20525
G1 X108.9 Y110.102 E149.06629
G1 X109.081 Y109.364 E149.09156
G1 X109.491 Y108.572 E149.12123
G0 F6000 X109.814 Y108.817
G1 F1200 X110.323 Y108.344 E149.14434
G1 X110.98 Y107.953 E149.16976
G1 X111.748 Y107.8 E149.19581
G1 X188.348 Y107.8 E151.74354
G1 X188.997 Y107.959 E151.76576
G1 X189.683 Y108.314 E151.79145
G1 X190.156 Y108.823 E151.81456
G1 X190.547 Y109.48 E151.83999
G1 X190.7 Y110.248 E151.86604
G1 X190.7 Y136.046 E152.72408
G1 X190.58 Y136.543 E152.74109
G1 X190.7 Y137.148 E152.7616
G1 X190.7 Y162.946 E153.61965
G1 X190.58 Y163.443 E153.63665
G1 X190.7 Y164.048 E153.65717
G1 X190.7 Y189.848 E154.51528
G1 X190.541 Y190.497 E154.5375
G1 X190.186 Y191.183 E154.56319
G1 X189.677 Y191.656 E154.5863
G1 X189.02 Y192.047 E154.61173
G1 X188.252 Y192.2 E154.63778
