;FLAVOR:Marlin
;TIME:8383
;Filament used: 8.10447m
;Layer height: 0.2
;MINX:96.254
;MINY:121.636
;MINZ:0.24
;MAXX:203.746
;MAXY:177.299
;MAXZ:26.49
;Generated with Cura_SteamEngine 5.3.0
M140 S50
M105
M190 S50
M104 S210
M105
M109 S210
M82 ;absolute extrusion mode
M220 S100 ;Reset Feedrate
M221 S100 ;Reset Flowrate

M280 P0 S160 ;reset bltouch
G28 ;Home
G29 A ; enable UBL
G92 E0 ;Reset Extruder
G1 Z2.0 F3000 ;Move Z Axis up
G1 X10.1 Y20 Z0.28 F5000.0 ;Move to start position
G1 X10.1 Y200.0 Z0.28 F1500.0 E15 ;Draw the first line
G1 X10.4 Y200.0 Z0.28 F5000.0 ;Move to side a little
G1 X10.4 Y20 Z0.28 F1500.0 E30 ;Draw the second line
G92 E0 ;Reset Extruder
G1 Z2.0 F3000 ;Move Z Axis up
G92 E0
G92 E0
G1 F2100 E-1.5
;LAYER_COUNT:127
;LAYER:-6
M107
G0 F9000 X102.494 Y126.138 Z0.24
;TYPE:SUPPORT-INTERFACE
G1 F2100 E0
G1 F1125 X103.4 Y125.431 E0.09173
G1 X104.224 Y124.884 E0.17068
G1 X105.292 Y124.284 E0.26847
G1 X106.111 Y123.899 E0.34071
G1 X107.181 Y123.485 E0.43229
G1 X108.199 Y123.179 E0.51714
G1 X109.178 Y122.959 E0.59724
G1 X110.285 Y122.791 E0.68662
G1 X111.459 Y122.708 E0.78057
G1 X111.854 Y122.701 E0.8121
G1 X188.108 Y122.701 E6.89902
G1 X189.168 Y122.74 E6.9837
G1 X190.308 Y122.871 E7.07529
G1 X191.337 Y123.068 E7.15893
G1 X192.313 Y123.323 E7.23945
G1 X193.315 Y123.664 E7.32394
G1 X194.293 Y124.08 E7.40878
G1 X195.305 Y124.606 E7.49982
G1 X196.152 Y125.121 E7.57895
G1 X197.021 Y125.744 E7.6643
G1 X197.895 Y126.477 E7.75535
G1 X198.541 Y127.099 E7.82694
G1 X199.254 Y127.884 E7.91159
G1 X199.967 Y128.797 E8.00406
G1 X200.519 Y129.63 E8.08383
G1 X201.116 Y130.692 E8.18108
G1 X201.498 Y131.504 E8.25271
G1 X201.913 Y132.572 E8.34417
G1 X202.223 Y133.603 E8.43011
G1 X202.467 Y134.716 E8.52106
G1 X202.61 Y135.689 E8.59957
G1 X202.692 Y136.848 E8.69231
G1 X202.699 Y137.248 E8.72425
G1 X202.7 Y162.686 E10.75482
G1 X202.66 Y163.768 E10.84125
G1 X202.529 Y164.909 E10.93293
G1 X202.332 Y165.937 E11.01648
G1 X202.08 Y166.905 E11.09632
G1 X201.741 Y167.901 E11.18031
G1 X201.323 Y168.888 E11.26587
G1 X200.794 Y169.905 E11.35738
G1 X200.279 Y170.752 E11.4365
G1 X199.656 Y171.621 E11.52186
G1 X198.923 Y172.495 E11.61291
G1 X198.301 Y173.141 E11.6845
G1 X197.506 Y173.862 E11.77017
G1 X196.6 Y174.569 E11.8619
G1 X195.776 Y175.116 E11.94085
G1 X194.708 Y175.716 E12.03864
G1 X193.891 Y176.1 E12.1107
G1 X192.819 Y176.515 E12.20246
G1 X191.801 Y176.821 E12.28731
G1 X190.822 Y177.041 E12.36741
G1 X189.715 Y177.209 E12.45678
G1 X188.541 Y177.292 E12.55073
G1 X188.146 Y177.299 E12.58227
G1 X111.892 Y177.299 E18.66919
G1 X110.832 Y177.26 E18.75386
G1 X109.691 Y177.129 E18.84554
G1 X108.663 Y176.932 E18.92909
G1 X107.686 Y176.676 E19.00971
G1 X106.679 Y176.334 E19.09461
G1 X105.711 Y175.922 E19.17858
G1 X104.757 Y175.432 E19.26419
G1 X103.847 Y174.878 E19.34924
G1 X102.975 Y174.253 E19.43488
G1 X102.102 Y173.519 E19.52592
G1 X101.449 Y172.891 E19.59824
G1 X100.738 Y172.106 E19.68278
G1 X100.031 Y171.2 E19.77452
G1 X99.48 Y170.37 E19.85404
G1 X98.882 Y169.303 E19.95168
G1 X98.49 Y168.466 E20.02546
G1 X98.081 Y167.411 E20.11578
G1 X97.777 Y166.398 E20.2002
G1 X97.531 Y165.271 E20.29228
G1 X97.401 Y164.385 E20.36377
G1 X97.308 Y163.14 E20.46342
G1 X97.301 Y162.746 E20.49488
G1 X97.301 Y137.314 E22.52497
G1 X97.34 Y136.232 E22.6114
G1 X97.471 Y135.091 E22.70308
G1 X97.668 Y134.063 E22.78663
G1 X97.92 Y133.096 E22.8664
G1 X98.264 Y132.086 E22.95157
G1 X98.677 Y131.113 E23.03594
G1 X99.206 Y130.095 E23.12752
G1 X99.721 Y129.248 E23.20665
G1 X100.344 Y128.379 E23.292
G1 X101.077 Y127.505 E23.38306
G1 X101.699 Y126.859 E23.45464
G1 X102.494 Y126.138 E23.54031
G0 F9000 X103.35 Y125.977
G1 F1125 X154.27 Y176.898 E29.28866
G1 F2100 E27.78866
G0 F9000 X152.008 Y176.898
G1 F2100 E29.28866
G1 F1125 X102.123 Y127.014 E34.92005
G1 F2100 E33.42005
G0 F9000 X101.03 Y128.182
G1 F2100 E34.92005
G1 F1125 X149.745 Y176.898 E40.41948
G1 F2100 E38.91948
G0 F9000 X147.482 Y176.898
G1 F2100 E40.41948
G1 F1125 X100.053 Y129.469 E45.77367
G1 F2100 E44.27367
G0 F9000 X99.231 Y130.91
G1 F2100 E45.77367
G1 F1125 X145.219 Y176.898 E50.9652
G1 F2100 E49.4652
G0 F9000 X142.957 Y176.898
G1 F2100 E50.9652
G1 F1125 X98.548 Y132.489 E55.97847
G1 F2100 E54.47847
G0 F9000 X98.039 Y134.243
G1 F2100 E55.97847
G1 F1125 X140.694 Y176.898 E60.79373
G1 F2100 E59.29373
G0 F9000 X138.431 Y176.898
G1 F2100 E60.79373
G1 F1125 X97.744 Y136.211 E65.38683
G1 F2100 E63.88683
G0 F9000 X97.7 Y138.43
G1 F2100 E65.38683
G1 F1125 X136.168 Y176.898 E69.72943
G1 F2100 E68.22943
G0 F9000 X133.906 Y176.898
G1 F2100 E69.72943
G1 F1125 X97.7 Y140.693 E73.81662
G1 F2100 E72.31662
G0 F9000 X97.7 Y142.955
G1 F2100 E73.81662
G1 F1125 X131.643 Y176.898 E77.6484
G1 F2100 E76.1484
G0 F9000 X129.38 Y176.898
G1 F2100 E77.6484
G1 F1125 X97.7 Y145.218 E81.22471
G1 F2100 E79.72471
G0 F9000 X97.7 Y147.481
G1 F2100 E81.22471
G1 F1125 X127.118 Y176.898 E84.54562
G1 F2100 E83.04562
G0 F9000 X124.855 Y176.898
G1 F2100 E84.54562
G1 F1125 X97.7 Y149.744 E87.61105
G1 F2100 E86.11105
G0 F9000 X97.7 Y152.006
G1 F2100 E87.61105
G1 F1125 X122.592 Y176.898 E90.42107
G1 F2100 E88.92107
G0 F9000 X120.329 Y176.898
G1 F2100 E90.42107
G1 F1125 X97.7 Y154.269 E92.97563
G1 F2100 E91.47563
G0 F9000 X97.7 Y156.532
G1 F2100 E92.97563
G1 F1125 X118.067 Y176.898 E95.27478
G1 F2100 E93.77478
G0 F9000 X115.804 Y176.898
G1 F2100 E95.27478
G1 F1125 X97.7 Y158.794 E97.31851
G1 F2100 E95.81851
G0 F9000 X97.7 Y161.057
G1 F2100 E97.31851
G1 F1125 X113.541 Y176.898 E99.10678
G1 F2100 E97.60678
G0 F9000 X111.254 Y176.874
G1 F2100 E99.10678
G1 F1125 X97.724 Y163.343 E100.63422
G1 F2100 E99.13422
G0 F9000 X98.094 Y165.977
G1 F2100 E100.63422
G1 F1125 X108.625 Y176.507 E101.823
G1 F2100 E100.323
G0 F9000 X104.912 Y175.057
G1 F2100 E101.823
G1 F1125 X99.573 Y169.718 E102.42571
G1 F2100 E100.92571
G0 F9000 X98.022 Y169.957
G0 X97.45 Y168.738
G0 X96.779 Y166.773
G0 X96.483 Y165.458
G0 X96.254 Y163.387
G0 X96.274 Y136.243
G0 X96.421 Y134.917
G0 X96.873 Y132.89
G0 X97.313 Y131.6
G0 X98.195 Y129.72
G0 X98.904 Y128.561
G0 X100.175 Y126.917
G0 X101.098 Y125.96
G0 X102.394 Y124.881
G0 X103.66 Y123.981
G0 X104.706 Y125.07
G1 F2100 E102.42571
G1 F1125 X156.533 Y176.898 E108.27644
G1 F2100 E106.77644
G0 F9000 X158.796 Y176.898
G1 F2100 E108.27644
G1 F1125 X106.197 Y124.299 E114.21427
G1 F2100 E112.71427
G0 F9000 X107.859 Y123.698
G1 F2100 E114.21427
G1 F1125 X161.059 Y176.898 E120.21995
G1 F2100 E118.71995
G0 F9000 X163.321 Y176.898
G1 F2100 E120.21995
G1 F1125 X109.706 Y123.282 E126.27253
G1 F2100 E124.77253
G0 F9000 X111.787 Y123.101
G1 F2100 E126.27253
G1 F1125 X165.584 Y176.898 E132.3456
G1 F2100 E130.8456
G0 F9000 X167.847 Y176.898
G1 F2100 E132.3456
G1 F1125 X114.049 Y123.1 E138.41878
G1 F2100 E136.91878
G0 F9000 X116.312 Y123.1
G1 F2100 E138.41878
G1 F1125 X170.11 Y176.898 E144.49197
G1 F2100 E142.99197
G0 F9000 X172.372 Y176.898
G1 F2100 E144.49197
G1 F1125 X118.575 Y123.1 E150.56509
G1 F2100 E149.06509
G0 F9000 X120.838 Y123.1
G1 F2100 E150.56509
G1 F1125 X174.635 Y176.898 E156.63822
G1 F2100 E155.13822
G0 F9000 X176.898 Y176.898
G1 F2100 E156.63822
G1 F1125 X123.1 Y123.1 E162.7114
G1 F2100 E161.2114
G0 F9000 X125.363 Y123.1
G1 F2100 E162.7114
G1 F1125 X179.161 Y176.898 E168.78459
G1 F2100 E167.28459
G0 F9000 X181.423 Y176.898
G1 F2100 E168.78459
G1 F1125 X127.626 Y123.1 E174.85771
G1 F2100 E173.35771
G0 F9000 X129.889 Y123.1
G1 F2100 E174.85771
G1 F1125 X183.686 Y176.898 E180.93084
G1 F2100 E179.43084
G0 F9000 X185.949 Y176.898
G1 F2100 E180.93084
G1 F1125 X132.151 Y123.1 E187.00402
G1 F2100 E185.50402
G0 F9000 X134.414 Y123.1
G1 F2100 E187.00402
G1 F1125 X188.211 Y176.897 E193.07709
G1 F2100 E191.57709
G0 F9000 X190.293 Y176.716
G1 F2100 E193.07709
G1 F1125 X136.677 Y123.1 E199.12973
G1 F2100 E197.62973
G0 F9000 X138.94 Y123.1
G1 F2100 E199.12973
G1 F1125 X192.14 Y176.3 E205.13541
G1 F2100 E203.63541
G0 F9000 X193.8 Y175.699
G1 F2100 E205.13541
G1 F1125 X141.202 Y123.1 E211.07318
G1 F2100 E209.57318
G0 F9000 X143.465 Y123.1
G1 F2100 E211.07318
G1 F1125 X195.292 Y174.928 E216.92392
G1 F2100 E215.42392
G0 F9000 X196.649 Y174.021
G1 F2100 E216.92392
G1 F1125 X145.728 Y123.1 E222.67232
G1 F2100 E221.17232
G0 F9000 X147.991 Y123.1
G1 F2100 E222.67232
G1 F1125 X197.875 Y172.985 E228.30371
G1 F2100 E226.80371
G0 F9000 X198.969 Y171.816
G1 F2100 E228.30371
G1 F1125 X150.254 Y123.101 E233.80308
G1 F2100 E232.30308
G0 F9000 X152.517 Y123.101
G1 F2100 E233.80308
G1 F1125 X199.945 Y170.53 E239.15722
G1 F2100 E237.65722
G0 F9000 X200.766 Y169.088
G1 F2100 E239.15722
G1 F1125 X154.78 Y123.101 E244.34858
G1 F2100 E242.84858
G0 F9000 X157.042 Y123.101
G1 F2100 E244.34858
G1 F1125 X201.451 Y167.51 E249.36185
G1 F2100 E247.86185
G0 F9000 X201.959 Y165.755
G1 F2100 E249.36185
G1 F1125 X159.305 Y123.101 E254.177
G1 F2100 E252.677
G0 F9000 X161.568 Y123.101
G1 F2100 E254.177
G1 F1125 X202.254 Y163.787 E258.76999
G1 F2100 E257.26999
G0 F9000 X202.299 Y161.57
G1 F2100 E258.76999
G1 F1125 X163.83 Y123.101 E263.1127
G1 F2100 E261.6127
G0 F9000 X166.093 Y123.101
G1 F2100 E263.1127
G1 F1125 X202.299 Y159.307 E267.19995
G1 F2100 E265.69995
G0 F9000 X202.299 Y157.044
G1 F2100 E267.19995
G1 F1125 X168.356 Y123.101 E271.03172
G1 F2100 E269.53172
G0 F9000 X170.619 Y123.101
G1 F2100 E271.03172
G1 F1125 X202.299 Y154.782 E274.60809
G1 F2100 E273.10809
G0 F9000 X202.299 Y152.519
G1 F2100 E274.60809
G1 F1125 X172.881 Y123.101 E277.92905
G1 F2100 E276.42905
G0 F9000 X175.144 Y123.101
G1 F2100 E277.92905
G1 F1125 X202.299 Y150.256 E280.99454
G1 F2100 E279.49454
G0 F9000 X202.299 Y147.993
G1 F2100 E280.99454
G1 F1125 X177.407 Y123.101 E283.80457
G1 F2100 E282.30457
G0 F9000 X179.67 Y123.101
G1 F2100 E283.80457
G1 F1125 X202.299 Y145.73 E286.35912
G1 F2100 E284.85912
G0 F9000 X202.299 Y143.467
G1 F2100 E286.35912
G1 F1125 X181.932 Y123.101 E288.65827
G1 F2100 E287.15827
G0 F9000 X184.195 Y123.101
G1 F2100 E288.65827
G1 F1125 X202.299 Y141.204 E290.70195
G1 F2100 E289.20195
G0 F9000 X202.299 Y138.942
G1 F2100 E290.70195
G1 F1125 X186.458 Y123.101 E292.49022
G1 F2100 E290.99022
G0 F9000 X188.744 Y123.124
G1 F2100 E292.49022
G1 F1125 X202.277 Y136.657 E294.01794
G1 F2100 E292.51794
G0 F9000 X201.905 Y134.022
G1 F2100 E294.01794
G1 F1125 X191.372 Y123.49 E295.20694
G1 F2100 E293.70694
G0 F9000 X195.09 Y124.945
G1 F2100 E295.20694
G1 F1125 X200.426 Y130.281 E295.80931
G1 F2100 E294.30931
G0 F300 X200.426 Y130.281 Z0.54
G0 F9000 X201.978 Y130.043
G0 X202.55 Y131.261
G0 X203.221 Y133.227
G0 X203.517 Y134.542
G0 X203.746 Y136.61
G0 X203.726 Y163.757
G0 X203.579 Y165.083
G0 X203.127 Y167.11
G0 X202.687 Y168.4
G0 X201.805 Y170.28
G0 X201.096 Y171.439
G0 X199.825 Y173.083
G0 X198.902 Y174.04
G0 X197.301 Y175.373
G0 X196.375 Y174.238
;TIME_ELAPSED:223.571244
;LAYER:-5
;TYPE:SUPPORT
G1 F2100 E295.80931
G1 F1125 X197.241 Y173.562 E295.91893
G1 X198.021 Y172.852 E296.02418
G1 X198.618 Y172.234 E296.10991
G1 X199.283 Y171.444 E296.21295
G1 X199.819 Y170.704 E296.30412
G1 X196.106 Y174.417 E296.82807
G1 X195.569 Y174.773 E296.89235
G1 X194.6 Y175.322 E297.00348
G1 X193.737 Y175.73 E297.09873
G1 X193.152 Y175.957 E297.16134
G1 X201.373 Y167.736 E298.32141
G1 X201.704 Y166.763 E298.42396
G1 X201.97 Y165.725 E298.53088
G1 X191.132 Y176.563 E300.06024
G1 X190.747 Y176.648 E300.09958
G1 X189.671 Y176.813 E300.2082
G1 X189.452 Y176.829 E300.23011
G1 X202.221 Y164.06 E302.03196
G1 X202.263 Y163.664 E302.07169
G1 X202.299 Y162.567 E302.18121
G1 X187.966 Y176.9 E304.20375
G1 X186.552 Y176.9 E304.34484
G1 X202.299 Y161.153 E306.56691
G1 X202.299 Y159.738 E306.7081
G1 X185.138 Y176.9 E309.12977
G1 X183.724 Y176.9 E309.27086
G1 X202.299 Y158.324 E311.89207
G1 X202.299 Y156.91 E312.03316
G1 X182.309 Y176.9 E314.85396
G1 X180.895 Y176.9 E314.99505
G1 X202.299 Y155.496 E318.01539
G1 X202.299 Y154.082 E318.15647
G1 X179.481 Y176.9 E321.37634
G1 X178.067 Y176.9 E321.51743
G1 X202.299 Y152.667 E324.9369
G1 X202.299 Y151.253 E325.07799
G1 X176.652 Y176.9 E328.69706
G1 X175.238 Y176.9 E328.83815
G1 X202.299 Y149.839 E332.65675
G1 X202.299 Y148.425 E332.79783
G1 X173.824 Y176.9 E336.81596
G1 X172.41 Y176.9 E336.95705
G1 X202.299 Y147.011 E341.17472
G1 X202.299 Y145.596 E341.3159
G1 X170.996 Y176.9 E345.73317
G1 X169.581 Y176.9 E345.87436
G1 X202.299 Y144.182 E350.49122
G1 X202.299 Y142.768 E350.63231
G1 X168.167 Y176.9 E355.4487
G1 X166.753 Y176.9 E355.58979
G1 X202.299 Y141.354 E360.60572
G1 X202.299 Y139.939 E360.74691
G1 X165.339 Y176.9 E365.96243
G1 X163.925 Y176.9 E366.10352
G1 X202.299 Y138.525 E371.51858
G1 X202.295 Y137.115 E371.65927
G1 X162.511 Y176.899 E377.27322
G1 X161.097 Y176.899 E377.41431
G1 X202.214 Y135.782 E383.21636
G1 X202.031 Y134.551 E383.34054
G1 X159.683 Y176.899 E389.3163
G1 X158.268 Y176.899 E389.45749
G1 X201.746 Y133.421 E395.59271
G1 X201.54 Y132.72 E395.66561
G1 X201.398 Y132.356 E395.7046
G1 X156.854 Y176.899 E401.99017
G1 X155.44 Y176.899 E402.13126
G1 X200.984 Y131.355 E408.55801
G1 X200.725 Y130.804 E408.61876
G1 X200.506 Y130.419 E408.66295
G1 X154.026 Y176.899 E415.22178
G1 X152.612 Y176.899 E415.36287
G1 X199.976 Y129.534 E422.04651
G1 X199.644 Y129.032 E422.10657
G1 X199.389 Y128.707 E422.14779
G1 X151.197 Y176.899 E428.9482
G1 X149.783 Y176.899 E429.08929
G1 X198.753 Y127.929 E435.99948
G1 X198.252 Y127.377 E436.07387
G1 X198.069 Y127.2 E436.09927
G1 X148.369 Y176.899 E443.1124
G1 X146.955 Y176.899 E443.25349
G1 X197.33 Y126.524 E450.36195
G1 X196.843 Y126.116 E450.42534
G1 X196.543 Y125.897 E450.46241
G1 X145.54 Y176.899 E457.65941
G1 X144.126 Y176.899 E457.8005
G1 X195.707 Y125.319 E465.07906
G1 X194.825 Y124.786 E465.18189
G1 X142.712 Y176.899 E472.5356
G1 X141.298 Y176.899 E472.67669
G1 X193.865 Y124.332 E480.09446
G1 X193.093 Y124.01 E480.17792
G1 X192.854 Y123.928 E480.20313
G1 X139.884 Y176.899 E487.67784
G1 X138.469 Y176.899 E487.81903
G1 X191.774 Y123.595 E495.34087
G1 X191.121 Y123.428 E495.40813
G1 X190.62 Y123.334 E495.45899
G1 X137.056 Y176.899 E503.01752
G1 X135.642 Y176.899 E503.15861
G1 X189.387 Y123.153 E510.74268
G1 X188.026 Y123.1 E510.87858
G1 X134.227 Y176.899 E518.4702
G1 X132.813 Y176.899 E518.61129
G1 X186.612 Y123.1 E526.20291
G1 X185.198 Y123.1 E526.344
G1 X131.399 Y176.899 E533.93562
G1 X129.985 Y176.899 E534.07671
G1 X183.784 Y123.1 E541.66833
G1 X182.369 Y123.1 E541.80952
G1 X128.571 Y176.899 E549.40107
G1 X127.156 Y176.899 E549.54226
G1 X180.955 Y123.1 E557.13388
G1 X179.541 Y123.1 E557.27497
G1 X125.742 Y176.899 E564.86659
G1 X124.328 Y176.899 E565.00768
G1 X178.127 Y123.1 E572.5993
G1 X176.713 Y123.1 E572.74039
G1 X122.914 Y176.899 E580.33201
G1 X121.5 Y176.899 E580.4731
G1 X175.298 Y123.1 E588.06465
G1 X173.884 Y123.1 E588.20574
G1 X120.085 Y176.899 E595.79736
G1 X118.671 Y176.899 E595.93845
G1 X172.47 Y123.1 E603.53007
G1 X171.056 Y123.1 E603.67116
G1 X117.257 Y176.899 E611.26278
G1 X115.843 Y176.899 E611.40387
G1 X169.641 Y123.1 E618.99542
G1 X168.227 Y123.1 E619.13651
G1 X114.428 Y176.899 E626.72813
G1 X113.014 Y176.899 E626.86922
G1 X166.813 Y123.1 E634.46084
G1 X165.399 Y123.1 E634.60192
G1 X111.613 Y176.886 E642.19171
G1 X110.795 Y176.853 E642.2734
G1 X110.29 Y176.795 E642.32412
G1 X163.985 Y123.1 E649.90106
G1 X162.571 Y123.099 E650.04215
G1 X109.055 Y176.615 E657.59384
G1 X107.929 Y176.327 E657.70981
G1 X161.157 Y123.099 E665.22085
G1 X159.743 Y123.099 E665.36194
G1 X106.869 Y175.973 E672.82303
G1 X105.872 Y175.556 E672.93087
G1 X158.328 Y123.099 E680.33305
G1 X156.914 Y123.099 E680.47413
G1 X104.941 Y175.073 E687.80816
G1 X104.06 Y174.539 E687.91095
G1 X155.5 Y123.099 E695.16969
G1 X154.086 Y123.099 E695.31078
G1 X103.235 Y173.95 E702.48641
G1 X102.466 Y173.304 E702.58662
G1 X152.672 Y123.099 E709.67116
G1 X151.257 Y123.099 E709.81235
G1 X101.742 Y172.615 E716.79952
G1 X101.068 Y171.874 E716.89947
G1 X149.843 Y123.099 E723.78214
G1 X148.429 Y123.099 E723.92323
G1 X100.445 Y171.083 E730.69429
G1 X99.875 Y170.239 E730.79592
G1 X147.015 Y123.099 E737.44788
G1 X145.601 Y123.099 E737.58897
G1 X99.347 Y169.353 E744.11591
G1 X98.895 Y168.39 E744.22205
G1 X144.186 Y123.099 E750.6131
G1 X142.772 Y123.099 E750.75419
