;FLAVOR:Marlin
;TIME:39319
;Filament used: 37.0066m
;Layer height: 0.2
;MINX:69.335
;MINY:94.736
;MINZ:0.24
;MAXX:230.665
;MAXY:204.199
;MAXZ:26.49
;Generated with Cura_SteamEngine 5.3.0
M140 S50
M105
M190 S50
M104 S210
M105
M109 S210
M82 ;absolute extrusion mode
M220 S100 ;Reset Feedrate
M221 S100 ;Reset Flowrate

M280 P0 S160 ;reset bltouch
G28 ;Home
G29 A ; enable UBL
G92 E0 ;Reset Extruder
G1 Z2.0 F3000 ;Move Z Axis up
G1 X10.1 Y20 Z0.28 F5000.0 ;Move to start position
G1 X10.1 Y200.0 Z0.28 F1500.0 E15 ;Draw the first line
G1 X10.4 Y200.0 Z0.28 F5000.0 ;Move to side a little
G1 X10.4 Y20 Z0.28 F1500.0 E30 ;Draw the second line
G92 E0 ;Reset Extruder
G1 Z2.0 F3000 ;Move Z Axis up
G92 E0
G92 E0
G1 F2100 E-1.5
;LAYER_COUNT:127
;LAYER:-6
M107
G0 F9000 X76.5 Y100.031 Z0.24
;TYPE:SUPPORT-INTERFACE
G1 F2100 E0
G1 F1125 X77.324 Y99.484 E0.07895
G1 X78.392 Y98.884 E0.17673
G1 X79.211 Y98.499 E0.24897
G1 X80.281 Y98.085 E0.34056
G1 X81.299 Y97.779 E0.42541
G1 X82.278 Y97.559 E0.50551
G1 X83.385 Y97.391 E0.59488
G1 X84.559 Y97.308 E0.68883
G1 X84.954 Y97.301 E0.72037
G1 X104.343 Y97.3 E2.26808
G1 X105.01 Y97.255 E2.32144
G1 X105.65 Y97.132 E2.37347
G1 X106.217 Y96.954 E2.4209
G1 X107.184 Y96.583 E2.50358
G1 X108.199 Y96.279 E2.58816
G1 X109.178 Y96.059 E2.66825
G1 X110.285 Y95.891 E2.75763
G1 X111.459 Y95.808 E2.85158
G1 X111.854 Y95.801 E2.88312
G1 X188.108 Y95.801 E8.97004
G1 X189.168 Y95.84 E9.05471
G1 X190.308 Y95.971 E9.14631
G1 X191.337 Y96.168 E9.22994
G1 X192.313 Y96.423 E9.31046
G1 X193.213 Y96.73 E9.38637
G1 X193.578 Y96.876 E9.41775
G1 X194.192 Y97.092 E9.46971
G1 X194.877 Y97.242 E9.52568
G1 X195.645 Y97.299 E9.58716
G1 X215.008 Y97.301 E11.13279
G1 X216.068 Y97.34 E11.21747
G1 X217.208 Y97.471 E11.30906
G1 X218.237 Y97.668 E11.3927
G1 X219.213 Y97.923 E11.47322
G1 X220.215 Y98.264 E11.55771
G1 X221.193 Y98.68 E11.64254
G1 X222.205 Y99.206 E11.73359
G1 X223.052 Y99.721 E11.81272
G1 X223.921 Y100.344 E11.89807
G1 X224.795 Y101.077 E11.98912
G1 X225.441 Y101.699 E12.06071
G1 X226.154 Y102.484 E12.14536
G1 X226.867 Y103.397 E12.23783
G1 X227.419 Y104.23 E12.3176
G1 X228.016 Y105.292 E12.41485
G1 X228.398 Y106.104 E12.48648
G1 X228.813 Y107.172 E12.57794
G1 X229.123 Y108.203 E12.66388
G1 X229.367 Y109.316 E12.75483
G1 X229.51 Y110.289 E12.83334
G1 X229.592 Y111.448 E12.92608
G1 X229.599 Y111.848 E12.95802
G1 X229.6 Y188.086 E19.04367
G1 X229.56 Y189.168 E19.13009
G1 X229.429 Y190.309 E19.22177
G1 X229.232 Y191.337 E19.30532
G1 X228.98 Y192.305 E19.38517
G1 X228.641 Y193.301 E19.46915
G1 X228.223 Y194.288 E19.55471
G1 X227.694 Y195.305 E19.64622
G1 X227.179 Y196.152 E19.72535
G1 X226.556 Y197.021 E19.8107
G1 X225.823 Y197.895 E19.90176
G1 X225.201 Y198.541 E19.97334
G1 X224.406 Y199.262 E20.05901
G1 X223.5 Y199.969 E20.15075
G1 X222.676 Y200.516 E20.2297
G1 X221.608 Y201.116 E20.32748
G1 X220.791 Y201.5 E20.39954
G1 X219.719 Y201.915 E20.4913
G1 X218.701 Y202.221 E20.57615
G1 X217.722 Y202.441 E20.65625
G1 X216.615 Y202.609 E20.74563
G1 X215.441 Y202.692 E20.83958
G1 X215.046 Y202.699 E20.87111
G1 X195.657 Y202.7 E22.41883
G1 X194.99 Y202.745 E22.47219
G1 X194.35 Y202.868 E22.52421
G1 X193.783 Y203.046 E22.57165
G1 X192.816 Y203.417 E22.65433
G1 X191.801 Y203.721 E22.7389
G1 X190.822 Y203.941 E22.819
G1 X189.715 Y204.109 E22.90838
G1 X188.541 Y204.192 E23.00233
G1 X188.146 Y204.199 E23.03386
G1 X111.892 Y204.199 E29.12079
G1 X110.832 Y204.16 E29.20546
G1 X109.691 Y204.029 E29.29713
G1 X108.663 Y203.832 E29.38069
G1 X107.686 Y203.576 E29.46131
G1 X106.788 Y203.27 E29.53704
G1 X106.434 Y203.128 E29.56748
G1 X105.808 Y202.908 E29.62045
G1 X105.123 Y202.758 E29.67643
G1 X104.355 Y202.701 E29.7379
G1 X84.992 Y202.699 E31.28354
G1 X83.932 Y202.66 E31.36821
G1 X82.791 Y202.529 E31.45989
G1 X81.763 Y202.332 E31.54344
G1 X80.786 Y202.076 E31.62406
G1 X79.779 Y201.734 E31.70895
G1 X78.811 Y201.322 E31.79293
G1 X77.857 Y200.832 E31.87854
G1 X76.947 Y200.278 E31.96358
G1 X76.075 Y199.653 E32.04922
G1 X75.202 Y198.919 E32.14027
G1 X74.549 Y198.291 E32.21259
G1 X73.838 Y197.506 E32.29713
G1 X73.131 Y196.6 E32.38887
G1 X72.58 Y195.77 E32.46839
G1 X71.982 Y194.703 E32.56603
G1 X71.59 Y193.866 E32.6398
G1 X71.181 Y192.811 E32.73013
G1 X70.877 Y191.798 E32.81455
G1 X70.631 Y190.671 E32.90663
G1 X70.501 Y189.785 E32.97811
G1 X70.408 Y188.54 E33.07777
G1 X70.401 Y188.146 E33.10923
G1 X70.4 Y111.914 E39.19439
G1 X70.44 Y110.832 E39.28082
G1 X70.571 Y109.691 E39.3725
G1 X70.768 Y108.663 E39.45605
G1 X71.02 Y107.696 E39.53582
G1 X71.364 Y106.686 E39.62099
G1 X71.777 Y105.713 E39.70537
G1 X72.306 Y104.695 E39.79695
G1 X72.821 Y103.848 E39.87607
G1 X73.444 Y102.979 E39.96143
G1 X74.177 Y102.105 E40.05248
G1 X74.799 Y101.459 E40.12407
G1 X75.594 Y100.738 E40.20974
G1 X76.5 Y100.031 E40.30147
G0 F9000 X77.331 Y99.958
G1 F1125 X181.17 Y203.798 E52.02377
G1 F2100 E50.52377
G0 F9000 X178.907 Y203.798
G1 F2100 E52.02377
G1 F1125 X76.021 Y100.911 E63.63849
G1 F2100 E62.13849
G0 F9000 X74.839 Y101.992
G1 F2100 E63.63849
G1 F1125 X176.645 Y203.798 E75.13123
G1 F2100 E73.63123
G0 F9000 X174.382 Y203.798
G1 F2100 E75.13123
G1 F1125 X73.781 Y103.197 E86.48794
G1 F2100 E84.98794
G0 F9000 X72.865 Y104.543
G1 F2100 E86.48794
G1 F1125 X172.119 Y203.798 E97.69265
G1 F2100 E96.19265
G0 F9000 X169.856 Y203.798
G1 F2100 E97.69265
G1 F1125 X72.08 Y106.021 E108.7305
G1 F2100 E107.2305
G0 F9000 X71.454 Y107.658
G1 F2100 E108.7305
G1 F1125 X167.594 Y203.798 E119.58362
G1 F2100 E118.08362
G0 F9000 X165.331 Y203.798
G1 F2100 E119.58362
G1 F1125 X71.017 Y109.484 E130.2306
G1 F2100 E128.7306
G0 F9000 X70.813 Y111.543
G1 F2100 E130.2306
G1 F1125 X163.068 Y203.798 E140.64514
G1 F2100 E139.14514
G0 F9000 X160.805 Y203.798
G1 F2100 E140.64514
G1 F1125 X70.8 Y113.792 E150.80574
G1 F2100 E149.30574
G0 F9000 X70.8 Y116.055
G1 F2100 E150.80574
G1 F1125 X158.543 Y203.798 E160.71092
G1 F2100 E159.21092
G0 F9000 X156.28 Y203.798
G1 F2100 E160.71092
G1 F1125 X70.8 Y118.318 E170.36065
G1 F2100 E168.86065
G0 F9000 X70.8 Y120.58
G1 F2100 E170.36065
G1 F1125 X154.017 Y203.798 E179.75496
G1 F2100 E178.25496
G0 F9000 X151.755 Y203.798
G1 F2100 E179.75496
G1 F1125 X70.8 Y122.843 E188.89386
G1 F2100 E187.39386
G0 F9000 X70.8 Y125.106
G1 F2100 E188.89386
G1 F1125 X149.492 Y203.798 E197.77729
G1 F2100 E196.27729
G0 F9000 X147.229 Y203.798
G1 F2100 E197.77729
G1 F1125 X70.8 Y127.369 E206.40526
G1 F2100 E204.90526
G0 F9000 X70.8 Y129.631
G1 F2100 E206.40526
G1 F1125 X144.966 Y203.798 E214.77781
G1 F2100 E213.27781
G0 F9000 X142.704 Y203.798
G1 F2100 E214.77781
G1 F1125 X70.8 Y131.894 E222.89496
G1 F2100 E221.39496
G0 F9000 X70.8 Y134.157
G1 F2100 E222.89496
G1 F1125 X140.441 Y203.798 E230.75663
G1 F2100 E229.25663
G0 F9000 X138.178 Y203.798
G1 F2100 E230.75663
G1 F1125 X70.8 Y136.419 E238.3629
G1 F2100 E236.8629
G0 F9000 X70.8 Y138.682
G1 F2100 E238.3629
G1 F1125 X135.915 Y203.798 E245.7137
G1 F2100 E244.2137
G0 F9000 X133.653 Y203.798
G1 F2100 E245.7137
G1 F1125 X70.8 Y140.945 E252.80909
G1 F2100 E251.30909
G0 F9000 X70.8 Y143.208
G1 F2100 E252.80909
G1 F1125 X131.39 Y203.798 E259.64901
G1 F2100 E258.14901
G0 F9000 X129.127 Y203.798
G1 F2100 E259.64901
G1 F1125 X70.8 Y145.47 E266.23353
G1 F2100 E264.73353
G0 F9000 X70.8 Y147.733
G1 F2100 E266.23353
G1 F1125 X126.864 Y203.798 E272.56257
G1 F2100 E271.06257
G0 F9000 X124.602 Y203.798
G1 F2100 E272.56257
G1 F1125 X70.8 Y149.996 E278.63621
G1 F2100 E277.13621
G0 F9000 X70.8 Y152.259
G1 F2100 E278.63621
G1 F1125 X122.339 Y203.798 E284.45437
G1 F2100 E282.95437
G0 F9000 X120.076 Y203.798
G1 F2100 E284.45437
G1 F1125 X70.8 Y154.521 E290.01713
G1 F2100 E288.51713
G0 F9000 X70.8 Y156.784
G1 F2100 E290.01713
G1 F1125 X117.813 Y203.798 E295.32442
G1 F2100 E293.82442
G0 F9000 X115.551 Y203.798
G1 F2100 E295.32442
G1 F1125 X70.8 Y159.047 E300.3763
G1 F2100 E298.8763
G0 F9000 X70.8 Y161.31
G1 F2100 E300.3763
G1 F1125 X113.288 Y203.798 E305.17271
G1 F2100 E303.67271
G0 F9000 X110.992 Y203.764
G1 F2100 E305.17271
G1 F1125 X70.8 Y163.572 E309.70993
G1 F2100 E308.20993
G0 F9000 X70.8 Y165.835
G1 F2100 E309.70993
G1 F1125 X108.282 Y203.317 E313.94123
G1 F2100 E312.44123
G0 F9000 X105.054 Y202.352
G1 F2100 E313.94123
G1 F1125 X70.8 Y168.098 E317.80811
G1 F2100 E316.30811
G0 F9000 X70.8 Y170.361
G1 F2100 E317.80811
G1 F1125 X102.737 Y202.298 E321.41344
G1 F2100 E319.91344
G0 F9000 X100.474 Y202.298
G1 F2100 E321.41344
G1 F1125 X70.8 Y172.623 E324.76335
G1 F2100 E323.26335
G0 F9000 X70.8 Y174.886
G1 F2100 E324.76335
G1 F1125 X98.212 Y202.298 E327.85786
G1 F2100 E326.35786
G0 F9000 X95.949 Y202.298
G1 F2100 E327.85786
G1 F1125 X70.8 Y177.149 E330.69689
G1 F2100 E329.19689
G0 F9000 X70.8 Y179.412
G1 F2100 E330.69689
G1 F1125 X93.686 Y202.298 E333.28046
G1 F2100 E331.78046
G0 F9000 X91.423 Y202.298
G1 F2100 E333.28046
G1 F1125 X70.8 Y181.674 E335.60862
G1 F2100 E334.10862
G0 F9000 X70.8 Y183.937
G1 F2100 E335.60862
G1 F1125 X89.161 Y202.298 E337.68137
G1 F2100 E336.18137
G0 F9000 X86.898 Y202.298
G1 F2100 E337.68137
G1 F1125 X70.8 Y186.2 E339.49865
G1 F2100 E337.99865
G0 F9000 X70.806 Y188.469
G1 F2100 E339.49865
G1 F1125 X84.621 Y202.284 E341.05821
G1 F2100 E339.55821
G0 F9000 X82.054 Y201.98
G1 F2100 E341.05821
G1 F1125 X71.123 Y191.048 E342.29225
G1 F2100 E340.79225
G0 F9000 X72.346 Y194.534
G1 F2100 E342.29225
G1 F1125 X78.549 Y200.737 E342.9925
G1 F2100 E341.4925
G0 F9000 X77.879 Y202.041
G0 X76.261 Y201.096
G0 X74.617 Y199.825
G0 X73.66 Y198.902
G0 X72.327 Y197.301
G0 X71.585 Y196.182
G0 X70.617 Y194.3
G0 X70.144 Y193.058
G0 X69.615 Y191.034
G0 X69.424 Y189.721
G0 X69.335 Y188.047
G0 X69.374 Y110.843
G0 X69.521 Y109.517
G0 X69.973 Y107.49
G0 X70.413 Y106.2
G0 X71.295 Y104.32
G0 X72.004 Y103.161
G0 X73.275 Y101.517
G0 X74.198 Y100.56
G0 X75.799 Y99.227
G0 X76.433 Y98.807
G0 X77.914 Y97.934
G0 X78.779 Y99.144
G1 F2100 E342.9925
G1 F1125 X183.433 Y203.798 E354.80674
G1 F2100 E353.30674
G0 F9000 X185.696 Y203.798
G1 F2100 E354.80674
G1 F1125 X80.375 Y98.477 E366.69629
G1 F2100 E365.19629
G0 F9000 X82.156 Y97.995
G1 F2100 E366.69629
G1 F1125 X187.958 Y203.798 E378.64019
G1 F2100 E377.14019
G0 F9000 X190.072 Y203.648
G1 F2100 E378.64019
G1 F1125 X84.16 Y97.737 E390.5964
G1 F2100 E389.0964
G0 F9000 X86.386 Y97.7
G1 F2100 E390.5964
G1 F1125 X191.945 Y203.259 E402.51281
G1 F2100 E401.01281
G0 F9000 X193.626 Y202.677
G1 F2100 E402.51281
G1 F1125 X88.649 Y97.7 E414.36352
G1 F2100 E412.86352
G0 F9000 X90.912 Y97.7
G1 F2100 E414.36352
G1 F1125 X195.519 Y202.307 E426.17246
G1 F2100 E424.67246
G0 F9000 X197.773 Y202.299
G1 F2100 E426.17246
G1 F1125 X93.174 Y97.7 E437.9805
G1 F2100 E436.4805
G0 F9000 X95.437 Y97.7
G1 F2100 E437.9805
G1 F1125 X200.036 Y202.299 E449.78854
G1 F2100 E448.28854
G0 F9000 X202.299 Y202.299
G1 F2100 E449.78854
G1 F1125 X97.7 Y97.7 E461.59658
G1 F2100 E460.09658
G0 F9000 X99.962 Y97.7
G1 F2100 E461.59658
G1 F1125 X204.561 Y202.299 E473.40462
G1 F2100 E471.90462
G0 F9000 X206.824 Y202.299
G1 F2100 E473.40462
G1 F1125 X102.225 Y97.7 E485.21266
G1 F2100 E483.71266
G0 F9000 X104.479 Y97.691
G1 F2100 E485.21266
G1 F1125 X209.087 Y202.299 E497.02171
G1 F2100 E495.52171
G0 F9000 X211.349 Y202.299
G1 F2100 E497.02171
G1 F1125 X106.372 Y97.321 E508.87248
G1 F2100 E507.37248
G0 F9000 X108.053 Y96.739
G1 F2100 E508.87248
G1 F1125 X213.612 Y202.299 E520.78895
G1 F2100 E519.28895
G0 F9000 X215.838 Y202.262
G1 F2100 E520.78895
G1 F1125 X109.926 Y96.35 E532.74521
G1 F2100 E531.24521
G0 F9000 X112.04 Y96.201
G1 F2100 E532.74521
G1 F1125 X217.842 Y202.003 E544.68905
G1 F2100 E543.18905
G0 F9000 X219.623 Y201.521
G1 F2100 E544.68905
G1 F1125 X114.303 Y96.201 E556.57848
G1 F2100 E555.07848
G0 F9000 X116.565 Y96.201
G1 F2100 E556.57848
G1 F1125 X221.219 Y200.855 E568.39273
G1 F2100 E566.89273
G0 F9000 X222.667 Y200.04
G1 F2100 E568.39273
G1 F1125 X118.828 Y96.201 E580.11498
G1 F2100 E578.61498
G0 F9000 X121.091 Y96.201
G1 F2100 E580.11498
G1 F1125 X223.977 Y199.087 E591.72964
G1 F2100 E590.22964
G0 F9000 X225.159 Y198.006
G1 F2100 E591.72964
G1 F1125 X123.354 Y96.201 E603.22226
G1 F2100 E601.72226
G0 F9000 X125.616 Y96.201
G1 F2100 E603.22226
G1 F1125 X226.217 Y196.801 E614.57892
G1 F2100 E613.07892
G0 F9000 X227.134 Y195.455
G1 F2100 E614.57892
G1 F1125 X127.879 Y96.201 E625.78362
G1 F2100 E624.28362
G0 F9000 X130.142 Y96.201
G1 F2100 E625.78362
G1 F1125 X227.919 Y193.978 E636.82154
G1 F2100 E635.32154
G0 F9000 X228.545 Y192.341
G1 F2100 E636.82154
G1 F1125 X132.405 Y96.201 E647.67465
G1 F2100 E646.17465
G0 F9000 X134.667 Y96.201
G1 F2100 E647.67465
G1 F1125 X228.981 Y190.515 E658.32163
G1 F2100 E656.82163
G0 F9000 X229.185 Y188.455
G1 F2100 E658.32163
G1 F1125 X136.93 Y96.201 E668.73612
G1 F2100 E667.23612
G0 F9000 X139.193 Y96.201
G1 F2100 E668.73612
G1 F1125 X229.198 Y186.206 E678.89666
G1 F2100 E677.39666
G0 F9000 X229.198 Y183.943
G1 F2100 E678.89666
G1 F1125 X141.456 Y96.201 E688.80173
G1 F2100 E687.30173
G0 F9000 X143.718 Y96.201
G1 F2100 E688.80173
G1 F1125 X229.198 Y181.681 E698.45145
G1 F2100 E696.95145
G0 F9000 X229.198 Y179.418
G1 F2100 E698.45145
G1 F1125 X145.981 Y96.201 E707.84571
G1 F2100 E706.34571
G0 F9000 X148.244 Y96.201
G1 F2100 E707.84571
G1 F1125 X229.198 Y177.155 E716.9845
G1 F2100 E715.4845
G0 F9000 X229.198 Y174.892
G1 F2100 E716.9845
G1 F1125 X150.506 Y96.201 E725.86787
G1 F2100 E724.36787
G0 F9000 X152.769 Y96.201
G1 F2100 E725.86787
G1 F1125 X229.198 Y172.63 E734.49584
G1 F2100 E732.99584
G0 F9000 X229.198 Y170.367
G1 F2100 E734.49584
G1 F1125 X155.032 Y96.201 E742.86834
G1 F2100 E741.36834
G0 F9000 X157.295 Y96.201
G1 F2100 E742.86834
G1 F1125 X229.198 Y168.104 E750.98537
G1 F2100 E749.48537
G0 F9000 X229.198 Y165.841
G1 F2100 E750.98537
G1 F1125 X159.557 Y96.201 E758.84699
G1 F2100 E757.34699
G0 F9000 X161.82 Y96.201
G1 F2100 E758.84699
G1 F1125 X229.198 Y163.579 E766.4532
G1 F2100 E764.9532
G0 F9000 X229.198 Y161.316
G1 F2100 E766.4532
G1 F1125 X164.083 Y96.201 E773.80395
G1 F2100 E772.30395
G0 F9000 X166.346 Y96.201
G1 F2100 E773.80395
G1 F1125 X229.198 Y159.053 E780.89922
G1 F2100 E779.39922
G0 F9000 X229.198 Y156.791
G1 F2100 E780.89922
G1 F1125 X168.608 Y96.201 E787.73914
G1 F2100 E786.23914
G0 F9000 X170.871 Y96.201
G1 F2100 E787.73914
G1 F1125 X229.198 Y154.528 E794.3236
G1 F2100 E792.8236
G0 F9000 X229.198 Y152.265
G1 F2100 E794.3236
G1 F1125 X173.134 Y96.201 E800.65259
G1 F2100 E799.15259
G0 F9000 X175.397 Y96.201
G1 F2100 E800.65259
G1 F1125 X229.198 Y150.002 E806.72611
G1 F2100 E805.22611
G0 F9000 X229.198 Y147.74
G1 F2100 E806.72611
G1 F1125 X177.659 Y96.201 E812.54428
G1 F2100 E811.04428
G0 F9000 X179.922 Y96.201
G1 F2100 E812.54428
G1 F1125 X229.198 Y145.477 E818.10698
G1 F2100 E816.60698
G0 F9000 X229.198 Y143.214
G1 F2100 E818.10698
G1 F1125 X182.185 Y96.201 E823.41421
G1 F2100 E821.91421
G0 F9000 X184.448 Y96.201
G1 F2100 E823.41421
G1 F1125 X229.198 Y140.951 E828.46598
G1 F2100 E826.96598
G0 F9000 X229.198 Y138.689
G1 F2100 E828.46598
G1 F1125 X186.71 Y96.201 E833.26239
G1 F2100 E831.76239
G0 F9000 X189.007 Y96.235
G1 F2100 E833.26239
G1 F1125 X229.198 Y136.426 E837.7995
G1 F2100 E836.2995
G0 F9000 X229.198 Y134.163
G1 F2100 E837.7995
G1 F1125 X191.715 Y96.68 E842.03091
G1 F2100 E840.53091
G0 F9000 X194.945 Y97.647
G1 F2100 E842.03091
G1 F1125 X229.198 Y131.9 E845.89768
G1 F2100 E844.39768
G0 F9000 X229.198 Y129.638
G1 F2100 E845.89768
G1 F1125 X197.261 Y97.7 E849.50306
G1 F2100 E848.00306
G0 F9000 X199.524 Y97.7
G1 F2100 E849.50306
G1 F1125 X229.198 Y127.375 E852.85297
G1 F2100 E851.35297
G0 F9000 X229.198 Y125.112
G1 F2100 E852.85297
G1 F1125 X201.787 Y97.7 E855.94742
G1 F2100 E854.44742
G0 F9000 X204.049 Y97.7
G1 F2100 E855.94742
G1 F1125 X229.198 Y122.849 E858.78646
G1 F2100 E857.28646
G0 F9000 X229.198 Y120.587
G1 F2100 E858.78646
G1 F1125 X206.312 Y97.7 E861.37008
G1 F2100 E859.87008
G0 F9000 X208.575 Y97.7
G1 F2100 E861.37008
G1 F1125 X229.198 Y118.324 E863.69824
G1 F2100 E862.19824
G0 F9000 X229.198 Y116.061
G1 F2100 E863.69824
G1 F1125 X210.838 Y97.7 E865.77093
G1 F2100 E864.27093
G0 F9000 X213.1 Y97.7
G1 F2100 E865.77093
G1 F1125 X229.198 Y113.798 E867.58822
G1 F2100 E866.08822
