;FLAVOR:Marlin
;TIME:34860
;Filament used: 32.0006m
;Layer height: 0.2
;MINX:77.2
;MINY:102.6
;MINZ:0.2
;MAXX:222.8
;MAXY:197.4
;MAXZ:25.4
;Generated with Cura_SteamEngine 5.3.0
M140 S60
M105
M190 S60
M104 S210
M105
M109 S210
M82 ;absolute extrusion mode
M220 S100 ;Reset Feedrate
M221 S100 ;Reset Flowrate

M280 P0 S160 ;reset bltouch
G28 ;Home
G29 A ; enable UBL
G92 E0 ;Reset Extruder
G1 Z2.0 F3000 ;Move Z Axis up
G1 X10.1 Y20 Z0.28 F5000.0 ;Move to start position
G1 X10.1 Y200.0 Z0.28 F1500.0 E15 ;Draw the first line
G1 X10.4 Y200.0 Z0.28 F5000.0 ;Move to side a little
G1 X10.4 Y20 Z0.28 F1500.0 E30 ;Draw the second line
G92 E0 ;Reset Extruder
G1 Z2.0 F3000 ;Move Z Axis up
G92 E0
G92 E0
G1 F2100 E-1.5
;LAYER_COUNT:127
;LAYER:0
M107
G0 F6000 X80.294 Y105.65 Z0.2
;TYPE:SKIRT
G1 F2100 E0
G1 F1200 X82.166 Y104.538 E0.07242
G1 X84.353 Y104.1 E0.1466
G1 X107.289 Y104.1 E0.90946
G1 X109.068 Y103.037 E0.97839
G1 X111.252 Y102.6 E1.05247
G1 X188.962 Y102.6 E3.63711
G1 X190.83 Y103.058 E3.70108
G1 X192.637 Y103.991 E3.76872
G1 X192.789 Y104.1 E3.77494
G1 X215.853 Y104.1 E4.54205
G1 X217.749 Y104.566 E4.60699
G1 X219.776 Y105.619 E4.68296
G1 X221.25 Y107.194 E4.75471
G1 X222.362 Y109.066 E4.82713
G1 X222.8 Y111.253 E4.90132
G1 X222.8 Y188.953 E7.48563
G1 X222.334 Y190.849 E7.55057
G1 X221.281 Y192.876 E7.62654
G1 X219.706 Y194.35 E7.69829
G1 X217.834 Y195.462 E7.77071
G1 X215.647 Y195.9 E7.84489
G1 X192.711 Y195.9 E8.60774
G1 X190.932 Y196.963 E8.67667
G1 X188.748 Y197.4 E8.75075
G1 X111.038 Y197.4 E11.3354
G1 X109.17 Y196.942 E11.39937
G1 X107.363 Y196.009 E11.46701
G1 X107.211 Y195.9 E11.47323
G1 X84.147 Y195.9 E12.24034
G1 X82.251 Y195.434 E12.30528
G1 X80.224 Y194.381 E12.38125
G1 X78.75 Y192.806 E12.453
G1 X77.638 Y190.934 E12.52542
G1 X77.2 Y188.747 E12.5996
G1 X77.2 Y111.047 E15.18391
G1 X77.666 Y109.151 E15.24885
G1 X78.719 Y107.124 E15.32482
G1 X80.294 Y105.65 E15.39657
G0 F6000 X80.535 Y105.972
G1 F1200 X82.312 Y104.916 E15.46532
G1 X84.391 Y104.5 E15.53584
G1 X107.427 Y104.5 E16.30202
G1 X107.547 Y104.406 E16.30709
G1 X109.214 Y103.416 E16.37158
G1 X111.291 Y103 E16.44203
G1 X188.912 Y103 E19.02372
G1 X190.691 Y103.436 E19.08464
G1 X192.453 Y104.346 E19.1506
G1 X192.651 Y104.5 E19.15894
G1 X215.807 Y104.5 E19.92911
G1 X217.606 Y104.942 E19.99072
G1 X219.531 Y105.942 E20.06287
G1 X220.928 Y107.435 E20.13088
G1 X221.984 Y109.212 E20.19963
G1 X222.4 Y111.291 E20.27015
G1 X222.4 Y188.907 E22.85167
G1 X221.958 Y190.706 E22.91328
G1 X220.958 Y192.631 E22.98543
G1 X219.465 Y194.028 E23.05344
G1 X217.688 Y195.084 E23.12219
G1 X215.609 Y195.5 E23.19271
G1 X192.573 Y195.5 E23.95889
G1 X192.453 Y195.594 E23.96396
G1 X190.786 Y196.584 E24.02844
G1 X188.709 Y197 E24.0989
G1 X111.088 Y197 E26.68058
G1 X109.309 Y196.564 E26.7415
G1 X107.547 Y195.654 E26.80746
G1 X107.349 Y195.5 E26.8158
G1 X84.193 Y195.5 E27.58598
G1 X82.394 Y195.058 E27.64759
G1 X80.469 Y194.058 E27.71974
G1 X79.072 Y192.565 E27.78775
G1 X78.016 Y190.788 E27.8565
G1 X77.6 Y188.709 E27.92702
G1 X77.6 Y111.093 E30.50853
G1 X78.042 Y109.294 E30.57015
G1 X79.042 Y107.369 E30.6423
G1 X80.535 Y105.972 E30.7103
G0 F6000 X80.776 Y106.294
G1 F1200 X82.458 Y105.295 E30.77537
G1 X84.43 Y104.9 E30.84226
G1 X107.571 Y104.9 E31.61194
G1 X107.751 Y104.75 E31.61973
G1 X109.36 Y103.794 E31.68198
G1 X111.329 Y103.4 E31.74877
G1 X188.866 Y103.4 E34.32766
G1 X190.55 Y103.813 E34.38533
G1 X192.27 Y104.701 E34.44971
G1 X192.504 Y104.9 E34.45993
G1 X215.76 Y104.9 E35.23342
G1 X217.464 Y105.319 E35.29179
G1 X219.286 Y106.265 E35.36007
G1 X220.606 Y107.676 E35.42433
G1 X221.605 Y109.358 E35.4894
G1 X222 Y111.33 E35.55629
G1 X222 Y188.86 E38.13495
G1 X221.581 Y190.564 E38.19331
G1 X220.635 Y192.386 E38.26159
G1 X219.224 Y193.706 E38.32586
G1 X217.542 Y194.705 E38.39093
G1 X215.57 Y195.1 E38.45782
G1 X192.429 Y195.1 E39.22749
G1 X192.249 Y195.25 E39.23528
G1 X190.64 Y196.206 E39.29753
G1 X188.671 Y196.6 E39.36432
G1 X111.134 Y196.6 E41.94321
G1 X109.45 Y196.187 E42.00088
G1 X107.73 Y195.299 E42.06526
G1 X107.496 Y195.1 E42.07548
G1 X84.24 Y195.1 E42.84898
G1 X82.536 Y194.681 E42.90734
G1 X80.714 Y193.735 E42.97562
G1 X79.394 Y192.324 E43.03989
G1 X78.395 Y190.642 E43.10495
G1 X78 Y188.67 E43.17185
G1 X78 Y111.14 E45.7505
G1 X78.419 Y109.436 E45.80887
G1 X79.365 Y107.614 E45.87715
G1 X80.776 Y106.294 E45.94141
G0 F6000 X81.017 Y106.616
G1 F1200 X82.604 Y105.673 E46.00281
G1 X84.468 Y105.3 E46.06604
G1 X107.721 Y105.3 E46.83944
G1 X107.955 Y105.094 E46.84981
G1 X109.506 Y104.173 E46.9098
G1 X111.368 Y103.8 E46.97296
G1 X188.82 Y103.8 E49.54903
G1 X190.407 Y104.189 E49.60337
G1 X192.086 Y105.056 E49.66622
G1 X192.344 Y105.3 E49.67803
G1 X215.714 Y105.3 E50.45532
G1 X217.321 Y105.695 E50.51036
G1 X219.041 Y106.588 E50.57482
G1 X220.284 Y107.917 E50.63534
G1 X221.227 Y109.504 E50.69674
G1 X221.6 Y111.368 E50.75997
G1 X221.6 Y188.814 E53.33583
G1 X221.205 Y190.421 E53.39087
G1 X220.312 Y192.141 E53.45533
G1 X218.983 Y193.384 E53.51585
G1 X217.396 Y194.327 E53.57725
G1 X215.532 Y194.7 E53.64048
G1 X192.279 Y194.7 E54.41388
G1 X192.045 Y194.906 E54.42425
G1 X190.494 Y195.827 E54.48424
G1 X188.632 Y196.2 E54.5474
G1 X111.18 Y196.2 E57.12347
G1 X109.593 Y195.811 E57.17781
G1 X107.914 Y194.944 E57.24066
G1 X107.656 Y194.7 E57.25247
G1 X84.286 Y194.7 E58.02976
G1 X82.679 Y194.305 E58.0848
G1 X80.959 Y193.412 E58.14926
G1 X79.716 Y192.083 E58.20978
G1 X78.773 Y190.496 E58.27118
G1 X78.4 Y188.632 E58.33441
G1 X78.4 Y111.186 E60.91027
G1 X78.795 Y109.579 E60.96531
G1 X79.688 Y107.859 E61.02977
G1 X81.017 Y106.616 E61.0903
G0 F6000 X81.258 Y106.938
G1 F1200 X82.75 Y106.051 E61.14803
G1 X84.506 Y105.7 E61.20759
G1 X107.879 Y105.7 E61.98498
G1 X108.159 Y105.438 E61.99773
G1 X109.652 Y104.551 E62.05549
G1 X111.406 Y104.2 E62.11499
G1 X188.774 Y104.2 E64.68826
G1 X190.266 Y104.566 E64.73935
G1 X191.903 Y105.411 E64.80062
G1 X192.169 Y105.7 E64.81369
G1 X215.668 Y105.7 E65.59527
G1 X217.178 Y106.071 E65.64698
G1 X218.796 Y106.911 E65.70762
G1 X219.962 Y108.158 E65.7644
G1 X220.849 Y109.65 E65.82213
G1 X221.2 Y111.406 E65.88169
G1 X221.2 Y188.768 E68.45476
G1 X220.829 Y190.278 E68.50648
G1 X219.989 Y191.896 E68.56711
G1 X218.742 Y193.062 E68.6239
G1 X217.25 Y193.949 E68.68163
G1 X215.494 Y194.3 E68.74119
G1 X192.121 Y194.3 E69.51858
G1 X191.841 Y194.562 E69.53133
G1 X190.348 Y195.449 E69.58909
G1 X188.594 Y195.8 E69.64859
G1 X111.226 Y195.8 E72.22186
G1 X109.734 Y195.434 E72.27295
G1 X108.097 Y194.589 E72.33422
G1 X107.831 Y194.3 E72.34729
G1 X84.332 Y194.3 E73.12887
G1 X82.822 Y193.929 E73.18058
G1 X81.204 Y193.089 E73.24122
G1 X80.038 Y191.842 E73.298
G1 X79.151 Y190.35 E73.35573
G1 X78.8 Y188.594 E73.41529
G1 X78.8 Y111.232 E75.98836
G1 X79.171 Y109.722 E76.04008
G1 X80.011 Y108.104 E76.10072
G1 X81.258 Y106.938 E76.1575
G0 F6000 X81.499 Y107.26
G1 F1200 X82.896 Y106.429 E76.21156
G1 X84.544 Y106.1 E76.26745
G1 X108.036 Y106.1 E77.0488
G1 X108.4 Y105.76 E77.06537
G1 X109.798 Y104.929 E77.11946
G1 X111.444 Y104.6 E77.17529
G1 X188.728 Y104.6 E79.74577
G1 X190.123 Y104.942 E79.79354
G1 X191.657 Y105.734 E79.85096
G1 X191.994 Y106.1 E79.86751
G1 X215.621 Y106.1 E80.65334
G1 X217.036 Y106.448 E80.70181
G1 X218.551 Y107.234 E80.75858
G1 X219.64 Y108.399 E80.81162
G1 X220.471 Y109.796 E80.86568
G1 X220.8 Y111.444 E80.92157
G1 X220.8 Y188.721 E83.49182
G1 X220.452 Y190.136 E83.54028
G1 X219.666 Y191.651 E83.59705
G1 X218.501 Y192.74 E83.65009
G1 X217.104 Y193.571 E83.70415
G1 X215.456 Y193.9 E83.76005
G1 X191.964 Y193.9 E84.5414
G1 X191.6 Y194.24 E84.55796
G1 X190.202 Y195.071 E84.61205
G1 X188.556 Y195.4 E84.66788
G1 X111.272 Y195.4 E87.23836
G1 X109.877 Y195.058 E87.28613
G1 X108.343 Y194.266 E87.34355
G1 X108.006 Y193.9 E87.3601
G1 X84.379 Y193.9 E88.14594
G1 X82.964 Y193.552 E88.1944
G1 X81.449 Y192.766 E88.25117
G1 X80.36 Y191.601 E88.30421
G1 X79.529 Y190.204 E88.35827
G1 X79.2 Y188.556 E88.41417
G1 X79.2 Y111.279 E90.98441
G1 X79.548 Y109.864 E91.03288
G1 X80.334 Y108.349 E91.08964
G1 X81.499 Y107.26 E91.14268
G0 F6000 X81.738 Y107.584
G1 F1200 X83.044 Y106.807 E91.19323
G1 X84.582 Y106.5 E91.24539
G1 X108.194 Y106.5 E92.03073
G1 X108.641 Y106.082 E92.05108
G1 X109.944 Y105.307 E92.10151
G1 X111.482 Y105 E92.15367
G1 X188.678 Y105 E94.72122
G1 X189.984 Y105.32 E94.76594
G1 X191.411 Y106.057 E94.81936
G1 X191.819 Y106.5 E94.83939
G1 X215.575 Y106.5 E95.62952
G1 X216.893 Y106.824 E95.67466
G1 X218.306 Y107.557 E95.72761
G1 X219.316 Y108.638 E95.77681
G1 X220.093 Y109.944 E95.82736
G1 X220.4 Y111.482 E95.87952
G1 X220.4 Y188.675 E98.44697
G1 X220.076 Y189.993 E98.49211
G1 X219.343 Y191.406 E98.54506
G1 X218.262 Y192.416 E98.59426
G1 X216.956 Y193.193 E98.6448
G1 X215.418 Y193.5 E98.69697
G1 X191.806 Y193.5 E99.48231
G1 X191.359 Y193.918 E99.50266
G1 X190.056 Y194.693 E99.55309
G1 X188.518 Y195 E99.60525
G1 X111.322 Y195 E102.1728
G1 X110.016 Y194.68 E102.21752
G1 X108.589 Y193.943 E102.27094
G1 X108.181 Y193.5 E102.29097
G1 X84.425 Y193.5 E103.0811
G1 X83.107 Y193.176 E103.12624
G1 X81.694 Y192.443 E103.17918
G1 X80.684 Y191.362 E103.22839
G1 X79.907 Y190.056 E103.27893
G1 X79.6 Y188.518 E103.3311
G1 X79.6 Y111.325 E105.89855
G1 X79.924 Y110.007 E105.94369
G1 X80.657 Y108.594 E105.99663
G1 X81.738 Y107.584 E106.04584
G0 F6000 X81.977 Y107.908
G1 F1200 X83.192 Y107.185 E106.09286
G1 X84.62 Y106.9 E106.14129
G1 X108.352 Y106.9 E106.93062
G1 X108.88 Y106.406 E106.95467
G1 X110.092 Y105.685 E107.00158
G1 X111.52 Y105.4 E107.05001
G1 X188.632 Y105.4 E109.61477
G1 X189.843 Y105.697 E109.65624
G1 X191.164 Y106.379 E109.70568
G1 X191.644 Y106.9 E109.72925
G1 X215.529 Y106.9 E110.52366
G1 X216.75 Y107.2 E110.56548
G1 X218.061 Y107.88 E110.6146
G1 X218.992 Y108.877 E110.65997
G1 X219.715 Y110.092 E110.707
G1 X220 Y111.52 E110.75543
G1 X220 Y188.629 E113.32009
G1 X219.7 Y189.85 E113.3619
G1 X219.02 Y191.161 E113.41102
G1 X218.023 Y192.092 E113.45639
G1 X216.808 Y192.815 E113.50342
G1 X215.38 Y193.1 E113.55185
G1 X191.648 Y193.1 E114.34118
G1 X191.12 Y193.594 E114.36523
G1 X189.908 Y194.315 E114.41214
G1 X188.48 Y194.6 E114.46057
G1 X111.368 Y194.6 E117.02532
G1 X110.157 Y194.303 E117.06679
G1 X108.836 Y193.621 E117.11624
G1 X108.356 Y193.1 E117.1398
G1 X84.471 Y193.1 E117.93422
G1 X83.25 Y192.8 E117.97604
G1 X81.939 Y192.12 E118.02516
G1 X81.008 Y191.123 E118.07053
G1 X80.285 Y189.908 E118.11756
G1 X80 Y188.48 E118.16599
G1 X80 Y111.371 E120.73064
G1 X80.3 Y110.15 E120.77246
G1 X80.98 Y108.839 E120.82158
G1 X81.977 Y107.908 E120.86695
G0 F6000 X82.216 Y108.232
G1 F1200 X83.34 Y107.563 E120.91046
G1 X84.658 Y107.3 E120.95516
G1 X108.509 Y107.3 E121.74845
G1 X109.119 Y106.73 E121.77621
G1 X110.24 Y106.063 E121.8196
G1 X111.558 Y105.8 E121.8643
G1 X188.582 Y105.8 E124.42613
G1 X189.704 Y106.075 E124.46455
G1 X190.918 Y106.702 E124.51
G1 X191.469 Y107.3 E124.53704
G1 X215.483 Y107.3 E125.33575
G1 X216.607 Y107.576 E125.37425
G1 X217.816 Y108.203 E125.41954
G1 X218.668 Y109.116 E125.46108
G1 X219.337 Y110.24 E125.50458
G1 X219.6 Y111.558 E125.54928
G1 X219.6 Y188.583 E128.11115
G1 X219.324 Y189.707 E128.14964
G1 X218.697 Y190.916 E128.19494
G1 X217.784 Y191.768 E128.23647
G1 X216.66 Y192.437 E128.27998
G1 X215.342 Y192.7 E128.32468
G1 X191.491 Y192.7 E129.11797
G1 X190.881 Y193.27 E129.14573
G1 X189.76 Y193.937 E129.18912
G1 X188.442 Y194.2 E129.23382
G1 X111.418 Y194.2 E131.79565
G1 X110.296 Y193.925 E131.83407
G1 X109.082 Y193.298 E131.87952
G1 X108.531 Y192.7 E131.90656
G1 X84.517 Y192.7 E132.70527
G1 X83.393 Y192.424 E132.74377
G1 X82.184 Y191.797 E132.78906
G1 X81.332 Y190.884 E132.8306
G1 X80.663 Y189.76 E132.8741
G1 X80.4 Y188.442 E132.91881
G1 X80.4 Y111.417 E135.48067
G1 X80.676 Y110.293 E135.51916
G1 X81.303 Y109.084 E135.56446
G1 X82.216 Y108.232 E135.60599
G0 F6000 X82.458 Y108.554
G1 F1200 X83.488 Y107.941 E135.64586
G1 X84.696 Y107.7 E135.68683
G1 X108.666 Y107.7 E136.48408
G1 X109.358 Y107.054 E136.51556
G1 X110.388 Y106.441 E136.55543
G1 X111.596 Y106.2 E136.5964
G1 X188.536 Y106.2 E139.15543
G1 X189.563 Y106.452 E139.1906
G1 X190.671 Y107.024 E139.23208
G1 X191.294 Y107.7 E139.26265
G1 X215.436 Y107.7 E140.06562
G1 X216.465 Y107.953 E140.10086
G1 X217.569 Y108.525 E140.14222
G1 X218.346 Y109.358 E140.18011
G1 X218.959 Y110.388 E140.21997
G1 X219.2 Y111.596 E140.26094
G1 X219.2 Y188.536 E142.81998
G1 X218.947 Y189.565 E142.85522
G1 X218.375 Y190.669 E142.89658
G1 X217.542 Y191.446 E142.93446
G1 X216.512 Y192.059 E142.97433
G1 X215.304 Y192.3 E143.0153
G1 X191.334 Y192.3 E143.81255
G1 X190.642 Y192.946 E143.84403
G1 X189.612 Y193.559 E143.8839
G1 X188.404 Y193.8 E143.92487
G1 X111.464 Y193.8 E146.4839
G1 X110.437 Y193.548 E146.51907
G1 X109.329 Y192.976 E146.56055
G1 X108.706 Y192.3 E146.59112
G1 X84.564 Y192.3 E147.39409
G1 X83.535 Y192.047 E147.42933
G1 X82.431 Y191.475 E147.47069
G1 X81.654 Y190.642 E147.50858
G1 X81.041 Y189.612 E147.54844
G1 X80.8 Y188.404 E147.58941
G1 X80.8 Y111.464 E150.14845
G1 X81.053 Y110.435 E150.18369
G1 X81.625 Y109.331 E150.22505
G1 X82.458 Y108.554 E150.26293
G0 F6000 X82.7 Y108.876
G1 F1200 X83.636 Y108.319 E150.29916
G1 X84.734 Y108.1 E150.3364
G1 X108.858 Y108.1 E151.13877
G1 X108.945 Y107.986 E151.14354
G1 X109.6 Y107.376 E151.17331
G1 X110.536 Y106.819 E151.20953
G1 X111.634 Y106.6 E151.24677
G1 X188.49 Y106.6 E153.80301
G1 X189.42 Y106.828 E153.83486
G1 X190.425 Y107.347 E153.87248
G1 X191.119 Y108.1 E153.90654
G1 X215.39 Y108.1 E154.7138
G1 X216.322 Y108.329 E154.74572
G1 X217.322 Y108.847 E154.78318
G1 X218.024 Y109.6 E154.81742
G1 X218.581 Y110.536 E154.85364
G1 X218.8 Y111.634 E154.89088
G1 X218.8 Y188.49 E157.44712
G1 X218.571 Y189.422 E157.47904
G1 X218.053 Y190.422 E157.5165
G1 X217.3 Y191.124 E157.55074
G1 X216.364 Y191.681 E157.58697
G1 X215.266 Y191.9 E157.62421
G1 X191.142 Y191.9 E158.42657
G1 X191.055 Y192.014 E158.43134
G1 X190.4 Y192.624 E158.46111
G1 X189.464 Y193.181 E158.49734
G1 X188.366 Y193.4 E158.53458
G1 X111.51 Y193.4 E161.09082
G1 X110.58 Y193.172 E161.12267
G1 X109.575 Y192.653 E161.16029
G1 X108.881 Y191.9 E161.19435
G1 X84.61 Y191.9 E162.0016
G1 X83.678 Y191.671 E162.03353
G1 X82.678 Y191.153 E162.07098
G1 X81.976 Y190.4 E162.10522
G1 X81.419 Y189.464 E162.14145
G1 X81.2 Y188.366 E162.17869
G1 X81.2 Y111.51 E164.73493
G1 X81.429 Y110.578 E164.76685
G1 X81.947 Y109.578 E164.80431
G1 X82.7 Y108.876 E164.83855
G0 F6000 X82.942 Y109.198
G1 F1200 X83.784 Y108.697 E164.87114
G1 X84.772 Y108.5 E164.90464
G1 X109.078 Y108.5 E165.71306
G1 X109.218 Y108.279 E165.72177
G1 X109.842 Y107.698 E165.75012
G1 X110.684 Y107.197 E165.78271
G1 X111.672 Y107 E165.81622
G1 X188.444 Y107 E168.36967
G1 X189.279 Y107.205 E168.39826
G1 X190.178 Y107.669 E168.43191
G1 X190.77 Y108.311 E168.46096
G1 X190.892 Y108.5 E168.46844
G1 X215.344 Y108.5 E169.28172
G1 X216.179 Y108.705 E169.31031
G1 X217.075 Y109.169 E169.34387
G1 X217.702 Y109.842 E169.37447
G1 X218.203 Y110.684 E169.40705
G1 X218.4 Y111.672 E169.44056
G1 X218.4 Y188.444 E171.99401
G1 X218.195 Y189.279 E172.02261
G1 X217.731 Y190.175 E172.05617
G1 X217.058 Y190.802 E172.08676
G1 X216.216 Y191.303 E172.11935
G1 X215.228 Y191.5 E172.15285
G1 X190.922 Y191.5 E172.96127
G1 X190.782 Y191.721 E172.96998
G1 X190.158 Y192.302 E172.99833
G1 X189.316 Y192.803 E173.03092
G1 X188.328 Y193 E173.06443
G1 X111.556 Y193 E175.61788
G1 X110.721 Y192.795 E175.64647
G1 X109.822 Y192.331 E175.68012
G1 X109.23 Y191.689 E175.70917
G1 X109.108 Y191.5 E175.71665
G1 X84.656 Y191.5 E176.52993
G1 X83.821 Y191.295 E176.55852
G1 X82.925 Y190.831 E176.59208
G1 X82.298 Y190.158 E176.62268
G1 X81.797 Y189.316 E176.65526
G1 X81.6 Y188.328 E176.68877
G1 X81.6 Y111.556 E179.24222
G1 X81.805 Y110.721 E179.27082
G1 X82.269 Y109.825 E179.30438
G1 X82.942 Y109.198 E179.33497
G0 F6000 X83.184 Y109.52
G1 F1200 X83.932 Y109.075 E179.36392
G1 X84.81 Y108.9 E179.39369
G1 X109.321 Y108.9 E180.20893
G1 X109.491 Y108.572 E180.22122
G1 X110.084 Y108.02 E180.24817
G1 X110.832 Y107.575 E180.27712
G1 X111.71 Y107.4 E180.30689
G1 X188.398 Y107.4 E182.85755
G1 X189.136 Y107.581 E182.88282
G1 X189.932 Y107.992 E182.91261
