;FLAVOR:Marlin
;TIME:6974
;Filament used: 6.48562m
;Layer height: 0.2
;MINX:104.1
;MINY:129.5
;MINZ:0.2
;MAXX:195.9
;MAXY:170.5
;MAXZ:25.4
;Generated with Cura_SteamEngine 5.3.0
M140 S60
M105
M190 S60
M104 S210
M105
M109 S210
M82 ;absolute extrusion mode
M220 S100 ;Reset Feedrate
M221 S100 ;Reset Flowrate

M280 P0 S160 ;reset bltouch
G28 ;Home
G29 A ; enable UBL
G92 E0 ;Reset Extruder
G1 Z2.0 F3000 ;Move Z Axis up
G1 X10.1 Y20 Z0.28 F5000.0 ;Move to start position
G1 X10.1 Y200.0 Z0.28 F1500.0 E15 ;Draw the first line
G1 X10.4 Y200.0 Z0.28 F5000.0 ;Move to side a little
G1 X10.4 Y20 Z0.28 F1500.0 E30 ;Draw the second line
G92 E0 ;Reset Extruder
G1 Z2.0 F3000 ;Move Z Axis up
G92 E0
G92 E0
G1 F2100 E-1.5
;LAYER_COUNT:127
;LAYER:0
M107
G0 F6000 X107.194 Y131.05 Z0.2
;TYPE:SKIRT
G1 F2100 E0
G1 F1200 X109.066 Y129.938 E0.07242
G1 X111.253 Y129.5 E0.1466
G1 X188.953 Y129.5 E2.73092
G1 X190.849 Y129.966 E2.79585
G1 X192.876 Y131.019 E2.87183
G1 X194.35 Y132.594 E2.94357
G1 X195.462 Y134.466 E3.01599
G1 X195.9 Y136.653 E3.09018
G1 X195.9 Y163.553 E3.98488
G1 X195.434 Y165.449 E4.04981
G1 X194.381 Y167.476 E4.12579
G1 X192.806 Y168.95 E4.19753
G1 X190.934 Y170.062 E4.26995
G1 X188.747 Y170.5 E4.34414
G1 X111.047 Y170.5 E6.92845
G1 X109.151 Y170.034 E6.99339
G1 X107.124 Y168.981 E7.06936
G1 X105.65 Y167.406 E7.14111
G1 X104.538 Y165.534 E7.21353
G1 X104.1 Y163.347 E7.28771
G1 X104.1 Y136.447 E8.18241
G1 X104.566 Y134.551 E8.24735
G1 X105.619 Y132.524 E8.32332
G1 X107.194 Y131.05 E8.39507
G0 F6000 X107.435 Y131.372
G1 F1200 X109.212 Y130.316 E8.46382
G1 X111.291 Y129.9 E8.53434
G1 X188.907 Y129.9 E11.11586
G1 X190.706 Y130.342 E11.17747
G1 X192.631 Y131.342 E11.24962
G1 X194.028 Y132.835 E11.31763
G1 X195.084 Y134.612 E11.38638
G1 X195.5 Y136.691 E11.4569
G1 X195.5 Y163.507 E12.3488
G1 X195.058 Y165.306 E12.41041
G1 X194.058 Y167.231 E12.48256
G1 X192.565 Y168.628 E12.55057
G1 X190.788 Y169.684 E12.61932
G1 X188.709 Y170.1 E12.68984
G1 X111.093 Y170.1 E15.27136
G1 X109.294 Y169.658 E15.33297
G1 X107.369 Y168.658 E15.40512
G1 X105.972 Y167.165 E15.47313
G1 X104.916 Y165.388 E15.54188
G1 X104.5 Y163.309 E15.6124
G1 X104.5 Y136.493 E16.5043
G1 X104.942 Y134.694 E16.56592
G1 X105.942 Y132.769 E16.63807
G1 X107.435 Y131.372 E16.70607
G0 F6000 X107.676 Y131.694
G1 F1200 X109.358 Y130.695 E16.77114
G1 X111.33 Y130.3 E16.83803
G1 X188.86 Y130.3 E19.41669
G1 X190.564 Y130.719 E19.47505
G1 X192.386 Y131.665 E19.54333
G1 X193.706 Y133.076 E19.6076
G1 X194.705 Y134.758 E19.67266
G1 X195.1 Y136.73 E19.73956
G1 X195.1 Y163.46 E20.6286
G1 X194.681 Y165.164 E20.68696
G1 X193.735 Y166.986 E20.75524
G1 X192.324 Y168.306 E20.81951
G1 X190.642 Y169.305 E20.88458
G1 X188.67 Y169.7 E20.95147
G1 X111.14 Y169.7 E23.53013
G1 X109.436 Y169.281 E23.58849
G1 X107.614 Y168.335 E23.65677
G1 X106.294 Y166.924 E23.72104
G1 X105.295 Y165.242 E23.7861
G1 X104.9 Y163.27 E23.85299
G1 X104.9 Y136.54 E24.74204
G1 X105.319 Y134.836 E24.8004
G1 X106.265 Y133.014 E24.86868
G1 X107.676 Y131.694 E24.93295
G0 F6000 X107.917 Y132.016
G1 F1200 X109.504 Y131.073 E24.99435
G1 X111.368 Y130.7 E25.05757
G1 X188.814 Y130.7 E27.63344
G1 X190.421 Y131.095 E27.68848
G1 X192.141 Y131.988 E27.75294
G1 X193.384 Y133.317 E27.81346
G1 X194.327 Y134.904 E27.87486
G1 X194.7 Y136.768 E27.93808
G1 X194.7 Y163.414 E28.82433
G1 X194.305 Y165.021 E28.87937
G1 X193.412 Y166.741 E28.94383
G1 X192.083 Y167.984 E29.00435
G1 X190.496 Y168.927 E29.06575
G1 X188.632 Y169.3 E29.12898
G1 X111.186 Y169.3 E31.70484
G1 X109.579 Y168.905 E31.75988
G1 X107.859 Y168.012 E31.82434
G1 X106.616 Y166.683 E31.88487
G1 X105.673 Y165.096 E31.94626
G1 X105.3 Y163.232 E32.00949
G1 X105.3 Y136.586 E32.89574
G1 X105.695 Y134.979 E32.95078
G1 X106.588 Y133.259 E33.01524
G1 X107.917 Y132.016 E33.07576
G0 F6000 X108.158 Y132.338
G1 F1200 X109.65 Y131.451 E33.13349
G1 X111.406 Y131.1 E33.19305
G1 X188.768 Y131.1 E35.76612
G1 X190.278 Y131.471 E35.81784
G1 X191.896 Y132.311 E35.87848
G1 X193.062 Y133.558 E35.93526
G1 X193.949 Y135.05 E35.99299
G1 X194.3 Y136.806 E36.05255
G1 X194.3 Y163.368 E36.936
G1 X193.929 Y164.878 E36.98772
G1 X193.089 Y166.496 E37.04836
G1 X191.842 Y167.662 E37.10514
G1 X190.35 Y168.549 E37.16287
G1 X188.594 Y168.9 E37.22243
G1 X111.232 Y168.9 E39.7955
G1 X109.722 Y168.529 E39.84722
G1 X108.104 Y167.689 E39.90785
G1 X106.938 Y166.442 E39.96463
G1 X106.051 Y164.95 E40.02236
G1 X105.7 Y163.194 E40.08192
G1 X105.7 Y136.632 E40.96538
G1 X106.071 Y135.122 E41.0171
G1 X106.911 Y133.504 E41.07773
G1 X108.158 Y132.338 E41.13451
G0 F6000 X108.399 Y132.66
G1 F1200 X109.796 Y131.829 E41.18858
G1 X111.444 Y131.5 E41.24447
G1 X188.721 Y131.5 E43.81472
G1 X190.136 Y131.848 E43.86318
G1 X191.651 Y132.634 E43.91995
G1 X192.74 Y133.799 E43.97299
G1 X193.571 Y135.196 E44.02705
G1 X193.9 Y136.844 E44.08295
G1 X193.9 Y163.321 E44.96358
G1 X193.552 Y164.736 E45.01204
G1 X192.766 Y166.251 E45.06881
G1 X191.601 Y167.34 E45.12185
G1 X190.204 Y168.171 E45.17591
G1 X188.556 Y168.5 E45.23181
G1 X111.279 Y168.5 E47.80205
G1 X109.864 Y168.152 E47.85052
G1 X108.349 Y167.366 E47.90728
G1 X107.26 Y166.201 E47.96032
G1 X106.429 Y164.804 E48.01439
G1 X106.1 Y163.156 E48.07028
G1 X106.1 Y136.679 E48.95091
G1 X106.448 Y135.264 E48.99937
G1 X107.234 Y133.749 E49.05614
G1 X108.399 Y132.66 E49.10918
G0 F6000 X108.638 Y132.984
G1 F1200 X109.944 Y132.207 E49.15973
G1 X111.482 Y131.9 E49.21189
G1 X188.675 Y131.9 E51.77934
G1 X189.993 Y132.224 E51.82448
G1 X191.406 Y132.957 E51.87743
G1 X192.416 Y134.038 E51.92663
G1 X193.193 Y135.344 E51.97717
G1 X193.5 Y136.882 E52.02934
G1 X193.5 Y163.275 E52.90717
G1 X193.176 Y164.593 E52.95231
G1 X192.443 Y166.006 E53.00526
G1 X191.362 Y167.016 E53.05446
G1 X190.056 Y167.793 E53.10501
G1 X188.518 Y168.1 E53.15717
G1 X111.325 Y168.1 E55.72462
G1 X110.007 Y167.776 E55.76976
G1 X108.594 Y167.043 E55.82271
G1 X107.584 Y165.962 E55.87191
G1 X106.807 Y164.656 E55.92246
G1 X106.5 Y163.118 E55.97462
G1 X106.5 Y136.725 E56.85245
G1 X106.824 Y135.407 E56.8976
G1 X107.557 Y133.994 E56.95054
G1 X108.638 Y132.984 E56.99975
G0 F6000 X108.877 Y133.308
G1 F1200 X110.092 Y132.585 E57.04677
G1 X111.52 Y132.3 E57.0952
G1 X188.629 Y132.3 E59.65986
G1 X189.85 Y132.6 E59.70168
G1 X191.161 Y133.28 E59.7508
G1 X192.092 Y134.277 E59.79617
G1 X192.815 Y135.492 E59.84319
G1 X193.1 Y136.92 E59.89162
G1 X193.1 Y163.229 E60.76666
G1 X192.8 Y164.45 E60.80848
G1 X192.12 Y165.761 E60.8576
G1 X191.123 Y166.692 E60.90297
G1 X189.908 Y167.415 E60.95
G1 X188.48 Y167.7 E60.99843
G1 X111.371 Y167.7 E63.56309
G1 X110.15 Y167.4 E63.60491
G1 X108.839 Y166.72 E63.65403
G1 X107.908 Y165.723 E63.6994
G1 X107.185 Y164.508 E63.74642
G1 X106.9 Y163.08 E63.79485
G1 X106.9 Y136.771 E64.66989
G1 X107.2 Y135.55 E64.71171
G1 X107.88 Y134.239 E64.76083
G1 X108.877 Y133.308 E64.8062
G0 F6000 X109.116 Y133.632
G1 F1200 X110.24 Y132.963 E64.84971
G1 X111.558 Y132.7 E64.89441
G1 X188.583 Y132.7 E67.45627
G1 X189.707 Y132.976 E67.49477
G1 X190.916 Y133.603 E67.54006
G1 X191.768 Y134.516 E67.5816
G1 X192.437 Y135.64 E67.6251
G1 X192.7 Y136.958 E67.6698
G1 X192.7 Y163.183 E68.54205
G1 X192.424 Y164.307 E68.58055
G1 X191.797 Y165.516 E68.62584
G1 X190.884 Y166.368 E68.66738
G1 X189.76 Y167.037 E68.71088
G1 X188.442 Y167.3 E68.75559
G1 X111.417 Y167.3 E71.31745
G1 X110.293 Y167.024 E71.35594
G1 X109.084 Y166.397 E71.40124
G1 X108.232 Y165.484 E71.44277
G1 X107.563 Y164.36 E71.48628
G1 X107.3 Y163.042 E71.53098
G1 X107.3 Y136.817 E72.40323
G1 X107.576 Y135.693 E72.44172
G1 X108.203 Y134.484 E72.48702
G1 X109.116 Y133.632 E72.52856
G0 F6000 X109.358 Y133.954
G1 F1200 X110.388 Y133.341 E72.56842
G1 X111.596 Y133.1 E72.60939
G1 X188.536 Y133.1 E75.16843
G1 X189.565 Y133.353 E75.20367
G1 X190.669 Y133.925 E75.24502
G1 X191.446 Y134.758 E75.28291
G1 X192.059 Y135.788 E75.32278
G1 X192.3 Y136.996 E75.36375
G1 X192.3 Y163.136 E76.23317
G1 X192.047 Y164.165 E76.26841
G1 X191.475 Y165.269 E76.30977
G1 X190.642 Y166.046 E76.34766
G1 X189.612 Y166.659 E76.38752
G1 X188.404 Y166.9 E76.42849
G1 X111.464 Y166.9 E78.98753
G1 X110.435 Y166.647 E79.02277
G1 X109.331 Y166.075 E79.06412
G1 X108.554 Y165.242 E79.10201
G1 X107.941 Y164.212 E79.14188
G1 X107.7 Y163.004 E79.18285
G1 X107.7 Y136.864 E80.05227
G1 X107.953 Y135.835 E80.08751
G1 X108.525 Y134.731 E80.12887
G1 X109.358 Y133.954 E80.16676
G0 F6000 X109.6 Y134.276
G1 F1200 X110.536 Y133.719 E80.20298
G1 X111.634 Y133.5 E80.24022
G1 X188.49 Y133.5 E82.79646
G1 X189.422 Y133.729 E82.82838
G1 X190.422 Y134.247 E82.86584
G1 X191.124 Y135 E82.90008
G1 X191.681 Y135.936 E82.93631
G1 X191.9 Y137.034 E82.97355
G1 X191.9 Y163.09 E83.84017
G1 X191.671 Y164.022 E83.87209
G1 X191.153 Y165.022 E83.90955
G1 X190.4 Y165.724 E83.94379
G1 X189.464 Y166.281 E83.98002
G1 X188.366 Y166.5 E84.01726
G1 X111.51 Y166.5 E86.5735
G1 X110.578 Y166.271 E86.60542
G1 X109.578 Y165.753 E86.64287
G1 X108.876 Y165 E86.67712
G1 X108.319 Y164.064 E86.71334
G1 X108.1 Y162.966 E86.75058
G1 X108.1 Y136.91 E87.61721
G1 X108.329 Y135.978 E87.64913
G1 X108.847 Y134.978 E87.68659
G1 X109.6 Y134.276 E87.72083
G0 F6000 X109.842 Y134.598
G1 F1200 X110.684 Y134.097 E87.75341
G1 X111.672 Y133.9 E87.78692
G1 X188.444 Y133.9 E90.34037
G1 X189.279 Y134.105 E90.36896
G1 X190.175 Y134.569 E90.40252
G1 X190.802 Y135.242 E90.43312
G1 X191.303 Y136.084 E90.46571
G1 X191.5 Y137.072 E90.49921
G1 X191.5 Y163.044 E91.36305
G1 X191.295 Y163.879 E91.39164
G1 X190.831 Y164.775 E91.4252
G1 X190.158 Y165.402 E91.4558
G1 X189.316 Y165.903 E91.48838
G1 X188.328 Y166.1 E91.52189
G1 X111.556 Y166.1 E94.07534
G1 X110.721 Y165.895 E94.10394
G1 X109.825 Y165.431 E94.1375
G1 X109.198 Y164.758 E94.16809
G1 X108.697 Y163.916 E94.20068
G1 X108.5 Y162.928 E94.23418
G1 X108.5 Y136.956 E95.09802
G1 X108.705 Y136.121 E95.12661
G1 X109.169 Y135.225 E95.16017
G1 X109.842 Y134.598 E95.19077
G0 F6000 X110.084 Y134.92
G1 F1200 X110.832 Y134.475 E95.21971
G1 X111.71 Y134.3 E95.24949
G1 X188.398 Y134.3 E97.80014
G1 X189.136 Y134.481 E97.82542
G1 X189.928 Y134.891 E97.85508
G1 X190.48 Y135.484 E97.88203
G1 X190.925 Y136.232 E97.91097
G1 X191.1 Y137.11 E97.94075
G1 X191.1 Y162.998 E98.80179
G1 X190.919 Y163.736 E98.82706
G1 X190.509 Y164.528 E98.85673
G1 X189.916 Y165.08 E98.88367
G1 X189.168 Y165.525 E98.91262
G1 X188.29 Y165.7 E98.9424
G1 X111.602 Y165.7 E101.49305
G1 X110.864 Y165.519 E101.51832
G1 X110.072 Y165.109 E101.54799
G1 X109.52 Y164.516 E101.57493
G1 X109.075 Y163.768 E101.60388
G1 X108.9 Y162.89 E101.63366
G1 X108.9 Y137.002 E102.4947
G1 X109.081 Y136.264 E102.51997
G1 X109.491 Y135.472 E102.54963
G1 X110.084 Y134.92 E102.57658
G0 F6000 X110.323 Y135.244
G1 F1200 X110.98 Y134.853 E102.60201
G1 X111.748 Y134.7 E102.62805
G1 X188.348 Y134.7 E105.17578
G1 X188.997 Y134.859 E105.198
G1 X189.683 Y135.214 E105.22369
G1 X190.156 Y135.723 E105.2468
G1 X190.547 Y136.38 E105.27223
G1 X190.7 Y137.148 E105.29828
G1 X190.7 Y162.948 E106.15639
G1 X190.541 Y163.597 E106.17861
G1 X190.186 Y164.283 E106.2043
G1 X189.677 Y164.756 E106.22741
G1 X189.02 Y165.147 E106.25284
G1 X188.252 Y165.3 E106.27889
G1 X111.652 Y165.3 E108.82662
G1 X111.003 Y165.141 E108.84884
G1 X110.317 Y164.786 E108.87453
G1 X109.844 Y164.277 E108.89764
G1 X109.453 Y163.62 E108.92307
G1 X109.3 Y162.852 E108.94912
G1 X109.3 Y137.052 E109.80723
G1 X109.459 Y136.403 E109.82945
G1 X109.814 Y135.717 E109.85514
G1 X110.323 Y135.244 E109.87825
G0 F6000 X110.562 Y135.568
G1 F1200 X111.128 Y135.231 E109.90016
G1 X111.786 Y135.1 E109.92248
G1 X188.298 Y135.1 E112.46728
G1 X188.858 Y135.237 E112.48645
G1 X189.438 Y135.537 E112.50817
G1 X189.832 Y135.962 E112.52745
G1 X190.169 Y136.528 E112.54935
G1 X190.3 Y137.186 E112.57167
G1 X190.3 Y162.898 E113.42685
G1 X190.163 Y163.458 E113.44603
G1 X189.863 Y164.038 E113.46775
G1 X189.438 Y164.432 E113.48702
G1 X188.872 Y164.769 E113.50893
G1 X188.214 Y164.9 E113.53125
G1 X111.702 Y164.9 E116.07605
G1 X111.142 Y164.763 E116.09522
G1 X110.562 Y164.463 E116.11694
G1 X110.168 Y164.038 E116.13622
G1 X109.831 Y163.472 E116.15813
G1 X109.7 Y162.814 E116.18044
G1 X109.7 Y137.102 E117.03562
G1 X109.837 Y136.542 E117.0548
G1 X110.137 Y135.962 E117.07652
G1 X110.562 Y135.568 E117.09579
G0 F6000 X110.801 Y135.892
G1 F1200 X111.276 Y135.609 E117.11418
G1 X111.824 Y135.5 E117.13277
G1 X188.248 Y135.5 E119.67464
G1 X188.719 Y135.615 E119.69077
G1 X189.192 Y135.86 E119.70848
G1 X189.508 Y136.201 E119.72395
G1 X189.791 Y136.676 E119.74234
G1 X189.9 Y137.224 E119.76092
G1 X189.9 Y162.848 E120.61318
G1 X189.785 Y163.319 E120.6293
G1 X189.54 Y163.792 E120.64702
G1 X189.199 Y164.108 E120.66248
G1 X188.724 Y164.391 E120.68087
G1 X188.176 Y164.5 E120.69946
G1 X111.752 Y164.5 E123.24133
G1 X111.281 Y164.385 E123.25745
G1 X110.808 Y164.14 E123.27517
G1 X110.492 Y163.799 E123.29063
G1 X110.209 Y163.324 E123.30902
G1 X110.1 Y162.776 E123.32761
G1 X110.1 Y137.152 E124.17987
G1 X110.215 Y136.681 E124.19599
G1 X110.46 Y136.208 E124.21371
G1 X110.801 Y135.892 E124.22917
G0 F6000 X111.04 Y136.216
G1 F1200 X111.424 Y135.987 E124.24404
G1 X111.862 Y135.9 E124.25889
G1 X188.198 Y135.9 E126.79784
G1 X188.58 Y135.993 E126.81092
G1 X188.946 Y136.183 E126.82463
G1 X189.184 Y136.44 E126.83628
G1 X189.413 Y136.824 E126.85115
G1 X189.5 Y137.262 E126.86601
G1 X189.5 Y162.798 E127.71534
G1 X189.407 Y163.18 E127.72841
G1 X189.217 Y163.546 E127.74213
G1 X188.96 Y163.784 E127.75378
G1 X188.576 Y164.013 E127.76865
G1 X188.138 Y164.1 E127.7835
G1 X111.802 Y164.1 E130.32245
G1 X111.42 Y164.007 E130.33552
G1 X111.054 Y163.817 E130.34924
G1 X110.816 Y163.56 E130.36089
G1 X110.587 Y163.176 E130.37576
G1 X110.5 Y162.738 E130.39061
G1 X110.5 Y137.202 E131.23994
G1 X110.593 Y136.82 E131.25302
G1 X110.783 Y136.454 E131.26674
G1 X111.04 Y136.216 E131.27839
G0 F6000 X111.245 Y136.56
G1 F1200 X111.572 Y136.365 E131.29105
G1 X111.9 Y136.3 E131.30217
G1 X188.149 Y136.3 E133.83822
G1 X188.438 Y136.37 E133.84811
G1 X188.701 Y136.507 E133.85798
G1 X188.84 Y136.645 E133.86449
G1 X189.035 Y136.972 E133.87715
G1 X189.1 Y137.3 E133.88828
G1 X189.1 Y162.749 E134.73471
G1 X189.03 Y163.038 E134.7446
G1 X188.893 Y163.301 E134.75447
G1 X188.755 Y163.44 E134.76098
G1 X188.428 Y163.635 E134.77364
G1 X188.1 Y163.7 E134.78477
G1 X111.851 Y163.7 E137.32082
G1 X111.562 Y163.63 E137.33071
G1 X111.299 Y163.493 E137.34057
G1 X111.16 Y163.355 E137.34708
G1 X110.965 Y163.028 E137.35975
G1 X110.9 Y162.7 E137.37087
G1 X110.9 Y137.251 E138.21731
G1 X110.97 Y136.962 E138.2272
G1 X111.107 Y136.699 E138.23706
G1 X111.245 Y136.56 E138.24357
G0 F6000 X111.45 Y136.904
G1 F1200 X111.72 Y136.743 E138.25403
G1 X111.9 Y136.7 E138.26019
G1 X188.1 Y136.7 E140.79461
G1 X188.344 Y136.759 E140.80296
G1 X188.496 Y136.85 E140.80885
G1 X188.657 Y137.12 E140.8193
G1 X188.7 Y137.3 E140.82546
G1 X188.7 Y162.7 E141.67027
G1 X188.641 Y162.944 E141.67862
G1 X188.55 Y163.096 E141.68451
G1 X188.28 Y163.257 E141.69496
G1 X188.1 Y163.3 E141.70112
G1 X111.9 Y163.3 E144.23554
G1 X111.656 Y163.241 E144.24389
G1 X111.504 Y163.15 E144.24978
G1 X111.343 Y162.88 E144.26024
G1 X111.3 Y162.7 E144.26639
G1 X111.3 Y137.3 E145.1112
G1 X111.359 Y137.056 E145.11955
G1 X111.45 Y136.904 E145.12544
G0 F6000 X111.739 Y137.181
G1 F1200 X111.9 Y137.1 E145.13144
G1 X188.1 Y137.1 E147.66586
G1 X188.219 Y137.139 E147.67003
G1 X188.3 Y137.3 E147.67602
G1 X188.3 Y162.7 E148.52083
G1 X188.261 Y162.819 E148.52499
G1 X188.1 Y162.9 E148.53099
G1 X111.9 Y162.9 E151.06541
G1 X111.781 Y162.861 E151.06957
G1 X111.7 Y162.7 E151.07557
G1 X111.7 Y137.3 E151.92038
G1 X111.739 Y137.181 E151.92454
G1 F2100 E150.42454
;MESH:main.stl
G0 F6000 X112.7 Y138.1
G0 X187.5 Y162.1
;TYPE:WALL-INNER
G1 F2100 E151.92454
G1 F1200 X187.5 Y137.9 E152.72944
G1 X112.5 Y137.9 E155.22395
G1 X112.5 Y162.1 E156.02884
G1 X187.5 Y162.1 E158.52335
G0 F6000 X187.9 Y162.5
;TYPE:WALL-OUTER
G1 F1200 X187.9 Y137.5 E159.35486
G1 X112.1 Y137.5 E161.87597
G1 X112.1 Y162.5 E162.70748
G1 X187.9 Y162.5 E165.2286
G0 F6000 X187.63 Y162.23
G0 X187.4 Y161.74
G0 X187.14 Y161.74
;TYPE:SKIN
G1 F1200 X112.86 Y161.74 E167.69916
G1 X112.86 Y138.26 E168.48011
G1 X187.14 Y138.26 E170.95067
